P3
400 225
255
204 226 255
204 226 255
204 226 255
204 226 255
204 226 255
204 226 255
204 226 255
204 226 255
204 226 255
204 226 255
204 226 255
204 226 255
204 226 255
204 226 255
204 226 255
203 226 255
203 226 255
203 226 255
203 226 255
203 226 255
203 226 255
203 226 255
203 226 255
203 225 255
203 225 255
203 225 255
203 225 255
203 225 255
203 225 255
203 225 255
203 225 255
203 225 255
202 225 255
202 225 255
202 225 255
202 225 255
202 225 255
202 225 255
202 225 255
202 225 255
202 225 255
202 225 255
202 225 255
202 225 255
202 225 255
202 225 255
202 225 255
202 225 255
201 225 255
201 225 255
201 225 255
201 225 255
201 224 255
201 224 255
201 224 255
201 224 255
201 224 255
201 224 255
201 224 255
201 224 255
201 224 255
201 224 255
201 224 255
200 224 255
200 224 255
200 224 255
200 224 255
200 224 255
200 224 255
200 224 255
200 224 255
200 224 255
200 224 255
200 224 255
200 224 255
200 224 255
200 224 255
200 224 255
199 224 255
199 224 255
199 223 255
199 223 255
199 223 255
199 223 255
199 223 255
199 223 255
199 223 255
199 223 255
199 223 255
199 223 255
199 223 255
199 223 255
198 223 255
198 223 255
198 223 255
198 223 255
198 223 255
198 223 255
198 223 255
198 223 255
198 223 255
198 223 255
198 223 255
198 223 255
198 223 255
198 223 255
197 223 255
197 222 255
197 222 255
197 222 255
197 222 255
197 222 255
197 222 255
197 222 255
197 222 255
197 222 255
197 222 255
197 222 255
197 222 255
197 222 255
197 222 255
196 222 255
196 222 255
196 222 255
196 222 255
196 222 255
196 222 255
196 222 255
196 222 255
196 222 255
196 222 255
196 222 255
196 222 255
196 222 255
196 222 255
196 221 255
196 221 255
195 221 255
195 221 255
195 221 255
195 221 255
195 221 255
195 221 255
195 221 255
195 221 255
195 221 255
195 221 255
195 221 255
195 221 255
195 221 255
195 221 255
195 221 255
195 221 255
195 221 255
195 221 255
194 221 255
194 221 255
194 221 255
194 221 255
194 221 255
194 221 255
194 221 255
194 221 255
194 221 255
194 221 255
194 221 255
194 221 255
194 221 255
194 221 255
194 221 255
194 221 255
194 221 255
194 221 255
194 221 255
194 221 255
194 221 255
194 221 255
194 220 255
194 220 255
194 220 255
194 220 255
194 220 255
194 220 255
194 220 255
194 220 255
194 220 255
193 220 255
193 220 255
193 220 255
193 220 255
193 220 255
193 220 255
193 220 255
193 220 255
193 220 255
193 220 255
193 220 255
193 220 255
193 220 255
193 220 255
193 220 255
193 220 255
193 220 255
193 220 255
193 220 255
193 220 255
193 220 255
193 220 255
193 220 255
193 220 255
193 220 255
193 220 255
193 220 255
193 220 255
194 220 255
194 220 255
194 220 255
194 220 255
194 220 255
194 220 255
194 220 255
194 220 255
194 220 255
194 221 255
194 221 255
194 221 255
194 221 255
194 221 255
194 221 255
194 221 255
194 221 255
194 221 255
194 221 255
194 221 255
194 221 255
194 221 255
194 221 255
194 221 255
194 221 255
194 221 255
194 221 255
194 221 255
194 221 255
194 221 255
194 221 255
195 221 255
195 221 255
195 221 255
195 221 255
195 221 255
195 221 255
195 221 255
195 221 255
195 221 255
195 221 255
195 221 255
195 221 255
195 221 255
195 221 255
195 221 255
195 221 255
195 221 255
195 221 255
196 221 255
196 221 255
196 222 255
196 222 255
196 222 255
196 222 255
196 222 255
196 222 255
196 222 255
196 222 255
196 222 255
196 222 255
196 222 255
196 222 255
196 222 255
196 222 255
197 222 255
197 222 255
197 222 255
197 222 255
197 222 255
197 222 255
197 222 255
197 222 255
197 222 255
197 222 255
197 222 255
197 222 255
197 222 255
197 222 255
197 223 255
198 223 255
198 223 255
198 223 255
198 223 255
198 223 255
198 223 255
198 223 255
198 223 255
198 223 255
198 223 255
198 223 255
198 223 255
198 223 255
198 223 255
199 223 255
199 223 255
199 223 255
199 223 255
199 223 255
199 223 255
199 223 255
199 223 255
199 223 255
199 223 255
199 223 255
199 223 255
199 224 255
199 224 255
200 224 255
200 224 255
200 224 255
200 224 255
200 224 255
200 224 255
200 224 255
200 224 255
200 224 255
200 224 255
200 224 255
200 224 255
200 224 255
200 224 255
200 224 255
201 224 255
201 224 255
201 224 255
201 224 255
201 224 255
201 224 255
201 224 255
201 224 255
201 224 255
201 224 255
201 225 255
201 225 255
201 225 255
201 225 255
201 225 255
202 225 255
202 225 255
202 225 255
202 225 255
202 225 255
202 225 255
202 225 255
202 225 255
202 225 255
202 225 255
202 225 255
202 225 255
202 225 255
202 225 255
202 225 255
202 225 255
203 225 255
203 225 255
203 225 255
203 225 255
203 225 255
203 225 255
203 225 255
203 225 255
203 225 255
203 226 255
203 226 255
203 226 255
203 226 255
203 226 255
203 226 255
203 226 255
203 226 255
204 226 255
204 226 255
204 226 255
204 226 255
204 226 255
204 226 255
204 226 255
204 226 255
204 226 255
204 226 255
204 226 255
204 226 255
204 226 255
204 226 255
204 226 255
204 226 255
204 226 255
204 226 255
204 226 255
204 226 255
204 226 255
204 226 255
204 226 255
204 226 255
204 226 255
204 226 255
204 226 255
204 226 255
204 226 255
204 226 255
204 226 255
204 226 255
204 226 255
203 226 255
203 226 255
203 226 255
203 226 255
203 226 255
203 226 255
203 226 255
203 225 255
203 225 255
203 225 255
203 225 255
203 225 255
203 225 255
203 225 255
203 225 255
203 225 255
202 225 255
202 225 255
202 225 255
202 225 255
202 225 255
202 225 255
202 225 255
202 225 255
202 225 255
202 225 255
202 225 255
202 225 255
202 225 255
202 225 255
202 225 255
202 225 255
201 225 255
201 225 255
201 225 255
201 225 255
201 225 255
201 224 255
201 224 255
201 224 255
201 224 255
201 224 255
201 224 255
201 224 255
201 224 255
201 224 255
201 224 255
200 224 255
200 224 255
200 224 255
200 224 255
200 224 255
200 224 255
200 224 255
200 224 255
200 224 255
200 224 255
200 224 255
200 224 255
200 224 255
200 224 255
200 224 255
199 224 255
199 224 255
199 223 255
199 223 255
199 223 255
199 223 255
199 223 255
199 223 255
199 223 255
199 223 255
199 223 255
199 223 255
199 223 255
199 223 255
198 223 255
198 223 255
198 223 255
198 223 255
198 223 255
198 223 255
198 223 255
198 223 255
198 223 255
198 223 255
198 223 255
198 223 255
198 223 255
198 223 255
197 222 255
197 222 255
197 222 255
197 222 255
197 222 255
197 222 255
197 222 255
197 222 255
197 222 255
197 222 255
197 222 255
197 222 255
197 222 255
197 222 255
197 222 255
196 222 255
196 222 255
196 222 255
196 222 255
196 222 255
196 222 255
196 222 255
196 222 255
196 222 255
196 222 255
196 222 255
196 222 255
196 222 255
196 222 255
196 222 255
196 221 255
195 221 255
195 221 255
195 221 255
195 221 255
195 221 255
195 221 255
195 221 255
195 221 255
195 221 255
195 221 255
195 221 255
195 221 255
195 221 255
195 221 255
195 221 255
195 221 255
195 221 255
195 221 255
195 221 255
194 221 255
194 221 255
194 221 255
194 221 255
194 221 255
194 221 255
194 221 255
194 221 255
194 221 255
194 221 255
194 221 255
194 221 255
194 221 255
194 221 255
194 221 255
194 221 255
194 221 255
194 221 255
194 221 255
194 221 255
194 221 255
194 221 255
194 221 255
194 221 255
194 221 255
194 220 255
194 220 255
194 220 255
194 220 255
194 220 255
194 220 255
194 220 255
194 220 255
194 220 255
194 220 255
194 220 255
194 220 255
194 220 255
194 220 255
194 220 255
194 220 255
194 220 255
194 220 255
194 220 255
194 220 255
194 220 255
194 220 255
194 220 255
194 220 255
194 220 255
194 220 255
194 220 255
194 220 255
194 220 255
194 220 255
194 220 255
194 220 255
194 220 255
194 220 255
194 221 255
194 221 255
194 221 255
194 221 255
194 221 255
194 221 255
194 221 255
194 221 255
194 221 255
194 221 255
194 221 255
194 221 255
194 221 255
194 221 255
194 221 255
194 221 255
194 221 255
194 221 255
194 221 255
194 221 255
194 221 255
194 221 255
194 221 255
194 221 255
194 221 255
195 221 255
195 221 255
195 221 255
195 221 255
195 221 255
195 221 255
195 221 255
195 221 255
195 221 255
195 221 255
195 221 255
195 221 255
195 221 255
195 221 255
195 221 255
195 221 255
195 221 255
195 221 255
195 221 255
196 221 255
196 222 255
196 222 255
196 222 255
196 222 255
196 222 255
196 222 255
196 222 255
196 222 255
196 222 255
196 222 255
196 222 255
196 222 255
196 222 255
196 222 255
196 222 255
197 222 255
197 222 255
197 222 255
197 222 255
197 222 255
197 222 255
197 222 255
197 222 255
197 222 255
197 222 255
197 222 255
197 222 255
197 222 255
197 222 255
197 223 255
198 223 255
198 223 255
198 223 255
198 223 255
198 223 255
198 223 255
198 223 255
198 223 255
198 223 255
198 223 255
198 223 255
198 223 255
198 223 255
198 223 255
199 223 255
199 223 255
199 223 255
199 223 255
199 223 255
199 223 255
199 223 255
199 223 255
199 223 255
199 223 255
199 223 255
199 223 255
199 224 255
199 224 255
200 224 255
200 224 255
200 224 255
200 224 255
200 224 255
200 224 255
200 224 255
200 224 255
200 224 255
200 224 255
200 224 255
200 224 255
200 224 255
200 224 255
200 224 255
201 224 255
201 224 255
201 224 255
201 224 255
201 224 255
201 224 255
201 224 255
201 224 255
201 224 255
201 224 255
201 225 255
201 225 255
201 225 255
201 225 255
201 225 255
202 225 255
202 225 255
202 225 255
202 225 255
202 225 255
202 225 255
202 225 255
202 225 255
202 225 255
202 225 255
202 225 255
202 225 255
202 225 255
202 225 255
202 225 255
202 225 255
203 225 255
203 225 255
203 225 255
203 225 255
203 225 255
203 225 255
203 225 255
203 225 255
203 225 255
203 226 255
203 226 255
203 226 255
203 226 255
203 226 255
203 226 255
203 226 255
204 226 255
204 226 255
204 226 255
204 226 255
204 226 255
204 226 255
204 226 255
204 226 255
204 226 255
204 226 255
204 226 255
204 226 255
204 226 255
204 226 255
204 226 255
204 226 255
204 226 255
204 226 255
205 226 255
205 226 255
204 226 255
204 226 255
204 226 255
204 226 255
204 226 255
204 226 255
204 226 255
204 226 255
204 226 255
204 226 255
204 226 255
204 226 255
204 226 255
204 226 255
204 226 255
204 226 255
204 226 255
204 226 255
203 226 255
203 226 255
203 226 255
203 226 255
203 226 255
203 226 255
203 226 255
203 225 255
203 225 255
203 225 255
203 225 255
203 225 255
203 225 255
203 225 255
203 225 255
203 225 255
203 225 255
202 225 255
202 225 255
202 225 255
202 225 255
202 225 255
202 225 255
202 225 255
202 225 255
202 225 255
202 225 255
202 225 255
202 225 255
202 225 255
202 225 255
202 225 255
201 225 255
201 225 255
201 225 255
201 225 255
201 225 255
201 224 255
201 224 255
201 224 255
201 224 255
201 224 255
201 224 255
201 224 255
201 224 255
201 224 255
201 224 255
200 224 255
200 224 255
200 224 255
200 224 255
200 224 255
200 224 255
200 224 255
200 224 255
200 224 255
200 224 255
200 224 255
200 224 255
200 224 255
200 224 255
200 224 255
199 224 255
199 224 255
199 223 255
199 223 255
199 223 255
199 223 255
199 223 255
199 223 255
199 223 255
199 223 255
199 223 255
199 223 255
199 223 255
199 223 255
198 223 255
198 223 255
198 223 255
198 223 255
198 223 255
198 223 255
198 223 255
198 223 255
198 223 255
198 223 255
198 223 255
198 223 255
198 223 255
198 223 255
197 223 255
197 222 255
197 222 255
197 222 255
197 222 255
197 222 255
197 222 255
197 222 255
197 222 255
197 222 255
197 222 255
197 222 255
197 222 255
197 222 255
197 222 255
196 222 255
196 222 255
196 222 255
196 222 255
196 222 255
196 222 255
196 222 255
196 222 255
196 222 255
196 222 255
196 222 255
196 222 255
196 222 255
196 222 255
196 222 255
196 221 255
195 221 255
195 221 255
195 221 255
195 221 255
195 221 255
195 221 255
195 221 255
195 221 255
195 221 255
195 221 255
195 221 255
195 221 255
195 221 255
195 221 255
195 221 255
195 221 255
195 221 255
195 221 255
195 221 255
195 221 255
194 221 255
194 221 255
194 221 255
194 221 255
194 221 255
194 221 255
194 221 255
194 221 255
194 221 255
194 221 255
194 221 255
194 221 255
194 221 255
194 221 255
194 221 255
194 221 255
194 221 255
194 221 255
194 221 255
194 221 255
194 221 255
194 221 255
194 221 255
194 221 255
194 221 255
194 221 255
194 221 255
194 221 255
194 221 255
194 221 255
194 221 255
194 220 255
194 220 255
194 220 255
194 220 255
194 220 255
194 220 255
194 220 255
194 220 255
194 220 255
194 220 255
194 220 255
194 220 255
194 220 255
194 220 255
194 220 255
194 221 255
194 221 255
194 221 255
194 221 255
194 221 255
194 221 255
194 221 255
194 221 255
194 221 255
194 221 255
194 221 255
194 221 255
194 221 255
194 221 255
194 221 255
194 221 255
194 221 255
194 221 255
194 221 255
194 221 255
194 221 255
194 221 255
194 221 255
194 221 255
194 221 255
194 221 255
194 221 255
194 221 255
194 221 255
194 221 255
194 221 255
195 221 255
195 221 255
195 221 255
195 221 255
195 221 255
195 221 255
195 221 255
195 221 255
195 221 255
195 221 255
195 221 255
195 221 255
195 221 255
195 221 255
195 221 255
195 221 255
195 221 255
195 221 255
195 221 255
195 221 255
195 221 255
196 221 255
196 222 255
196 222 255
196 222 255
196 222 255
196 222 255
196 222 255
196 222 255
196 222 255
196 222 255
196 222 255
196 222 255
196 222 255
196 222 255
196 222 255
196 222 255
197 222 255
197 222 255
197 222 255
197 222 255
197 222 255
197 222 255
197 222 255
197 222 255
197 222 255
197 222 255
197 222 255
197 222 255
197 222 255
197 222 255
197 223 255
198 223 255
198 223 255
198 223 255
198 223 255
198 223 255
198 223 255
198 223 255
198 223 255
198 223 255
198 223 255
198 223 255
198 223 255
198 223 255
198 223 255
199 223 255
199 223 255
199 223 255
199 223 255
199 223 255
199 223 255
199 223 255
199 223 255
199 223 255
199 223 255
199 223 255
199 223 255
199 224 255
199 224 255
200 224 255
200 224 255
200 224 255
200 224 255
200 224 255
200 224 255
200 224 255
200 224 255
200 224 255
200 224 255
200 224 255
200 224 255
200 224 255
200 224 255
200 224 255
201 224 255
201 224 255
201 224 255
201 224 255
201 224 255
201 224 255
201 224 255
201 224 255
201 224 255
201 224 255
201 225 255
201 225 255
201 225 255
201 225 255
201 225 255
202 225 255
202 225 255
202 225 255
202 225 255
202 225 255
202 225 255
202 225 255
202 225 255
202 225 255
202 225 255
202 225 255
202 225 255
202 225 255
202 225 255
202 225 255
203 225 255
203 225 255
203 225 255
203 225 255
203 225 255
203 225 255
203 225 255
203 225 255
203 225 255
203 225 255
203 226 255
203 226 255
203 226 255
203 226 255
203 226 255
203 226 255
203 226 255
204 226 255
204 226 255
204 226 255
204 226 255
204 226 255
204 226 255
204 226 255
204 226 255
204 226 255
204 226 255
204 226 255
204 226 255
204 226 255
204 226 255
204 226 255
204 226 255
204 226 255
204 226 255
205 226 255
205 226 255
205 226 255
205 226 255
205 226 255
205 226 255
205 226 255
204 226 255
204 226 255
204 226 255
204 226 255
204 226 255
204 226 255
204 226 255
204 226 255
204 226 255
204 226 255
204 226 255
204 226 255
204 226 255
204 226 255
204 226 255
204 226 255
204 226 255
203 226 255
203 226 255
203 226 255
203 226 255
203 226 255
203 226 255
203 226 255
203 226 255
203 225 255
203 225 255
203 225 255
203 225 255
203 225 255
203 225 255
203 225 255
203 225 255
203 225 255
202 225 255
202 225 255
202 225 255
202 225 255
202 225 255
202 225 255
202 225 255
202 225 255
202 225 255
202 225 255
202 225 255
202 225 255
202 225 255
202 225 255
202 225 255
201 225 255
201 225 255
201 225 255
201 225 255
201 225 255
201 224 255
201 224 255
201 224 255
201 224 255
201 224 255
201 224 255
201 224 255
201 224 255
201 224 255
201 224 255
200 224 255
200 224 255
200 224 255
200 224 255
200 224 255
200 224 255
200 224 255
200 224 255
200 224 255
200 224 255
200 224 255
200 224 255
200 224 255
200 224 255
200 224 255
199 224 255
199 224 255
199 223 255
199 223 255
199 223 255
199 223 255
199 223 255
199 223 255
199 223 255
199 223 255
199 223 255
199 223 255
199 223 255
199 223 255
198 223 255
198 223 255
198 223 255
198 223 255
198 223 255
198 223 255
198 223 255
198 223 255
198 223 255
198 223 255
198 223 255
198 223 255
198 223 255
198 223 255
197 223 255
197 222 255
197 222 255
197 222 255
197 222 255
197 222 255
197 222 255
197 222 255
197 222 255
197 222 255
197 222 255
197 222 255
197 222 255
197 222 255
197 222 255
196 222 255
196 222 255
196 222 255
196 222 255
196 222 255
196 222 255
196 222 255
196 222 255
196 222 255
196 222 255
196 222 255
196 222 255
196 222 255
196 222 255
196 222 255
196 222 255
196 221 255
195 221 255
195 221 255
195 221 255
195 221 255
195 221 255
195 221 255
195 221 255
195 221 255
195 221 255
195 221 255
195 221 255
195 221 255
195 221 255
195 221 255
195 221 255
195 221 255
195 221 255
195 221 255
195 221 255
195 221 255
195 221 255
194 221 255
194 221 255
194 221 255
194 221 255
194 221 255
194 221 255
194 221 255
194 221 255
194 221 255
194 221 255
194 221 255
194 221 255
194 221 255
194 221 255
194 221 255
194 221 255
194 221 255
194 221 255
194 221 255
194 221 255
194 221 255
194 221 255
194 221 255
194 221 255
194 221 255
194 221 255
194 221 255
194 221 255
194 221 255
194 221 255
194 221 255
194 221 255
194 221 255
194 221 255
194 221 255
194 221 255
194 221 255
194 221 255
194 221 255
194 221 255
194 221 255
194 221 255
194 221 255
194 221 255
194 221 255
194 221 255
194 221 255
194 221 255
194 221 255
194 221 255
194 221 255
194 221 255
194 221 255
194 221 255
194 221 255
194 221 255
194 221 255
194 221 255
194 221 255
194 221 255
194 221 255
194 221 255
194 221 255
194 221 255
194 221 255
194 221 255
194 221 255
194 221 255
194 221 255
194 221 255
195 221 255
195 221 255
195 221 255
195 221 255
195 221 255
195 221 255
195 221 255
195 221 255
195 221 255
195 221 255
195 221 255
195 221 255
195 221 255
195 221 255
195 221 255
195 221 255
195 221 255
195 221 255
195 221 255
195 221 255
195 221 255
196 221 255
196 221 255
196 222 255
196 222 255
196 222 255
196 222 255
196 222 255
196 222 255
196 222 255
196 222 255
196 222 255
196 222 255
196 222 255
196 222 255
196 222 255
196 222 255
196 222 255
197 222 255
197 222 255
197 222 255
197 222 255
197 222 255
197 222 255
197 222 255
197 222 255
197 222 255
197 222 255
197 222 255
197 222 255
197 222 255
197 222 255
197 223 255
198 223 255
198 223 255
198 223 255
198 223 255
198 223 255
198 223 255
198 223 255
198 223 255
198 223 255
198 223 255
198 223 255
198 223 255
198 223 255
198 223 255
199 223 255
199 223 255
199 223 255
199 223 255
199 223 255
199 223 255
199 223 255
199 223 255
199 223 255
199 223 255
199 223 255
199 223 255
199 224 255
199 224 255
200 224 255
200 224 255
200 224 255
200 224 255
200 224 255
200 224 255
200 224 255
200 224 255
200 224 255
200 224 255
200 224 255
200 224 255
200 224 255
200 224 255
200 224 255
201 224 255
201 224 255
201 224 255
201 224 255
201 224 255
201 224 255
201 224 255
201 224 255
201 224 255
201 224 255
201 225 255
201 225 255
201 225 255
201 225 255
201 225 255
202 225 255
202 225 255
202 225 255
202 225 255
202 225 255
202 225 255
202 225 255
202 225 255
202 225 255
202 225 255
202 225 255
202 225 255
202 225 255
202 225 255
202 225 255
203 225 255
203 225 255
203 225 255
203 225 255
203 225 255
203 225 255
203 225 255
203 225 255
203 225 255
203 226 255
203 226 255
203 226 255
203 226 255
203 226 255
203 226 255
203 226 255
203 226 255
204 226 255
204 226 255
204 226 255
204 226 255
204 226 255
204 226 255
204 226 255
204 226 255
204 226 255
204 226 255
204 226 255
204 226 255
204 226 255
204 226 255
204 226 255
204 226 255
204 226 255
204 226 255
205 226 255
205 226 255
205 226 255
205 226 255
205 226 255
205 226 255
205 226 255
205 226 255
205 226 255
205 226 255
205 226 255
204 226 255
204 226 255
204 226 255
204 226 255
204 226 255
204 226 255
204 226 255
204 226 255
204 226 255
204 226 255
204 226 255
204 226 255
204 226 255
204 226 255
204 226 255
204 226 255
204 226 255
203 226 255
203 226 255
203 226 255
203 226 255
203 226 255
203 226 255
203 226 255
203 226 255
203 225 255
203 225 255
203 225 255
203 225 255
203 225 255
203 225 255
203 225 255
203 225 255
203 225 255
202 225 255
202 225 255
202 225 255
202 225 255
202 225 255
202 225 255
202 225 255
202 225 255
202 225 255
202 225 255
202 225 255
202 225 255
202 225 255
202 225 255
202 225 255
201 225 255
201 225 255
201 225 255
201 225 255
201 225 255
201 224 255
201 224 255
201 224 255
201 224 255
201 224 255
201 224 255
201 224 255
201 224 255
201 224 255
201 224 255
200 224 255
200 224 255
200 224 255
200 224 255
200 224 255
200 224 255
200 224 255
200 224 255
200 224 255
200 224 255
200 224 255
200 224 255
200 224 255
200 224 255
200 224 255
199 224 255
199 224 255
199 223 255
199 223 255
199 223 255
199 223 255
199 223 255
199 223 255
199 223 255
199 223 255
199 223 255
199 223 255
199 223 255
199 223 255
198 223 255
198 223 255
198 223 255
198 223 255
198 223 255
198 223 255
198 223 255
198 223 255
198 223 255
198 223 255
198 223 255
198 223 255
198 223 255
198 223 255
197 223 255
197 222 255
197 222 255
197 222 255
197 222 255
197 222 255
197 222 255
197 222 255
197 222 255
197 222 255
197 222 255
197 222 255
197 222 255
197 222 255
197 222 255
197 222 255
196 222 255
196 222 255
196 222 255
196 222 255
196 222 255
196 222 255
196 222 255
196 222 255
196 222 255
196 222 255
196 222 255
196 222 255
196 222 255
196 222 255
196 222 255
196 221 255
196 221 255
195 221 255
195 221 255
195 221 255
195 221 255
195 221 255
195 221 255
195 221 255
195 221 255
195 221 255
195 221 255
195 221 255
195 221 255
195 221 255
195 221 255
195 221 255
195 221 255
195 221 255
195 221 255
195 221 255
195 221 255
195 221 255
195 221 255
194 221 255
194 221 255
194 221 255
194 221 255
194 221 255
194 221 255
194 221 255
194 221 255
194 221 255
194 221 255
194 221 255
194 221 255
194 221 255
194 221 255
194 221 255
194 221 255
194 221 255
194 221 255
194 221 255
194 221 255
194 221 255
194 221 255
194 221 255
194 221 255
194 221 255
194 221 255
194 221 255
194 221 255
194 221 255
194 221 255
194 221 255
194 221 255
194 221 255
194 221 255
194 221 255
194 221 255
194 221 255
194 221 255
194 221 255
194 221 255
194 221 255
194 221 255
194 221 255
194 221 255
194 221 255
194 221 255
194 221 255
194 221 255
194 221 255
194 221 255
194 221 255
194 221 255
194 221 255
194 221 255
194 221 255
194 221 255
194 221 255
194 221 255
194 221 255
194 221 255
194 221 255
194 221 255
195 221 255
195 221 255
195 221 255
195 221 255
195 221 255
195 221 255
195 221 255
195 221 255
195 221 255
195 221 255
195 221 255
195 221 255
195 221 255
195 221 255
195 221 255
195 221 255
195 221 255
195 221 255
195 221 255
195 221 255
195 221 255
195 221 255
196 221 255
196 221 255
196 222 255
196 222 255
196 222 255
196 222 255
196 222 255
196 222 255
196 222 255
196 222 255
196 222 255
196 222 255
196 222 255
196 222 255
196 222 255
196 222 255
196 222 255
197 222 255
197 222 255
197 222 255
197 222 255
197 222 255
197 222 255
197 222 255
197 222 255
197 222 255
197 222 255
197 222 255
197 222 255
197 222 255
197 222 255
197 222 255
197 223 255
198 223 255
198 223 255
198 223 255
198 223 255
198 223 255
198 223 255
198 223 255
198 223 255
198 223 255
198 223 255
198 223 255
198 223 255
198 223 255
198 223 255
199 223 255
199 223 255
199 223 255
199 223 255
199 223 255
199 223 255
199 223 255
199 223 255
199 223 255
199 223 255
199 223 255
199 223 255
199 224 255
199 224 255
200 224 255
200 224 255
200 224 255
200 224 255
200 224 255
200 224 255
200 224 255
200 224 255
200 224 255
200 224 255
200 224 255
200 224 255
200 224 255
200 224 255
200 224 255
201 224 255
201 224 255
201 224 255
201 224 255
201 224 255
201 224 255
201 224 255
201 224 255
201 224 255
201 224 255
201 225 255
201 225 255
201 225 255
201 225 255
201 225 255
202 225 255
202 225 255
202 225 255
202 225 255
202 225 255
202 225 255
202 225 255
202 225 255
202 225 255
202 225 255
202 225 255
202 225 255
202 225 255
202 225 255
202 225 255
203 225 255
203 225 255
203 225 255
203 225 255
203 225 255
203 225 255
203 225 255
203 225 255
203 225 255
203 226 255
203 226 255
203 226 255
203 226 255
203 226 255
203 226 255
203 226 255
203 226 255
204 226 255
204 226 255
204 226 255
204 226 255
204 226 255
204 226 255
204 226 255
204 226 255
204 226 255
204 226 255
204 226 255
204 226 255
204 226 255
204 226 255
204 226 255
204 226 255
204 226 255
205 226 255
205 226 255
205 226 255
205 226 255
205 226 255
205 226 255
205 226 255
205 227 255
205 227 255
205 226 255
205 226 255
205 226 255
205 226 255
205 226 255
205 226 255
205 226 255
204 226 255
204 226 255
204 226 255
204 226 255
204 226 255
204 226 255
204 226 255
204 226 255
204 226 255
204 226 255
204 226 255
204 226 255
204 226 255
204 226 255
204 226 255
204 226 255
204 226 255
204 226 255
203 226 255
203 226 255
203 226 255
203 226 255
203 226 255
203 226 255
203 226 255
203 225 255
203 225 255
203 225 255
203 225 255
203 225 255
203 225 255
203 225 255
203 225 255
203 225 255
202 225 255
202 225 255
202 225 255
202 225 255
202 225 255
202 225 255
202 225 255
202 225 255
202 225 255
202 225 255
202 225 255
202 225 255
202 225 255
202 225 255
202 225 255
202 225 255
201 225 255
201 225 255
201 225 255
201 225 255
201 224 255
201 224 255
201 224 255
201 224 255
201 224 255
201 224 255
201 224 255
201 224 255
201 224 255
201 224 255
200 224 255
200 224 255
200 224 255
200 224 255
200 224 255
200 224 255
200 224 255
200 224 255
200 224 255
200 224 255
200 224 255
200 224 255
200 224 255
200 224 255
200 224 255
199 224 255
199 224 255
199 223 255
199 223 255
199 223 255
199 223 255
199 223 255
199 223 255
199 223 255
199 223 255
199 223 255
199 223 255
199 223 255
199 223 255
198 223 255
198 223 255
198 223 255
198 223 255
198 223 255
198 223 255
198 223 255
198 223 255
198 223 255
198 223 255
198 223 255
198 223 255
198 223 255
198 223 255
198 223 255
197 222 255
197 222 255
197 222 255
197 222 255
197 222 255
197 222 255
197 222 255
197 222 255
197 222 255
197 222 255
197 222 255
197 222 255
197 222 255
197 222 255
197 222 255
196 222 255
196 222 255
196 222 255
196 222 255
196 222 255
196 222 255
196 222 255
196 222 255
196 222 255
196 222 255
196 222 255
196 222 255
196 222 255
196 222 255
196 222 255
196 222 255
196 221 255
195 221 255
195 221 255
195 221 255
195 221 255
195 221 255
195 221 255
195 221 255
195 221 255
195 221 255
195 221 255
195 221 255
195 221 255
195 221 255
195 221 255
195 221 255
195 221 255
195 221 255
195 221 255
195 221 255
195 221 255
195 221 255
195 221 255
195 221 255
195 221 255
194 221 255
194 221 255
194 221 255
194 221 255
194 221 255
194 221 255
194 221 255
194 221 255
194 221 255
194 221 255
194 221 255
194 221 255
194 221 255
194 221 255
194 221 255
194 221 255
194 221 255
194 221 255
194 221 255
194 221 255
194 221 255
194 221 255
194 221 255
194 221 255
194 221 255
194 221 255
194 221 255
194 221 255
194 221 255
194 221 255
194 221 255
194 221 255
194 221 255
194 221 255
194 221 255
194 221 255
194 221 255
194 221 255
194 221 255
194 221 255
194 221 255
194 221 255
194 221 255
194 221 255
194 221 255
194 221 255
194 221 255
194 221 255
194 221 255
194 221 255
194 221 255
194 221 255
194 221 255
194 221 255
195 221 255
195 221 255
195 221 255
195 221 255
195 221 255
195 221 255
195 221 255
195 221 255
195 221 255
195 221 255
195 221 255
195 221 255
195 221 255
195 221 255
195 221 255
195 221 255
195 221 255
195 221 255
195 221 255
195 221 255
195 221 255
195 221 255
195 221 255
195 221 255
196 221 255
196 222 255
196 222 255
196 222 255
196 222 255
196 222 255
196 222 255
196 222 255
196 222 255
196 222 255
196 222 255
196 222 255
196 222 255
196 222 255
196 222 255
196 222 255
196 222 255
197 222 255
197 222 255
197 222 255
197 222 255
197 222 255
197 222 255
197 222 255
197 222 255
197 222 255
197 222 255
197 222 255
197 222 255
197 222 255
197 222 255
197 222 255
198 223 255
198 223 255
198 223 255
198 223 255
198 223 255
198 223 255
198 223 255
198 223 255
198 223 255
198 223 255
198 223 255
198 223 255
198 223 255
198 223 255
198 223 255
199 223 255
199 223 255
199 223 255
199 223 255
199 223 255
199 223 255
199 223 255
199 223 255
199 223 255
199 223 255
199 223 255
199 223 255
199 224 255
199 224 255
200 224 255
200 224 255
200 224 255
200 224 255
200 224 255
200 224 255
200 224 255
200 224 255
200 224 255
200 224 255
200 224 255
200 224 255
200 224 255
200 224 255
201 224 255
201 224 255
201 224 255
201 224 255
201 224 255
201 224 255
201 224 255
201 224 255
201 224 255
201 224 255
201 224 255
201 225 255
201 225 255
201 225 255
201 225 255
202 225 255
202 225 255
202 225 255
202 225 255
202 225 255
202 225 255
202 225 255
202 225 255
202 225 255
202 225 255
202 225 255
202 225 255
202 225 255
202 225 255
202 225 255
202 225 255
203 225 255
203 225 255
203 225 255
203 225 255
203 225 255
203 225 255
203 225 255
203 225 255
203 225 255
203 226 255
203 226 255
203 226 255
203 226 255
203 226 255
203 226 255
203 226 255
204 226 255
204 226 255
204 226 255
204 226 255
204 226 255
204 226 255
204 226 255
204 226 255
204 226 255
204 226 255
204 226 255
204 226 255
204 226 255
204 226 255
204 226 255
204 226 255
204 226 255
204 226 255
205 226 255
205 226 255
205 226 255
205 226 255
205 226 255
205 226 255
205 226 255
205 227 255
205 227 255
205 227 255
205 227 255
205 227 255
205 227 255
205 226 255
205 226 255
205 226 255
205 226 255
205 226 255
205 226 255
205 226 255
205 226 255
204 226 255
204 226 255
204 226 255
204 226 255
204 226 255
204 226 255
204 226 255
204 226 255
204 226 255
204 226 255
204 226 255
204 226 255
204 226 255
204 226 255
204 226 255
204 226 255
204 226 255
203 226 255
203 226 255
203 226 255
203 226 255
203 226 255
203 226 255
203 226 255
203 225 255
203 225 255
203 225 255
203 225 255
203 225 255
203 225 255
203 225 255
203 225 255
203 225 255
202 225 255
202 225 255
202 225 255
202 225 255
202 225 255
202 225 255
202 225 255
202 225 255
202 225 255
202 225 255
202 225 255
202 225 255
202 225 255
202 225 255
202 225 255
202 225 255
201 225 255
201 225 255
201 225 255
201 225 255
201 224 255
201 224 255
201 224 255
201 224 255
201 224 255
201 224 255
201 224 255
201 224 255
201 224 255
201 224 255
201 224 255
200 224 255
200 224 255
200 224 255
200 224 255
200 224 255
200 224 255
200 224 255
200 224 255
200 224 255
200 224 255
200 224 255
200 224 255
200 224 255
200 224 255
199 224 255
199 224 255
199 223 255
199 223 255
199 223 255
199 223 255
199 223 255
199 223 255
199 223 255
199 223 255
199 223 255
199 223 255
199 223 255
199 223 255
198 223 255
198 223 255
198 223 255
198 223 255
198 223 255
198 223 255
198 223 255
198 223 255
198 223 255
198 223 255
198 223 255
198 223 255
198 223 255
198 223 255
198 223 255
197 222 255
197 222 255
197 222 255
197 222 255
197 222 255
197 222 255
197 222 255
197 222 255
197 222 255
197 222 255
197 222 255
197 222 255
197 222 255
197 222 255
197 222 255
197 222 255
196 222 255
196 222 255
196 222 255
196 222 255
196 222 255
196 222 255
196 222 255
196 222 255
196 222 255
196 222 255
196 222 255
196 222 255
196 222 255
196 222 255
196 222 255
196 222 255
196 221 255
195 221 255
195 221 255
195 221 255
195 221 255
195 221 255
195 221 255
195 221 255
195 221 255
195 221 255
195 221 255
195 221 255
195 221 255
195 221 255
195 221 255
195 221 255
195 221 255
195 221 255
195 221 255
195 221 255
195 221 255
195 221 255
195 221 255
195 221 255
195 221 255
195 221 255
195 221 255
194 221 255
194 221 255
194 221 255
194 221 255
194 221 255
194 221 255
194 221 255
194 221 255
194 221 255
194 221 255
194 221 255
194 221 255
194 221 255
194 221 255
194 221 255
194 221 255
194 221 255
194 221 255
194 221 255
194 221 255
194 221 255
194 221 255
194 221 255
194 221 255
194 221 255
194 221 255
194 221 255
194 221 255
194 221 255
194 221 255
194 221 255
194 221 255
194 221 255
194 221 255
194 221 255
194 221 255
194 221 255
194 221 255
194 221 255
194 221 255
194 221 255
194 221 255
194 221 255
194 221 255
195 221 255
195 221 255
195 221 255
195 221 255
195 221 255
195 221 255
195 221 255
195 221 255
195 221 255
195 221 255
195 221 255
195 221 255
195 221 255
195 221 255
195 221 255
195 221 255
195 221 255
195 221 255
195 221 255
195 221 255
195 221 255
195 221 255
195 221 255
195 221 255
195 221 255
195 221 255
196 221 255
196 222 255
196 222 255
196 222 255
196 222 255
196 222 255
196 222 255
196 222 255
196 222 255
196 222 255
196 222 255
196 222 255
196 222 255
196 222 255
196 222 255
196 222 255
196 222 255
196 222 255
197 222 255
197 222 255
197 222 255
197 222 255
197 222 255
197 222 255
197 222 255
197 222 255
197 222 255
197 222 255
197 222 255
197 222 255
197 222 255
197 222 255
197 222 255
198 223 255
198 223 255
198 223 255
198 223 255
198 223 255
198 223 255
198 223 255
198 223 255
198 223 255
198 223 255
198 223 255
198 223 255
198 223 255
198 223 255
198 223 255
199 223 255
199 223 255
199 223 255
199 223 255
199 223 255
199 223 255
199 223 255
199 223 255
199 223 255
199 223 255
199 223 255
199 223 255
199 224 255
199 224 255
200 224 255
200 224 255
200 224 255
200 224 255
200 224 255
200 224 255
200 224 255
200 224 255
200 224 255
200 224 255
200 224 255
200 224 255
200 224 255
200 224 255
201 224 255
201 224 255
201 224 255
201 224 255
201 224 255
201 224 255
201 224 255
201 224 255
201 224 255
201 224 255
201 224 255
201 225 255
201 225 255
201 225 255
201 225 255
202 225 255
202 225 255
202 225 255
202 225 255
202 225 255
202 225 255
202 225 255
202 225 255
202 225 255
202 225 255
202 225 255
202 225 255
202 225 255
202 225 255
202 225 255
202 225 255
203 225 255
203 225 255
203 225 255
203 225 255
203 225 255
203 225 255
203 225 255
203 225 255
203 225 255
203 226 255
203 226 255
203 226 255
203 226 255
203 226 255
203 226 255
203 226 255
204 226 255
204 226 255
204 226 255
204 226 255
204 226 255
204 226 255
204 226 255
204 226 255
204 226 255
204 226 255
204 226 255
204 226 255
204 226 255
204 226 255
204 226 255
204 226 255
204 226 255
205 226 255
205 226 255
205 226 255
205 226 255
205 226 255
205 226 255
205 226 255
205 226 255
205 227 255
205 227 255
205 227 255
205 227 255
205 227 255
205 227 255
205 227 255
205 227 255
205 227 255
205 227 255
205 227 255
205 226 255
205 226 255
205 226 255
205 226 255
205 226 255
205 226 255
205 226 255
204 226 255
204 226 255
204 226 255
204 226 255
204 226 255
204 226 255
204 226 255
204 226 255
204 226 255
204 226 255
204 226 255
204 226 255
204 226 255
204 226 255
204 226 255
204 226 255
204 226 255
203 226 255
203 226 255
203 226 255
203 226 255
203 226 255
203 226 255
203 226 255
203 226 255
203 225 255
203 225 255
203 225 255
203 225 255
203 225 255
203 225 255
203 225 255
203 225 255
203 225 255
202 225 255
202 225 255
202 225 255
202 225 255
202 225 255
202 225 255
202 225 255
202 225 255
202 225 255
202 225 255
202 225 255
202 225 255
202 225 255
202 225 255
202 225 255
201 225 255
201 225 255
201 225 255
201 225 255
201 224 255
201 224 255
201 224 255
201 224 255
201 224 255
201 224 255
201 224 255
201 224 255
201 224 255
201 224 255
201 224 255
200 224 255
200 224 255
200 224 255
200 224 255
200 224 255
200 224 255
200 224 255
200 224 255
200 224 255
200 224 255
200 224 255
200 224 255
200 224 255
200 224 255
199 224 255
199 224 255
199 223 255
199 223 255
199 223 255
199 223 255
199 223 255
199 223 255
199 223 255
199 223 255
199 223 255
199 223 255
199 223 255
199 223 255
198 223 255
198 223 255
198 223 255
198 223 255
198 223 255
198 223 255
198 223 255
198 223 255
198 223 255
198 223 255
198 223 255
198 223 255
198 223 255
198 223 255
198 223 255
197 223 255
197 222 255
197 222 255
197 222 255
197 222 255
197 222 255
197 222 255
197 222 255
197 222 255
197 222 255
197 222 255
197 222 255
197 222 255
197 222 255
197 222 255
197 222 255
196 222 255
196 222 255
196 222 255
196 222 255
196 222 255
196 222 255
196 222 255
196 222 255
196 222 255
196 222 255
196 222 255
196 222 255
196 222 255
196 222 255
196 222 255
196 222 255
196 222 255
196 221 255
195 221 255
195 221 255
195 221 255
195 221 255
195 221 255
195 221 255
195 221 255
195 221 255
195 221 255
195 221 255
195 221 255
195 221 255
195 221 255
195 221 255
195 221 255
195 221 255
195 221 255
195 221 255
195 221 255
195 221 255
195 221 255
195 221 255
195 221 255
195 221 255
195 221 255
195 221 255
195 221 255
195 221 255
195 221 255
195 221 255
195 221 255
194 221 255
194 221 255
194 221 255
194 221 255
194 221 255
194 221 255
194 221 255
194 221 255
194 221 255
194 221 255
194 221 255
194 221 255
194 221 255
194 221 255
194 221 255
194 221 255
194 221 255
194 221 255
194 221 255
194 221 255
194 221 255
194 221 255
194 221 255
194 221 255
194 221 255
194 221 255
194 221 255
194 221 255
194 221 255
195 221 255
195 221 255
195 221 255
195 221 255
195 221 255
195 221 255
195 221 255
195 221 255
195 221 255
195 221 255
195 221 255
195 221 255
195 221 255
195 221 255
195 221 255
195 221 255
195 221 255
195 221 255
195 221 255
195 221 255
195 221 255
195 221 255
195 221 255
195 221 255
195 221 255
195 221 255
195 221 255
195 221 255
195 221 255
195 221 255
196 221 255
196 222 255
196 222 255
196 222 255
196 222 255
196 222 255
196 222 255
196 222 255
196 222 255
196 222 255
196 222 255
196 222 255
196 222 255
196 222 255
196 222 255
196 222 255
196 222 255
196 222 255
197 222 255
197 222 255
197 222 255
197 222 255
197 222 255
197 222 255
197 222 255
197 222 255
197 222 255
197 222 255
197 222 255
197 222 255
197 222 255
197 222 255
197 222 255
197 222 255
198 223 255
198 223 255
198 223 255
198 223 255
198 223 255
198 223 255
198 223 255
198 223 255
198 223 255
198 223 255
198 223 255
198 223 255
198 223 255
198 223 255
198 223 255
199 223 255
199 223 255
199 223 255
199 223 255
199 223 255
199 223 255
199 223 255
199 223 255
199 223 255
199 223 255
199 223 255
199 223 255
199 224 255
199 224 255
200 224 255
200 224 255
200 224 255
200 224 255
200 224 255
200 224 255
200 224 255
200 224 255
200 224 255
200 224 255
200 224 255
200 224 255
200 224 255
200 224 255
201 224 255
201 224 255
201 224 255
201 224 255
201 224 255
201 224 255
201 224 255
201 224 255
201 224 255
201 224 255
201 224 255
201 225 255
201 225 255
201 225 255
201 225 255
202 225 255
202 225 255
202 225 255
202 225 255
202 225 255
202 225 255
202 225 255
202 225 255
202 225 255
202 225 255
202 225 255
202 225 255
202 225 255
202 225 255
202 225 255
203 225 255
203 225 255
203 225 255
203 225 255
203 225 255
203 225 255
203 225 255
203 225 255
203 225 255
203 226 255
203 226 255
203 226 255
203 226 255
203 226 255
203 226 255
203 226 255
203 226 255
204 226 255
204 226 255
204 226 255
204 226 255
204 226 255
204 226 255
204 226 255
204 226 255
204 226 255
204 226 255
204 226 255
204 226 255
204 226 255
204 226 255
204 226 255
204 226 255
204 226 255
205 226 255
205 226 255
205 226 255
205 226 255
205 226 255
205 226 255
205 226 255
205 227 255
205 227 255
205 227 255
205 227 255
205 227 255
205 227 255
205 227 255
205 227 255
205 227 255
205 227 255
205 227 255
205 227 255
205 227 255
205 227 255
205 227 255
205 227 255
205 226 255
205 226 255
205 226 255
205 226 255
205 226 255
205 226 255
205 226 255
204 226 255
204 226 255
204 226 255
204 226 255
204 226 255
204 226 255
204 226 255
204 226 255
204 226 255
204 226 255
204 226 255
204 226 255
204 226 255
204 226 255
204 226 255
204 226 255
204 226 255
204 226 255
203 226 255
203 226 255
203 226 255
203 226 255
203 226 255
203 226 255
203 226 255
203 225 255
203 225 255
203 225 255
203 225 255
203 225 255
203 225 255
203 225 255
203 225 255
203 225 255
202 225 255
202 225 255
202 225 255
202 225 255
202 225 255
202 225 255
202 225 255
202 225 255
202 225 255
202 225 255
202 225 255
202 225 255
202 225 255
202 225 255
202 225 255
201 225 255
201 225 255
201 225 255
201 225 255
201 224 255
201 224 255
201 224 255
201 224 255
201 224 255
201 224 255
201 224 255
201 224 255
201 224 255
201 224 255
201 224 255
200 224 255
200 224 255
200 224 255
200 224 255
200 224 255
200 224 255
200 224 255
200 224 255
200 224 255
200 224 255
200 224 255
200 224 255
200 224 255
200 224 255
199 224 255
199 224 255
199 223 255
199 223 255
199 223 255
199 223 255
199 223 255
199 223 255
199 223 255
199 223 255
199 223 255
199 223 255
199 223 255
199 223 255
199 223 255
198 223 255
198 223 255
198 223 255
198 223 255
198 223 255
198 223 255
198 223 255
198 223 255
198 223 255
198 223 255
198 223 255
198 223 255
198 223 255
198 223 255
198 223 255
197 222 255
197 222 255
197 222 255
197 222 255
197 222 255
197 222 255
197 222 255
197 222 255
197 222 255
197 222 255
197 222 255
197 222 255
197 222 255
197 222 255
197 222 255
196 222 255
196 222 255
196 222 255
196 222 255
196 222 255
196 222 255
196 222 255
196 222 255
196 222 255
196 222 255
196 222 255
196 222 255
196 222 255
196 222 255
196 222 255
196 222 255
196 222 255
196 222 255
196 221 255
196 221 255
195 221 255
195 221 255
195 221 255
195 221 255
195 221 255
195 221 255
195 221 255
195 221 255
195 221 255
195 221 255
195 221 255
195 221 255
195 221 255
195 221 255
195 221 255
195 221 255
195 221 255
195 221 255
195 221 255
195 221 255
195 221 255
195 221 255
195 221 255
195 221 255
195 221 255
195 221 255
195 221 255
195 221 255
195 221 255
195 221 255
195 221 255
195 221 255
195 221 255
195 221 255
195 221 255
195 221 255
195 221 255
195 221 255
195 221 255
195 221 255
195 221 255
195 221 255
195 221 255
195 221 255
195 221 255
195 221 255
195 221 255
195 221 255
195 221 255
195 221 255
195 221 255
195 221 255
195 221 255
195 221 255
195 221 255
195 221 255
195 221 255
195 221 255
195 221 255
195 221 255
195 221 255
195 221 255
195 221 255
195 221 255
195 221 255
195 221 255
195 221 255
195 221 255
195 221 255
195 221 255
195 221 255
195 221 255
195 221 255
195 221 255
195 221 255
195 221 255
195 221 255
195 221 255
195 221 255
195 221 255
195 221 255
195 221 255
196 221 255
196 221 255
196 222 255
196 222 255
196 222 255
196 222 255
196 222 255
196 222 255
196 222 255
196 222 255
196 222 255
196 222 255
196 222 255
196 222 255
196 222 255
196 222 255
196 222 255
196 222 255
196 222 255
196 222 255
197 222 255
197 222 255
197 222 255
197 222 255
197 222 255
197 222 255
197 222 255
197 222 255
197 222 255
197 222 255
197 222 255
197 222 255
197 222 255
197 222 255
197 222 255
197 223 255
198 223 255
198 223 255
198 223 255
198 223 255
198 223 255
198 223 255
198 223 255
198 223 255
198 223 255
198 223 255
198 223 255
198 223 255
198 223 255
198 223 255
199 223 255
199 223 255
199 223 255
199 223 255
199 223 255
199 223 255
199 223 255
199 223 255
199 223 255
199 223 255
199 223 255
199 223 255
199 223 255
199 224 255
199 224 255
200 224 255
200 224 255
200 224 255
200 224 255
200 224 255
200 224 255
200 224 255
200 224 255
200 224 255
200 224 255
200 224 255
200 224 255
200 224 255
200 224 255
201 224 255
201 224 255
201 224 255
201 224 255
201 224 255
201 224 255
201 224 255
201 224 255
201 224 255
201 224 255
201 224 255
201 225 255
201 225 255
201 225 255
201 225 255
202 225 255
202 225 255
202 225 255
202 225 255
202 225 255
202 225 255
202 225 255
202 225 255
202 225 255
202 225 255
202 225 255
202 225 255
202 225 255
202 225 255
202 225 255
203 225 255
203 225 255
203 225 255
203 225 255
203 225 255
203 225 255
203 225 255
203 225 255
203 225 255
203 226 255
203 226 255
203 226 255
203 226 255
203 226 255
203 226 255
203 226 255
204 226 255
204 226 255
204 226 255
204 226 255
204 226 255
204 226 255
204 226 255
204 226 255
204 226 255
204 226 255
204 226 255
204 226 255
204 226 255
204 226 255
204 226 255
204 226 255
204 226 255
204 226 255
205 226 255
205 226 255
205 226 255
205 226 255
205 226 255
205 226 255
205 226 255
205 227 255
205 227 255
205 227 255
205 227 255
205 227 255
205 227 255
205 227 255
205 227 255
205 227 255
205 227 255
205 227 255
205 227 255
205 227 255
205 227 255
205 227 255
205 227 255
205 227 255
205 227 255
205 227 255
205 227 255
205 227 255
205 226 255
205 226 255
205 226 255
205 226 255
205 226 255
205 226 255
205 226 255
204 226 255
204 226 255
204 226 255
204 226 255
204 226 255
204 226 255
204 226 255
204 226 255
204 226 255
204 226 255
204 226 255
204 226 255
204 226 255
204 226 255
204 226 255
204 226 255
204 226 255
203 226 255
203 226 255
203 226 255
203 226 255
203 226 255
203 226 255
203 226 255
203 225 255
203 225 255
203 225 255
203 225 255
203 225 255
203 225 255
203 225 255
203 225 255
203 225 255
202 225 255
202 225 255
202 225 255
202 225 255
202 225 255
202 225 255
202 225 255
202 225 255
202 225 255
202 225 255
202 225 255
202 225 255
202 225 255
202 225 255
202 225 255
201 225 255
201 225 255
201 225 255
201 225 255
201 225 255
201 224 255
201 224 255
201 224 255
201 224 255
201 224 255
201 224 255
201 224 255
201 224 255
201 224 255
201 224 255
200 224 255
200 224 255
200 224 255
200 224 255
200 224 255
200 224 255
200 224 255
200 224 255
200 224 255
200 224 255
200 224 255
200 224 255
200 224 255
200 224 255
199 224 255
199 224 255
199 224 255
199 223 255
199 223 255
199 223 255
199 223 255
199 223 255
199 223 255
199 223 255
199 223 255
199 223 255
199 223 255
199 223 255
199 223 255
198 223 255
198 223 255
198 223 255
198 223 255
198 223 255
198 223 255
198 223 255
198 223 255
198 223 255
198 223 255
198 223 255
198 223 255
198 223 255
198 223 255
198 223 255
197 222 255
197 222 255
197 222 255
197 222 255
197 222 255
197 222 255
197 222 255
197 222 255
197 222 255
197 222 255
197 222 255
197 222 255
197 222 255
197 222 255
197 222 255
197 222 255
196 222 255
196 222 255
196 222 255
196 222 255
196 222 255
196 222 255
196 222 255
196 222 255
196 222 255
196 222 255
196 222 255
196 222 255
196 222 255
196 222 255
196 222 255
196 222 255
196 222 255
196 222 255
196 221 255
196 221 255
195 221 255
195 221 255
195 221 255
195 221 255
195 221 255
195 221 255
195 221 255
195 221 255
195 221 255
195 221 255
195 221 255
195 221 255
195 221 255
195 221 255
195 221 255
195 221 255
195 221 255
195 221 255
195 221 255
195 221 255
195 221 255
195 221 255
195 221 255
195 221 255
195 221 255
195 221 255
195 221 255
195 221 255
195 221 255
195 221 255
195 221 255
195 221 255
195 221 255
195 221 255
195 221 255
195 221 255
195 221 255
195 221 255
195 221 255
195 221 255
195 221 255
195 221 255
195 221 255
195 221 255
195 221 255
195 221 255
195 221 255
195 221 255
195 221 255
195 221 255
195 221 255
195 221 255
195 221 255
195 221 255
195 221 255
195 221 255
195 221 255
195 221 255
195 221 255
195 221 255
195 221 255
195 221 255
195 221 255
195 221 255
195 221 255
195 221 255
195 221 255
195 221 255
195 221 255
195 221 255
195 221 255
195 221 255
195 221 255
195 221 255
195 221 255
195 221 255
196 221 255
196 221 255
196 222 255
196 222 255
196 222 255
196 222 255
196 222 255
196 222 255
196 222 255
196 222 255
196 222 255
196 222 255
196 222 255
196 222 255
196 222 255
196 222 255
196 222 255
196 222 255
196 222 255
196 222 255
197 222 255
197 222 255
197 222 255
197 222 255
197 222 255
197 222 255
197 222 255
197 222 255
197 222 255
197 222 255
197 222 255
197 222 255
197 222 255
197 222 255
197 222 255
197 222 255
198 223 255
198 223 255
198 223 255
198 223 255
198 223 255
198 223 255
198 223 255
198 223 255
198 223 255
198 223 255
198 223 255
198 223 255
198 223 255
198 223 255
198 223 255
199 223 255
199 223 255
199 223 255
199 223 255
199 223 255
199 223 255
199 223 255
199 223 255
199 223 255
199 223 255
199 223 255
199 223 255
199 224 255
199 224 255
199 224 255
200 224 255
200 224 255
200 224 255
200 224 255
200 224 255
200 224 255
200 224 255
200 224 255
200 224 255
200 224 255
200 224 255
200 224 255
200 224 255
200 224 255
201 224 255
201 224 255
201 224 255
201 224 255
201 224 255
201 224 255
201 224 255
201 224 255
201 224 255
201 224 255
201 225 255
201 225 255
201 225 255
201 225 255
201 225 255
202 225 255
202 225 255
202 225 255
202 225 255
202 225 255
202 225 255
202 225 255
202 225 255
202 225 255
202 225 255
202 225 255
202 225 255
202 225 255
202 225 255
202 225 255
203 225 255
203 225 255
203 225 255
203 225 255
203 225 255
203 225 255
203 225 255
203 225 255
203 225 255
203 226 255
203 226 255
203 226 255
203 226 255
203 226 255
203 226 255
203 226 255
204 226 255
204 226 255
204 226 255
204 226 255
204 226 255
204 226 255
204 226 255
204 226 255
204 226 255
204 226 255
204 226 255
204 226 255
204 226 255
204 226 255
204 226 255
204 226 255
204 226 255
205 226 255
205 226 255
205 226 255
205 226 255
205 226 255
205 226 255
205 226 255
205 227 255
205 227 255
205 227 255
205 227 255
205 227 255
205 227 255
205 227 255
205 227 255
205 227 255
205 227 255
205 227 255
205 227 255
206 227 255
206 227 255
206 227 255
205 227 255
205 227 255
205 227 255
205 227 255
205 227 255
205 227 255
205 227 255
205 227 255
205 227 255
205 227 255
205 227 255
205 226 255
205 226 255
205 226 255
205 226 255
205 226 255
205 226 255
205 226 255
204 226 255
204 226 255
204 226 255
204 226 255
204 226 255
204 226 255
204 226 255
204 226 255
204 226 255
204 226 255
204 226 255
204 226 255
204 226 255
204 226 255
204 226 255
204 226 255
204 226 255
203 226 255
203 226 255
203 226 255
203 226 255
203 226 255
203 226 255
203 226 255
203 226 255
203 225 255
203 225 255
203 225 255
203 225 255
203 225 255
203 225 255
203 225 255
203 225 255
202 225 255
202 225 255
202 225 255
202 225 255
202 225 255
202 225 255
202 225 255
202 225 255
202 225 255
202 225 255
202 225 255
202 225 255
202 225 255
202 225 255
202 225 255
201 225 255
201 225 255
201 225 255
201 225 255
201 225 255
201 224 255
201 224 255
201 224 255
201 224 255
201 224 255
201 224 255
201 224 255
201 224 255
201 224 255
201 224 255
200 224 255
200 224 255
200 224 255
200 224 255
200 224 255
200 224 255
200 224 255
200 224 255
200 224 255
200 224 255
200 224 255
200 224 255
200 224 255
200 224 255
199 224 255
199 224 255
199 224 255
199 223 255
199 223 255
199 223 255
199 223 255
199 223 255
199 223 255
199 223 255
199 223 255
199 223 255
199 223 255
199 223 255
199 223 255
198 223 255
198 223 255
198 223 255
198 223 255
198 223 255
198 223 255
198 223 255
198 223 255
198 223 255
198 223 255
198 223 255
198 223 255
198 223 255
198 223 255
198 223 255
197 223 255
197 222 255
197 222 255
197 222 255
197 222 255
197 222 255
197 222 255
197 222 255
197 222 255
197 222 255
197 222 255
197 222 255
197 222 255
197 222 255
197 222 255
197 222 255
197 222 255
196 222 255
196 222 255
196 222 255
196 222 255
196 222 255
196 222 255
196 222 255
196 222 255
196 222 255
196 222 255
196 222 255
196 222 255
196 222 255
196 222 255
196 222 255
196 222 255
196 222 255
196 222 255
196 222 255
196 221 255
196 221 255
195 221 255
195 221 255
195 221 255
195 221 255
195 221 255
195 221 255
195 221 255
195 221 255
195 221 255
195 221 255
195 221 255
195 221 255
195 221 255
195 221 255
195 221 255
195 221 255
195 221 255
195 221 255
195 221 255
195 221 255
195 221 255
195 221 255
195 221 255
195 221 255
195 221 255
195 221 255
195 221 255
195 221 255
195 221 255
195 221 255
195 221 255
195 221 255
195 221 255
195 221 255
195 221 255
195 221 255
195 221 255
195 221 255
195 221 255
195 221 255
195 221 255
195 221 255
195 221 255
195 221 255
195 221 255
195 221 255
195 221 255
195 221 255
195 221 255
195 221 255
195 221 255
195 221 255
195 221 255
195 221 255
195 221 255
195 221 255
195 221 255
195 221 255
195 221 255
195 221 255
195 221 255
195 221 255
195 221 255
195 221 255
195 221 255
195 221 255
195 221 255
195 221 255
196 221 255
196 221 255
196 222 255
196 222 255
196 222 255
196 222 255
196 222 255
196 222 255
196 222 255
196 222 255
196 222 255
196 222 255
196 222 255
196 222 255
196 222 255
196 222 255
196 222 255
196 222 255
196 222 255
196 222 255
196 222 255
197 222 255
197 222 255
197 222 255
197 222 255
197 222 255
197 222 255
197 222 255
197 222 255
197 222 255
197 222 255
197 222 255
197 222 255
197 222 255
197 222 255
197 222 255
197 222 255
197 223 255
198 223 255
198 223 255
198 223 255
198 223 255
198 223 255
198 223 255
198 223 255
198 223 255
198 223 255
198 223 255
198 223 255
198 223 255
198 223 255
198 223 255
198 223 255
199 223 255
199 223 255
199 223 255
199 223 255
199 223 255
199 223 255
199 223 255
199 223 255
199 223 255
199 223 255
199 223 255
199 223 255
199 224 255
199 224 255
199 224 255
200 224 255
200 224 255
200 224 255
200 224 255
200 224 255
200 224 255
200 224 255
200 224 255
200 224 255
200 224 255
200 224 255
200 224 255
200 224 255
200 224 255
201 224 255
201 224 255
201 224 255
201 224 255
201 224 255
201 224 255
201 224 255
201 224 255
201 224 255
201 224 255
201 225 255
201 225 255
201 225 255
201 225 255
202 225 255
202 225 255
202 225 255
202 225 255
202 225 255
202 225 255
202 225 255
202 225 255
202 225 255
202 225 255
202 225 255
202 225 255
202 225 255
202 225 255
202 225 255
202 225 255
203 225 255
203 225 255
203 225 255
203 225 255
203 225 255
203 225 255
203 225 255
203 225 255
203 226 255
203 226 255
203 226 255
203 226 255
203 226 255
203 226 255
203 226 255
203 226 255
204 226 255
204 226 255
204 226 255
204 226 255
204 226 255
204 226 255
204 226 255
204 226 255
204 226 255
204 226 255
204 226 255
204 226 255
204 226 255
204 226 255
204 226 255
204 226 255
204 226 255
205 226 255
205 226 255
205 226 255
205 226 255
205 226 255
205 226 255
205 226 255
205 227 255
205 227 255
205 227 255
205 227 255
205 227 255
205 227 255
205 227 255
205 227 255
205 227 255
205 227 255
205 227 255
206 227 255
206 227 255
206 227 255
206 227 255
206 227 255
206 227 255
206 227 255
206 227 255
206 227 255
205 227 255
205 227 255
205 227 255
205 227 255
205 227 255
205 227 255
205 227 255
205 227 255
205 227 255
205 227 255
205 227 255
205 226 255
205 226 255
205 226 255
205 226 255
205 226 255
205 226 255
205 226 255
204 226 255
204 226 255
204 226 255
204 226 255
204 226 255
204 226 255
204 226 255
204 226 255
204 226 255
204 226 255
204 226 255
204 226 255
204 226 255
204 226 255
204 226 255
204 226 255
204 226 255
203 226 255
203 226 255
203 226 255
203 226 255
203 226 255
203 226 255
203 226 255
203 225 255
203 225 255
203 225 255
203 225 255
203 225 255
203 225 255
203 225 255
203 225 255
203 225 255
202 225 255
202 225 255
202 225 255
202 225 255
202 225 255
202 225 255
202 225 255
202 225 255
202 225 255
202 225 255
202 225 255
202 225 255
202 225 255
202 225 255
202 225 255
201 225 255
201 225 255
201 225 255
201 225 255
201 224 255
201 224 255
201 224 255
201 224 255
201 224 255
201 224 255
201 224 255
201 224 255
201 224 255
201 224 255
200 224 255
200 224 255
200 224 255
200 224 255
200 224 255
200 224 255
200 224 255
200 224 255
200 224 255
200 224 255
200 224 255
200 224 255
200 224 255
200 224 255
200 224 255
199 224 255
199 224 255
199 223 255
199 223 255
199 223 255
199 223 255
199 223 255
199 223 255
199 223 255
199 223 255
199 223 255
199 223 255
199 223 255
199 223 255
198 223 255
198 223 255
198 223 255
198 223 255
198 223 255
198 223 255
198 223 255
198 223 255
198 223 255
198 223 255
198 223 255
198 223 255
198 223 255
198 223 255
198 223 255
198 223 255
197 222 255
197 222 255
197 222 255
197 222 255
197 222 255
197 222 255
197 222 255
197 222 255
197 222 255
197 222 255
197 222 255
197 222 255
197 222 255
197 222 255
197 222 255
197 222 255
197 222 255
196 222 255
196 222 255
196 222 255
196 222 255
196 222 255
196 222 255
196 222 255
196 222 255
196 222 255
196 222 255
196 222 255
196 222 255
196 222 255
196 222 255
196 222 255
196 222 255
196 222 255
196 222 255
196 222 255
196 222 255
196 221 255
196 221 255
195 221 255
195 221 255
195 221 255
195 221 255
195 221 255
195 221 255
195 221 255
195 221 255
195 221 255
195 221 255
195 221 255
195 221 255
195 221 255
195 221 255
195 221 255
195 221 255
195 221 255
195 221 255
195 221 255
195 221 255
195 221 255
195 221 255
195 221 255
195 221 255
195 221 255
195 221 255
195 221 255
195 221 255
195 221 255
195 221 255
195 221 255
195 221 255
195 221 255
195 221 255
195 221 255
195 221 255
195 221 255
195 221 255
195 221 255
195 221 255
195 221 255
195 221 255
195 221 255
195 221 255
195 221 255
195 221 255
195 221 255
195 221 255
195 221 255
195 221 255
195 221 255
195 221 255
195 221 255
195 221 255
195 221 255
195 221 255
195 221 255
195 221 255
195 221 255
195 221 255
196 221 255
196 221 255
196 222 255
196 222 255
196 222 255
196 222 255
196 222 255
196 222 255
196 222 255
196 222 255
196 222 255
196 222 255
196 222 255
196 222 255
196 222 255
196 222 255
196 222 255
196 222 255
196 222 255
196 222 255
196 222 255
196 222 255
197 222 255
197 222 255
197 222 255
197 222 255
197 222 255
197 222 255
197 222 255
197 222 255
197 222 255
197 222 255
197 222 255
197 222 255
197 222 255
197 222 255
197 222 255
197 222 255
197 222 255
198 223 255
198 223 255
198 223 255
198 223 255
198 223 255
198 223 255
198 223 255
198 223 255
198 223 255
198 223 255
198 223 255
198 223 255
198 223 255
198 223 255
198 223 255
198 223 255
199 223 255
199 223 255
199 223 255
199 223 255
199 223 255
199 223 255
199 223 255
199 223 255
199 223 255
199 223 255
199 223 255
199 223 255
199 224 255
199 224 255
200 224 255
200 224 255
200 224 255
200 224 255
200 224 255
200 224 255
200 224 255
200 224 255
200 224 255
200 224 255
200 224 255
200 224 255
200 224 255
200 224 255
200 224 255
201 224 255
201 224 255
201 224 255
201 224 255
201 224 255
201 224 255
201 224 255
201 224 255
201 224 255
201 224 255
201 225 255
201 225 255
201 225 255
201 225 255
202 225 255
202 225 255
202 225 255
202 225 255
202 225 255
202 225 255
202 225 255
202 225 255
202 225 255
202 225 255
202 225 255
202 225 255
202 225 255
202 225 255
202 225 255
203 225 255
203 225 255
203 225 255
203 225 255
203 225 255
203 225 255
203 225 255
203 225 255
203 225 255
203 226 255
203 226 255
203 226 255
203 226 255
203 226 255
203 226 255
203 226 255
204 226 255
204 226 255
204 226 255
204 226 255
204 226 255
204 226 255
204 226 255
204 226 255
204 226 255
204 226 255
204 226 255
204 226 255
204 226 255
204 226 255
204 226 255
204 226 255
204 226 255
205 226 255
205 226 255
205 226 255
205 226 255
205 226 255
205 226 255
205 226 255
205 227 255
205 227 255
205 227 255
205 227 255
205 227 255
205 227 255
205 227 255
205 227 255
205 227 255
205 227 255
205 227 255
205 227 255
206 227 255
206 227 255
206 227 255
206 227 255
206 227 255
206 227 255
206 227 255
206 227 255
206 227 255
206 227 255
206 227 255
206 227 255
206 227 255
205 227 255
205 227 255
205 227 255
205 227 255
205 227 255
205 227 255
205 227 255
205 227 255
205 227 255
205 227 255
205 227 255
205 226 255
205 226 255
205 226 255
205 226 255
205 226 255
205 226 255
205 226 255
204 226 255
204 226 255
204 226 255
204 226 255
204 226 255
204 226 255
204 226 255
204 226 255
204 226 255
204 226 255
204 226 255
204 226 255
204 226 255
204 226 255
204 226 255
204 226 255
204 226 255
203 226 255
203 226 255
203 226 255
203 226 255
203 226 255
203 226 255
203 226 255
203 225 255
203 225 255
203 225 255
203 225 255
203 225 255
203 225 255
203 225 255
203 225 255
203 225 255
202 225 255
202 225 255
202 225 255
202 225 255
202 225 255
202 225 255
202 225 255
202 225 255
202 225 255
202 225 255
202 225 255
202 225 255
202 225 255
202 225 255
202 225 255
201 225 255
201 225 255
201 225 255
201 225 255
201 224 255
201 224 255
201 224 255
201 224 255
201 224 255
201 224 255
201 224 255
201 224 255
201 224 255
201 224 255
201 224 255
200 224 255
200 224 255
200 224 255
200 224 255
200 224 255
200 224 255
200 224 255
200 224 255
200 224 255
200 224 255
200 224 255
200 224 255
200 224 255
200 224 255
199 224 255
199 224 255
199 223 255
199 223 255
199 223 255
199 223 255
199 223 255
199 223 255
199 223 255
199 223 255
199 223 255
199 223 255
199 223 255
199 223 255
199 223 255
198 223 255
198 223 255
198 223 255
198 223 255
198 223 255
198 223 255
198 223 255
198 223 255
198 223 255
198 223 255
198 223 255
198 223 255
198 223 255
198 223 255
198 223 255
197 223 255
197 222 255
197 222 255
197 222 255
197 222 255
197 222 255
197 222 255
197 222 255
197 222 255
197 222 255
197 222 255
197 222 255
197 222 255
197 222 255
197 222 255
197 222 255
197 222 255
197 222 255
196 222 255
196 222 255
196 222 255
196 222 255
196 222 255
196 222 255
196 222 255
196 222 255
196 222 255
196 222 255
196 222 255
196 222 255
196 222 255
196 222 255
196 222 255
196 222 255
196 222 255
196 222 255
196 222 255
196 222 255
196 222 255
196 221 255
196 221 255
196 221 255
195 221 255
195 221 255
195 221 255
195 221 255
195 221 255
195 221 255
195 221 255
195 221 255
195 221 255
195 221 255
195 221 255
195 221 255
195 221 255
195 221 255
195 221 255
195 221 255
195 221 255
195 221 255
195 221 255
195 221 255
195 221 255
195 221 255
195 221 255
195 221 255
195 221 255
195 221 255
195 221 255
195 221 255
195 221 255
195 221 255
195 221 255
195 221 255
195 221 255
195 221 255
195 221 255
195 221 255
195 221 255
195 221 255
195 221 255
195 221 255
195 221 255
195 221 255
195 221 255
195 221 255
195 221 255
195 221 255
195 221 255
195 221 255
195 221 255
195 221 255
196 221 255
196 221 255
196 221 255
196 222 255
196 222 255
196 222 255
196 222 255
196 222 255
196 222 255
196 222 255
196 222 255
196 222 255
196 222 255
196 222 255
196 222 255
196 222 255
196 222 255
196 222 255
196 222 255
196 222 255
196 222 255
196 222 255
196 222 255
196 222 255
197 222 255
197 222 255
197 222 255
197 222 255
197 222 255
197 222 255
197 222 255
197 222 255
197 222 255
197 222 255
197 222 255
197 222 255
197 222 255
197 222 255
197 222 255
197 222 255
197 222 255
197 223 255
198 223 255
198 223 255
198 223 255
198 223 255
198 223 255
198 223 255
198 223 255
198 223 255
198 223 255
198 223 255
198 223 255
198 223 255
198 223 255
198 223 255
198 223 255
199 223 255
199 223 255
199 223 255
199 223 255
199 223 255
199 223 255
199 223 255
199 223 255
199 223 255
199 223 255
199 223 255
199 223 255
199 223 255
199 224 255
199 224 255
200 224 255
200 224 255
200 224 255
200 224 255
200 224 255
200 224 255
200 224 255
200 224 255
200 224 255
200 224 255
200 224 255
200 224 255
200 224 255
200 224 255
201 224 255
201 224 255
201 224 255
201 224 255
201 224 255
201 224 255
201 224 255
201 224 255
201 224 255
201 224 255
201 224 255
201 225 255
201 225 255
201 225 255
201 225 255
202 225 255
202 225 255
202 225 255
202 225 255
202 225 255
202 225 255
202 225 255
202 225 255
202 225 255
202 225 255
202 225 255
202 225 255
202 225 255
202 225 255
202 225 255
203 225 255
203 225 255
203 225 255
203 225 255
203 225 255
203 225 255
203 225 255
203 225 255
203 225 255
203 226 255
203 226 255
203 226 255
203 226 255
203 226 255
203 226 255
203 226 255
204 226 255
204 226 255
204 226 255
204 226 255
204 226 255
204 226 255
204 226 255
204 226 255
204 226 255
204 226 255
204 226 255
204 226 255
204 226 255
204 226 255
204 226 255
204 226 255
204 226 255
205 226 255
205 226 255
205 226 255
205 226 255
205 226 255
205 226 255
205 226 255
205 227 255
205 227 255
205 227 255
205 227 255
205 227 255
205 227 255
205 227 255
205 227 255
205 227 255
205 227 255
205 227 255
206 227 255
206 227 255
206 227 255
206 227 255
206 227 255
206 227 255
206 227 255
206 227 255
206 227 255
206 227 255
206 227 255
206 227 255
206 227 255
206 227 255
206 227 255
206 227 255
206 227 255
206 227 255
206 227 255
205 227 255
205 227 255
205 227 255
205 227 255
205 227 255
205 227 255
205 227 255
205 227 255
205 227 255
205 227 255
205 227 255
205 226 255
205 226 255
205 226 255
205 226 255
205 226 255
205 226 255
205 226 255
204 226 255
204 226 255
204 226 255
204 226 255
204 226 255
204 226 255
204 226 255
204 226 255
204 226 255
204 226 255
204 226 255
204 226 255
204 226 255
204 226 255
204 226 255
204 226 255
204 226 255
203 226 255
203 226 255
203 226 255
203 226 255
203 226 255
203 226 255
203 225 255
203 225 255
203 225 255
203 225 255
203 225 255
203 225 255
203 225 255
203 225 255
203 225 255
202 225 255
202 225 255
202 225 255
202 225 255
202 225 255
202 225 255
202 225 255
202 225 255
202 225 255
202 225 255
202 225 255
202 225 255
202 225 255
202 225 255
202 225 255
201 225 255
201 225 255
201 225 255
201 225 255
201 225 255
201 224 255
201 224 255
201 224 255
201 224 255
201 224 255
201 224 255
201 224 255
201 224 255
201 224 255
201 224 255
200 224 255
200 224 255
200 224 255
200 224 255
200 224 255
200 224 255
200 224 255
200 224 255
200 224 255
200 224 255
200 224 255
200 224 255
200 224 255
200 224 255
199 224 255
199 224 255
199 224 255
199 223 255
199 223 255
199 223 255
199 223 255
199 223 255
199 223 255
199 223 255
199 223 255
199 223 255
199 223 255
199 223 255
199 223 255
198 223 255
198 223 255
198 223 255
198 223 255
198 223 255
198 223 255
198 223 255
198 223 255
198 223 255
198 223 255
198 223 255
198 223 255
198 223 255
198 223 255
198 223 255
198 223 255
197 222 255
197 222 255
197 222 255
197 222 255
197 222 255
197 222 255
197 222 255
197 222 255
197 222 255
197 222 255
197 222 255
197 222 255
197 222 255
197 222 255
197 222 255
197 222 255
197 222 255
197 222 255
196 222 255
196 222 255
196 222 255
196 222 255
196 222 255
196 222 255
196 222 255
196 222 255
196 222 255
196 222 255
196 222 255
196 222 255
196 222 255
196 222 255
196 222 255
196 222 255
196 222 255
196 222 255
196 222 255
196 222 255
196 222 255
196 222 255
196 222 255
196 222 255
196 221 255
196 221 255
196 221 255
195 221 255
195 221 255
195 221 255
195 221 255
195 221 255
195 221 255
195 221 255
195 221 255
195 221 255
195 221 255
195 221 255
195 221 255
195 221 255
195 221 255
195 221 255
195 221 255
195 221 255
195 221 255
195 221 255
195 221 255
195 221 255
195 221 255
195 221 255
195 221 255
195 221 255
195 221 255
195 221 255
195 221 255
195 221 255
195 221 255
195 221 255
195 221 255
195 221 255
195 221 255
195 221 255
195 221 255
195 221 255
195 221 255
196 221 255
196 221 255
196 221 255
196 221 255
196 222 255
196 222 255
196 222 255
196 222 255
196 222 255
196 222 255
196 222 255
196 222 255
196 222 255
196 222 255
196 222 255
196 222 255
196 222 255
196 222 255
196 222 255
196 222 255
196 222 255
196 222 255
196 222 255
196 222 255
196 222 255
196 222 255
196 222 255
197 222 255
197 222 255
197 222 255
197 222 255
197 222 255
197 222 255
197 222 255
197 222 255
197 222 255
197 222 255
197 222 255
197 222 255
197 222 255
197 222 255
197 222 255
197 222 255
197 222 255
197 222 255
198 223 255
198 223 255
198 223 255
198 223 255
198 223 255
198 223 255
198 223 255
198 223 255
198 223 255
198 223 255
198 223 255
198 223 255
198 223 255
198 223 255
198 223 255
198 223 255
199 223 255
199 223 255
199 223 255
199 223 255
199 223 255
199 223 255
199 223 255
199 223 255
199 223 255
199 223 255
199 223 255
199 223 255
199 224 255
199 224 255
199 224 255
200 224 255
200 224 255
200 224 255
200 224 255
200 224 255
200 224 255
200 224 255
200 224 255
200 224 255
200 224 255
200 224 255
200 224 255
200 224 255
200 224 255
201 224 255
201 224 255
201 224 255
201 224 255
201 224 255
201 224 255
201 224 255
201 224 255
201 224 255
201 224 255
201 225 255
201 225 255
201 225 255
201 225 255
201 225 255
202 225 255
202 225 255
202 225 255
202 225 255
202 225 255
202 225 255
202 225 255
202 225 255
202 225 255
202 225 255
202 225 255
202 225 255
202 225 255
202 225 255
202 225 255
203 225 255
203 225 255
203 225 255
203 225 255
203 225 255
203 225 255
203 225 255
203 225 255
203 225 255
203 226 255
203 226 255
203 226 255
203 226 255
203 226 255
203 226 255
204 226 255
204 226 255
204 226 255
204 226 255
204 226 255
204 226 255
204 226 255
204 226 255
204 226 255
204 226 255
204 226 255
204 226 255
204 226 255
204 226 255
204 226 255
204 226 255
204 226 255
205 226 255
205 226 255
205 226 255
205 226 255
205 226 255
205 226 255
205 226 255
205 227 255
205 227 255
205 227 255
205 227 255
205 227 255
205 227 255
205 227 255
205 227 255
205 227 255
205 227 255
205 227 255
206 227 255
206 227 255
206 227 255
206 227 255
206 227 255
206 227 255
206 227 255
206 227 255
206 227 255
206 227 255
206 227 255
206 227 255
206 227 255
206 227 255
206 227 255
206 227 255
206 227 255
206 227 255
206 227 255
206 227 255
206 227 255
206 227 255
206 227 255
206 227 255
205 227 255
205 227 255
205 227 255
205 227 255
205 227 255
205 227 255
205 227 255
205 227 255
205 227 255
205 227 255
205 227 255
205 226 255
205 226 255
205 226 255
205 226 255
205 226 255
205 226 255
205 226 255
204 226 255
204 226 255
204 226 255
204 226 255
204 226 255
204 226 255
204 226 255
204 226 255
204 226 255
204 226 255
204 226 255
204 226 255
204 226 255
204 226 255
204 226 255
204 226 255
204 226 255
203 226 255
203 226 255
203 226 255
203 226 255
203 226 255
203 226 255
203 226 255
203 225 255
203 225 255
203 225 255
203 225 255
203 225 255
203 225 255
203 225 255
203 225 255
203 225 255
202 225 255
202 225 255
202 225 255
202 225 255
202 225 255
202 225 255
202 225 255
202 225 255
202 225 255
202 225 255
202 225 255
202 225 255
202 225 255
202 225 255
202 225 255
201 225 255
201 225 255
201 225 255
201 225 255
201 224 255
201 224 255
201 224 255
201 224 255
201 224 255
201 224 255
201 224 255
201 224 255
201 224 255
201 224 255
200 224 255
200 224 255
200 224 255
200 224 255
200 224 255
200 224 255
200 224 255
200 224 255
200 224 255
200 224 255
200 224 255
200 224 255
200 224 255
200 224 255
200 224 255
199 224 255
199 224 255
199 223 255
199 223 255
199 223 255
199 223 255
199 223 255
199 223 255
199 223 255
199 223 255
199 223 255
199 223 255
199 223 255
199 223 255
199 223 255
198 223 255
198 223 255
198 223 255
198 223 255
198 223 255
198 223 255
198 223 255
198 223 255
198 223 255
198 223 255
198 223 255
198 223 255
198 223 255
198 223 255
198 223 255
197 223 255
197 222 255
197 222 255
197 222 255
197 222 255
197 222 255
197 222 255
197 222 255
197 222 255
197 222 255
197 222 255
197 222 255
197 222 255
197 222 255
197 222 255
197 222 255
197 222 255
197 222 255
197 222 255
196 222 255
196 222 255
196 222 255
196 222 255
196 222 255
196 222 255
196 222 255
196 222 255
196 222 255
196 222 255
196 222 255
196 222 255
196 222 255
196 222 255
196 222 255
196 222 255
196 222 255
196 222 255
196 222 255
196 222 255
196 222 255
196 222 255
196 222 255
196 222 255
196 222 255
196 222 255
196 222 255
196 222 255
196 221 255
196 221 255
196 221 255
196 221 255
195 221 255
195 221 255
195 221 255
195 221 255
195 221 255
195 221 255
195 221 255
195 221 255
195 221 255
195 221 255
195 221 255
195 221 255
195 221 255
195 221 255
195 221 255
195 221 255
195 221 255
195 221 255
195 221 255
195 221 255
195 221 255
195 221 255
196 221 255
196 221 255
196 221 255
196 221 255
196 221 255
196 222 255
196 222 255
196 222 255
196 222 255
196 222 255
196 222 255
196 222 255
196 222 255
196 222 255
196 222 255
196 222 255
196 222 255
196 222 255
196 222 255
196 222 255
196 222 255
196 222 255
196 222 255
196 222 255
196 222 255
196 222 255
196 222 255
196 222 255
196 222 255
196 222 255
196 222 255
196 222 255
197 222 255
197 222 255
197 222 255
197 222 255
197 222 255
197 222 255
197 222 255
197 222 255
197 222 255
197 222 255
197 222 255
197 222 255
197 222 255
197 222 255
197 222 255
197 222 255
197 222 255
197 222 255
198 223 255
198 223 255
198 223 255
198 223 255
198 223 255
198 223 255
198 223 255
198 223 255
198 223 255
198 223 255
198 223 255
198 223 255
198 223 255
198 223 255
198 223 255
198 223 255
198 223 255
199 223 255
199 223 255
199 223 255
199 223 255
199 223 255
199 223 255
199 223 255
199 223 255
199 223 255
199 223 255
199 223 255
199 223 255
199 224 255
199 224 255
200 224 255
200 224 255
200 224 255
200 224 255
200 224 255
200 224 255
200 224 255
200 224 255
200 224 255
200 224 255
200 224 255
200 224 255
200 224 255
200 224 255
200 224 255
201 224 255
201 224 255
201 224 255
201 224 255
201 224 255
201 224 255
201 224 255
201 224 255
201 224 255
201 224 255
201 225 255
201 225 255
201 225 255
201 225 255
202 225 255
202 225 255
202 225 255
202 225 255
202 225 255
202 225 255
202 225 255
202 225 255
202 225 255
202 225 255
202 225 255
202 225 255
202 225 255
202 225 255
202 225 255
203 225 255
203 225 255
203 225 255
203 225 255
203 225 255
203 225 255
203 225 255
203 225 255
203 225 255
203 226 255
203 226 255
203 226 255
203 226 255
203 226 255
203 226 255
203 226 255
204 226 255
204 226 255
204 226 255
204 226 255
204 226 255
204 226 255
204 226 255
204 226 255
204 226 255
204 226 255
204 226 255
204 226 255
204 226 255
204 226 255
204 226 255
204 226 255
204 226 255
205 226 255
205 226 255
205 226 255
205 226 255
205 226 255
205 226 255
205 226 255
205 227 255
205 227 255
205 227 255
205 227 255
205 227 255
205 227 255
205 227 255
205 227 255
205 227 255
205 227 255
205 227 255
206 227 255
206 227 255
206 227 255
206 227 255
206 227 255
206 227 255
206 227 255
206 227 255
206 227 255
206 227 255
206 227 255
206 227 255
206 227 255
206 227 255
206 227 255
206 227 255
206 227 255
206 227 255
206 227 255
206 227 255
206 227 255
206 227 255
206 227 255
206 227 255
206 227 255
206 227 255
206 227 255
206 227 255
206 227 255
205 227 255
205 227 255
205 227 255
205 227 255
205 227 255
205 227 255
205 227 255
205 227 255
205 227 255
205 227 255
205 227 255
205 226 255
205 226 255
205 226 255
205 226 255
205 226 255
205 226 255
205 226 255
204 226 255
204 226 255
204 226 255
204 226 255
204 226 255
204 226 255
204 226 255
204 226 255
204 226 255
204 226 255
204 226 255
204 226 255
204 226 255
204 226 255
204 226 255
204 226 255
203 226 255
203 226 255
203 226 255
203 226 255
203 226 255
203 226 255
203 226 255
203 225 255
203 225 255
203 225 255
203 225 255
203 225 255
203 225 255
203 225 255
203 225 255
203 225 255
202 225 255
202 225 255
202 225 255
202 225 255
202 225 255
202 225 255
202 225 255
202 225 255
202 225 255
202 225 255
202 225 255
202 225 255
202 225 255
202 225 255
202 225 255
201 225 255
201 225 255
201 225 255
201 225 255
201 224 255
201 224 255
201 224 255
201 224 255
201 224 255
201 224 255
201 224 255
201 224 255
201 224 255
201 224 255
200 224 255
200 224 255
200 224 255
200 224 255
200 224 255
200 224 255
200 224 255
200 224 255
200 224 255
200 224 255
200 224 255
200 224 255
200 224 255
200 224 255
200 224 255
199 224 255
199 224 255
199 223 255
199 223 255
199 223 255
199 223 255
199 223 255
199 223 255
199 223 255
199 223 255
199 223 255
199 223 255
199 223 255
199 223 255
199 223 255
198 223 255
198 223 255
198 223 255
198 223 255
198 223 255
198 223 255
198 223 255
198 223 255
198 223 255
198 223 255
198 223 255
198 223 255
198 223 255
198 223 255
198 223 255
198 223 255
197 223 255
197 222 255
197 222 255
197 222 255
197 222 255
197 222 255
197 222 255
197 222 255
197 222 255
197 222 255
197 222 255
197 222 255
197 222 255
197 222 255
197 222 255
197 222 255
197 222 255
197 222 255
197 222 255
197 222 255
196 222 255
196 222 255
196 222 255
196 222 255
196 222 255
196 222 255
196 222 255
196 222 255
196 222 255
196 222 255
196 222 255
196 222 255
196 222 255
196 222 255
196 222 255
196 222 255
196 222 255
196 222 255
196 222 255
196 222 255
196 222 255
196 222 255
196 222 255
196 222 255
196 222 255
196 222 255
196 222 255
196 222 255
196 222 255
196 222 255
196 222 255
196 222 255
196 222 255
196 222 255
196 222 255
196 222 255
196 222 255
196 222 255
196 222 255
196 222 255
196 222 255
196 222 255
196 222 255
196 222 255
196 222 255
196 222 255
196 222 255
196 222 255
196 222 255
196 222 255
196 222 255
196 222 255
196 222 255
196 222 255
196 222 255
196 222 255
196 222 255
196 222 255
196 222 255
196 222 255
196 222 255
196 222 255
196 222 255
196 222 255
196 222 255
196 222 255
196 222 255
196 222 255
196 222 255
196 222 255
196 222 255
196 222 255
196 222 255
196 222 255
196 222 255
196 222 255
196 222 255
196 222 255
197 222 255
197 222 255
197 222 255
197 222 255
197 222 255
197 222 255
197 222 255
197 222 255
197 222 255
197 222 255
197 222 255
197 222 255
197 222 255
197 222 255
197 222 255
197 222 255
197 222 255
197 222 255
197 222 255
197 223 255
198 223 255
198 223 255
198 223 255
198 223 255
198 223 255
198 223 255
198 223 255
198 223 255
198 223 255
198 223 255
198 223 255
198 223 255
198 223 255
198 223 255
198 223 255
198 223 255
199 223 255
199 223 255
199 223 255
199 223 255
199 223 255
199 223 255
199 223 255
199 223 255
199 223 255
199 223 255
199 223 255
199 223 255
199 223 255
199 224 255
199 224 255
200 224 255
200 224 255
200 224 255
200 224 255
200 224 255
200 224 255
200 224 255
200 224 255
200 224 255
200 224 255
200 224 255
200 224 255
200 224 255
200 224 255
200 224 255
201 224 255
201 224 255
201 224 255
201 224 255
201 224 255
201 224 255
201 224 255
201 224 255
201 224 255
201 224 255
201 225 255
201 225 255
201 225 255
201 225 255
202 225 255
202 225 255
202 225 255
202 225 255
202 225 255
202 225 255
202 225 255
202 225 255
202 225 255
202 225 255
202 225 255
202 225 255
202 225 255
202 225 255
202 225 255
203 225 255
203 225 255
203 225 255
203 225 255
203 225 255
203 225 255
203 225 255
203 225 255
203 225 255
203 226 255
203 226 255
203 226 255
203 226 255
203 226 255
203 226 255
203 226 255
204 226 255
204 226 255
204 226 255
204 226 255
204 226 255
204 226 255
204 226 255
204 226 255
204 226 255
204 226 255
204 226 255
204 226 255
204 226 255
204 226 255
204 226 255
204 226 255
205 226 255
205 226 255
205 226 255
205 226 255
205 226 255
205 226 255
205 226 255
205 227 255
205 227 255
205 227 255
205 227 255
205 227 255
205 227 255
205 227 255
205 227 255
205 227 255
205 227 255
205 227 255
206 227 255
206 227 255
206 227 255
206 227 255
206 227 255
206 227 255
206 227 255
206 227 255
206 227 255
206 227 255
206 227 255
206 227 255
206 227 255
206 227 255
206 227 255
206 227 255
206 227 255
206 227 255
206 227 255
206 227 255
206 227 255
206 227 255
206 227 255
206 227 255
206 227 255
206 227 255
206 227 255
206 227 255
206 227 255
206 227 255
206 227 255
206 227 255
206 227 255
206 227 255
205 227 255
205 227 255
205 227 255
205 227 255
205 227 255
205 227 255
205 227 255
205 227 255
205 227 255
205 227 255
205 227 255
205 226 255
205 226 255
205 226 255
205 226 255
205 226 255
205 226 255
205 226 255
204 226 255
204 226 255
204 226 255
204 226 255
204 226 255
204 226 255
204 226 255
204 226 255
204 226 255
204 226 255
204 226 255
204 226 255
204 226 255
204 226 255
204 226 255
204 226 255
204 226 255
203 226 255
203 226 255
203 226 255
203 226 255
203 226 255
203 226 255
203 226 255
203 225 255
203 225 255
203 225 255
203 225 255
203 225 255
203 225 255
203 225 255
203 225 255
202 225 255
202 225 255
202 225 255
202 225 255
202 225 255
202 225 255
202 225 255
202 225 255
202 225 255
202 225 255
202 225 255
202 225 255
202 225 255
202 225 255
202 225 255
201 225 255
201 225 255
201 225 255
201 225 255
201 225 255
201 224 255
201 224 255
201 224 255
201 224 255
201 224 255
201 224 255
201 224 255
201 224 255
201 224 255
201 224 255
200 224 255
200 224 255
200 224 255
200 224 255
200 224 255
200 224 255
200 224 255
200 224 255
200 224 255
200 224 255
200 224 255
200 224 255
200 224 255
200 224 255
199 224 255
199 224 255
199 224 255
199 223 255
199 223 255
199 223 255
199 223 255
199 223 255
199 223 255
199 223 255
199 223 255
199 223 255
199 223 255
199 223 255
199 223 255
199 223 255
198 223 255
198 223 255
198 223 255
198 223 255
198 223 255
198 223 255
198 223 255
198 223 255
198 223 255
198 223 255
198 223 255
198 223 255
198 223 255
198 223 255
198 223 255
198 223 255
197 223 255
197 222 255
197 222 255
197 222 255
197 222 255
197 222 255
197 222 255
197 222 255
197 222 255
197 222 255
197 222 255
197 222 255
197 222 255
197 222 255
197 222 255
197 222 255
197 222 255
197 222 255
197 222 255
197 222 255
197 222 255
196 222 255
196 222 255
196 222 255
196 222 255
196 222 255
196 222 255
196 222 255
196 222 255
196 222 255
196 222 255
196 222 255
196 222 255
196 222 255
196 222 255
196 222 255
196 222 255
196 222 255
196 222 255
196 222 255
196 222 255
196 222 255
196 222 255
196 222 255
196 222 255
196 222 255
196 222 255
196 222 255
196 222 255
196 222 255
196 222 255
196 222 255
196 222 255
196 222 255
196 222 255
196 222 255
196 222 255
196 222 255
196 222 255
196 222 255
196 222 255
196 222 255
196 222 255
196 222 255
196 222 255
196 222 255
196 222 255
196 222 255
196 222 255
196 222 255
196 222 255
196 222 255
196 222 255
196 222 255
196 222 255
196 222 255
196 222 255
196 222 255
196 222 255
196 222 255
196 222 255
196 222 255
196 222 255
196 222 255
196 222 255
196 222 255
196 222 255
196 222 255
196 222 255
196 222 255
196 222 255
197 222 255
197 222 255
197 222 255
197 222 255
197 222 255
197 222 255
197 222 255
197 222 255
197 222 255
197 222 255
197 222 255
197 222 255
197 222 255
197 222 255
197 222 255
197 222 255
197 222 255
197 222 255
197 222 255
197 222 255
197 223 255
198 223 255
198 223 255
198 223 255
198 223 255
198 223 255
198 223 255
198 223 255
198 223 255
198 223 255
198 223 255
198 223 255
198 223 255
198 223 255
198 223 255
198 223 255
198 223 255
199 223 255
199 223 255
199 223 255
199 223 255
199 223 255
199 223 255
199 223 255
199 223 255
199 223 255
199 223 255
199 223 255
199 223 255
199 223 255
199 224 255
199 224 255
199 224 255
200 224 255
200 224 255
200 224 255
200 224 255
200 224 255
200 224 255
200 224 255
200 224 255
200 224 255
200 224 255
200 224 255
200 224 255
200 224 255
200 224 255
201 224 255
201 224 255
201 224 255
201 224 255
201 224 255
201 224 255
201 224 255
201 224 255
201 224 255
201 224 255
201 225 255
201 225 255
201 225 255
201 225 255
201 225 255
202 225 255
202 225 255
202 225 255
202 225 255
202 225 255
202 225 255
202 225 255
202 225 255
202 225 255
202 225 255
202 225 255
202 225 255
202 225 255
202 225 255
202 225 255
203 225 255
203 225 255
203 225 255
203 225 255
203 225 255
203 225 255
203 225 255
203 225 255
203 226 255
203 226 255
203 226 255
203 226 255
203 226 255
203 226 255
203 226 255
204 226 255
204 226 255
204 226 255
204 226 255
204 226 255
204 226 255
204 226 255
204 226 255
204 226 255
204 226 255
204 226 255
204 226 255
204 226 255
204 226 255
204 226 255
204 226 255
204 226 255
205 226 255
205 226 255
205 226 255
205 226 255
205 226 255
205 226 255
205 226 255
205 227 255
205 227 255
205 227 255
205 227 255
205 227 255
205 227 255
205 227 255
205 227 255
205 227 255
205 227 255
205 227 255
206 227 255
206 227 255
206 227 255
206 227 255
206 227 255
206 227 255
206 227 255
206 227 255
206 227 255
206 227 255
206 227 255
206 227 255
206 227 255
206 227 255
206 227 255
206 227 255
206 227 255
206 227 255
207 227 255
207 227 255
206 227 255
206 227 255
206 227 255
206 227 255
206 227 255
206 227 255
206 227 255
206 227 255
206 227 255
206 227 255
206 227 255
206 227 255
206 227 255
206 227 255
206 227 255
206 227 255
206 227 255
206 227 255
206 227 255
205 227 255
205 227 255
205 227 255
205 227 255
205 227 255
205 227 255
205 227 255
205 227 255
205 227 255
205 227 255
205 227 255
205 226 255
205 226 255
205 226 255
205 226 255
205 226 255
205 226 255
205 226 255
204 226 255
204 226 255
204 226 255
204 226 255
204 226 255
204 226 255
204 226 255
204 226 255
204 226 255
204 226 255
204 226 255
204 226 255
204 226 255
204 226 255
204 226 255
204 226 255
203 226 255
203 226 255
203 226 255
203 226 255
203 226 255
203 226 255
203 226 255
203 225 255
203 225 255
203 225 255
203 225 255
203 225 255
203 225 255
203 225 255
203 225 255
203 225 255
202 225 255
202 225 255
202 225 255
202 225 255
202 225 255
202 225 255
202 225 255
202 225 255
202 225 255
202 225 255
202 225 255
202 225 255
202 225 255
202 225 255
202 225 255
201 225 255
201 225 255
201 225 255
201 225 255
201 224 255
201 224 255
201 224 255
201 224 255
201 224 255
201 224 255
201 224 255
201 224 255
201 224 255
201 224 255
200 224 255
200 224 255
200 224 255
200 224 255
200 224 255
200 224 255
200 224 255
200 224 255
200 224 255
200 224 255
200 224 255
200 224 255
200 224 255
200 224 255
200 224 255
199 224 255
199 224 255
199 223 255
199 223 255
199 223 255
199 223 255
199 223 255
199 223 255
199 223 255
199 223 255
199 223 255
199 223 255
199 223 255
199 223 255
199 223 255
198 223 255
198 223 255
198 223 255
198 223 255
198 223 255
198 223 255
198 223 255
198 223 255
198 223 255
198 223 255
198 223 255
198 223 255
198 223 255
198 223 255
198 223 255
198 223 255
198 223 255
197 223 255
197 222 255
197 222 255
197 222 255
197 222 255
197 222 255
197 222 255
197 222 255
197 222 255
197 222 255
197 222 255
197 222 255
197 222 255
197 222 255
197 222 255
197 222 255
197 222 255
197 222 255
197 222 255
197 222 255
197 222 255
197 222 255
196 222 255
196 222 255
196 222 255
196 222 255
196 222 255
196 222 255
196 222 255
196 222 255
196 222 255
196 222 255
196 222 255
196 222 255
196 222 255
196 222 255
196 222 255
196 222 255
196 222 255
196 222 255
196 222 255
196 222 255
196 222 255
196 222 255
196 222 255
196 222 255
196 222 255
196 222 255
196 222 255
196 222 255
196 222 255
196 222 255
196 222 255
196 222 255
196 222 255
196 222 255
196 222 255
196 222 255
196 222 255
196 222 255
196 222 255
196 222 255
196 222 255
196 222 255
196 222 255
196 222 255
196 222 255
196 222 255
196 222 255
196 222 255
196 222 255
196 222 255
196 222 255
196 222 255
196 222 255
196 222 255
196 222 255
196 222 255
196 222 255
196 222 255
196 222 255
196 222 255
196 222 255
196 222 255
197 222 255
197 222 255
197 222 255
197 222 255
197 222 255
197 222 255
197 222 255
197 222 255
197 222 255
197 222 255
197 222 255
197 222 255
197 222 255
197 222 255
197 222 255
197 222 255
197 222 255
197 222 255
197 222 255
197 222 255
197 222 255
197 223 255
198 223 255
198 223 255
198 223 255
198 223 255
198 223 255
198 223 255
198 223 255
198 223 255
198 223 255
198 223 255
198 223 255
198 223 255
198 223 255
198 223 255
198 223 255
198 223 255
198 223 255
199 223 255
199 223 255
199 223 255
199 223 255
199 223 255
199 223 255
199 223 255
199 223 255
199 223 255
199 223 255
199 223 255
199 223 255
199 223 255
199 224 255
199 224 255
200 224 255
200 224 255
200 224 255
200 224 255
200 224 255
200 224 255
200 224 255
200 224 255
200 224 255
200 224 255
200 224 255
200 224 255
200 224 255
200 224 255
200 224 255
201 224 255
201 224 255
201 224 255
201 224 255
201 224 255
201 224 255
201 224 255
201 224 255
201 224 255
201 224 255
201 225 255
201 225 255
201 225 255
201 225 255
202 225 255
202 225 255
202 225 255
202 225 255
202 225 255
202 225 255
202 225 255
202 225 255
202 225 255
202 225 255
202 225 255
202 225 255
202 225 255
202 225 255
202 225 255
203 225 255
203 225 255
203 225 255
203 225 255
203 225 255
203 225 255
203 225 255
203 225 255
203 225 255
203 226 255
203 226 255
203 226 255
203 226 255
203 226 255
203 226 255
203 226 255
204 226 255
204 226 255
204 226 255
204 226 255
204 226 255
204 226 255
204 226 255
204 226 255
204 226 255
204 226 255
204 226 255
204 226 255
204 226 255
204 226 255
204 226 255
204 226 255
205 226 255
205 226 255
205 226 255
205 226 255
205 226 255
205 226 255
205 226 255
205 227 255
205 227 255
205 227 255
205 227 255
205 227 255
205 227 255
205 227 255
205 227 255
205 227 255
205 227 255
205 227 255
206 227 255
206 227 255
206 227 255
206 227 255
206 227 255
206 227 255
206 227 255
206 227 255
206 227 255
206 227 255
206 227 255
206 227 255
206 227 255
206 227 255
206 227 255
206 227 255
206 227 255
206 227 255
206 227 255
207 227 255
207 227 255
207 227 255
207 227 255
207 227 255
207 227 255
206 227 255
206 227 255
206 227 255
206 227 255
206 227 255
206 227 255
206 227 255
206 227 255
206 227 255
206 227 255
206 227 255
206 227 255
206 227 255
206 227 255
206 227 255
206 227 255
206 227 255
206 227 255
206 227 255
206 227 255
205 227 255
205 227 255
205 227 255
205 227 255
205 227 255
205 227 255
205 227 255
205 227 255
205 227 255
205 227 255
205 226 255
205 226 255
205 226 255
205 226 255
205 226 255
205 226 255
205 226 255
204 226 255
204 226 255
204 226 255
204 226 255
204 226 255
204 226 255
204 226 255
204 226 255
204 226 255
204 226 255
204 226 255
204 226 255
204 226 255
204 226 255
204 226 255
204 226 255
204 226 255
203 226 255
203 226 255
203 226 255
203 226 255
203 226 255
203 226 255
203 226 255
203 225 255
203 225 255
203 225 255
203 225 255
203 225 255
203 225 255
203 225 255
203 225 255
202 225 255
202 225 255
202 225 255
202 225 255
202 225 255
202 225 255
202 225 255
202 225 255
202 225 255
202 225 255
202 225 255
202 225 255
202 225 255
202 225 255
202 225 255
201 225 255
201 225 255
201 225 255
201 225 255
201 224 255
201 224 255
201 224 255
201 224 255
201 224 255
201 224 255
201 224 255
201 224 255
201 224 255
201 224 255
201 224 255
200 224 255
200 224 255
200 224 255
200 224 255
200 224 255
200 224 255
200 224 255
200 224 255
200 224 255
200 224 255
200 224 255
200 224 255
200 224 255
200 224 255
199 224 255
199 224 255
199 224 255
199 223 255
199 223 255
199 223 255
199 223 255
199 223 255
199 223 255
199 223 255
199 223 255
199 223 255
199 223 255
199 223 255
199 223 255
199 223 255
198 223 255
198 223 255
198 223 255
198 223 255
198 223 255
198 223 255
198 223 255
198 223 255
198 223 255
198 223 255
198 223 255
198 223 255
198 223 255
198 223 255
198 223 255
198 223 255
198 223 255
197 223 255
197 222 255
197 222 255
197 222 255
197 222 255
197 222 255
197 222 255
197 222 255
197 222 255
197 222 255
197 222 255
197 222 255
197 222 255
197 222 255
197 222 255
197 222 255
197 222 255
197 222 255
197 222 255
197 222 255
197 222 255
197 222 255
197 222 255
197 222 255
196 222 255
196 222 255
196 222 255
196 222 255
196 222 255
196 222 255
196 222 255
196 222 255
196 222 255
196 222 255
196 222 255
196 222 255
196 222 255
196 222 255
196 222 255
196 222 255
196 222 255
196 222 255
196 222 255
196 222 255
196 222 255
196 222 255
196 222 255
196 222 255
196 222 255
196 222 255
196 222 255
196 222 255
196 222 255
196 222 255
196 222 255
196 222 255
196 222 255
196 222 255
196 222 255
196 222 255
196 222 255
196 222 255
196 222 255
196 222 255
196 222 255
196 222 255
196 222 255
196 222 255
196 222 255
196 222 255
196 222 255
196 222 255
196 222 255
196 222 255
196 222 255
196 222 255
197 222 255
197 222 255
197 222 255
197 222 255
197 222 255
197 222 255
197 222 255
197 222 255
197 222 255
197 222 255
197 222 255
197 222 255
197 222 255
197 222 255
197 222 255
197 222 255
197 222 255
197 222 255
197 222 255
197 222 255
197 222 255
197 222 255
197 222 255
197 223 255
198 223 255
198 223 255
198 223 255
198 223 255
198 223 255
198 223 255
198 223 255
198 223 255
198 223 255
198 223 255
198 223 255
198 223 255
198 223 255
198 223 255
198 223 255
198 223 255
198 223 255
199 223 255
199 223 255
199 223 255
199 223 255
199 223 255
199 223 255
199 223 255
199 223 255
199 223 255
199 223 255
199 223 255
199 223 255
199 223 255
199 224 255
199 224 255
199 224 255
200 224 255
200 224 255
200 224 255
200 224 255
200 224 255
200 224 255
200 224 255
200 224 255
200 224 255
200 224 255
200 224 255
200 224 255
200 224 255
200 224 255
201 224 255
201 224 255
201 224 255
201 224 255
201 224 255
201 224 255
201 224 255
201 224 255
201 224 255
201 224 255
201 224 255
201 225 255
201 225 255
201 225 255
201 225 255
202 225 255
202 225 255
202 225 255
202 225 255
202 225 255
202 225 255
202 225 255
202 225 255
202 225 255
202 225 255
202 225 255
202 225 255
202 225 255
202 225 255
202 225 255
203 225 255
203 225 255
203 225 255
203 225 255
203 225 255
203 225 255
203 225 255
203 225 255
203 226 255
203 226 255
203 226 255
203 226 255
203 226 255
203 226 255
203 226 255
204 226 255
204 226 255
204 226 255
204 226 255
204 226 255
204 226 255
204 226 255
204 226 255
204 226 255
204 226 255
204 226 255
204 226 255
204 226 255
204 226 255
204 226 255
204 226 255
204 226 255
205 226 255
205 226 255
205 226 255
205 226 255
205 226 255
205 226 255
205 226 255
205 227 255
205 227 255
205 227 255
205 227 255
205 227 255
205 227 255
205 227 255
205 227 255
205 227 255
205 227 255
206 227 255
206 227 255
206 227 255
206 227 255
206 227 255
206 227 255
206 227 255
206 227 255
206 227 255
206 227 255
206 227 255
206 227 255
206 227 255
206 227 255
206 227 255
206 227 255
206 227 255
206 227 255
206 227 255
206 227 255
207 227 255
207 227 255
207 227 255
207 227 255
207 228 255
207 228 255
207 227 255
207 227 255
207 227 255
207 227 255
207 227 255
206 227 255
206 227 255
206 227 255
206 227 255
206 227 255
206 227 255
206 227 255
206 227 255
206 227 255
206 227 255
206 227 255
206 227 255
206 227 255
206 227 255
206 227 255
206 227 255
206 227 255
206 227 255
206 227 255
205 227 255
205 227 255
205 227 255
205 227 255
205 227 255
205 227 255
205 227 255
205 227 255
205 227 255
205 227 255
205 227 255
205 226 255
205 226 255
205 226 255
205 226 255
205 226 255
205 226 255
205 226 255
204 226 255
204 226 255
204 226 255
204 226 255
204 226 255
204 226 255
204 226 255
204 226 255
204 226 255
204 226 255
204 226 255
204 226 255
204 226 255
204 226 255
204 226 255
204 226 255
203 226 255
203 226 255
203 226 255
203 226 255
203 226 255
203 226 255
203 226 255
203 225 255
203 225 255
203 225 255
203 225 255
203 225 255
203 225 255
203 225 255
203 225 255
203 225 255
202 225 255
202 225 255
202 225 255
202 225 255
202 225 255
202 225 255
202 225 255
202 225 255
202 225 255
202 225 255
202 225 255
202 225 255
202 225 255
202 225 255
201 225 255
201 225 255
201 225 255
201 225 255
201 225 255
201 224 255
201 224 255
201 224 255
201 224 255
201 224 255
201 224 255
201 224 255
201 224 255
201 224 255
201 224 255
200 224 255
200 224 255
200 224 255
200 224 255
200 224 255
200 224 255
200 224 255
200 224 255
200 224 255
200 224 255
200 224 255
200 224 255
200 224 255
200 224 255
200 224 255
199 224 255
199 224 255
199 223 255
199 223 255
199 223 255
199 223 255
199 223 255
199 223 255
199 223 255
199 223 255
199 223 255
199 223 255
199 223 255
199 223 255
199 223 255
199 223 255
198 223 255
198 223 255
198 223 255
198 223 255
198 223 255
198 223 255
198 223 255
198 223 255
198 223 255
198 223 255
198 223 255
198 223 255
198 223 255
198 223 255
198 223 255
198 223 255
198 223 255
198 223 255
197 222 255
197 222 255
197 222 255
197 222 255
197 222 255
197 222 255
197 222 255
197 222 255
197 222 255
197 222 255
197 222 255
197 222 255
197 222 255
197 222 255
197 222 255
197 222 255
197 222 255
197 222 255
197 222 255
197 222 255
197 222 255
197 222 255
197 222 255
197 222 255
197 222 255
197 222 255
196 222 255
196 222 255
196 222 255
196 222 255
196 222 255
196 222 255
196 222 255
196 222 255
196 222 255
196 222 255
196 222 255
196 222 255
196 222 255
196 222 255
196 222 255
196 222 255
196 222 255
196 222 255
196 222 255
196 222 255
196 222 255
196 222 255
196 222 255
196 222 255
196 222 255
196 222 255
196 222 255
196 222 255
196 222 255
196 222 255
196 222 255
196 222 255
196 222 255
196 222 255
196 222 255
196 222 255
196 222 255
196 222 255
196 222 255
196 222 255
197 222 255
197 222 255
197 222 255
197 222 255
197 222 255
197 222 255
197 222 255
197 222 255
197 222 255
197 222 255
197 222 255
197 222 255
197 222 255
197 222 255
197 222 255
197 222 255
197 222 255
197 222 255
197 222 255
197 222 255
197 222 255
197 222 255
197 222 255
197 222 255
197 222 255
197 222 255
197 223 255
198 223 255
198 223 255
198 223 255
198 223 255
198 223 255
198 223 255
198 223 255
198 223 255
198 223 255
198 223 255
198 223 255
198 223 255
198 223 255
198 223 255
198 223 255
198 223 255
198 223 255
199 223 255
199 223 255
199 223 255
199 223 255
199 223 255
199 223 255
199 223 255
199 223 255
199 223 255
199 223 255
199 223 255
199 223 255
199 223 255
199 223 255
199 224 255
199 224 255
200 224 255
200 224 255
200 224 255
200 224 255
200 224 255
200 224 255
200 224 255
200 224 255
200 224 255
200 224 255
200 224 255
200 224 255
200 224 255
200 224 255
200 224 255
201 224 255
201 224 255
201 224 255
201 224 255
201 224 255
201 224 255
201 224 255
201 224 255
201 224 255
201 224 255
201 225 255
201 225 255
201 225 255
201 225 255
202 225 255
202 225 255
202 225 255
202 225 255
202 225 255
202 225 255
202 225 255
202 225 255
202 225 255
202 225 255
202 225 255
202 225 255
202 225 255
202 225 255
202 225 255
203 225 255
203 225 255
203 225 255
203 225 255
203 225 255
203 225 255
203 225 255
203 225 255
203 225 255
203 226 255
203 226 255
203 226 255
203 226 255
203 226 255
203 226 255
203 226 255
204 226 255
204 226 255
204 226 255
204 226 255
204 226 255
204 226 255
204 226 255
204 226 255
204 226 255
204 226 255
204 226 255
204 226 255
204 226 255
204 226 255
204 226 255
204 226 255
205 226 255
205 226 255
205 226 255
205 226 255
205 226 255
205 226 255
205 226 255
205 227 255
205 227 255
205 227 255
205 227 255
205 227 255
205 227 255
205 227 255
205 227 255
205 227 255
205 227 255
205 227 255
206 227 255
206 227 255
206 227 255
206 227 255
206 227 255
206 227 255
206 227 255
206 227 255
206 227 255
206 227 255
206 227 255
206 227 255
206 227 255
206 227 255
206 227 255
206 227 255
206 227 255
206 227 255
206 227 255
207 227 255
207 227 255
207 227 255
207 227 255
207 227 255
207 228 255
207 228 255
207 228 255
207 228 255
207 228 255
207 228 255
207 228 255
207 227 255
207 227 255
207 227 255
207 227 255
207 227 255
206 227 255
206 227 255
206 227 255
206 227 255
206 227 255
206 227 255
206 227 255
206 227 255
206 227 255
206 227 255
206 227 255
206 227 255
206 227 255
206 227 255
206 227 255
206 227 255
206 227 255
206 227 255
206 227 255
205 227 255
205 227 255
205 227 255
205 227 255
205 227 255
205 227 255
205 227 255
205 227 255
205 227 255
205 227 255
205 227 255
205 226 255
205 226 255
205 226 255
205 226 255
205 226 255
205 226 255
204 226 255
204 226 255
204 226 255
204 226 255
204 226 255
204 226 255
204 226 255
204 226 255
204 226 255
204 226 255
204 226 255
204 226 255
204 226 255
204 226 255
204 226 255
204 226 255
204 226 255
203 226 255
203 226 255
203 226 255
203 226 255
203 226 255
203 226 255
203 225 255
203 225 255
203 225 255
203 225 255
203 225 255
203 225 255
203 225 255
203 225 255
203 225 255
202 225 255
202 225 255
202 225 255
202 225 255
202 225 255
202 225 255
202 225 255
202 225 255
202 225 255
202 225 255
202 225 255
202 225 255
202 225 255
202 225 255
202 225 255
201 225 255
201 225 255
201 225 255
201 225 255
201 224 255
201 224 255
201 224 255
201 224 255
201 224 255
201 224 255
201 224 255
201 224 255
201 224 255
201 224 255
201 224 255
200 224 255
200 224 255
200 224 255
200 224 255
200 224 255
200 224 255
200 224 255
200 224 255
200 224 255
200 224 255
200 224 255
200 224 255
200 224 255
200 224 255
199 224 255
199 224 255
199 224 255
199 223 255
199 223 255
199 223 255
199 223 255
199 223 255
199 223 255
199 223 255
199 223 255
199 223 255
199 223 255
199 223 255
199 223 255
199 223 255
199 223 255
198 223 255
198 223 255
198 223 255
198 223 255
198 223 255
198 223 255
198 223 255
198 223 255
198 223 255
198 223 255
198 223 255
198 223 255
198 223 255
198 223 255
198 223 255
198 223 255
198 223 255
198 223 255
197 223 255
197 222 255
197 222 255
197 222 255
197 222 255
197 222 255
197 222 255
197 222 255
197 222 255
197 222 255
197 222 255
197 222 255
197 222 255
197 222 255
197 222 255
197 222 255
197 222 255
197 222 255
197 222 255
197 222 255
197 222 255
197 222 255
197 222 255
197 222 255
197 222 255
197 222 255
197 222 255
197 222 255
197 222 255
197 222 255
197 222 255
197 222 255
196 222 255
196 222 255
196 222 255
196 222 255
196 222 255
196 222 255
196 222 255
196 222 255
196 222 255
196 222 255
196 222 255
196 222 255
196 222 255
196 222 255
196 222 255
196 222 255
196 222 255
196 222 255
196 222 255
196 222 255
196 222 255
196 222 255
197 222 255
197 222 255
197 222 255
197 222 255
197 222 255
197 222 255
197 222 255
197 222 255
197 222 255
197 222 255
197 222 255
197 222 255
197 222 255
197 222 255
197 222 255
197 222 255
197 222 255
197 222 255
197 222 255
197 222 255
197 222 255
197 222 255
197 222 255
197 222 255
197 222 255
197 222 255
197 222 255
197 222 255
197 222 255
197 222 255
197 222 255
197 223 255
198 223 255
198 223 255
198 223 255
198 223 255
198 223 255
198 223 255
198 223 255
198 223 255
198 223 255
198 223 255
198 223 255
198 223 255
198 223 255
198 223 255
198 223 255
198 223 255
198 223 255
198 223 255
198 223 255
199 223 255
199 223 255
199 223 255
199 223 255
199 223 255
199 223 255
199 223 255
199 223 255
199 223 255
199 223 255
199 223 255
199 223 255
199 223 255
199 224 255
199 224 255
199 224 255
200 224 255
200 224 255
200 224 255
200 224 255
200 224 255
200 224 255
200 224 255
200 224 255
200 224 255
200 224 255
200 224 255
200 224 255
200 224 255
200 224 255
201 224 255
201 224 255
201 224 255
201 224 255
201 224 255
201 224 255
201 224 255
201 224 255
201 224 255
201 224 255
201 224 255
201 225 255
201 225 255
201 225 255
201 225 255
202 225 255
202 225 255
202 225 255
202 225 255
202 225 255
202 225 255
202 225 255
202 225 255
202 225 255
202 225 255
202 225 255
202 225 255
202 225 255
202 225 255
202 225 255
203 225 255
203 225 255
203 225 255
203 225 255
203 225 255
203 225 255
203 225 255
203 225 255
203 225 255
203 226 255
203 226 255
203 226 255
203 226 255
203 226 255
203 226 255
204 226 255
204 226 255
204 226 255
204 226 255
204 226 255
204 226 255
204 226 255
204 226 255
204 226 255
204 226 255
204 226 255
204 226 255
204 226 255
204 226 255
204 226 255
204 226 255
204 226 255
205 226 255
205 226 255
205 226 255
205 226 255
205 226 255
205 226 255
205 226 255
205 227 255
205 227 255
205 227 255
205 227 255
205 227 255
205 227 255
205 227 255
205 227 255
205 227 255
205 227 255
206 227 255
206 227 255
206 227 255
206 227 255
206 227 255
206 227 255
206 227 255
206 227 255
206 227 255
206 227 255
206 227 255
206 227 255
206 227 255
206 227 255
206 227 255
206 227 255
206 227 255
206 227 255
206 227 255
207 227 255
207 227 255
207 227 255
207 227 255
207 227 255
207 228 255
207 228 255
207 228 255
207 228 255
207 228 255
207 228 255
207 228 255
207 228 255
207 228 255
207 228 255
207 228 255
207 228 255
207 228 255
207 227 255
207 227 255
207 227 255
207 227 255
207 227 255
206 227 255
206 227 255
206 227 255
206 227 255
206 227 255
206 227 255
206 227 255
206 227 255
206 227 255
206 227 255
206 227 255
206 227 255
206 227 255
206 227 255
206 227 255
206 227 255
206 227 255
206 227 255
206 227 255
205 227 255
205 227 255
205 227 255
205 227 255
205 227 255
205 227 255
205 227 255
205 227 255
205 227 255
205 227 255
205 226 255
205 226 255
205 226 255
205 226 255
205 226 255
205 226 255
205 226 255
204 226 255
204 226 255
204 226 255
204 226 255
204 226 255
204 226 255
204 226 255
204 226 255
204 226 255
204 226 255
204 226 255
204 226 255
204 226 255
204 226 255
204 226 255
204 226 255
203 226 255
203 226 255
203 226 255
203 226 255
203 226 255
203 226 255
203 226 255
203 225 255
203 225 255
203 225 255
203 225 255
203 225 255
203 225 255
203 225 255
203 225 255
202 225 255
202 225 255
202 225 255
202 225 255
202 225 255
202 225 255
202 225 255
202 225 255
202 225 255
202 225 255
202 225 255
202 225 255
202 225 255
202 225 255
202 225 255
201 225 255
201 225 255
201 225 255
201 225 255
201 225 255
201 224 255
201 224 255
201 224 255
201 224 255
201 224 255
201 224 255
201 224 255
201 224 255
201 224 255
201 224 255
200 224 255
200 224 255
200 224 255
200 224 255
200 224 255
200 224 255
200 224 255
200 224 255
200 224 255
200 224 255
200 224 255
200 224 255
200 224 255
200 224 255
200 224 255
199 224 255
199 224 255
199 224 255
199 223 255
199 223 255
199 223 255
199 223 255
199 223 255
199 223 255
199 223 255
199 223 255
199 223 255
199 223 255
199 223 255
199 223 255
199 223 255
198 223 255
198 223 255
198 223 255
198 223 255
198 223 255
198 223 255
198 223 255
198 223 255
198 223 255
198 223 255
198 223 255
198 223 255
198 223 255
198 223 255
198 223 255
198 223 255
198 223 255
198 223 255
198 223 255
198 223 255
197 223 255
197 222 255
197 222 255
197 222 255
197 222 255
197 222 255
197 222 255
197 222 255
197 222 255
197 222 255
197 222 255
197 222 255
197 222 255
197 222 255
197 222 255
197 222 255
197 222 255
197 222 255
197 222 255
197 222 255
197 222 255
197 222 255
197 222 255
197 222 255
197 222 255
197 222 255
197 222 255
197 222 255
197 222 255
197 222 255
197 222 255
197 222 255
197 222 255
197 222 255
197 222 255
197 222 255
197 222 255
197 222 255
197 222 255
197 222 255
197 222 255
197 222 255
197 222 255
197 222 255
197 222 255
197 222 255
197 222 255
197 222 255
197 222 255
197 222 255
197 222 255
197 222 255
197 222 255
197 222 255
197 222 255
197 222 255
197 222 255
197 222 255
197 222 255
197 222 255
197 222 255
197 222 255
197 222 255
197 222 255
197 222 255
197 222 255
197 222 255
197 222 255
197 222 255
197 222 255
197 222 255
197 222 255
197 222 255
197 222 255
197 222 255
197 222 255
197 222 255
197 222 255
198 223 255
198 223 255
198 223 255
198 223 255
198 223 255
198 223 255
198 223 255
198 223 255
198 223 255
198 223 255
198 223 255
198 223 255
198 223 255
198 223 255
198 223 255
198 223 255
198 223 255
198 223 255
198 223 255
198 223 255
199 223 255
199 223 255
199 223 255
199 223 255
199 223 255
199 223 255
199 223 255
199 223 255
199 223 255
199 223 255
199 223 255
199 223 255
199 223 255
199 224 255
199 224 255
199 224 255
200 224 255
200 224 255
200 224 255
200 224 255
200 224 255
200 224 255
200 224 255
200 224 255
200 224 255
200 224 255
200 224 255
200 224 255
200 224 255
200 224 255
200 224 255
201 224 255
201 224 255
201 224 255
201 224 255
201 224 255
201 224 255
201 224 255
201 224 255
201 224 255
201 224 255
201 225 255
201 225 255
201 225 255
201 225 255
201 225 255
202 225 255
202 225 255
202 225 255
202 225 255
202 225 255
202 225 255
202 225 255
202 225 255
202 225 255
202 225 255
202 225 255
202 225 255
202 225 255
202 225 255
202 225 255
203 225 255
203 225 255
203 225 255
203 225 255
203 225 255
203 225 255
203 225 255
203 225 255
203 226 255
203 226 255
203 226 255
203 226 255
203 226 255
203 226 255
203 226 255
204 226 255
204 226 255
204 226 255
204 226 255
204 226 255
204 226 255
204 226 255
204 226 255
204 226 255
204 226 255
204 226 255
204 226 255
204 226 255
204 226 255
204 226 255
204 226 255
205 226 255
205 226 255
205 226 255
205 226 255
205 226 255
205 226 255
205 226 255
205 227 255
205 227 255
205 227 255
205 227 255
205 227 255
205 227 255
205 227 255
205 227 255
205 227 255
205 227 255
206 227 255
206 227 255
206 227 255
206 227 255
206 227 255
206 227 255
206 227 255
206 227 255
206 227 255
206 227 255
206 227 255
206 227 255
206 227 255
206 227 255
206 227 255
206 227 255
206 227 255
206 227 255
206 227 255
207 227 255
207 227 255
207 227 255
207 227 255
207 227 255
207 228 255
207 228 255
207 228 255
207 228 255
207 228 255
207 228 255
207 228 255
207 228 255
207 228 255
207 228 255
207 228 255
207 228 255
207 228 255
207 228 255
207 228 255
207 228 255
207 228 255
207 228 255
207 228 255
207 227 255
207 227 255
207 227 255
207 227 255
207 227 255
206 227 255
206 227 255
206 227 255
206 227 255
206 227 255
206 227 255
206 227 255
206 227 255
206 227 255
206 227 255
206 227 255
206 227 255
206 227 255
206 227 255
206 227 255
206 227 255
206 227 255
206 227 255
205 227 255
205 227 255
205 227 255
205 227 255
205 227 255
205 227 255
205 227 255
205 227 255
205 227 255
205 227 255
205 227 255
205 226 255
205 226 255
205 226 255
205 226 255
205 226 255
205 226 255
204 226 255
204 226 255
204 226 255
204 226 255
204 226 255
204 226 255
204 226 255
204 226 255
204 226 255
204 226 255
204 226 255
204 226 255
204 226 255
204 226 255
204 226 255
204 226 255
204 226 255
203 226 255
203 226 255
203 226 255
203 226 255
203 226 255
203 226 255
203 225 255
203 225 255
203 225 255
203 225 255
203 225 255
203 225 255
203 225 255
203 225 255
203 225 255
202 225 255
202 225 255
202 225 255
202 225 255
202 225 255
202 225 255
202 225 255
202 225 255
202 225 255
202 225 255
202 225 255
202 225 255
202 225 255
202 225 255
202 225 255
201 225 255
201 225 255
201 225 255
201 225 255
201 224 255
201 224 255
201 224 255
201 224 255
201 224 255
201 224 255
201 224 255
201 224 255
201 224 255
201 224 255
201 224 255
200 224 255
200 224 255
200 224 255
200 224 255
200 224 255
200 224 255
200 224 255
200 224 255
200 224 255
200 224 255
200 224 255
200 224 255
200 224 255
200 224 255
200 224 255
199 224 255
199 224 255
199 223 255
199 223 255
199 223 255
199 223 255
199 223 255
199 223 255
199 223 255
199 223 255
199 223 255
199 223 255
199 223 255
199 223 255
199 223 255
199 223 255
199 223 255
198 223 255
198 223 255
198 223 255
198 223 255
198 223 255
198 223 255
198 223 255
198 223 255
198 223 255
198 223 255
198 223 255
198 223 255
198 223 255
198 223 255
198 223 255
198 223 255
198 223 255
198 223 255
198 223 255
198 223 255
197 223 255
197 222 255
197 222 255
197 222 255
197 222 255
197 222 255
197 222 255
197 222 255
197 222 255
197 222 255
197 222 255
197 222 255
197 222 255
197 222 255
197 222 255
197 222 255
197 222 255
197 222 255
197 222 255
197 222 255
197 222 255
197 222 255
197 222 255
197 222 255
197 222 255
197 222 255
197 222 255
197 222 255
197 222 255
197 222 255
197 222 255
197 222 255
197 222 255
197 222 255
197 222 255
197 222 255
197 222 255
197 222 255
197 222 255
197 222 255
197 222 255
197 222 255
197 222 255
197 222 255
197 222 255
197 222 255
197 222 255
197 222 255
197 222 255
197 222 255
197 222 255
197 222 255
197 222 255
197 222 255
197 222 255
197 222 255
197 222 255
197 222 255
197 222 255
197 222 255
197 222 255
197 222 255
197 222 255
197 222 255
197 222 255
197 222 255
197 222 255
197 222 255
197 222 255
197 223 255
198 223 255
198 223 255
198 223 255
198 223 255
198 223 255
198 223 255
198 223 255
198 223 255
198 223 255
198 223 255
198 223 255
198 223 255
198 223 255
198 223 255
198 223 255
198 223 255
198 223 255
198 223 255
198 223 255
198 223 255
198 223 255
199 223 255
199 223 255
199 223 255
199 223 255
199 223 255
199 223 255
199 223 255
199 223 255
199 223 255
199 223 255
199 223 255
199 223 255
199 223 255
199 224 255
199 224 255
199 224 255
200 224 255
200 224 255
200 224 255
200 224 255
200 224 255
200 224 255
200 224 255
200 224 255
200 224 255
200 224 255
200 224 255
200 224 255
200 224 255
200 224 255
200 224 255
201 224 255
201 224 255
201 224 255
201 224 255
201 224 255
201 224 255
201 224 255
201 224 255
201 224 255
201 224 255
201 224 255
201 225 255
201 225 255
201 225 255
201 225 255
202 225 255
202 225 255
202 225 255
202 225 255
202 225 255
202 225 255
202 225 255
202 225 255
202 225 255
202 225 255
202 225 255
202 225 255
202 225 255
202 225 255
202 225 255
203 225 255
203 225 255
203 225 255
203 225 255
203 225 255
203 225 255
203 225 255
203 225 255
203 225 255
203 226 255
203 226 255
203 226 255
203 226 255
203 226 255
203 226 255
204 226 255
204 226 255
204 226 255
204 226 255
204 226 255
204 226 255
204 226 255
204 226 255
204 226 255
204 226 255
204 226 255
204 226 255
204 226 255
204 226 255
204 226 255
204 226 255
204 226 255
205 226 255
205 226 255
205 226 255
205 226 255
205 226 255
205 226 255
205 227 255
205 227 255
205 227 255
205 227 255
205 227 255
205 227 255
205 227 255
205 227 255
205 227 255
205 227 255
205 227 255
206 227 255
206 227 255
206 227 255
206 227 255
206 227 255
206 227 255
206 227 255
206 227 255
206 227 255
206 227 255
206 227 255
206 227 255
206 227 255
206 227 255
206 227 255
206 227 255
206 227 255
206 227 255
207 227 255
207 227 255
207 227 255
207 227 255
207 227 255
207 228 255
207 228 255
207 228 255
207 228 255
207 228 255
207 228 255
207 228 255
207 228 255
207 228 255
207 228 255
207 228 255
207 228 255
207 228 255
207 228 255
207 228 255
207 228 255
207 228 255
207 228 255
207 228 255
207 228 255
207 228 255
207 228 255
207 228 255
207 228 255
207 228 255
207 227 255
207 227 255
207 227 255
207 227 255
207 227 255
206 227 255
206 227 255
206 227 255
206 227 255
206 227 255
206 227 255
206 227 255
206 227 255
206 227 255
206 227 255
206 227 255
206 227 255
206 227 255
206 227 255
206 227 255
206 227 255
206 227 255
206 227 255
205 227 255
205 227 255
205 227 255
205 227 255
205 227 255
205 227 255
205 227 255
205 227 255
205 227 255
205 227 255
205 226 255
205 226 255
205 226 255
205 226 255
205 226 255
205 226 255
205 226 255
204 226 255
204 226 255
204 226 255
204 226 255
204 226 255
204 226 255
204 226 255
204 226 255
204 226 255
204 226 255
204 226 255
204 226 255
204 226 255
204 226 255
204 226 255
204 226 255
203 226 255
203 226 255
203 226 255
203 226 255
203 226 255
203 226 255
203 226 255
203 225 255
203 225 255
203 225 255
203 225 255
203 225 255
203 225 255
203 225 255
203 225 255
202 225 255
202 225 255
202 225 255
202 225 255
202 225 255
202 225 255
202 225 255
202 225 255
202 225 255
202 225 255
202 225 255
202 225 255
202 225 255
202 225 255
202 225 255
201 225 255
201 225 255
201 225 255
201 225 255
201 225 255
201 224 255
201 224 255
201 224 255
201 224 255
201 224 255
201 224 255
201 224 255
201 224 255
201 224 255
201 224 255
200 224 255
200 224 255
200 224 255
200 224 255
200 224 255
200 224 255
200 224 255
200 224 255
200 224 255
200 224 255
200 224 255
200 224 255
200 224 255
200 224 255
200 224 255
200 224 255
199 224 255
199 224 255
199 223 255
199 223 255
199 223 255
199 223 255
199 223 255
199 223 255
199 223 255
199 223 255
199 223 255
199 223 255
199 223 255
199 223 255
199 223 255
199 223 255
199 223 255
198 223 255
198 223 255
198 223 255
198 223 255
198 223 255
198 223 255
198 223 255
198 223 255
198 223 255
198 223 255
198 223 255
198 223 255
198 223 255
198 223 255
198 223 255
198 223 255
198 223 255
198 223 255
198 223 255
198 223 255
198 223 255
198 223 255
197 223 255
197 222 255
197 222 255
197 222 255
197 222 255
197 222 255
197 222 255
197 222 255
197 222 255
197 222 255
197 222 255
197 222 255
197 222 255
197 222 255
197 222 255
197 222 255
197 222 255
197 222 255
197 222 255
197 222 255
197 222 255
197 222 255
197 222 255
197 222 255
197 222 255
197 222 255
197 222 255
197 222 255
197 222 255
197 222 255
197 222 255
197 222 255
197 222 255
197 222 255
197 222 255
197 222 255
197 222 255
197 222 255
197 222 255
197 222 255
197 222 255
197 222 255
197 222 255
197 222 255
197 222 255
197 222 255
197 222 255
197 222 255
197 222 255
197 222 255
197 222 255
197 222 255
197 222 255
197 222 255
197 222 255
197 222 255
197 222 255
197 222 255
197 222 255
197 223 255
198 223 255
198 223 255
198 223 255
198 223 255
198 223 255
198 223 255
198 223 255
198 223 255
198 223 255
198 223 255
198 223 255
198 223 255
198 223 255
198 223 255
198 223 255
198 223 255
198 223 255
198 223 255
198 223 255
198 223 255
198 223 255
198 223 255
199 223 255
199 223 255
199 223 255
199 223 255
199 223 255
199 223 255
199 223 255
199 223 255
199 223 255
199 223 255
199 223 255
199 223 255
199 223 255
199 223 255
199 223 255
199 224 255
199 224 255
200 224 255
200 224 255
200 224 255
200 224 255
200 224 255
200 224 255
200 224 255
200 224 255
200 224 255
200 224 255
200 224 255
200 224 255
200 224 255
200 224 255
200 224 255
200 224 255
201 224 255
201 224 255
201 224 255
201 224 255
201 224 255
201 224 255
201 224 255
201 224 255
201 224 255
201 224 255
201 225 255
201 225 255
201 225 255
201 225 255
201 225 255
202 225 255
202 225 255
202 225 255
202 225 255
202 225 255
202 225 255
202 225 255
202 225 255
202 225 255
202 225 255
202 225 255
202 225 255
202 225 255
202 225 255
202 225 255
203 225 255
203 225 255
203 225 255
203 225 255
203 225 255
203 225 255
203 225 255
203 225 255
203 226 255
203 226 255
203 226 255
203 226 255
203 226 255
203 226 255
203 226 255
204 226 255
204 226 255
204 226 255
204 226 255
204 226 255
204 226 255
204 226 255
204 226 255
204 226 255
204 226 255
204 226 255
204 226 255
204 226 255
204 226 255
204 226 255
204 226 255
205 226 255
205 226 255
205 226 255
205 226 255
205 226 255
205 226 255
205 226 255
205 227 255
205 227 255
205 227 255
205 227 255
205 227 255
205 227 255
205 227 255
205 227 255
205 227 255
205 227 255
206 227 255
206 227 255
206 227 255
206 227 255
206 227 255
206 227 255
206 227 255
206 227 255
206 227 255
206 227 255
206 227 255
206 227 255
206 227 255
206 227 255
206 227 255
206 227 255
206 227 255
206 227 255
207 227 255
207 227 255
207 227 255
207 227 255
207 227 255
207 228 255
207 228 255
207 228 255
207 228 255
207 228 255
207 228 255
207 228 255
207 228 255
207 228 255
207 228 255
207 228 255
207 228 255
207 228 255
207 228 255
208 228 255
207 228 255
207 228 255
207 228 255
207 228 255
207 228 255
207 228 255
207 228 255
207 228 255
207 228 255
207 228 255
207 228 255
207 228 255
207 228 255
207 228 255
207 228 255
207 227 255
207 227 255
207 227 255
207 227 255
207 227 255
206 227 255
206 227 255
206 227 255
206 227 255
206 227 255
206 227 255
206 227 255
206 227 255
206 227 255
206 227 255
206 227 255
206 227 255
206 227 255
206 227 255
206 227 255
206 227 255
206 227 255
206 227 255
206 227 255
205 227 255
205 227 255
205 227 255
205 227 255
205 227 255
205 227 255
205 227 255
205 227 255
205 227 255
205 227 255
205 226 255
205 226 255
205 226 255
205 226 255
205 226 255
205 226 255
205 226 255
204 226 255
204 226 255
204 226 255
204 226 255
204 226 255
204 226 255
204 226 255
204 226 255
204 226 255
204 226 255
204 226 255
204 226 255
204 226 255
204 226 255
204 226 255
204 226 255
203 226 255
203 226 255
203 226 255
203 226 255
203 226 255
203 226 255
203 225 255
203 225 255
203 225 255
203 225 255
203 225 255
203 225 255
203 225 255
203 225 255
203 225 255
202 225 255
202 225 255
202 225 255
202 225 255
202 225 255
202 225 255
202 225 255
202 225 255
202 225 255
202 225 255
202 225 255
202 225 255
202 225 255
202 225 255
202 225 255
201 225 255
201 225 255
201 225 255
201 225 255
201 224 255
201 224 255
201 224 255
201 224 255
201 224 255
201 224 255
201 224 255
201 224 255
201 224 255
201 224 255
201 224 255
200 224 255
200 224 255
200 224 255
200 224 255
200 224 255
200 224 255
200 224 255
200 224 255
200 224 255
200 224 255
200 224 255
200 224 255
200 224 255
200 224 255
200 224 255
199 224 255
199 224 255
199 224 255
199 223 255
199 223 255
199 223 255
199 223 255
199 223 255
199 223 255
199 223 255
199 223 255
199 223 255
199 223 255
199 223 255
199 223 255
199 223 255
199 223 255
199 223 255
198 223 255
198 223 255
198 223 255
198 223 255
198 223 255
198 223 255
198 223 255
198 223 255
198 223 255
198 223 255
198 223 255
198 223 255
198 223 255
198 223 255
198 223 255
198 223 255
198 223 255
198 223 255
198 223 255
198 223 255
198 223 255
198 223 255
198 223 255
198 223 255
198 223 255
197 223 255
197 222 255
197 222 255
197 222 255
197 222 255
197 222 255
197 222 255
197 222 255
197 222 255
197 222 255
197 222 255
197 222 255
197 222 255
197 222 255
197 222 255
197 222 255
197 222 255
197 222 255
197 222 255
197 222 255
197 222 255
197 222 255
197 222 255
197 222 255
197 222 255
197 222 255
197 222 255
197 222 255
197 222 255
197 222 255
197 222 255
197 222 255
197 222 255
197 222 255
197 222 255
197 222 255
197 222 255
197 222 255
197 222 255
197 222 255
197 222 255
197 222 255
197 222 255
197 222 255
197 222 255
197 222 255
197 222 255
197 223 255
197 223 255
198 223 255
198 223 255
198 223 255
198 223 255
198 223 255
198 223 255
198 223 255
198 223 255
198 223 255
198 223 255
198 223 255
198 223 255
198 223 255
198 223 255
198 223 255
198 223 255
198 223 255
198 223 255
198 223 255
198 223 255
198 223 255
198 223 255
198 223 255
198 223 255
199 223 255
199 223 255
199 223 255
199 223 255
199 223 255
199 223 255
199 223 255
199 223 255
199 223 255
199 223 255
199 223 255
199 223 255
199 223 255
199 223 255
199 223 255
199 224 255
199 224 255
199 224 255
200 224 255
200 224 255
200 224 255
200 224 255
200 224 255
200 224 255
200 224 255
200 224 255
200 224 255
200 224 255
200 224 255
200 224 255
200 224 255
200 224 255
200 224 255
201 224 255
201 224 255
201 224 255
201 224 255
201 224 255
201 224 255
201 224 255
201 224 255
201 224 255
201 224 255
201 224 255
201 225 255
201 225 255
201 225 255
201 225 255
202 225 255
202 225 255
202 225 255
202 225 255
202 225 255
202 225 255
202 225 255
202 225 255
202 225 255
202 225 255
202 225 255
202 225 255
202 225 255
202 225 255
202 225 255
203 225 255
203 225 255
203 225 255
203 225 255
203 225 255
203 225 255
203 225 255
203 225 255
203 225 255
203 226 255
203 226 255
203 226 255
203 226 255
203 226 255
203 226 255
204 226 255
204 226 255
204 226 255
204 226 255
204 226 255
204 226 255
204 226 255
204 226 255
204 226 255
204 226 255
204 226 255
204 226 255
204 226 255
204 226 255
204 226 255
204 226 255
205 226 255
205 226 255
205 226 255
205 226 255
205 226 255
205 226 255
205 226 255
205 227 255
205 227 255
205 227 255
205 227 255
205 227 255
205 227 255
205 227 255
205 227 255
205 227 255
205 227 255
206 227 255
206 227 255
206 227 255
206 227 255
206 227 255
206 227 255
206 227 255
206 227 255
206 227 255
206 227 255
206 227 255
206 227 255
206 227 255
206 227 255
206 227 255
206 227 255
206 227 255
206 227 255
206 227 255
207 227 255
207 227 255
207 227 255
207 227 255
207 228 255
207 228 255
207 228 255
207 228 255
207 228 255
207 228 255
207 228 255
207 228 255
207 228 255
207 228 255
207 228 255
207 228 255
207 228 255
207 228 255
207 228 255
207 228 255
208 228 255
208 228 255
208 228 255
208 228 255
208 228 255
207 228 255
207 228 255
207 228 255
207 228 255
207 228 255
207 228 255
207 228 255
207 228 255
207 228 255
207 228 255
207 228 255
207 228 255
207 228 255
207 228 255
207 228 255
207 227 255
207 227 255
207 227 255
207 227 255
207 227 255
206 227 255
206 227 255
206 227 255
206 227 255
206 227 255
206 227 255
206 227 255
206 227 255
206 227 255
206 227 255
206 227 255
206 227 255
206 227 255
206 227 255
206 227 255
206 227 255
206 227 255
206 227 255
205 227 255
205 227 255
205 227 255
205 227 255
205 227 255
205 227 255
205 227 255
205 227 255
205 227 255
205 227 255
205 227 255
205 226 255
205 226 255
205 226 255
205 226 255
205 226 255
205 226 255
204 226 255
204 226 255
204 226 255
204 226 255
204 226 255
204 226 255
204 226 255
204 226 255
204 226 255
204 226 255
204 226 255
204 226 255
204 226 255
204 226 255
204 226 255
204 226 255
203 226 255
203 226 255
203 226 255
203 226 255
203 226 255
203 226 255
203 226 255
203 225 255
203 225 255
203 225 255
203 225 255
203 225 255
203 225 255
203 225 255
203 225 255
203 225 255
202 225 255
202 225 255
202 225 255
202 225 255
202 225 255
202 225 255
202 225 255
202 225 255
202 225 255
202 225 255
202 225 255
202 225 255
202 225 255
202 225 255
201 225 255
201 225 255
201 225 255
201 225 255
201 225 255
201 224 255
201 224 255
201 224 255
201 224 255
201 224 255
201 224 255
201 224 255
201 224 255
201 224 255
201 224 255
201 224 255
200 224 255
200 224 255
200 224 255
200 224 255
200 224 255
200 224 255
200 224 255
200 224 255
200 224 255
200 224 255
200 224 255
200 224 255
200 224 255
200 224 255
200 224 255
199 224 255
199 224 255
199 224 255
199 223 255
199 223 255
199 223 255
199 223 255
199 223 255
199 223 255
199 223 255
199 223 255
199 223 255
199 223 255
199 223 255
199 223 255
199 223 255
199 223 255
199 223 255
199 223 255
198 223 255
198 223 255
198 223 255
198 223 255
198 223 255
198 223 255
198 223 255
198 223 255
198 223 255
198 223 255
198 223 255
198 223 255
198 223 255
198 223 255
198 223 255
198 223 255
198 223 255
198 223 255
198 223 255
198 223 255
198 223 255
198 223 255
198 223 255
198 223 255
198 223 255
198 223 255
198 223 255
198 223 255
197 223 255
197 222 255
197 222 255
197 222 255
197 222 255
197 222 255
197 222 255
197 222 255
197 222 255
197 222 255
197 222 255
197 222 255
197 222 255
197 222 255
197 222 255
197 222 255
197 222 255
197 222 255
197 222 255
197 222 255
197 222 255
197 222 255
197 222 255
197 222 255
197 222 255
197 222 255
197 222 255
197 222 255
197 222 255
197 222 255
197 222 255
197 222 255
197 222 255
197 223 255
198 223 255
198 223 255
198 223 255
198 223 255
198 223 255
198 223 255
198 223 255
198 223 255
198 223 255
198 223 255
198 223 255
198 223 255
198 223 255
198 223 255
198 223 255
198 223 255
198 223 255
198 223 255
198 223 255
198 223 255
198 223 255
198 223 255
198 223 255
198 223 255
198 223 255
198 223 255
198 223 255
198 223 255
199 223 255
199 223 255
199 223 255
199 223 255
199 223 255
199 223 255
199 223 255
199 223 255
199 223 255
199 223 255
199 223 255
199 223 255
199 223 255
199 223 255
199 223 255
199 223 255
199 224 255
199 224 255
200 224 255
200 224 255
200 224 255
200 224 255
200 224 255
200 224 255
200 224 255
200 224 255
200 224 255
200 224 255
200 224 255
200 224 255
200 224 255
200 224 255
200 224 255
200 224 255
201 224 255
201 224 255
201 224 255
201 224 255
201 224 255
201 224 255
201 224 255
201 224 255
201 224 255
201 224 255
201 224 255
201 225 255
201 225 255
201 225 255
201 225 255
201 225 255
202 225 255
202 225 255
202 225 255
202 225 255
202 225 255
202 225 255
202 225 255
202 225 255
202 225 255
202 225 255
202 225 255
202 225 255
202 225 255
202 225 255
203 225 255
203 225 255
203 225 255
203 225 255
203 225 255
203 225 255
203 225 255
203 225 255
203 225 255
203 226 255
203 226 255
203 226 255
203 226 255
203 226 255
203 226 255
203 226 255
204 226 255
204 226 255
204 226 255
204 226 255
204 226 255
204 226 255
204 226 255
204 226 255
204 226 255
204 226 255
204 226 255
204 226 255
204 226 255
204 226 255
204 226 255
204 226 255
205 226 255
205 226 255
205 226 255
205 226 255
205 226 255
205 226 255
205 227 255
205 227 255
205 227 255
205 227 255
205 227 255
205 227 255
205 227 255
205 227 255
205 227 255
205 227 255
205 227 255
206 227 255
206 227 255
206 227 255
206 227 255
206 227 255
206 227 255
206 227 255
206 227 255
206 227 255
206 227 255
206 227 255
206 227 255
206 227 255
206 227 255
206 227 255
206 227 255
206 227 255
206 227 255
207 227 255
207 227 255
207 227 255
207 227 255
207 227 255
207 228 255
207 228 255
207 228 255
207 228 255
207 228 255
207 228 255
207 228 255
207 228 255
207 228 255
207 228 255
207 228 255
207 228 255
207 228 255
207 228 255
207 228 255
208 228 255
208 228 255
208 228 255
208 228 255
208 228 255
208 228 255
208 228 255
208 228 255
208 228 255
208 228 255
208 228 255
207 228 255
207 228 255
207 228 255
207 228 255
207 228 255
207 228 255
207 228 255
207 228 255
207 228 255
207 228 255
207 228 255
207 228 255
207 228 255
207 228 255
207 228 255
207 227 255
207 227 255
207 227 255
207 227 255
207 227 255
206 227 255
206 227 255
206 227 255
206 227 255
206 227 255
206 227 255
206 227 255
206 227 255
206 227 255
206 227 255
206 227 255
206 227 255
206 227 255
206 227 255
206 227 255
206 227 255
206 227 255
206 227 255
205 227 255
205 227 255
205 227 255
205 227 255
205 227 255
205 227 255
205 227 255
205 227 255
205 227 255
205 227 255
205 226 255
205 226 255
205 226 255
205 226 255
205 226 255
205 226 255
205 226 255
204 226 255
204 226 255
204 226 255
204 226 255
204 226 255
204 226 255
204 226 255
204 226 255
204 226 255
204 226 255
204 226 255
204 226 255
204 226 255
204 226 255
204 226 255
204 226 255
203 226 255
203 226 255
203 226 255
203 226 255
203 226 255
203 226 255
203 226 255
203 225 255
203 225 255
203 225 255
203 225 255
203 225 255
203 225 255
203 225 255
203 225 255
202 225 255
202 225 255
202 225 255
202 225 255
202 225 255
202 225 255
202 225 255
202 225 255
202 225 255
202 225 255
202 225 255
202 225 255
202 225 255
202 225 255
202 225 255
201 225 255
201 225 255
201 225 255
201 225 255
201 225 255
201 224 255
201 224 255
201 224 255
201 224 255
201 224 255
201 224 255
201 224 255
201 224 255
201 224 255
201 224 255
200 224 255
200 224 255
200 224 255
200 224 255
200 224 255
200 224 255
200 224 255
200 224 255
200 224 255
200 224 255
200 224 255
200 224 255
200 224 255
200 224 255
200 224 255
200 224 255
200 224 255
199 224 255
199 224 255
199 223 255
199 223 255
199 223 255
199 223 255
199 223 255
199 223 255
199 223 255
199 223 255
199 223 255
199 223 255
199 223 255
199 223 255
199 223 255
199 223 255
199 223 255
199 223 255
199 223 255
198 223 255
198 223 255
198 223 255
198 223 255
198 223 255
198 223 255
198 223 255
198 223 255
198 223 255
198 223 255
198 223 255
198 223 255
198 223 255
198 223 255
198 223 255
198 223 255
198 223 255
198 223 255
198 223 255
198 223 255
198 223 255
198 223 255
198 223 255
198 223 255
198 223 255
198 223 255
198 223 255
198 223 255
198 223 255
198 223 255
198 223 255
198 223 255
198 223 255
198 223 255
198 223 255
198 223 255
198 223 255
198 223 255
198 223 255
197 223 255
197 223 255
197 223 255
197 223 255
198 223 255
198 223 255
198 223 255
198 223 255
198 223 255
198 223 255
198 223 255
198 223 255
198 223 255
198 223 255
198 223 255
198 223 255
198 223 255
198 223 255
198 223 255
198 223 255
198 223 255
198 223 255
198 223 255
198 223 255
198 223 255
198 223 255
198 223 255
198 223 255
198 223 255
198 223 255
198 223 255
198 223 255
198 223 255
198 223 255
198 223 255
198 223 255
198 223 255
198 223 255
198 223 255
198 223 255
198 223 255
198 223 255
198 223 255
199 223 255
199 223 255
199 223 255
199 223 255
199 223 255
199 223 255
199 223 255
199 223 255
199 223 255
199 223 255
199 223 255
199 223 255
199 223 255
199 223 255
199 223 255
199 223 255
199 224 255
199 224 255
199 224 255
200 224 255
200 224 255
200 224 255
200 224 255
200 224 255
200 224 255
200 224 255
200 224 255
200 224 255
200 224 255
200 224 255
200 224 255
200 224 255
200 224 255
200 224 255
200 224 255
200 224 255
201 224 255
201 224 255
201 224 255
201 224 255
201 224 255
201 224 255
201 224 255
201 224 255
201 224 255
201 224 255
201 225 255
201 225 255
201 225 255
201 225 255
201 225 255
202 225 255
202 225 255
202 225 255
202 225 255
202 225 255
202 225 255
202 225 255
202 225 255
202 225 255
202 225 255
202 225 255
202 225 255
202 225 255
202 225 255
202 225 255
203 225 255
203 225 255
203 225 255
203 225 255
203 225 255
203 225 255
203 225 255
203 225 255
203 226 255
203 226 255
203 226 255
203 226 255
203 226 255
203 226 255
203 226 255
204 226 255
204 226 255
204 226 255
204 226 255
204 226 255
204 226 255
204 226 255
204 226 255
204 226 255
204 226 255
204 226 255
204 226 255
204 226 255
204 226 255
204 226 255
204 226 255
205 226 255
205 226 255
205 226 255
205 226 255
205 226 255
205 226 255
205 226 255
205 227 255
205 227 255
205 227 255
205 227 255
205 227 255
205 227 255
205 227 255
205 227 255
205 227 255
205 227 255
206 227 255
206 227 255
206 227 255
206 227 255
206 227 255
206 227 255
206 227 255
206 227 255
206 227 255
206 227 255
206 227 255
206 227 255
206 227 255
206 227 255
206 227 255
206 227 255
206 227 255
206 227 255
207 227 255
207 227 255
207 227 255
207 227 255
207 228 255
207 228 255
207 228 255
207 228 255
207 228 255
207 228 255
207 228 255
207 228 255
207 228 255
207 228 255
207 228 255
207 228 255
207 228 255
207 228 255
207 228 255
207 228 255
208 228 255
208 228 255
208 228 255
208 228 255
208 228 255
208 228 255
208 228 255
208 228 255
208 228 255
208 228 255
208 228 255
208 228 255
208 228 255
208 228 255
208 228 255
208 228 255
208 228 255
207 228 255
207 228 255
207 228 255
207 228 255
207 228 255
207 228 255
207 228 255
207 228 255
207 228 255
207 228 255
207 228 255
207 228 255
207 228 255
207 228 255
207 228 255
207 227 255
207 227 255
207 227 255
207 227 255
207 227 255
206 227 255
206 227 255
206 227 255
206 227 255
206 227 255
206 227 255
206 227 255
206 227 255
206 227 255
206 227 255
206 227 255
206 227 255
206 227 255
206 227 255
206 227 255
206 227 255
206 227 255
206 227 255
205 227 255
205 227 255
205 227 255
205 227 255
205 227 255
205 227 255
205 227 255
205 227 255
205 227 255
205 227 255
205 226 255
205 226 255
205 226 255
205 226 255
205 226 255
205 226 255
205 226 255
204 226 255
204 226 255
204 226 255
204 226 255
204 226 255
204 226 255
204 226 255
204 226 255
204 226 255
204 226 255
204 226 255
204 226 255
204 226 255
204 226 255
204 226 255
204 226 255
203 226 255
203 226 255
203 226 255
203 226 255
203 226 255
203 226 255
203 225 255
203 225 255
203 225 255
203 225 255
203 225 255
203 225 255
203 225 255
203 225 255
203 225 255
202 225 255
202 225 255
202 225 255
202 225 255
202 225 255
202 225 255
202 225 255
202 225 255
202 225 255
202 225 255
202 225 255
202 225 255
202 225 255
202 225 255
202 225 255
201 225 255
201 225 255
201 225 255
201 225 255
201 224 255
201 224 255
201 224 255
201 224 255
201 224 255
201 224 255
201 224 255
201 224 255
201 224 255
201 224 255
201 224 255
200 224 255
200 224 255
200 224 255
200 224 255
200 224 255
200 224 255
200 224 255
200 224 255
200 224 255
200 224 255
200 224 255
200 224 255
200 224 255
200 224 255
200 224 255
200 224 255
200 224 255
199 224 255
199 224 255
199 224 255
199 223 255
199 223 255
199 223 255
199 223 255
199 223 255
199 223 255
199 223 255
199 223 255
199 223 255
199 223 255
199 223 255
199 223 255
199 223 255
199 223 255
199 223 255
199 223 255
199 223 255
198 223 255
198 223 255
198 223 255
198 223 255
198 223 255
198 223 255
198 223 255
198 223 255
198 223 255
198 223 255
198 223 255
198 223 255
198 223 255
198 223 255
198 223 255
198 223 255
198 223 255
198 223 255
198 223 255
198 223 255
198 223 255
198 223 255
198 223 255
198 223 255
198 223 255
198 223 255
198 223 255
198 223 255
198 223 255
198 223 255
198 223 255
198 223 255
198 223 255
198 223 255
198 223 255
198 223 255
198 223 255
198 223 255
198 223 255
198 223 255
198 223 255
198 223 255
198 223 255
198 223 255
198 223 255
198 223 255
198 223 255
198 223 255
198 223 255
198 223 255
198 223 255
198 223 255
198 223 255
198 223 255
198 223 255
198 223 255
198 223 255
198 223 255
198 223 255
198 223 255
198 223 255
198 223 255
198 223 255
198 223 255
198 223 255
198 223 255
198 223 255
198 223 255
198 223 255
198 223 255
198 223 255
198 223 255
198 223 255
198 223 255
199 223 255
199 223 255
199 223 255
199 223 255
199 223 255
199 223 255
199 223 255
199 223 255
199 223 255
199 223 255
199 223 255
199 223 255
199 223 255
199 223 255
199 223 255
199 223 255
199 223 255
199 223 255
199 224 255
199 224 255
200 224 255
200 224 255
200 224 255
200 224 255
200 224 255
200 224 255
200 224 255
200 224 255
200 224 255
200 224 255
200 224 255
200 224 255
200 224 255
200 224 255
200 224 255
200 224 255
200 224 255
201 224 255
201 224 255
201 224 255
201 224 255
201 224 255
201 224 255
201 224 255
201 224 255
201 224 255
201 224 255
201 224 255
201 225 255
201 225 255
201 225 255
201 225 255
202 225 255
202 225 255
202 225 255
202 225 255
202 225 255
202 225 255
202 225 255
202 225 255
202 225 255
202 225 255
202 225 255
202 225 255
202 225 255
202 225 255
202 225 255
203 225 255
203 225 255
203 225 255
203 225 255
203 225 255
203 225 255
203 225 255
203 225 255
203 225 255
203 226 255
203 226 255
203 226 255
203 226 255
203 226 255
203 226 255
204 226 255
204 226 255
204 226 255
204 226 255
204 226 255
204 226 255
204 226 255
204 226 255
204 226 255
204 226 255
204 226 255
204 226 255
204 226 255
204 226 255
204 226 255
204 226 255
205 226 255
205 226 255
205 226 255
205 226 255
205 226 255
205 226 255
205 226 255
205 227 255
205 227 255
205 227 255
205 227 255
205 227 255
205 227 255
205 227 255
205 227 255
205 227 255
205 227 255
206 227 255
206 227 255
206 227 255
206 227 255
206 227 255
206 227 255
206 227 255
206 227 255
206 227 255
206 227 255
206 227 255
206 227 255
206 227 255
206 227 255
206 227 255
206 227 255
206 227 255
206 227 255
207 227 255
207 227 255
207 227 255
207 227 255
207 227 255
207 228 255
207 228 255
207 228 255
207 228 255
207 228 255
207 228 255
207 228 255
207 228 255
207 228 255
207 228 255
207 228 255
207 228 255
207 228 255
207 228 255
207 228 255
208 228 255
208 228 255
208 228 255
208 228 255
208 228 255
208 228 255
208 228 255
208 228 255
208 228 255
208 228 255
208 228 255
208 228 255
208 228 255
208 228 255
208 228 255
208 228 255
208 228 255
208 228 255
208 228 255
208 228 255
208 228 255
208 228 255
208 228 255
207 228 255
207 228 255
207 228 255
207 228 255
207 228 255
207 228 255
207 228 255
207 228 255
207 228 255
207 228 255
207 228 255
207 228 255
207 228 255
207 228 255
207 228 255
207 227 255
207 227 255
207 227 255
207 227 255
207 227 255
206 227 255
206 227 255
206 227 255
206 227 255
206 227 255
206 227 255
206 227 255
206 227 255
206 227 255
206 227 255
206 227 255
206 227 255
206 227 255
206 227 255
206 227 255
206 227 255
206 227 255
206 227 255
205 227 255
205 227 255
205 227 255
205 227 255
205 227 255
205 227 255
205 227 255
205 227 255
205 227 255
205 227 255
205 226 255
205 226 255
205 226 255
205 226 255
205 226 255
205 226 255
204 226 255
204 226 255
204 226 255
204 226 255
204 226 255
204 226 255
204 226 255
204 226 255
204 226 255
204 226 255
204 226 255
204 226 255
204 226 255
204 226 255
204 226 255
204 226 255
203 226 255
203 226 255
203 226 255
203 226 255
203 226 255
203 226 255
203 226 255
203 225 255
203 225 255
203 225 255
203 225 255
203 225 255
203 225 255
203 225 255
203 225 255
202 225 255
202 225 255
202 225 255
202 225 255
202 225 255
202 225 255
202 225 255
202 225 255
202 225 255
202 225 255
202 225 255
202 225 255
202 225 255
202 225 255
202 225 255
202 225 255
201 225 255
201 225 255
201 225 255
201 225 255
201 224 255
201 224 255
201 224 255
201 224 255
201 224 255
201 224 255
201 224 255
201 224 255
201 224 255
201 224 255
201 224 255
200 224 255
200 224 255
200 224 255
200 224 255
200 224 255
200 224 255
200 224 255
200 224 255
200 224 255
200 224 255
200 224 255
200 224 255
200 224 255
200 224 255
200 224 255
200 224 255
200 224 255
199 224 255
199 224 255
199 224 255
199 223 255
199 223 255
199 223 255
199 223 255
199 223 255
199 223 255
199 223 255
199 223 255
199 223 255
199 223 255
199 223 255
199 223 255
199 223 255
199 223 255
199 223 255
199 223 255
199 223 255
199 223 255
198 223 255
198 223 255
198 223 255
198 223 255
198 223 255
198 223 255
198 223 255
198 223 255
198 223 255
198 223 255
198 223 255
198 223 255
198 223 255
198 223 255
198 223 255
198 223 255
198 223 255
198 223 255
198 223 255
198 223 255
198 223 255
198 223 255
198 223 255
198 223 255
198 223 255
198 223 255
198 223 255
198 223 255
198 223 255
198 223 255
198 223 255
198 223 255
198 223 255
198 223 255
198 223 255
198 223 255
198 223 255
198 223 255
198 223 255
198 223 255
198 223 255
198 223 255
198 223 255
198 223 255
198 223 255
198 223 255
198 223 255
198 223 255
198 223 255
198 223 255
198 223 255
198 223 255
198 223 255
198 223 255
198 223 255
198 223 255
198 223 255
198 223 255
198 223 255
198 223 255
198 223 255
198 223 255
198 223 255
198 223 255
198 223 255
199 223 255
199 223 255
199 223 255
199 223 255
199 223 255
199 223 255
199 223 255
199 223 255
199 223 255
199 223 255
199 223 255
199 223 255
199 223 255
199 223 255
199 223 255
199 223 255
199 223 255
199 223 255
199 223 255
199 224 255
199 224 255
199 224 255
200 224 255
200 224 255
200 224 255
200 224 255
200 224 255
200 224 255
200 224 255
200 224 255
200 224 255
200 224 255
200 224 255
200 224 255
200 224 255
200 224 255
200 224 255
200 224 255
200 224 255
201 224 255
201 224 255
201 224 255
201 224 255
201 224 255
201 224 255
201 224 255
201 224 255
201 224 255
201 224 255
201 224 255
201 225 255
201 225 255
201 225 255
201 225 255
202 225 255
202 225 255
202 225 255
202 225 255
202 225 255
202 225 255
202 225 255
202 225 255
202 225 255
202 225 255
202 225 255
202 225 255
202 225 255
202 225 255
202 225 255
202 225 255
203 225 255
203 225 255
203 225 255
203 225 255
203 225 255
203 225 255
203 225 255
203 225 255
203 226 255
203 226 255
203 226 255
203 226 255
203 226 255
203 226 255
203 226 255
204 226 255
204 226 255
204 226 255
204 226 255
204 226 255
204 226 255
204 226 255
204 226 255
204 226 255
204 226 255
204 226 255
204 226 255
204 226 255
204 226 255
204 226 255
204 226 255
205 226 255
205 226 255
205 226 255
205 226 255
205 226 255
205 226 255
205 227 255
205 227 255
205 227 255
205 227 255
205 227 255
205 227 255
205 227 255
205 227 255
205 227 255
205 227 255
206 227 255
206 227 255
206 227 255
206 227 255
206 227 255
206 227 255
206 227 255
206 227 255
206 227 255
206 227 255
206 227 255
206 227 255
206 227 255
206 227 255
206 227 255
206 227 255
206 227 255
206 227 255
207 227 255
207 227 255
207 227 255
207 227 255
207 227 255
207 228 255
207 228 255
207 228 255
207 228 255
207 228 255
207 228 255
207 228 255
207 228 255
207 228 255
207 228 255
207 228 255
207 228 255
207 228 255
207 228 255
207 228 255
208 228 255
208 228 255
208 228 255
208 228 255
208 228 255
208 228 255
208 228 255
208 228 255
208 228 255
208 228 255
208 228 255
208 228 255
208 228 255
208 228 255
208 228 255
208 228 255
208 228 255
208 228 255
208 228 255
208 228 255
208 228 255
208 228 255
208 228 255
208 228 255
208 228 255
208 228 255
208 228 255
208 228 255
208 228 255
207 228 255
207 228 255
207 228 255
207 228 255
207 228 255
207 228 255
207 228 255
207 228 255
207 228 255
207 228 255
207 228 255
207 228 255
207 228 255
207 228 255
207 228 255
207 227 255
207 227 255
207 227 255
207 227 255
207 227 255
206 227 255
206 227 255
206 227 255
206 227 255
206 227 255
206 227 255
206 227 255
206 227 255
206 227 255
206 227 255
206 227 255
206 227 255
206 227 255
206 227 255
206 227 255
206 227 255
206 227 255
206 227 255
205 227 255
205 227 255
205 227 255
205 227 255
205 227 255
205 227 255
205 227 255
205 227 255
205 227 255
205 226 255
205 226 255
205 226 255
205 226 255
205 226 255
205 226 255
205 226 255
204 226 255
204 226 255
204 226 255
204 226 255
204 226 255
204 226 255
204 226 255
204 226 255
204 226 255
204 226 255
204 226 255
204 226 255
204 226 255
204 226 255
204 226 255
204 226 255
203 226 255
203 226 255
203 226 255
203 226 255
203 226 255
203 226 255
203 226 255
203 225 255
203 225 255
203 225 255
203 225 255
203 225 255
203 225 255
203 225 255
203 225 255
202 225 255
202 225 255
202 225 255
202 225 255
202 225 255
202 225 255
202 225 255
202 225 255
202 225 255
202 225 255
202 225 255
202 225 255
202 225 255
202 225 255
202 225 255
202 225 255
201 225 255
201 225 255
201 225 255
201 225 255
201 224 255
201 224 255
201 224 255
201 224 255
201 224 255
201 224 255
201 224 255
201 224 255
201 224 255
201 224 255
201 224 255
200 224 255
200 224 255
200 224 255
200 224 255
200 224 255
200 224 255
200 224 255
200 224 255
200 224 255
200 224 255
200 224 255
200 224 255
200 224 255
200 224 255
200 224 255
200 224 255
200 224 255
200 224 255
199 224 255
199 224 255
199 224 255
199 223 255
199 223 255
199 223 255
199 223 255
199 223 255
199 223 255
199 223 255
199 223 255
199 223 255
199 223 255
199 223 255
199 223 255
199 223 255
199 223 255
199 223 255
199 223 255
199 223 255
199 223 255
199 223 255
199 223 255
198 223 255
198 223 255
198 223 255
198 223 255
198 223 255
198 223 255
198 223 255
198 223 255
198 223 255
198 223 255
198 223 255
198 223 255
198 223 255
198 223 255
198 223 255
198 223 255
198 223 255
198 223 255
198 223 255
198 223 255
198 223 255
198 223 255
198 223 255
198 223 255
198 223 255
198 223 255
198 223 255
198 223 255
198 223 255
198 223 255
198 223 255
198 223 255
198 223 255
198 223 255
198 223 255
198 223 255
198 223 255
198 223 255
198 223 255
198 223 255
198 223 255
198 223 255
198 223 255
198 223 255
198 223 255
198 223 255
198 223 255
198 223 255
198 223 255
198 223 255
198 223 255
198 223 255
198 223 255
199 223 255
199 223 255
199 223 255
199 223 255
199 223 255
199 223 255
199 223 255
199 223 255
199 223 255
199 223 255
199 223 255
199 223 255
199 223 255
199 223 255
199 223 255
199 223 255
199 223 255
199 223 255
199 223 255
199 223 255
199 223 255
199 224 255
199 224 255
199 224 255
200 224 255
200 224 255
200 224 255
200 224 255
200 224 255
200 224 255
200 224 255
200 224 255
200 224 255
200 224 255
200 224 255
200 224 255
200 224 255
200 224 255
200 224 255
200 224 255
200 224 255
200 224 255
201 224 255
201 224 255
201 224 255
201 224 255
201 224 255
201 224 255
201 224 255
201 224 255
201 224 255
201 224 255
201 224 255
201 225 255
201 225 255
201 225 255
201 225 255
201 225 255
202 225 255
202 225 255
202 225 255
202 225 255
202 225 255
202 225 255
202 225 255
202 225 255
202 225 255
202 225 255
202 225 255
202 225 255
202 225 255
202 225 255
202 225 255
203 225 255
203 225 255
203 225 255
203 225 255
203 225 255
203 225 255
203 225 255
203 225 255
203 226 255
203 226 255
203 226 255
203 226 255
203 226 255
203 226 255
203 226 255
204 226 255
204 226 255
204 226 255
204 226 255
204 226 255
204 226 255
204 226 255
204 226 255
204 226 255
204 226 255
204 226 255
204 226 255
204 226 255
204 226 255
204 226 255
204 226 255
205 226 255
205 226 255
205 226 255
205 226 255
205 226 255
205 226 255
205 227 255
205 227 255
205 227 255
205 227 255
205 227 255
205 227 255
205 227 255
205 227 255
205 227 255
205 227 255
205 227 255
206 227 255
206 227 255
206 227 255
206 227 255
206 227 255
206 227 255
206 227 255
206 227 255
206 227 255
206 227 255
206 227 255
206 227 255
206 227 255
206 227 255
206 227 255
206 227 255
206 227 255
207 227 255
207 227 255
207 227 255
207 227 255
207 227 255
207 228 255
207 228 255
207 228 255
207 228 255
207 228 255
207 228 255
207 228 255
207 228 255
207 228 255
207 228 255
207 228 255
207 228 255
207 228 255
207 228 255
207 228 255
208 228 255
208 228 255
208 228 255
208 228 255
208 228 255
208 228 255
208 228 255
208 228 255
208 228 255
208 228 255
208 228 255
208 228 255
208 228 255
208 228 255
208 228 255
208 228 255
208 228 255
208 228 255
208 228 255
208 228 255
208 228 255
208 228 255
208 228 255
208 228 255
208 228 255
208 228 255
208 228 255
208 228 255
208 228 255
208 228 255
208 228 255
208 228 255
208 228 255
208 228 255
208 228 255
207 228 255
207 228 255
207 228 255
207 228 255
207 228 255
207 228 255
207 228 255
207 228 255
207 228 255
207 228 255
207 228 255
207 228 255
207 228 255
207 228 255
207 228 255
207 227 255
207 227 255
207 227 255
207 227 255
207 227 255
206 227 255
206 227 255
206 227 255
206 227 255
206 227 255
206 227 255
206 227 255
206 227 255
206 227 255
206 227 255
206 227 255
206 227 255
206 227 255
206 227 255
206 227 255
206 227 255
206 227 255
205 227 255
205 227 255
205 227 255
205 227 255
205 227 255
205 227 255
205 227 255
205 227 255
205 227 255
205 227 255
205 226 255
205 226 255
205 226 255
205 226 255
205 226 255
205 226 255
205 226 255
204 226 255
204 226 255
204 226 255
204 226 255
204 226 255
204 226 255
204 226 255
204 226 255
204 226 255
204 226 255
204 226 255
204 226 255
204 226 255
204 226 255
204 226 255
204 226 255
203 226 255
203 226 255
203 226 255
203 226 255
203 226 255
203 226 255
203 225 255
203 225 255
203 225 255
203 225 255
203 225 255
203 225 255
203 225 255
203 225 255
203 225 255
202 225 255
202 225 255
202 225 255
202 225 255
202 225 255
202 225 255
202 225 255
202 225 255
202 225 255
202 225 255
202 225 255
202 225 255
202 225 255
202 225 255
202 225 255
201 225 255
201 225 255
201 225 255
201 225 255
201 225 255
201 224 255
201 224 255
201 224 255
201 224 255
201 224 255
201 224 255
201 224 255
201 224 255
201 224 255
201 224 255
201 224 255
200 224 255
200 224 255
200 224 255
200 224 255
200 224 255
200 224 255
200 224 255
200 224 255
200 224 255
200 224 255
200 224 255
200 224 255
200 224 255
200 224 255
200 224 255
200 224 255
200 224 255
200 224 255
199 224 255
199 224 255
199 224 255
199 224 255
199 223 255
199 223 255
199 223 255
199 223 255
199 223 255
199 223 255
199 223 255
199 223 255
199 223 255
199 223 255
199 223 255
199 223 255
199 223 255
199 223 255
199 223 255
199 223 255
199 223 255
199 223 255
199 223 255
199 223 255
199 223 255
199 223 255
199 223 255
198 223 255
198 223 255
198 223 255
198 223 255
198 223 255
198 223 255
198 223 255
198 223 255
198 223 255
198 223 255
198 223 255
198 223 255
198 223 255
198 223 255
198 223 255
198 223 255
198 223 255
198 223 255
198 223 255
198 223 255
198 223 255
198 223 255
198 223 255
198 223 255
198 223 255
198 223 255
198 223 255
198 223 255
198 223 255
198 223 255
198 223 255
198 223 255
198 223 255
198 223 255
198 223 255
198 223 255
198 223 255
198 223 255
198 223 255
198 223 255
199 223 255
199 223 255
199 223 255
199 223 255
199 223 255
199 223 255
199 223 255
199 223 255
199 223 255
199 223 255
199 223 255
199 223 255
199 223 255
199 223 255
199 223 255
199 223 255
199 223 255
199 223 255
199 223 255
199 223 255
199 223 255
199 223 255
199 223 255
199 224 255
199 224 255
199 224 255
199 224 255
200 224 255
200 224 255
200 224 255
200 224 255
200 224 255
200 224 255
200 224 255
200 224 255
200 224 255
200 224 255
200 224 255
200 224 255
200 224 255
200 224 255
200 224 255
200 224 255
200 224 255
200 224 255
201 224 255
201 224 255
201 224 255
201 224 255
201 224 255
201 224 255
201 224 255
201 224 255
201 224 255
201 224 255
201 224 255
201 225 255
201 225 255
201 225 255
201 225 255
201 225 255
202 225 255
202 225 255
202 225 255
202 225 255
202 225 255
202 225 255
202 225 255
202 225 255
202 225 255
202 225 255
202 225 255
202 225 255
202 225 255
202 225 255
202 225 255
203 225 255
203 225 255
203 225 255
203 225 255
203 225 255
203 225 255
203 225 255
203 225 255
203 226 255
203 226 255
203 226 255
203 226 255
203 226 255
203 226 255
203 226 255
204 226 255
204 226 255
204 226 255
204 226 255
204 226 255
204 226 255
204 226 255
204 226 255
204 226 255
204 226 255
204 226 255
204 226 255
204 226 255
204 226 255
204 226 255
204 226 255
205 226 255
205 226 255
205 226 255
205 226 255
205 226 255
205 226 255
205 226 255
205 227 255
205 227 255
205 227 255
205 227 255
205 227 255
205 227 255
205 227 255
205 227 255
205 227 255
205 227 255
206 227 255
206 227 255
206 227 255
206 227 255
206 227 255
206 227 255
206 227 255
206 227 255
206 227 255
206 227 255
206 227 255
206 227 255
206 227 255
206 227 255
206 227 255
206 227 255
206 227 255
207 227 255
207 227 255
207 227 255
207 227 255
207 227 255
207 228 255
207 228 255
207 228 255
207 228 255
207 228 255
207 228 255
207 228 255
207 228 255
207 228 255
207 228 255
207 228 255
207 228 255
207 228 255
207 228 255
207 228 255
208 228 255
208 228 255
208 228 255
208 228 255
208 228 255
208 228 255
208 228 255
208 228 255
208 228 255
208 228 255
208 228 255
208 228 255
208 228 255
208 228 255
208 228 255
208 228 255
208 228 255
208 228 255
208 228 255
209 228 255
208 228 255
208 228 255
208 228 255
208 228 255
208 228 255
208 228 255
208 228 255
208 228 255
208 228 255
208 228 255
208 228 255
208 228 255
208 228 255
208 228 255
208 228 255
208 228 255
208 228 255
208 228 255
208 228 255
208 228 255
208 228 255
207 228 255
207 228 255
207 228 255
207 228 255
207 228 255
207 228 255
207 228 255
207 228 255
207 228 255
207 228 255
207 228 255
207 228 255
207 228 255
207 228 255
207 228 255
207 227 255
207 227 255
207 227 255
207 227 255
207 227 255
206 227 255
206 227 255
206 227 255
206 227 255
206 227 255
206 227 255
206 227 255
206 227 255
206 227 255
206 227 255
206 227 255
206 227 255
206 227 255
206 227 255
206 227 255
206 227 255
206 227 255
205 227 255
205 227 255
205 227 255
205 227 255
205 227 255
205 227 255
205 227 255
205 227 255
205 227 255
205 227 255
205 226 255
205 226 255
205 226 255
205 226 255
205 226 255
205 226 255
205 226 255
204 226 255
204 226 255
204 226 255
204 226 255
204 226 255
204 226 255
204 226 255
204 226 255
204 226 255
204 226 255
204 226 255
204 226 255
204 226 255
204 226 255
204 226 255
204 226 255
203 226 255
203 226 255
203 226 255
203 226 255
203 226 255
203 226 255
203 225 255
203 225 255
203 225 255
203 225 255
203 225 255
203 225 255
203 225 255
203 225 255
203 225 255
202 225 255
202 225 255
202 225 255
202 225 255
202 225 255
202 225 255
202 225 255
202 225 255
202 225 255
202 225 255
202 225 255
202 225 255
202 225 255
202 225 255
202 225 255
201 225 255
201 225 255
201 225 255
201 225 255
201 225 255
201 224 255
201 224 255
201 224 255
201 224 255
201 224 255
201 224 255
201 224 255
201 224 255
201 224 255
201 224 255
201 224 255
200 224 255
200 224 255
200 224 255
200 224 255
200 224 255
200 224 255
200 224 255
200 224 255
200 224 255
200 224 255
200 224 255
200 224 255
200 224 255
200 224 255
200 224 255
200 224 255
200 224 255
200 224 255
200 224 255
199 224 255
199 224 255
199 224 255
199 224 255
199 223 255
199 223 255
199 223 255
199 223 255
199 223 255
199 223 255
199 223 255
199 223 255
199 223 255
199 223 255
199 223 255
199 223 255
199 223 255
199 223 255
199 223 255
199 223 255
199 223 255
199 223 255
199 223 255
199 223 255
199 223 255
199 223 255
199 223 255
199 223 255
199 223 255
199 223 255
199 223 255
199 223 255
199 223 255
198 223 255
198 223 255
198 223 255
198 223 255
198 223 255
198 223 255
198 223 255
198 223 255
198 223 255
198 223 255
198 223 255
198 223 255
198 223 255
198 223 255
198 223 255
198 223 255
198 223 255
198 223 255
198 223 255
198 223 255
199 223 255
199 223 255
199 223 255
199 223 255
199 223 255
199 223 255
199 223 255
199 223 255
199 223 255
199 223 255
199 223 255
199 223 255
199 223 255
199 223 255
199 223 255
199 223 255
199 223 255
199 223 255
199 223 255
199 223 255
199 223 255
199 223 255
199 223 255
199 223 255
199 223 255
199 223 255
199 223 255
199 223 255
199 223 255
199 224 255
199 224 255
199 224 255
199 224 255
200 224 255
200 224 255
200 224 255
200 224 255
200 224 255
200 224 255
200 224 255
200 224 255
200 224 255
200 224 255
200 224 255
200 224 255
200 224 255
200 224 255
200 224 255
200 224 255
200 224 255
200 224 255
201 224 255
201 224 255
201 224 255
201 224 255
201 224 255
201 224 255
201 224 255
201 224 255
201 224 255
201 224 255
201 224 255
201 224 255
201 225 255
201 225 255
201 225 255
201 225 255
201 225 255
202 225 255
202 225 255
202 225 255
202 225 255
202 225 255
202 225 255
202 225 255
202 225 255
202 225 255
202 225 255
202 225 255
202 225 255
202 225 255
202 225 255
202 225 255
203 225 255
203 225 255
203 225 255
203 225 255
203 225 255
203 225 255
203 225 255
203 225 255
203 225 255
203 226 255
203 226 255
203 226 255
203 226 255
203 226 255
203 226 255
204 226 255
204 226 255
204 226 255
204 226 255
204 226 255
204 226 255
204 226 255
204 226 255
204 226 255
204 226 255
204 226 255
204 226 255
204 226 255
204 226 255
204 226 255
204 226 255
205 226 255
205 226 255
205 226 255
205 226 255
205 226 255
205 226 255
205 226 255
205 227 255
205 227 255
205 227 255
205 227 255
205 227 255
205 227 255
205 227 255
205 227 255
205 227 255
205 227 255
206 227 255
206 227 255
206 227 255
206 227 255
206 227 255
206 227 255
206 227 255
206 227 255
206 227 255
206 227 255
206 227 255
206 227 255
206 227 255
206 227 255
206 227 255
206 227 255
206 227 255
206 227 255
207 227 255
207 227 255
207 227 255
207 227 255
207 228 255
207 228 255
207 228 255
207 228 255
207 228 255
207 228 255
207 228 255
207 228 255
207 228 255
207 228 255
207 228 255
207 228 255
207 228 255
207 228 255
207 228 255
208 228 255
208 228 255
208 228 255
208 228 255
208 228 255
208 228 255
208 228 255
208 228 255
208 228 255
208 228 255
208 228 255
208 228 255
208 228 255
208 228 255
208 228 255
208 228 255
208 228 255
208 228 255
208 228 255
208 228 255
208 228 255
209 228 255
209 229 255
209 229 255
209 228 255
209 228 255
208 228 255
208 228 255
208 228 255
208 228 255
208 228 255
208 228 255
208 228 255
208 228 255
208 228 255
208 228 255
208 228 255
208 228 255
208 228 255
208 228 255
208 228 255
208 228 255
208 228 255
208 228 255
208 228 255
208 228 255
208 228 255
207 228 255
207 228 255
207 228 255
207 228 255
207 228 255
207 228 255
207 228 255
207 228 255
207 228 255
207 228 255
207 228 255
207 228 255
207 228 255
207 228 255
207 228 255
207 227 255
207 227 255
207 227 255
207 227 255
206 227 255
206 227 255
206 227 255
206 227 255
206 227 255
206 227 255
206 227 255
206 227 255
206 227 255
206 227 255
206 227 255
206 227 255
206 227 255
206 227 255
206 227 255
206 227 255
206 227 255
206 227 255
205 227 255
205 227 255
205 227 255
205 227 255
205 227 255
205 227 255
205 227 255
205 227 255
205 227 255
205 227 255
205 226 255
205 226 255
205 226 255
205 226 255
205 226 255
205 226 255
204 226 255
204 226 255
204 226 255
204 226 255
204 226 255
204 226 255
204 226 255
204 226 255
204 226 255
204 226 255
204 226 255
204 226 255
204 226 255
204 226 255
204 226 255
204 226 255
203 226 255
203 226 255
203 226 255
203 226 255
203 226 255
203 226 255
203 226 255
203 225 255
203 225 255
203 225 255
203 225 255
203 225 255
203 225 255
203 225 255
203 225 255
203 225 255
202 225 255
202 225 255
202 225 255
202 225 255
202 225 255
202 225 255
202 225 255
202 225 255
202 225 255
202 225 255
202 225 255
202 225 255
202 225 255
202 225 255
202 225 255
201 225 255
201 225 255
201 225 255
201 225 255
201 225 255
201 224 255
201 224 255
201 224 255
201 224 255
201 224 255
201 224 255
201 224 255
201 224 255
201 224 255
201 224 255
201 224 255
201 224 255
200 224 255
200 224 255
200 224 255
200 224 255
200 224 255
200 224 255
200 224 255
200 224 255
200 224 255
200 224 255
200 224 255
200 224 255
200 224 255
200 224 255
200 224 255
200 224 255
200 224 255
200 224 255
200 224 255
200 224 255
199 224 255
199 224 255
199 224 255
199 224 255
199 223 255
199 223 255
199 223 255
199 223 255
199 223 255
199 223 255
199 223 255
199 223 255
199 223 255
199 223 255
199 223 255
199 223 255
199 223 255
199 223 255
199 223 255
199 223 255
199 223 255
199 223 255
199 223 255
199 223 255
199 223 255
199 223 255
199 223 255
199 223 255
199 223 255
199 223 255
199 223 255
199 223 255
199 223 255
199 223 255
199 223 255
199 223 255
199 223 255
199 223 255
199 223 255
199 223 255
199 223 255
199 223 255
199 223 255
199 223 255
199 223 255
199 223 255
199 223 255
199 223 255
199 223 255
199 223 255
199 223 255
199 223 255
199 223 255
199 223 255
199 223 255
199 223 255
199 223 255
199 223 255
199 223 255
199 223 255
199 223 255
199 223 255
199 223 255
199 223 255
199 223 255
199 223 255
199 223 255
199 223 255
199 223 255
199 223 255
199 223 255
199 223 255
199 224 255
199 224 255
199 224 255
199 224 255
200 224 255
200 224 255
200 224 255
200 224 255
200 224 255
200 224 255
200 224 255
200 224 255
200 224 255
200 224 255
200 224 255
200 224 255
200 224 255
200 224 255
200 224 255
200 224 255
200 224 255
200 224 255
200 224 255
200 224 255
201 224 255
201 224 255
201 224 255
201 224 255
201 224 255
201 224 255
201 224 255
201 224 255
201 224 255
201 224 255
201 224 255
201 224 255
201 225 255
201 225 255
201 225 255
201 225 255
201 225 255
202 225 255
202 225 255
202 225 255
202 225 255
202 225 255
202 225 255
202 225 255
202 225 255
202 225 255
202 225 255
202 225 255
202 225 255
202 225 255
202 225 255
202 225 255
203 225 255
203 225 255
203 225 255
203 225 255
203 225 255
203 225 255
203 225 255
203 225 255
203 225 255
203 226 255
203 226 255
203 226 255
203 226 255
203 226 255
203 226 255
203 226 255
204 226 255
204 226 255
204 226 255
204 226 255
204 226 255
204 226 255
204 226 255
204 226 255
204 226 255
204 226 255
204 226 255
204 226 255
204 226 255
204 226 255
204 226 255
204 226 255
205 226 255
205 226 255
205 226 255
205 226 255
205 226 255
205 226 255
205 227 255
205 227 255
205 227 255
205 227 255
205 227 255
205 227 255
205 227 255
205 227 255
205 227 255
205 227 255
206 227 255
206 227 255
206 227 255
206 227 255
206 227 255
206 227 255
206 227 255
206 227 255
206 227 255
206 227 255
206 227 255
206 227 255
206 227 255
206 227 255
206 227 255
206 227 255
206 227 255
206 227 255
207 227 255
207 227 255
207 227 255
207 227 255
207 228 255
207 228 255
207 228 255
207 228 255
207 228 255
207 228 255
207 228 255
207 228 255
207 228 255
207 228 255
207 228 255
207 228 255
207 228 255
207 228 255
207 228 255
208 228 255
208 228 255
208 228 255
208 228 255
208 228 255
208 228 255
208 228 255
208 228 255
208 228 255
208 228 255
208 228 255
208 228 255
208 228 255
208 228 255
208 228 255
208 228 255
208 228 255
208 228 255
208 228 255
208 228 255
208 228 255
209 228 255
209 229 255
209 229 255
209 229 255
209 229 255
209 229 255
209 229 255
209 229 255
209 229 255
209 229 255
209 228 255
208 228 255
208 228 255
208 228 255
208 228 255
208 228 255
208 228 255
208 228 255
208 228 255
208 228 255
208 228 255
208 228 255
208 228 255
208 228 255
208 228 255
208 228 255
208 228 255
208 228 255
208 228 255
208 228 255
208 228 255
208 228 255
207 228 255
207 228 255
207 228 255
207 228 255
207 228 255
207 228 255
207 228 255
207 228 255
207 228 255
207 228 255
207 228 255
207 228 255
207 228 255
207 228 255
207 228 255
207 227 255
207 227 255
207 227 255
207 227 255
206 227 255
206 227 255
206 227 255
206 227 255
206 227 255
206 227 255
206 227 255
206 227 255
206 227 255
206 227 255
206 227 255
206 227 255
206 227 255
206 227 255
206 227 255
206 227 255
206 227 255
206 227 255
205 227 255
205 227 255
205 227 255
205 227 255
205 227 255
205 227 255
205 227 255
205 227 255
205 227 255
205 227 255
205 226 255
205 226 255
205 226 255
205 226 255
205 226 255
205 226 255
204 226 255
204 226 255
204 226 255
204 226 255
204 226 255
204 226 255
204 226 255
204 226 255
204 226 255
204 226 255
204 226 255
204 226 255
204 226 255
204 226 255
204 226 255
204 226 255
203 226 255
203 226 255
203 226 255
203 226 255
203 226 255
203 226 255
203 226 255
203 225 255
203 225 255
203 225 255
203 225 255
203 225 255
203 225 255
203 225 255
203 225 255
202 225 255
202 225 255
202 225 255
202 225 255
202 225 255
202 225 255
202 225 255
202 225 255
202 225 255
202 225 255
202 225 255
202 225 255
202 225 255
202 225 255
202 225 255
202 225 255
201 225 255
201 225 255
201 225 255
201 225 255
201 225 255
201 224 255
201 224 255
201 224 255
201 224 255
201 224 255
201 224 255
201 224 255
201 224 255
201 224 255
201 224 255
201 224 255
201 224 255
200 224 255
200 224 255
200 224 255
200 224 255
200 224 255
200 224 255
200 224 255
200 224 255
200 224 255
200 224 255
200 224 255
200 224 255
200 224 255
200 224 255
200 224 255
200 224 255
200 224 255
200 224 255
200 224 255
200 224 255
200 224 255
200 224 255
199 224 255
199 224 255
199 224 255
199 224 255
199 223 255
199 223 255
199 223 255
199 223 255
199 223 255
199 223 255
199 223 255
199 223 255
199 223 255
199 223 255
199 223 255
199 223 255
199 223 255
199 223 255
199 223 255
199 223 255
199 223 255
199 223 255
199 223 255
199 223 255
199 223 255
199 223 255
199 223 255
199 223 255
199 223 255
199 223 255
199 223 255
199 223 255
199 223 255
199 223 255
199 223 255
199 223 255
199 223 255
199 223 255
199 223 255
199 223 255
199 223 255
199 223 255
199 223 255
199 223 255
199 223 255
199 223 255
199 223 255
199 223 255
199 223 255
199 223 255
199 223 255
199 223 255
199 223 255
199 223 255
199 223 255
199 223 255
199 223 255
199 223 255
199 223 255
199 223 255
199 223 255
199 223 255
199 224 255
199 224 255
199 224 255
199 224 255
200 224 255
200 224 255
200 224 255
200 224 255
200 224 255
200 224 255
200 224 255
200 224 255
200 224 255
200 224 255
200 224 255
200 224 255
200 224 255
200 224 255
200 224 255
200 224 255
200 224 255
200 224 255
200 224 255
200 224 255
200 224 255
200 224 255
201 224 255
201 224 255
201 224 255
201 224 255
201 224 255
201 224 255
201 224 255
201 224 255
201 224 255
201 224 255
201 224 255
201 224 255
201 225 255
201 225 255
201 225 255
201 225 255
201 225 255
202 225 255
202 225 255
202 225 255
202 225 255
202 225 255
202 225 255
202 225 255
202 225 255
202 225 255
202 225 255
202 225 255
202 225 255
202 225 255
202 225 255
202 225 255
202 225 255
203 225 255
203 225 255
203 225 255
203 225 255
203 225 255
203 225 255
203 225 255
203 225 255
203 226 255
203 226 255
203 226 255
203 226 255
203 226 255
203 226 255
203 226 255
204 226 255
204 226 255
204 226 255
204 226 255
204 226 255
204 226 255
204 226 255
204 226 255
204 226 255
204 226 255
204 226 255
204 226 255
204 226 255
204 226 255
204 226 255
204 226 255
205 226 255
205 226 255
205 226 255
205 226 255
205 226 255
205 226 255
205 227 255
205 227 255
205 227 255
205 227 255
205 227 255
205 227 255
205 227 255
205 227 255
205 227 255
205 227 255
206 227 255
206 227 255
206 227 255
206 227 255
206 227 255
206 227 255
206 227 255
206 227 255
206 227 255
206 227 255
206 227 255
206 227 255
206 227 255
206 227 255
206 227 255
206 227 255
206 227 255
206 227 255
207 227 255
207 227 255
207 227 255
207 227 255
207 228 255
207 228 255
207 228 255
207 228 255
207 228 255
207 228 255
207 228 255
207 228 255
207 228 255
207 228 255
207 228 255
207 228 255
207 228 255
207 228 255
208 228 255
208 228 255
208 228 255
208 228 255
208 228 255
208 228 255
208 228 255
208 228 255
208 228 255
208 228 255
208 228 255
208 228 255
208 228 255
208 228 255
208 228 255
208 228 255
208 228 255
208 228 255
208 228 255
208 228 255
208 228 255
208 228 255
209 228 255
209 229 255
209 229 255
209 229 255
209 229 255
209 229 255
209 229 255
209 229 255
209 229 255
209 229 255
209 229 255
209 229 255
209 229 255
209 229 255
209 229 255
209 229 255
209 228 255
209 228 255
208 228 255
208 228 255
208 228 255
208 228 255
208 228 255
208 228 255
208 228 255
208 228 255
208 228 255
208 228 255
208 228 255
208 228 255
208 228 255
208 228 255
208 228 255
208 228 255
208 228 255
208 228 255
208 228 255
208 228 255
208 228 255
207 228 255
207 228 255
207 228 255
207 228 255
207 228 255
207 228 255
207 228 255
207 228 255
207 228 255
207 228 255
207 228 255
207 228 255
207 228 255
207 228 255
207 227 255
207 227 255
207 227 255
207 227 255
207 227 255
206 227 255
206 227 255
206 227 255
206 227 255
206 227 255
206 227 255
206 227 255
206 227 255
206 227 255
206 227 255
206 227 255
206 227 255
206 227 255
206 227 255
206 227 255
206 227 255
206 227 255
205 227 255
205 227 255
205 227 255
205 227 255
205 227 255
205 227 255
205 227 255
205 227 255
205 227 255
205 227 255
205 226 255
205 226 255
205 226 255
205 226 255
205 226 255
205 226 255
204 226 255
204 226 255
204 226 255
204 226 255
204 226 255
204 226 255
204 226 255
204 226 255
204 226 255
204 226 255
204 226 255
204 226 255
204 226 255
204 226 255
204 226 255
204 226 255
203 226 255
203 226 255
203 226 255
203 226 255
203 226 255
203 226 255
203 226 255
203 225 255
203 225 255
203 225 255
203 225 255
203 225 255
203 225 255
203 225 255
203 225 255
203 225 255
202 225 255
202 225 255
202 225 255
202 225 255
202 225 255
202 225 255
202 225 255
202 225 255
202 225 255
202 225 255
202 225 255
202 225 255
202 225 255
202 225 255
202 225 255
201 225 255
201 225 255
201 225 255
201 225 255
201 225 255
201 224 255
201 224 255
201 224 255
201 224 255
201 224 255
201 224 255
201 224 255
201 224 255
201 224 255
201 224 255
201 224 255
201 224 255
201 224 255
200 224 255
200 224 255
200 224 255
200 224 255
200 224 255
200 224 255
200 224 255
200 224 255
200 224 255
200 224 255
200 224 255
200 224 255
200 224 255
200 224 255
200 224 255
200 224 255
200 224 255
200 224 255
200 224 255
200 224 255
200 224 255
200 224 255
200 224 255
199 224 255
199 224 255
199 224 255
199 224 255
199 224 255
199 224 255
199 223 255
199 223 255
199 223 255
199 223 255
199 223 255
199 223 255
199 223 255
199 223 255
199 223 255
199 223 255
199 223 255
199 223 255
199 223 255
199 223 255
199 223 255
199 223 255
199 223 255
199 223 255
199 223 255
199 223 255
199 223 255
199 223 255
199 223 255
199 223 255
199 223 255
199 223 255
199 223 255
199 223 255
199 223 255
199 223 255
199 223 255
199 223 255
199 223 255
199 223 255
199 223 255
199 223 255
199 223 255
199 223 255
199 223 255
199 223 255
199 223 255
199 223 255
199 223 255
199 223 255
199 224 255
199 224 255
199 224 255
199 224 255
199 224 255
199 224 255
200 224 255
200 224 255
200 224 255
200 224 255
200 224 255
200 224 255
200 224 255
200 224 255
200 224 255
200 224 255
200 224 255
200 224 255
200 224 255
200 224 255
200 224 255
200 224 255
200 224 255
200 224 255
200 224 255
200 224 255
200 224 255
200 224 255
200 224 255
201 224 255
201 224 255
201 224 255
201 224 255
201 224 255
201 224 255
201 224 255
201 224 255
201 224 255
201 224 255
201 224 255
201 224 255
201 225 255
201 225 255
201 225 255
201 225 255
201 225 255
201 225 255
202 225 255
202 225 255
202 225 255
202 225 255
202 225 255
202 225 255
202 225 255
202 225 255
202 225 255
202 225 255
202 225 255
202 225 255
202 225 255
202 225 255
202 225 255
202 225 255
203 225 255
203 225 255
203 225 255
203 225 255
203 225 255
203 225 255
203 225 255
203 225 255
203 226 255
203 226 255
203 226 255
203 226 255
203 226 255
203 226 255
203 226 255
204 226 255
204 226 255
204 226 255
204 226 255
204 226 255
204 226 255
204 226 255
204 226 255
204 226 255
204 226 255
204 226 255
204 226 255
204 226 255
204 226 255
204 226 255
204 226 255
205 226 255
205 226 255
205 226 255
205 226 255
205 226 255
205 226 255
205 227 255
205 227 255
205 227 255
205 227 255
205 227 255
205 227 255
205 227 255
205 227 255
205 227 255
205 227 255
206 227 255
206 227 255
206 227 255
206 227 255
206 227 255
206 227 255
206 227 255
206 227 255
206 227 255
206 227 255
206 227 255
206 227 255
206 227 255
206 227 255
206 227 255
206 227 255
206 227 255
206 227 255
207 227 255
207 227 255
207 227 255
207 227 255
207 228 255
207 228 255
207 228 255
207 228 255
207 228 255
207 228 255
207 228 255
207 228 255
207 228 255
207 228 255
207 228 255
207 228 255
207 228 255
207 228 255
207 228 255
208 228 255
208 228 255
208 228 255
208 228 255
208 228 255
208 228 255
208 228 255
208 228 255
208 228 255
208 228 255
208 228 255
208 228 255
208 228 255
208 228 255
208 228 255
208 228 255
208 228 255
208 228 255
208 228 255
208 228 255
209 228 255
209 228 255
209 229 255
209 229 255
209 229 255
209 229 255
209 229 255
209 229 255
209 229 255
209 229 255
209 229 255
209 229 255
209 229 255
209 229 255
209 229 255
209 229 255
209 229 255
209 229 255
209 229 255
209 229 255
209 229 255
209 229 255
209 229 255
209 228 255
209 228 255
208 228 255
208 228 255
208 228 255
208 228 255
208 228 255
208 228 255
208 228 255
208 228 255
208 228 255
208 228 255
208 228 255
208 228 255
208 228 255
208 228 255
208 228 255
208 228 255
208 228 255
208 228 255
208 228 255
208 228 255
208 228 255
207 228 255
207 228 255
207 228 255
207 228 255
207 228 255
207 228 255
207 228 255
207 228 255
207 228 255
207 228 255
207 228 255
207 228 255
207 228 255
207 228 255
207 227 255
207 227 255
207 227 255
207 227 255
206 227 255
206 227 255
206 227 255
206 227 255
206 227 255
206 227 255
206 227 255
206 227 255
206 227 255
206 227 255
206 227 255
206 227 255
206 227 255
206 227 255
206 227 255
206 227 255
206 227 255
206 227 255
205 227 255
205 227 255
205 227 255
205 227 255
205 227 255
205 227 255
205 227 255
205 227 255
205 227 255
205 227 255
205 226 255
205 226 255
205 226 255
205 226 255
205 226 255
205 226 255
204 226 255
204 226 255
204 226 255
204 226 255
204 226 255
204 226 255
204 226 255
204 226 255
204 226 255
204 226 255
204 226 255
204 226 255
204 226 255
204 226 255
204 226 255
204 226 255
203 226 255
203 226 255
203 226 255
203 226 255
203 226 255
203 226 255
203 226 255
203 225 255
203 225 255
203 225 255
203 225 255
203 225 255
203 225 255
203 225 255
203 225 255
203 225 255
202 225 255
202 225 255
202 225 255
202 225 255
202 225 255
202 225 255
202 225 255
202 225 255
202 225 255
202 225 255
202 225 255
202 225 255
202 225 255
202 225 255
202 225 255
202 225 255
201 225 255
201 225 255
201 225 255
201 225 255
201 225 255
201 224 255
201 224 255
201 224 255
201 224 255
201 224 255
201 224 255
201 224 255
201 224 255
201 224 255
201 224 255
201 224 255
201 224 255
201 224 255
200 224 255
200 224 255
200 224 255
200 224 255
200 224 255
200 224 255
200 224 255
200 224 255
200 224 255
200 224 255
200 224 255
200 224 255
200 224 255
200 224 255
200 224 255
200 224 255
200 224 255
200 224 255
200 224 255
200 224 255
200 224 255
200 224 255
200 224 255
200 224 255
200 224 255
200 224 255
199 224 255
199 224 255
199 224 255
199 224 255
199 224 255
199 224 255
199 224 255
199 224 255
199 223 255
199 223 255
199 223 255
199 223 255
199 223 255
199 223 255
199 223 255
199 223 255
199 223 255
199 223 255
199 223 255
199 223 255
199 223 255
199 223 255
199 223 255
199 223 255
199 223 255
199 223 255
199 223 255
199 223 255
199 223 255
199 223 255
199 223 255
199 223 255
199 223 255
199 223 255
199 224 255
199 224 255
199 224 255
199 224 255
199 224 255
199 224 255
199 224 255
200 224 255
200 224 255
200 224 255
200 224 255
200 224 255
200 224 255
200 224 255
200 224 255
200 224 255
200 224 255
200 224 255
200 224 255
200 224 255
200 224 255
200 224 255
200 224 255
200 224 255
200 224 255
200 224 255
200 224 255
200 224 255
200 224 255
200 224 255
200 224 255
200 224 255
200 224 255
200 224 255
201 224 255
201 224 255
201 224 255
201 224 255
201 224 255
201 224 255
201 224 255
201 224 255
201 224 255
201 224 255
201 224 255
201 224 255
201 224 255
201 225 255
201 225 255
201 225 255
201 225 255
201 225 255
202 225 255
202 225 255
202 225 255
202 225 255
202 225 255
202 225 255
202 225 255
202 225 255
202 225 255
202 225 255
202 225 255
202 225 255
202 225 255
202 225 255
202 225 255
202 225 255
203 225 255
203 225 255
203 225 255
203 225 255
203 225 255
203 225 255
203 225 255
203 225 255
203 225 255
203 226 255
203 226 255
203 226 255
203 226 255
203 226 255
203 226 255
203 226 255
204 226 255
204 226 255
204 226 255
204 226 255
204 226 255
204 226 255
204 226 255
204 226 255
204 226 255
204 226 255
204 226 255
204 226 255
204 226 255
204 226 255
204 226 255
204 226 255
205 226 255
205 226 255
205 226 255
205 226 255
205 226 255
205 226 255
205 227 255
205 227 255
205 227 255
205 227 255
205 227 255
205 227 255
205 227 255
205 227 255
205 227 255
205 227 255
206 227 255
206 227 255
206 227 255
206 227 255
206 227 255
206 227 255
206 227 255
206 227 255
206 227 255
206 227 255
206 227 255
206 227 255
206 227 255
206 227 255
206 227 255
206 227 255
206 227 255
207 227 255
207 227 255
207 227 255
207 227 255
207 227 255
207 228 255
207 228 255
207 228 255
207 228 255
207 228 255
207 228 255
207 228 255
207 228 255
207 228 255
207 228 255
207 228 255
207 228 255
207 228 255
207 228 255
208 228 255
208 228 255
208 228 255
208 228 255
208 228 255
208 228 255
208 228 255
208 228 255
208 228 255
208 228 255
208 228 255
208 228 255
208 228 255
208 228 255
208 228 255
208 228 255
208 228 255
208 228 255
208 228 255
208 228 255
208 228 255
209 228 255
209 228 255
209 229 255
209 229 255
209 229 255
209 229 255
209 229 255
209 229 255
209 229 255
209 229 255
209 229 255
209 229 255
209 229 255
209 229 255
209 229 255
209 229 255
209 229 255
209 229 255
209 229 255
209 229 255
209 229 255
209 229 255
209 229 255
209 229 255
209 229 255
209 229 255
209 229 255
209 229 255
209 229 255
209 229 255
209 228 255
208 228 255
208 228 255
208 228 255
208 228 255
208 228 255
208 228 255
208 228 255
208 228 255
208 228 255
208 228 255
208 228 255
208 228 255
208 228 255
208 228 255
208 228 255
208 228 255
208 228 255
208 228 255
208 228 255
208 228 255
208 228 255
207 228 255
207 228 255
207 228 255
207 228 255
207 228 255
207 228 255
207 228 255
207 228 255
207 228 255
207 228 255
207 228 255
207 228 255
207 228 255
207 228 255
207 227 255
207 227 255
207 227 255
207 227 255
207 227 255
206 227 255
206 227 255
206 227 255
206 227 255
206 227 255
206 227 255
206 227 255
206 227 255
206 227 255
206 227 255
206 227 255
206 227 255
206 227 255
206 227 255
206 227 255
206 227 255
206 227 255
205 227 255
205 227 255
205 227 255
205 227 255
205 227 255
205 227 255
205 227 255
205 227 255
205 227 255
205 227 255
205 226 255
205 226 255
205 226 255
205 226 255
205 226 255
205 226 255
204 226 255
204 226 255
204 226 255
204 226 255
204 226 255
204 226 255
204 226 255
204 226 255
204 226 255
204 226 255
204 226 255
204 226 255
204 226 255
204 226 255
204 226 255
204 226 255
203 226 255
203 226 255
203 226 255
203 226 255
203 226 255
203 226 255
203 226 255
203 225 255
203 225 255
203 225 255
203 225 255
203 225 255
203 225 255
203 225 255
203 225 255
203 225 255
202 225 255
202 225 255
202 225 255
202 225 255
202 225 255
202 225 255
202 225 255
202 225 255
202 225 255
202 225 255
202 225 255
202 225 255
202 225 255
202 225 255
202 225 255
202 225 255
201 225 255
201 225 255
201 225 255
201 225 255
201 225 255
201 225 255
201 224 255
201 224 255
201 224 255
201 224 255
201 224 255
201 224 255
201 224 255
201 224 255
201 224 255
201 224 255
201 224 255
201 224 255
201 224 255
200 224 255
200 224 255
200 224 255
200 224 255
200 224 255
200 224 255
200 224 255
200 224 255
200 224 255
200 224 255
200 224 255
200 224 255
200 224 255
200 224 255
200 224 255
200 224 255
200 224 255
200 224 255
200 224 255
200 224 255
200 224 255
200 224 255
200 224 255
200 224 255
200 224 255
200 224 255
200 224 255
200 224 255
200 224 255
200 224 255
200 224 255
200 224 255
200 224 255
200 224 255
199 224 255
199 224 255
199 224 255
199 224 255
199 224 255
199 224 255
199 224 255
199 224 255
199 224 255
199 224 255
199 224 255
199 224 255
199 224 255
199 224 255
199 224 255
199 224 255
199 224 255
200 224 255
199 224 255
200 224 255
200 224 255
200 224 255
200 224 255
200 224 255
200 224 255
200 224 255
200 224 255
200 224 255
200 224 255
200 224 255
200 224 255
200 224 255
200 224 255
200 224 255
200 224 255
200 224 255
200 224 255
200 224 255
200 224 255
200 224 255
200 224 255
200 224 255
200 224 255
200 224 255
200 224 255
200 224 255
200 224 255
200 224 255
200 224 255
200 224 255
200 224 255
200 224 255
201 224 255
201 224 255
201 224 255
201 224 255
201 224 255
201 224 255
201 224 255
201 224 255
201 224 255
201 224 255
201 224 255
201 224 255
201 224 255
201 225 255
201 225 255
201 225 255
201 225 255
201 225 255
201 225 255
202 225 255
202 225 255
202 225 255
202 225 255
202 225 255
202 225 255
202 225 255
202 225 255
202 225 255
202 225 255
202 225 255
202 225 255
202 225 255
202 225 255
202 225 255
202 225 255
203 225 255
203 225 255
203 225 255
203 225 255
203 225 255
203 225 255
203 225 255
203 225 255
203 225 255
203 226 255
203 226 255
203 226 255
203 226 255
203 226 255
203 226 255
203 226 255
204 226 255
204 226 255
204 226 255
204 226 255
204 226 255
204 226 255
204 226 255
204 226 255
204 226 255
204 226 255
204 226 255
204 226 255
204 226 255
204 226 255
204 226 255
204 226 255
205 226 255
205 226 255
205 226 255
205 226 255
205 226 255
205 226 255
205 226 255
205 227 255
205 227 255
205 227 255
205 227 255
205 227 255
205 227 255
205 227 255
205 227 255
205 227 255
206 227 255
206 227 255
206 227 255
206 227 255
206 227 255
206 227 255
206 227 255
206 227 255
206 227 255
206 227 255
206 227 255
206 227 255
206 227 255
206 227 255
206 227 255
206 227 255
206 227 255
207 227 255
207 227 255
207 227 255
207 227 255
207 227 255
207 228 255
207 228 255
207 228 255
207 228 255
207 228 255
207 228 255
207 228 255
207 228 255
207 228 255
207 228 255
207 228 255
207 228 255
207 228 255
207 228 255
208 228 255
208 228 255
208 228 255
208 228 255
208 228 255
208 228 255
208 228 255
208 228 255
208 228 255
208 228 255
208 228 255
208 228 255
208 228 255
208 228 255
208 228 255
208 228 255
208 228 255
208 228 255
208 228 255
208 228 255
208 228 255
209 228 255
209 229 255
209 229 255
209 229 255
209 229 255
209 229 255
209 229 255
209 229 255
209 229 255
209 229 255
209 229 255
209 229 255
209 229 255
209 229 255
209 229 255
209 229 255
209 229 255
209 229 255
209 229 255
209 229 255
209 229 255
209 229 255
209 229 255
209 229 255
209 229 255
209 229 255
209 229 255
209 229 255
209 229 255
209 229 255
209 229 255
209 229 255
209 229 255
209 229 255
209 229 255
209 229 255
209 228 255
209 228 255
208 228 255
208 228 255
208 228 255
208 228 255
208 228 255
208 228 255
208 228 255
208 228 255
208 228 255
208 228 255
208 228 255
208 228 255
208 228 255
208 228 255
208 228 255
208 228 255
208 228 255
208 228 255
208 228 255
208 228 255
207 228 255
207 228 255
207 228 255
207 228 255
207 228 255
207 228 255
207 228 255
207 228 255
207 228 255
207 228 255
207 228 255
207 228 255
207 228 255
207 228 255
207 227 255
207 227 255
207 227 255
207 227 255
207 227 255
206 227 255
206 227 255
206 227 255
206 227 255
206 227 255
206 227 255
206 227 255
206 227 255
206 227 255
206 227 255
206 227 255
206 227 255
206 227 255
206 227 255
206 227 255
206 227 255
206 227 255
205 227 255
205 227 255
205 227 255
205 227 255
205 227 255
205 227 255
205 227 255
205 227 255
205 227 255
205 227 255
205 226 255
205 226 255
205 226 255
205 226 255
205 226 255
205 226 255
204 226 255
204 226 255
204 226 255
204 226 255
204 226 255
204 226 255
204 226 255
204 226 255
204 226 255
204 226 255
204 226 255
204 226 255
204 226 255
204 226 255
204 226 255
204 226 255
203 226 255
203 226 255
203 226 255
203 226 255
203 226 255
203 226 255
203 226 255
203 225 255
203 225 255
203 225 255
203 225 255
203 225 255
203 225 255
203 225 255
203 225 255
203 225 255
202 225 255
202 225 255
202 225 255
202 225 255
202 225 255
202 225 255
202 225 255
202 225 255
202 225 255
202 225 255
202 225 255
202 225 255
202 225 255
202 225 255
202 225 255
202 225 255
202 225 255
201 225 255
201 225 255
201 225 255
201 225 255
201 225 255
201 224 255
201 224 255
201 224 255
201 224 255
201 224 255
201 224 255
201 224 255
201 224 255
201 224 255
201 224 255
201 224 255
201 224 255
201 224 255
201 224 255
201 224 255
200 224 255
200 224 255
200 224 255
200 224 255
200 224 255
200 224 255
200 224 255
200 224 255
200 224 255
200 224 255
200 224 255
200 224 255
200 224 255
200 224 255
200 224 255
200 224 255
200 224 255
200 224 255
200 224 255
200 224 255
200 224 255
200 224 255
200 224 255
200 224 255
200 224 255
200 224 255
200 224 255
200 224 255
200 224 255
200 224 255
200 224 255
200 224 255
200 224 255
200 224 255
200 224 255
200 224 255
200 224 255
200 224 255
200 224 255
200 224 255
200 224 255
200 224 255
200 224 255
200 224 255
200 224 255
200 224 255
200 224 255
200 224 255
200 224 255
200 224 255
200 224 255
200 224 255
200 224 255
200 224 255
200 224 255
200 224 255
200 224 255
200 224 255
200 224 255
200 224 255
200 224 255
200 224 255
200 224 255
200 224 255
200 224 255
200 224 255
200 224 255
200 224 255
200 224 255
200 224 255
200 224 255
200 224 255
200 224 255
200 224 255
200 224 255
200 224 255
201 224 255
201 224 255
201 224 255
201 224 255
201 224 255
201 224 255
201 224 255
201 224 255
201 224 255
201 224 255
201 224 255
201 224 255
201 224 255
201 224 255
201 225 255
201 225 255
201 225 255
201 225 255
201 225 255
201 225 255
202 225 255
202 225 255
202 225 255
202 225 255
202 225 255
202 225 255
202 225 255
202 225 255
202 225 255
202 225 255
202 225 255
202 225 255
202 225 255
202 225 255
202 225 255
202 225 255
202 225 255
203 225 255
203 225 255
203 225 255
203 225 255
203 225 255
203 225 255
203 225 255
203 225 255
203 225 255
203 226 255
203 226 255
203 226 255
203 226 255
203 226 255
203 226 255
203 226 255
204 226 255
204 226 255
204 226 255
204 226 255
204 226 255
204 226 255
204 226 255
204 226 255
204 226 255
204 226 255
204 226 255
204 226 255
204 226 255
204 226 255
204 226 255
204 226 255
205 226 255
205 226 255
205 226 255
205 226 255
205 226 255
205 226 255
205 227 255
205 227 255
205 227 255
205 227 255
205 227 255
205 227 255
205 227 255
205 227 255
205 227 255
205 227 255
206 227 255
206 227 255
206 227 255
206 227 255
206 227 255
206 227 255
206 227 255
206 227 255
206 227 255
206 227 255
206 227 255
206 227 255
206 227 255
206 227 255
206 227 255
206 227 255
206 227 255
206 227 255
207 227 255
207 227 255
207 227 255
207 227 255
207 228 255
207 228 255
207 228 255
207 228 255
207 228 255
207 228 255
207 228 255
207 228 255
207 228 255
207 228 255
207 228 255
207 228 255
207 228 255
207 228 255
208 228 255
208 228 255
208 228 255
208 228 255
208 228 255
208 228 255
208 228 255
208 228 255
208 228 255
208 228 255
208 228 255
208 228 255
208 228 255
208 228 255
208 228 255
208 228 255
208 228 255
208 228 255
208 228 255
208 228 255
209 228 255
209 228 255
209 229 255
209 229 255
209 229 255
209 229 255
209 229 255
209 229 255
209 229 255
209 229 255
209 229 255
209 229 255
209 229 255
209 229 255
209 229 255
209 229 255
209 229 255
209 229 255
209 229 255
209 229 255
209 229 255
210 229 255
209 229 255
209 229 255
209 229 255
209 229 255
209 229 255
209 229 255
209 229 255
209 229 255
209 229 255
209 229 255
209 229 255
209 229 255
209 229 255
209 229 255
209 229 255
209 229 255
209 229 255
209 229 255
209 229 255
209 229 255
209 229 255
209 228 255
209 228 255
208 228 255
208 228 255
208 228 255
208 228 255
208 228 255
208 228 255
208 228 255
208 228 255
208 228 255
208 228 255
208 228 255
208 228 255
208 228 255
208 228 255
208 228 255
208 228 255
208 228 255
208 228 255
208 228 255
208 228 255
207 228 255
207 228 255
207 228 255
207 228 255
207 228 255
207 228 255
207 228 255
207 228 255
207 228 255
207 228 255
207 228 255
207 228 255
207 228 255
207 228 255
207 227 255
207 227 255
207 227 255
207 227 255
207 227 255
206 227 255
206 227 255
206 227 255
206 227 255
206 227 255
206 227 255
206 227 255
206 227 255
206 227 255
206 227 255
206 227 255
206 227 255
206 227 255
206 227 255
206 227 255
206 227 255
206 227 255
205 227 255
205 227 255
205 227 255
205 227 255
205 227 255
205 227 255
205 227 255
205 227 255
205 227 255
205 226 255
205 226 255
205 226 255
205 226 255
205 226 255
205 226 255
205 226 255
204 226 255
204 226 255
204 226 255
204 226 255
204 226 255
204 226 255
204 226 255
204 226 255
204 226 255
204 226 255
204 226 255
204 226 255
204 226 255
204 226 255
204 226 255
204 226 255
203 226 255
203 226 255
203 226 255
203 226 255
203 226 255
203 226 255
203 226 255
203 225 255
203 225 255
203 225 255
203 225 255
203 225 255
203 225 255
203 225 255
203 225 255
203 225 255
202 225 255
202 225 255
202 225 255
202 225 255
202 225 255
202 225 255
202 225 255
202 225 255
202 225 255
202 225 255
202 225 255
202 225 255
202 225 255
202 225 255
202 225 255
202 225 255
202 225 255
202 225 255
201 225 255
201 225 255
201 225 255
201 225 255
201 225 255
201 224 255
201 224 255
201 224 255
201 224 255
201 224 255
201 224 255
201 224 255
201 224 255
201 224 255
201 224 255
201 224 255
201 224 255
201 224 255
201 224 255
201 224 255
201 224 255
200 224 255
200 224 255
200 224 255
200 224 255
200 224 255
200 224 255
200 224 255
200 224 255
200 224 255
200 224 255
200 224 255
200 224 255
200 224 255
200 224 255
200 224 255
200 224 255
200 224 255
200 224 255
200 224 255
200 224 255
200 224 255
200 224 255
200 224 255
200 224 255
200 224 255
200 224 255
200 224 255
200 224 255
200 224 255
200 224 255
200 224 255
200 224 255
200 224 255
200 224 255
200 224 255
200 224 255
200 224 255
200 224 255
200 224 255
200 224 255
200 224 255
200 224 255
200 224 255
200 224 255
200 224 255
200 224 255
200 224 255
200 224 255
200 224 255
200 224 255
200 224 255
200 224 255
200 224 255
200 224 255
200 224 255
200 224 255
200 224 255
200 224 255
200 224 255
200 224 255
200 224 255
200 224 255
200 224 255
200 224 255
200 224 255
200 224 255
201 224 255
201 224 255
201 224 255
201 224 255
201 224 255
201 224 255
201 224 255
201 224 255
201 224 255
201 224 255
201 224 255
201 224 255
201 224 255
201 224 255
201 224 255
201 224 255
201 225 255
201 225 255
201 225 255
201 225 255
201 225 255
202 225 255
202 225 255
202 225 255
202 225 255
202 225 255
202 225 255
202 225 255
202 225 255
202 225 255
202 225 255
202 225 255
202 225 255
202 225 255
202 225 255
202 225 255
202 225 255
202 225 255
202 225 255
203 225 255
203 225 255
203 225 255
203 225 255
203 225 255
203 225 255
203 225 255
203 225 255
203 225 255
203 226 255
203 226 255
203 226 255
203 226 255
203 226 255
203 226 255
203 226 255
204 226 255
204 226 255
204 226 255
204 226 255
204 226 255
204 226 255
204 226 255
204 226 255
204 226 255
204 226 255
204 226 255
204 226 255
204 226 255
204 226 255
204 226 255
204 226 255
205 226 255
205 226 255
205 226 255
205 226 255
205 226 255
205 226 255
205 226 255
205 227 255
205 227 255
205 227 255
205 227 255
205 227 255
205 227 255
205 227 255
205 227 255
205 227 255
206 227 255
206 227 255
206 227 255
206 227 255
206 227 255
206 227 255
206 227 255
206 227 255
206 227 255
206 227 255
206 227 255
206 227 255
206 227 255
206 227 255
206 227 255
206 227 255
206 227 255
207 227 255
207 227 255
207 227 255
207 227 255
207 227 255
207 228 255
207 228 255
207 228 255
207 228 255
207 228 255
207 228 255
207 228 255
207 228 255
207 228 255
207 228 255
207 228 255
207 228 255
207 228 255
207 228 255
208 228 255
208 228 255
208 228 255
208 228 255
208 228 255
208 228 255
208 228 255
208 228 255
208 228 255
208 228 255
208 228 255
208 228 255
208 228 255
208 228 255
208 228 255
208 228 255
208 228 255
208 228 255
208 228 255
208 228 255
209 228 255
209 228 255
209 229 255
209 229 255
209 229 255
209 229 255
209 229 255
209 229 255
209 229 255
209 229 255
209 229 255
209 229 255
209 229 255
209 229 255
209 229 255
209 229 255
209 229 255
209 229 255
209 229 255
209 229 255
209 229 255
209 229 255
209 229 255
210 229 255
210 229 255
210 229 255
210 229 255
210 229 255
210 229 255
209 229 255
209 229 255
209 229 255
209 229 255
209 229 255
209 229 255
209 229 255
209 229 255
209 229 255
209 229 255
209 229 255
209 229 255
209 229 255
209 229 255
209 229 255
209 229 255
209 229 255
209 229 255
209 229 255
209 229 255
209 229 255
209 228 255
208 228 255
208 228 255
208 228 255
208 228 255
208 228 255
208 228 255
208 228 255
208 228 255
208 228 255
208 228 255
208 228 255
208 228 255
208 228 255
208 228 255
208 228 255
208 228 255
208 228 255
208 228 255
208 228 255
208 228 255
207 228 255
207 228 255
207 228 255
207 228 255
207 228 255
207 228 255
207 228 255
207 228 255
207 228 255
207 228 255
207 228 255
207 228 255
207 228 255
207 228 255
207 228 255
207 227 255
207 227 255
207 227 255
207 227 255
206 227 255
206 227 255
206 227 255
206 227 255
206 227 255
206 227 255
206 227 255
206 227 255
206 227 255
206 227 255
206 227 255
206 227 255
206 227 255
206 227 255
206 227 255
206 227 255
206 227 255
205 227 255
205 227 255
205 227 255
205 227 255
205 227 255
205 227 255
205 227 255
205 227 255
205 227 255
205 227 255
205 226 255
205 226 255
205 226 255
205 226 255
205 226 255
205 226 255
204 226 255
204 226 255
204 226 255
204 226 255
204 226 255
204 226 255
204 226 255
204 226 255
204 226 255
204 226 255
204 226 255
204 226 255
204 226 255
204 226 255
204 226 255
204 226 255
203 226 255
203 226 255
203 226 255
203 226 255
203 226 255
203 226 255
203 226 255
203 225 255
203 225 255
203 225 255
203 225 255
203 225 255
203 225 255
203 225 255
203 225 255
203 225 255
203 225 255
202 225 255
202 225 255
202 225 255
202 225 255
202 225 255
202 225 255
202 225 255
202 225 255
202 225 255
202 225 255
202 225 255
202 225 255
202 225 255
202 225 255
202 225 255
202 225 255
202 225 255
202 225 255
201 225 255
201 225 255
201 225 255
201 225 255
201 225 255
201 225 255
201 224 255
201 224 255
201 224 255
201 224 255
201 224 255
201 224 255
201 224 255
201 224 255
201 224 255
201 224 255
201 224 255
201 224 255
201 224 255
201 224 255
201 224 255
201 224 255
201 224 255
201 224 255
200 224 255
200 224 255
200 224 255
200 224 255
200 224 255
200 224 255
200 224 255
200 224 255
200 224 255
200 224 255
200 224 255
200 224 255
200 224 255
200 224 255
200 224 255
200 224 255
200 224 255
200 224 255
200 224 255
200 224 255
200 224 255
200 224 255
200 224 255
200 224 255
200 224 255
200 224 255
200 224 255
200 224 255
200 224 255
200 224 255
200 224 255
200 224 255
200 224 255
200 224 255
200 224 255
200 224 255
200 224 255
200 224 255
200 224 255
200 224 255
200 224 255
200 224 255
200 224 255
200 224 255
200 224 255
200 224 255
200 224 255
200 224 255
200 224 255
200 224 255
200 224 255
200 224 255
200 224 255
201 224 255
201 224 255
201 224 255
201 224 255
201 224 255
201 224 255
201 224 255
201 224 255
201 224 255
201 224 255
201 224 255
201 224 255
201 224 255
201 224 255
201 224 255
201 224 255
201 224 255
201 225 255
201 225 255
201 225 255
201 225 255
201 225 255
201 225 255
202 225 255
202 225 255
202 225 255
202 225 255
202 225 255
202 225 255
202 225 255
202 225 255
202 225 255
202 225 255
202 225 255
202 225 255
202 225 255
202 225 255
202 225 255
202 225 255
202 225 255
202 225 255
202 225 255
203 225 255
203 225 255
203 225 255
203 225 255
203 225 255
203 225 255
203 225 255
203 225 255
203 225 255
203 226 255
203 226 255
203 226 255
203 226 255
203 226 255
203 226 255
203 226 255
204 226 255
204 226 255
204 226 255
204 226 255
204 226 255
204 226 255
204 226 255
204 226 255
204 226 255
204 226 255
204 226 255
204 226 255
204 226 255
204 226 255
204 226 255
204 226 255
205 226 255
205 226 255
205 226 255
205 226 255
205 226 255
205 226 255
205 226 255
205 227 255
205 227 255
205 227 255
205 227 255
205 227 255
205 227 255
205 227 255
205 227 255
205 227 255
206 227 255
206 227 255
206 227 255
206 227 255
206 227 255
206 227 255
206 227 255
206 227 255
206 227 255
206 227 255
206 227 255
206 227 255
206 227 255
206 227 255
206 227 255
206 227 255
206 227 255
207 227 255
207 227 255
207 227 255
207 227 255
207 227 255
207 228 255
207 228 255
207 228 255
207 228 255
207 228 255
207 228 255
207 228 255
207 228 255
207 228 255
207 228 255
207 228 255
207 228 255
207 228 255
208 228 255
208 228 255
208 228 255
208 228 255
208 228 255
208 228 255
208 228 255
208 228 255
208 228 255
208 228 255
208 228 255
208 228 255
208 228 255
208 228 255
208 228 255
208 228 255
208 228 255
208 228 255
208 228 255
208 228 255
208 228 255
209 228 255
209 229 255
209 229 255
209 229 255
209 229 255
209 229 255
209 229 255
209 229 255
209 229 255
209 229 255
209 229 255
209 229 255
209 229 255
209 229 255
209 229 255
209 229 255
209 229 255
209 229 255
209 229 255
209 229 255
209 229 255
209 229 255
210 229 255
210 229 255
210 229 255
210 229 255
210 229 255
210 229 255
210 229 255
210 229 255
210 229 255
210 229 255
210 229 255
210 229 255
210 229 255
210 229 255
209 229 255
209 229 255
209 229 255
209 229 255
209 229 255
209 229 255
209 229 255
209 229 255
209 229 255
209 229 255
209 229 255
209 229 255
209 229 255
209 229 255
209 229 255
209 229 255
209 229 255
209 229 255
209 229 255
209 229 255
209 228 255
209 228 255
208 228 255
208 228 255
208 228 255
208 228 255
208 228 255
208 228 255
208 228 255
208 228 255
208 228 255
208 228 255
208 228 255
208 228 255
208 228 255
208 228 255
208 228 255
208 228 255
208 228 255
208 228 255
208 228 255
208 228 255
207 228 255
207 228 255
207 228 255
207 228 255
207 228 255
207 228 255
207 228 255
207 228 255
207 228 255
207 228 255
207 228 255
207 228 255
207 228 255
207 228 255
207 227 255
207 227 255
207 227 255
207 227 255
206 227 255
206 227 255
206 227 255
206 227 255
206 227 255
206 227 255
206 227 255
206 227 255
206 227 255
206 227 255
206 227 255
206 227 255
206 227 255
206 227 255
206 227 255
206 227 255
206 227 255
205 227 255
205 227 255
205 227 255
205 227 255
205 227 255
205 227 255
205 227 255
205 227 255
205 227 255
205 227 255
205 226 255
205 226 255
205 226 255
205 226 255
205 226 255
205 226 255
204 226 255
204 226 255
204 226 255
204 226 255
204 226 255
204 226 255
204 226 255
204 226 255
204 226 255
204 226 255
204 226 255
204 226 255
204 226 255
204 226 255
204 226 255
204 226 255
204 226 255
203 226 255
203 226 255
203 226 255
203 226 255
203 226 255
203 226 255
203 226 255
203 225 255
203 225 255
203 225 255
203 225 255
203 225 255
203 225 255
203 225 255
203 225 255
203 225 255
202 225 255
202 225 255
202 225 255
202 225 255
202 225 255
202 225 255
202 225 255
202 225 255
202 225 255
202 225 255
202 225 255
202 225 255
202 225 255
202 225 255
202 225 255
202 225 255
202 225 255
202 225 255
202 225 255
201 225 255
201 225 255
201 225 255
201 225 255
201 225 255
201 225 255
201 225 255
201 224 255
201 224 255
201 224 255
201 224 255
201 224 255
201 224 255
201 224 255
201 224 255
201 224 255
201 224 255
201 224 255
201 224 255
201 224 255
201 224 255
201 224 255
201 224 255
201 224 255
201 224 255
201 224 255
201 224 255
200 224 255
200 224 255
200 224 255
200 224 255
200 224 255
200 224 255
200 224 255
200 224 255
200 224 255
200 224 255
200 224 255
200 224 255
200 224 255
200 224 255
200 224 255
200 224 255
200 224 255
200 224 255
200 224 255
200 224 255
200 224 255
200 224 255
200 224 255
200 224 255
200 224 255
200 224 255
200 224 255
200 224 255
200 224 255
200 224 255
200 224 255
200 224 255
200 224 255
200 224 255
200 224 255
200 224 255
200 224 255
201 224 255
201 224 255
201 224 255
201 224 255
201 224 255
201 224 255
201 224 255
201 224 255
201 224 255
201 224 255
201 224 255
201 224 255
201 224 255
201 224 255
201 224 255
201 224 255
201 224 255
201 224 255
201 224 255
201 224 255
201 224 255
201 224 255
201 225 255
201 225 255
201 225 255
201 225 255
201 225 255
201 225 255
202 225 255
202 225 255
202 225 255
202 225 255
202 225 255
202 225 255
202 225 255
202 225 255
202 225 255
202 225 255
202 225 255
202 225 255
202 225 255
202 225 255
202 225 255
202 225 255
202 225 255
202 225 255
202 225 255
203 225 255
203 225 255
203 225 255
203 225 255
203 225 255
203 225 255
203 225 255
203 225 255
203 225 255
203 226 255
203 226 255
203 226 255
203 226 255
203 226 255
203 226 255
203 226 255
203 226 255
204 226 255
204 226 255
204 226 255
204 226 255
204 226 255
204 226 255
204 226 255
204 226 255
204 226 255
204 226 255
204 226 255
204 226 255
204 226 255
204 226 255
204 226 255
204 226 255
205 226 255
205 226 255
205 226 255
205 226 255
205 226 255
205 226 255
205 227 255
205 227 255
205 227 255
205 227 255
205 227 255
205 227 255
205 227 255
205 227 255
205 227 255
205 227 255
206 227 255
206 227 255
206 227 255
206 227 255
206 227 255
206 227 255
206 227 255
206 227 255
206 227 255
206 227 255
206 227 255
206 227 255
206 227 255
206 227 255
206 227 255
206 227 255
206 227 255
207 227 255
207 227 255
207 227 255
207 227 255
207 228 255
207 228 255
207 228 255
207 228 255
207 228 255
207 228 255
207 228 255
207 228 255
207 228 255
207 228 255
207 228 255
207 228 255
207 228 255
207 228 255
207 228 255
208 228 255
208 228 255
208 228 255
208 228 255
208 228 255
208 228 255
208 228 255
208 228 255
208 228 255
208 228 255
208 228 255
208 228 255
208 228 255
208 228 255
208 228 255
208 228 255
208 228 255
208 228 255
208 228 255
209 228 255
209 228 255
209 229 255
209 229 255
209 229 255
209 229 255
209 229 255
209 229 255
209 229 255
209 229 255
209 229 255
209 229 255
209 229 255
209 229 255
209 229 255
209 229 255
209 229 255
209 229 255
209 229 255
209 229 255
209 229 255
209 229 255
209 229 255
210 229 255
210 229 255
210 229 255
210 229 255
210 229 255
210 229 255
210 229 255
210 229 255
210 229 255
210 229 255
210 229 255
210 229 255
210 229 255
210 229 255
210 229 255
210 229 255
210 229 255
210 229 255
210 229 255
210 229 255
209 229 255
209 229 255
209 229 255
209 229 255
209 229 255
209 229 255
209 229 255
209 229 255
209 229 255
209 229 255
209 229 255
209 229 255
209 229 255
209 229 255
209 229 255
209 229 255
209 229 255
209 229 255
209 229 255
209 229 255
209 229 255
209 228 255
208 228 255
208 228 255
208 228 255
208 228 255
208 228 255
208 228 255
208 228 255
208 228 255
208 228 255
208 228 255
208 228 255
208 228 255
208 228 255
208 228 255
208 228 255
208 228 255
208 228 255
208 228 255
208 228 255
208 228 255
207 228 255
207 228 255
207 228 255
207 228 255
207 228 255
207 228 255
207 228 255
207 228 255
207 228 255
207 228 255
207 228 255
207 228 255
207 228 255
207 228 255
207 227 255
207 227 255
207 227 255
207 227 255
206 227 255
206 227 255
206 227 255
206 227 255
206 227 255
206 227 255
206 227 255
206 227 255
206 227 255
206 227 255
206 227 255
206 227 255
206 227 255
206 227 255
206 227 255
206 227 255
206 227 255
205 227 255
205 227 255
205 227 255
205 227 255
205 227 255
205 227 255
205 227 255
205 227 255
205 227 255
205 227 255
205 226 255
205 226 255
205 226 255
205 226 255
205 226 255
205 226 255
204 226 255
204 226 255
204 226 255
204 226 255
204 226 255
204 226 255
204 226 255
204 226 255
204 226 255
204 226 255
204 226 255
204 226 255
204 226 255
204 226 255
204 226 255
204 226 255
204 226 255
203 226 255
203 226 255
203 226 255
203 226 255
203 226 255
203 226 255
203 226 255
203 225 255
203 225 255
203 225 255
203 225 255
203 225 255
203 225 255
203 225 255
203 225 255
203 225 255
203 225 255
202 225 255
202 225 255
202 225 255
202 225 255
202 225 255
202 225 255
202 225 255
202 225 255
202 225 255
202 225 255
202 225 255
202 225 255
202 225 255
202 225 255
202 225 255
202 225 255
202 225 255
202 225 255
202 225 255
202 225 255
201 225 255
201 225 255
201 225 255
201 225 255
201 225 255
201 225 255
201 225 255
201 224 255
201 224 255
201 224 255
201 224 255
201 224 255
201 224 255
201 224 255
201 224 255
201 224 255
201 224 255
201 224 255
201 224 255
201 224 255
201 224 255
201 224 255
201 224 255
201 224 255
201 224 255
201 224 255
201 224 255
201 224 255
201 224 255
201 224 255
201 224 255
201 224 255
201 224 255
201 224 255
201 224 255
201 224 255
201 224 255
201 224 255
201 224 255
201 224 255
201 224 255
201 224 255
201 224 255
201 224 255
201 224 255
201 224 255
201 224 255
201 224 255
201 224 255
201 224 255
201 224 255
201 224 255
201 224 255
201 224 255
201 224 255
201 224 255
201 224 255
201 224 255
201 224 255
201 224 255
201 224 255
201 224 255
201 224 255
201 224 255
201 224 255
201 224 255
201 224 255
201 224 255
201 224 255
201 224 255
201 224 255
201 224 255
201 224 255
201 224 255
201 224 255
201 225 255
201 225 255
201 225 255
201 225 255
201 225 255
201 225 255
201 225 255
201 225 255
202 225 255
202 225 255
202 225 255
202 225 255
202 225 255
202 225 255
202 225 255
202 225 255
202 225 255
202 225 255
202 225 255
202 225 255
202 225 255
202 225 255
202 225 255
202 225 255
202 225 255
202 225 255
202 225 255
203 225 255
203 225 255
203 225 255
203 225 255
203 225 255
203 225 255
203 225 255
203 225 255
203 225 255
203 225 255
203 226 255
203 226 255
203 226 255
203 226 255
203 226 255
203 226 255
203 226 255
204 226 255
204 226 255
204 226 255
204 226 255
204 226 255
204 226 255
204 226 255
204 226 255
204 226 255
204 226 255
204 226 255
204 226 255
204 226 255
204 226 255
204 226 255
204 226 255
204 226 255
205 226 255
205 226 255
205 226 255
205 226 255
205 226 255
205 226 255
205 227 255
205 227 255
205 227 255
205 227 255
205 227 255
205 227 255
205 227 255
205 227 255
205 227 255
205 227 255
206 227 255
206 227 255
206 227 255
206 227 255
206 227 255
206 227 255
206 227 255
206 227 255
206 227 255
206 227 255
206 227 255
206 227 255
206 227 255
206 227 255
206 227 255
206 227 255
206 227 255
207 227 255
207 227 255
207 227 255
207 227 255
207 228 255
207 228 255
207 228 255
207 228 255
207 228 255
207 228 255
207 228 255
207 228 255
207 228 255
207 228 255
207 228 255
207 228 255
207 228 255
207 228 255
208 228 255
208 228 255
208 228 255
208 228 255
208 228 255
208 228 255
208 228 255
208 228 255
208 228 255
208 228 255
208 228 255
208 228 255
208 228 255
208 228 255
208 228 255
208 228 255
208 228 255
208 228 255
208 228 255
208 228 255
209 228 255
209 229 255
209 229 255
209 229 255
209 229 255
209 229 255
209 229 255
209 229 255
209 229 255
209 229 255
209 229 255
209 229 255
209 229 255
209 229 255
209 229 255
209 229 255
209 229 255
209 229 255
209 229 255
209 229 255
209 229 255
209 229 255
210 229 255
210 229 255
210 229 255
210 229 255
210 229 255
210 229 255
210 229 255
210 229 255
210 229 255
210 229 255
210 229 255
210 229 255
210 229 255
210 229 255
210 229 255
210 229 255
210 229 255
210 229 255
210 229 255
210 229 255
210 229 255
210 229 255
210 229 255
210 229 255
210 229 255
210 229 255
210 229 255
210 229 255
209 229 255
209 229 255
209 229 255
209 229 255
209 229 255
209 229 255
209 229 255
209 229 255
209 229 255
209 229 255
209 229 255
209 229 255
209 229 255
209 229 255
209 229 255
209 229 255
209 229 255
209 229 255
209 229 255
209 229 255
209 228 255
209 228 255
208 228 255
208 228 255
208 228 255
208 228 255
208 228 255
208 228 255
208 228 255
208 228 255
208 228 255
208 228 255
208 228 255
208 228 255
208 228 255
208 228 255
208 228 255
208 228 255
208 228 255
208 228 255
208 228 255
207 228 255
207 228 255
207 228 255
207 228 255
207 228 255
207 228 255
207 228 255
207 228 255
207 228 255
207 228 255
207 228 255
207 228 255
207 228 255
207 228 255
207 227 255
207 227 255
207 227 255
207 227 255
206 227 255
206 227 255
206 227 255
206 227 255
206 227 255
206 227 255
206 227 255
206 227 255
206 227 255
206 227 255
206 227 255
206 227 255
206 227 255
206 227 255
206 227 255
206 227 255
206 227 255
205 227 255
205 227 255
205 227 255
205 227 255
205 227 255
205 227 255
205 227 255
205 227 255
205 227 255
205 227 255
205 226 255
205 226 255
205 226 255
205 226 255
205 226 255
205 226 255
205 226 255
204 226 255
204 226 255
204 226 255
204 226 255
204 226 255
204 226 255
204 226 255
204 226 255
204 226 255
204 226 255
204 226 255
204 226 255
204 226 255
204 226 255
204 226 255
204 226 255
203 226 255
203 226 255
203 226 255
203 226 255
203 226 255
203 226 255
203 226 255
203 226 255
203 225 255
203 225 255
203 225 255
203 225 255
203 225 255
203 225 255
203 225 255
203 225 255
203 225 255
202 225 255
202 225 255
202 225 255
202 225 255
202 225 255
202 225 255
202 225 255
202 225 255
202 225 255
202 225 255
202 225 255
202 225 255
202 225 255
202 225 255
202 225 255
202 225 255
202 225 255
202 225 255
202 225 255
202 225 255
202 225 255
202 225 255
201 225 255
201 225 255
201 225 255
201 225 255
201 225 255
201 225 255
201 225 255
201 225 255
201 224 255
201 224 255
201 224 255
201 224 255
201 224 255
201 224 255
201 224 255
201 224 255
201 224 255
201 224 255
201 224 255
201 224 255
201 224 255
201 224 255
201 224 255
201 224 255
201 224 255
201 224 255
201 224 255
201 224 255
201 224 255
201 224 255
201 224 255
201 224 255
201 224 255
201 224 255
201 224 255
201 224 255
201 224 255
201 224 255
201 224 255
201 224 255
201 224 255
201 224 255
201 224 255
201 224 255
201 224 255
201 224 255
201 224 255
201 224 255
201 224 255
201 224 255
201 224 255
201 224 255
201 224 255
201 224 255
201 224 255
201 224 255
201 224 255
201 224 255
201 224 255
201 224 255
201 224 255
201 224 255
201 224 255
201 224 255
201 225 255
201 225 255
201 225 255
201 225 255
201 225 255
201 225 255
201 225 255
201 225 255
202 225 255
202 225 255
202 225 255
202 225 255
202 225 255
202 225 255
202 225 255
202 225 255
202 225 255
202 225 255
202 225 255
202 225 255
202 225 255
202 225 255
202 225 255
202 225 255
202 225 255
202 225 255
202 225 255
202 225 255
202 225 255
203 225 255
203 225 255
203 225 255
203 225 255
203 225 255
203 225 255
203 225 255
203 225 255
203 225 255
203 225 255
203 226 255
203 226 255
203 226 255
203 226 255
203 226 255
203 226 255
203 226 255
203 226 255
204 226 255
204 226 255
204 226 255
204 226 255
204 226 255
204 226 255
204 226 255
204 226 255
204 226 255
204 226 255
204 226 255
204 226 255
204 226 255
204 226 255
204 226 255
204 226 255
205 226 255
205 226 255
205 226 255
205 226 255
205 226 255
205 226 255
205 226 255
205 227 255
205 227 255
205 227 255
205 227 255
205 227 255
205 227 255
205 227 255
205 227 255
205 227 255
205 227 255
206 227 255
206 227 255
206 227 255
206 227 255
206 227 255
206 227 255
206 227 255
206 227 255
206 227 255
206 227 255
206 227 255
206 227 255
206 227 255
206 227 255
206 227 255
206 227 255
206 227 255
207 227 255
207 227 255
207 227 255
207 227 255
207 228 255
207 228 255
207 228 255
207 228 255
207 228 255
207 228 255
207 228 255
207 228 255
207 228 255
207 228 255
207 228 255
207 228 255
207 228 255
207 228 255
208 228 255
208 228 255
208 228 255
208 228 255
208 228 255
208 228 255
208 228 255
208 228 255
208 228 255
208 228 255
208 228 255
208 228 255
208 228 255
208 228 255
208 228 255
208 228 255
208 228 255
208 228 255
208 228 255
209 228 255
209 228 255
209 229 255
209 229 255
209 229 255
209 229 255
209 229 255
209 229 255
209 229 255
209 229 255
209 229 255
209 229 255
209 229 255
209 229 255
209 229 255
209 229 255
209 229 255
209 229 255
209 229 255
209 229 255
209 229 255
209 229 255
210 229 255
210 229 255
210 229 255
210 229 255
210 229 255
210 229 255
210 229 255
210 229 255
210 229 255
210 229 255
210 229 255
210 229 255
210 229 255
210 229 255
210 229 255
210 229 255
210 229 255
210 229 255
210 229 255
210 229 255
210 229 255
210 229 255
210 229 255
210 229 255
210 229 255
210 229 255
210 229 255
210 229 255
210 229 255
210 229 255
210 229 255
210 229 255
210 229 255
210 229 255
210 229 255
210 229 255
209 229 255
209 229 255
209 229 255
209 229 255
209 229 255
209 229 255
209 229 255
209 229 255
209 229 255
209 229 255
209 229 255
209 229 255
209 229 255
209 229 255
209 229 255
209 229 255
209 229 255
209 229 255
209 229 255
209 228 255
209 228 255
208 228 255
208 228 255
208 228 255
208 228 255
208 228 255
208 228 255
208 228 255
208 228 255
208 228 255
208 228 255
208 228 255
208 228 255
208 228 255
208 228 255
208 228 255
208 228 255
208 228 255
208 228 255
208 228 255
208 228 255
207 228 255
207 228 255
207 228 255
207 228 255
207 228 255
207 228 255
207 228 255
207 228 255
207 228 255
207 228 255
207 228 255
207 228 255
207 228 255
207 227 255
207 227 255
207 227 255
207 227 255
207 227 255
206 227 255
206 227 255
206 227 255
206 227 255
206 227 255
206 227 255
206 227 255
206 227 255
206 227 255
206 227 255
206 227 255
206 227 255
206 227 255
206 227 255
206 227 255
206 227 255
206 227 255
205 227 255
205 227 255
205 227 255
205 227 255
205 227 255
205 227 255
205 227 255
205 227 255
205 227 255
205 226 255
205 226 255
205 226 255
205 226 255
205 226 255
205 226 255
205 226 255
204 226 255
204 226 255
204 226 255
204 226 255
204 226 255
204 226 255
204 226 255
204 226 255
204 226 255
204 226 255
204 226 255
204 226 255
204 226 255
204 226 255
204 226 255
204 226 255
204 226 255
203 226 255
203 226 255
203 226 255
203 226 255
203 226 255
203 226 255
203 226 255
203 225 255
203 225 255
203 225 255
203 225 255
203 225 255
203 225 255
203 225 255
203 225 255
203 225 255
203 225 255
203 225 255
202 225 255
202 225 255
202 225 255
202 225 255
202 225 255
202 225 255
202 225 255
202 225 255
202 225 255
202 225 255
202 225 255
202 225 255
202 225 255
202 225 255
202 225 255
202 225 255
202 225 255
202 225 255
202 225 255
202 225 255
202 225 255
202 225 255
202 225 255
201 225 255
201 225 255
201 225 255
201 225 255
201 225 255
201 225 255
201 225 255
201 225 255
201 225 255
201 225 255
201 224 255
201 224 255
201 224 255
201 224 255
201 224 255
201 224 255
201 224 255
201 224 255
201 224 255
201 224 255
201 224 255
201 224 255
201 224 255
201 224 255
201 224 255
201 224 255
201 224 255
201 224 255
201 224 255
201 224 255
201 224 255
201 224 255
201 224 255
201 224 255
201 224 255
201 224 255
201 224 255
201 224 255
201 224 255
201 224 255
201 224 255
201 224 255
201 224 255
201 224 255
201 224 255
201 224 255
201 224 255
201 224 255
201 224 255
201 224 255
201 225 255
201 225 255
201 225 255
201 225 255
201 225 255
201 225 255
201 225 255
201 225 255
201 225 255
201 225 255
201 225 255
202 225 255
202 225 255
202 225 255
202 225 255
202 225 255
202 225 255
202 225 255
202 225 255
202 225 255
202 225 255
202 225 255
202 225 255
202 225 255
202 225 255
202 225 255
202 225 255
202 225 255
202 225 255
202 225 255
202 225 255
202 225 255
202 225 255
203 225 255
203 225 255
203 225 255
203 225 255
203 225 255
203 225 255
203 225 255
203 225 255
203 225 255
203 225 255
203 225 255
203 226 255
203 226 255
203 226 255
203 226 255
203 226 255
203 226 255
203 226 255
204 226 255
204 226 255
204 226 255
204 226 255
204 226 255
204 226 255
204 226 255
204 226 255
204 226 255
204 226 255
204 226 255
204 226 255
204 226 255
204 226 255
204 226 255
204 226 255
204 226 255
205 226 255
205 226 255
205 226 255
205 226 255
205 226 255
205 226 255
205 226 255
205 227 255
205 227 255
205 227 255
205 227 255
205 227 255
205 227 255
205 227 255
205 227 255
205 227 255
205 227 255
206 227 255
206 227 255
206 227 255
206 227 255
206 227 255
206 227 255
206 227 255
206 227 255
206 227 255
206 227 255
206 227 255
206 227 255
206 227 255
206 227 255
206 227 255
206 227 255
206 227 255
207 227 255
207 227 255
207 227 255
207 227 255
207 228 255
207 228 255
207 228 255
207 228 255
207 228 255
207 228 255
207 228 255
207 228 255
207 228 255
207 228 255
207 228 255
207 228 255
207 228 255
208 228 255
208 228 255
208 228 255
208 228 255
208 228 255
208 228 255
208 228 255
208 228 255
208 228 255
208 228 255
208 228 255
208 228 255
208 228 255
208 228 255
208 228 255
208 228 255
208 228 255
208 228 255
208 228 255
208 228 255
209 228 255
209 228 255
209 229 255
209 229 255
209 229 255
209 229 255
209 229 255
209 229 255
209 229 255
209 229 255
209 229 255
209 229 255
209 229 255
209 229 255
209 229 255
209 229 255
209 229 255
209 229 255
209 229 255
209 229 255
209 229 255
209 229 255
210 229 255
210 229 255
210 229 255
210 229 255
210 229 255
210 229 255
210 229 255
210 229 255
210 229 255
210 229 255
210 229 255
210 229 255
210 229 255
210 229 255
210 229 255
210 229 255
210 229 255
210 229 255
210 229 255
210 230 255
210 230 255
210 229 255
210 229 255
210 229 255
210 229 255
210 229 255
210 229 255
210 229 255
210 229 255
210 229 255
210 229 255
210 229 255
210 229 255
210 229 255
210 229 255
210 229 255
210 229 255
210 229 255
210 229 255
210 229 255
210 229 255
210 229 255
209 229 255
209 229 255
209 229 255
209 229 255
209 229 255
209 229 255
209 229 255
209 229 255
209 229 255
209 229 255
209 229 255
209 229 255
209 229 255
209 229 255
209 229 255
209 229 255
209 229 255
209 229 255
209 229 255
209 229 255
209 228 255
208 228 255
208 228 255
208 228 255
208 228 255
208 228 255
208 228 255
208 228 255
208 228 255
208 228 255
208 228 255
208 228 255
208 228 255
208 228 255
208 228 255
208 228 255
208 228 255
208 228 255
208 228 255
208 228 255
208 228 255
207 228 255
207 228 255
207 228 255
207 228 255
207 228 255
207 228 255
207 228 255
207 228 255
207 228 255
207 228 255
207 228 255
207 228 255
207 228 255
207 228 255
207 227 255
207 227 255
207 227 255
207 227 255
206 227 255
206 227 255
206 227 255
206 227 255
206 227 255
206 227 255
206 227 255
206 227 255
206 227 255
206 227 255
206 227 255
206 227 255
206 227 255
206 227 255
206 227 255
206 227 255
206 227 255
205 227 255
205 227 255
205 227 255
205 227 255
205 227 255
205 227 255
205 227 255
205 227 255
205 227 255
205 227 255
205 226 255
205 226 255
205 226 255
205 226 255
205 226 255
205 226 255
204 226 255
204 226 255
204 226 255
204 226 255
204 226 255
204 226 255
204 226 255
204 226 255
204 226 255
204 226 255
204 226 255
204 226 255
204 226 255
204 226 255
204 226 255
204 226 255
204 226 255
203 226 255
203 226 255
203 226 255
203 226 255
203 226 255
203 226 255
203 226 255
203 226 255
203 225 255
203 225 255
203 225 255
203 225 255
203 225 255
203 225 255
203 225 255
203 225 255
203 225 255
203 225 255
203 225 255
202 225 255
202 225 255
202 225 255
202 225 255
202 225 255
202 225 255
202 225 255
202 225 255
202 225 255
202 225 255
202 225 255
202 225 255
202 225 255
202 225 255
202 225 255
202 225 255
202 225 255
202 225 255
202 225 255
202 225 255
202 225 255
202 225 255
202 225 255
202 225 255
202 225 255
202 225 255
201 225 255
201 225 255
201 225 255
201 225 255
201 225 255
201 225 255
201 225 255
201 225 255
201 225 255
201 225 255
201 225 255
201 225 255
201 225 255
201 225 255
201 225 255
201 225 255
201 225 255
201 224 255
201 224 255
201 224 255
201 224 255
201 224 255
201 224 255
201 224 255
201 224 255
201 224 255
201 225 255
201 224 255
201 224 255
201 225 255
201 225 255
201 225 255
201 225 255
201 225 255
201 225 255
201 225 255
201 225 255
201 225 255
201 225 255
201 225 255
201 225 255
201 225 255
201 225 255
201 225 255
201 225 255
201 225 255
202 225 255
202 225 255
202 225 255
202 225 255
202 225 255
202 225 255
202 225 255
202 225 255
202 225 255
202 225 255
202 225 255
202 225 255
202 225 255
202 225 255
202 225 255
202 225 255
202 225 255
202 225 255
202 225 255
202 225 255
202 225 255
202 225 255
202 225 255
202 225 255
202 225 255
202 225 255
203 225 255
203 225 255
203 225 255
203 225 255
203 225 255
203 225 255
203 225 255
203 225 255
203 225 255
203 225 255
203 226 255
203 226 255
203 226 255
203 226 255
203 226 255
203 226 255
203 226 255
203 226 255
203 226 255
204 226 255
204 226 255
204 226 255
204 226 255
204 226 255
204 226 255
204 226 255
204 226 255
204 226 255
204 226 255
204 226 255
204 226 255
204 226 255
204 226 255
204 226 255
204 226 255
204 226 255
205 226 255
205 226 255
205 226 255
205 226 255
205 226 255
205 226 255
205 227 255
205 227 255
205 227 255
205 227 255
205 227 255
205 227 255
205 227 255
205 227 255
205 227 255
205 227 255
206 227 255
206 227 255
206 227 255
206 227 255
206 227 255
206 227 255
206 227 255
206 227 255
206 227 255
206 227 255
206 227 255
206 227 255
206 227 255
206 227 255
206 227 255
206 227 255
206 227 255
207 227 255
207 227 255
207 227 255
207 227 255
207 227 255
207 228 255
207 228 255
207 228 255
207 228 255
207 228 255
207 228 255
207 228 255
207 228 255
207 228 255
207 228 255
207 228 255
207 228 255
207 228 255
208 228 255
208 228 255
208 228 255
208 228 255
208 228 255
208 228 255
208 228 255
208 228 255
208 228 255
208 228 255
208 228 255
208 228 255
208 228 255
208 228 255
208 228 255
208 228 255
208 228 255
208 228 255
208 228 255
208 228 255
209 228 255
209 229 255
209 229 255
209 229 255
209 229 255
209 229 255
209 229 255
209 229 255
209 229 255
209 229 255
209 229 255
209 229 255
209 229 255
209 229 255
209 229 255
209 229 255
209 229 255
209 229 255
209 229 255
209 229 255
209 229 255
210 229 255
210 229 255
210 229 255
210 229 255
210 229 255
210 229 255
210 229 255
210 229 255
210 229 255
210 229 255
210 229 255
210 229 255
210 229 255
210 229 255
210 229 255
210 229 255
210 229 255
210 229 255
210 229 255
210 229 255
210 229 255
210 229 255
210 230 255
211 230 255
211 230 255
210 230 255
210 230 255
210 230 255
210 229 255
210 229 255
210 229 255
210 229 255
210 229 255
210 229 255
210 229 255
210 229 255
210 229 255
210 229 255
210 229 255
210 229 255
210 229 255
210 229 255
210 229 255
210 229 255
210 229 255
210 229 255
210 229 255
210 229 255
210 229 255
210 229 255
209 229 255
209 229 255
209 229 255
209 229 255
209 229 255
209 229 255
209 229 255
209 229 255
209 229 255
209 229 255
209 229 255
209 229 255
209 229 255
209 229 255
209 229 255
209 229 255
209 229 255
209 229 255
209 229 255
209 229 255
209 228 255
208 228 255
208 228 255
208 228 255
208 228 255
208 228 255
208 228 255
208 228 255
208 228 255
208 228 255
208 228 255
208 228 255
208 228 255
208 228 255
208 228 255
208 228 255
208 228 255
208 228 255
208 228 255
208 228 255
207 228 255
207 228 255
207 228 255
207 228 255
207 228 255
207 228 255
207 228 255
207 228 255
207 228 255
207 228 255
207 228 255
207 228 255
207 228 255
207 228 255
207 227 255
207 227 255
207 227 255
207 227 255
206 227 255
206 227 255
206 227 255
206 227 255
206 227 255
206 227 255
206 227 255
206 227 255
206 227 255
206 227 255
206 227 255
206 227 255
206 227 255
206 227 255
206 227 255
206 227 255
206 227 255
205 227 255
205 227 255
205 227 255
205 227 255
205 227 255
205 227 255
205 227 255
205 227 255
205 227 255
205 227 255
205 226 255
205 226 255
205 226 255
205 226 255
205 226 255
205 226 255
205 226 255
204 226 255
204 226 255
204 226 255
204 226 255
204 226 255
204 226 255
204 226 255
204 226 255
204 226 255
204 226 255
204 226 255
204 226 255
204 226 255
204 226 255
204 226 255
204 226 255
204 226 255
203 226 255
203 226 255
203 226 255
203 226 255
203 226 255
203 226 255
203 226 255
203 226 255
203 225 255
203 225 255
203 225 255
203 225 255
203 225 255
203 225 255
203 225 255
203 225 255
203 225 255
203 225 255
203 225 255
203 225 255
202 225 255
202 225 255
202 225 255
202 225 255
202 225 255
202 225 255
202 225 255
202 225 255
202 225 255
202 225 255
202 225 255
202 225 255
202 225 255
202 225 255
202 225 255
202 225 255
202 225 255
202 225 255
202 225 255
202 225 255
202 225 255
202 225 255
202 225 255
202 225 255
202 225 255
202 225 255
202 225 255
202 225 255
202 225 255
202 225 255
202 225 255
202 225 255
201 225 255
201 225 255
201 225 255
201 225 255
201 225 255
201 225 255
201 225 255
201 225 255
201 225 255
201 225 255
201 225 255
201 225 255
201 225 255
201 225 255
201 225 255
201 225 255
201 225 255
201 225 255
201 225 255
201 225 255
201 225 255
201 225 255
201 225 255
201 225 255
201 225 255
202 225 255
202 225 255
202 225 255
202 225 255
202 225 255
202 225 255
202 225 255
202 225 255
202 225 255
202 225 255
202 225 255
202 225 255
202 225 255
202 225 255
202 225 255
202 225 255
202 225 255
202 225 255
202 225 255
202 225 255
202 225 255
202 225 255
202 225 255
202 225 255
202 225 255
202 225 255
202 225 255
202 225 255
202 225 255
202 225 255
202 225 255
203 225 255
203 225 255
203 225 255
203 225 255
203 225 255
203 225 255
203 225 255
203 225 255
203 225 255
203 225 255
203 225 255
203 225 255
203 226 255
203 226 255
203 226 255
203 226 255
203 226 255
203 226 255
203 226 255
203 226 255
204 226 255
204 226 255
204 226 255
204 226 255
204 226 255
204 226 255
204 226 255
204 226 255
204 226 255
204 226 255
204 226 255
204 226 255
204 226 255
204 226 255
204 226 255
204 226 255
204 226 255
205 226 255
205 226 255
205 226 255
205 226 255
205 226 255
205 226 255
205 226 255
205 227 255
205 227 255
205 227 255
205 227 255
205 227 255
205 227 255
205 227 255
205 227 255
205 227 255
205 227 255
206 227 255
206 227 255
206 227 255
206 227 255
206 227 255
206 227 255
206 227 255
206 227 255
206 227 255
206 227 255
206 227 255
206 227 255
206 227 255
206 227 255
206 227 255
206 227 255
206 227 255
207 227 255
207 227 255
207 227 255
207 227 255
207 228 255
207 228 255
207 228 255
207 228 255
207 228 255
207 228 255
207 228 255
207 228 255
207 228 255
207 228 255
207 228 255
207 228 255
207 228 255
207 228 255
208 228 255
208 228 255
208 228 255
208 228 255
208 228 255
208 228 255
208 228 255
208 228 255
208 228 255
208 228 255
208 228 255
208 228 255
208 228 255
208 228 255
208 228 255
208 228 255
208 228 255
208 228 255
208 228 255
209 228 255
209 229 255
209 229 255
209 229 255
209 229 255
209 229 255
209 229 255
209 229 255
209 229 255
209 229 255
209 229 255
209 229 255
209 229 255
209 229 255
209 229 255
209 229 255
209 229 255
209 229 255
209 229 255
209 229 255
209 229 255
210 229 255
210 229 255
210 229 255
210 229 255
210 229 255
210 229 255
210 229 255
210 229 255
210 229 255
210 229 255
210 229 255
210 229 255
210 229 255
210 229 255
210 229 255
210 229 255
210 229 255
210 229 255
210 229 255
210 229 255
210 229 255
210 229 255
210 230 255
210 230 255
211 230 255
211 230 255
211 230 255
211 230 255
211 230 255
211 230 255
211 230 255
211 230 255
211 230 255
210 230 255
210 230 255
210 230 255
210 229 255
210 229 255
210 229 255
210 229 255
210 229 255
210 229 255
210 229 255
210 229 255
210 229 255
210 229 255
210 229 255
210 229 255
210 229 255
210 229 255
210 229 255
210 229 255
210 229 255
210 229 255
210 229 255
210 229 255
210 229 255
209 229 255
209 229 255
209 229 255
209 229 255
209 229 255
209 229 255
209 229 255
209 229 255
209 229 255
209 229 255
209 229 255
209 229 255
209 229 255
209 229 255
209 229 255
209 229 255
209 229 255
209 229 255
209 229 255
209 229 255
209 228 255
208 228 255
208 228 255
208 228 255
208 228 255
208 228 255
208 228 255
208 228 255
208 228 255
208 228 255
208 228 255
208 228 255
208 228 255
208 228 255
208 228 255
208 228 255
208 228 255
208 228 255
208 228 255
208 228 255
208 228 255
207 228 255
207 228 255
207 228 255
207 228 255
207 228 255
207 228 255
207 228 255
207 228 255
207 228 255
207 228 255
207 228 255
207 228 255
207 228 255
207 227 255
207 227 255
207 227 255
207 227 255
207 227 255
206 227 255
206 227 255
206 227 255
206 227 255
206 227 255
206 227 255
206 227 255
206 227 255
206 227 255
206 227 255
206 227 255
206 227 255
206 227 255
206 227 255
206 227 255
206 227 255
206 227 255
205 227 255
205 227 255
205 227 255
205 227 255
205 227 255
205 227 255
205 227 255
205 227 255
205 227 255
205 227 255
205 226 255
205 226 255
205 226 255
205 226 255
205 226 255
205 226 255
204 226 255
204 226 255
204 226 255
204 226 255
204 226 255
204 226 255
204 226 255
204 226 255
204 226 255
204 226 255
204 226 255
204 226 255
204 226 255
204 226 255
204 226 255
204 226 255
204 226 255
204 226 255
203 226 255
203 226 255
203 226 255
203 226 255
203 226 255
203 226 255
203 226 255
203 226 255
203 226 255
203 225 255
203 225 255
203 225 255
203 225 255
203 225 255
203 225 255
203 225 255
203 225 255
203 225 255
203 225 255
203 225 255
203 225 255
202 225 255
202 225 255
202 225 255
202 225 255
202 225 255
202 225 255
202 225 255
202 225 255
202 225 255
202 225 255
202 225 255
202 225 255
202 225 255
202 225 255
202 225 255
202 225 255
202 225 255
202 225 255
202 225 255
202 225 255
202 225 255
202 225 255
202 225 255
202 225 255
202 225 255
202 225 255
202 225 255
202 225 255
202 225 255
202 225 255
202 225 255
202 225 255
202 225 255
202 225 255
202 225 255
202 225 255
202 225 255
202 225 255
202 225 255
202 225 255
202 225 255
202 225 255
202 225 255
202 225 255
202 225 255
202 225 255
202 225 255
202 225 255
202 225 255
202 225 255
202 225 255
202 225 255
202 225 255
202 225 255
202 225 255
202 225 255
202 225 255
202 225 255
202 225 255
202 225 255
202 225 255
202 225 255
202 225 255
202 225 255
202 225 255
202 225 255
202 225 255
202 225 255
202 225 255
202 225 255
202 225 255
202 225 255
202 225 255
202 225 255
202 225 255
202 225 255
202 225 255
202 225 255
203 225 255
203 225 255
203 225 255
203 225 255
203 225 255
203 225 255
203 225 255
203 225 255
203 225 255
203 225 255
203 225 255
203 225 255
203 226 255
203 226 255
203 226 255
203 226 255
203 226 255
203 226 255
203 226 255
203 226 255
203 226 255
204 226 255
204 226 255
204 226 255
204 226 255
204 226 255
204 226 255
204 226 255
204 226 255
204 226 255
204 226 255
204 226 255
204 226 255
204 226 255
204 226 255
204 226 255
204 226 255
204 226 255
205 226 255
205 226 255
205 226 255
205 226 255
205 226 255
205 226 255
205 226 255
205 227 255
205 227 255
205 227 255
205 227 255
205 227 255
205 227 255
205 227 255
205 227 255
205 227 255
205 227 255
206 227 255
206 227 255
206 227 255
206 227 255
206 227 255
206 227 255
206 227 255
206 227 255
206 227 255
206 227 255
206 227 255
206 227 255
206 227 255
206 227 255
206 227 255
206 227 255
206 227 255
207 227 255
207 227 255
207 227 255
207 227 255
207 227 255
207 228 255
207 228 255
207 228 255
207 228 255
207 228 255
207 228 255
207 228 255
207 228 255
207 228 255
207 228 255
207 228 255
207 228 255
207 228 255
208 228 255
208 228 255
208 228 255
208 228 255
208 228 255
208 228 255
208 228 255
208 228 255
208 228 255
208 228 255
208 228 255
208 228 255
208 228 255
208 228 255
208 228 255
208 228 255
208 228 255
208 228 255
208 228 255
209 228 255
209 228 255
209 229 255
209 229 255
209 229 255
209 229 255
209 229 255
209 229 255
209 229 255
209 229 255
209 229 255
209 229 255
209 229 255
209 229 255
209 229 255
209 229 255
209 229 255
209 229 255
209 229 255
209 229 255
209 229 255
209 229 255
210 229 255
210 229 255
210 229 255
210 229 255
210 229 255
210 229 255
210 229 255
210 229 255
210 229 255
210 229 255
210 229 255
210 229 255
210 229 255
210 229 255
210 229 255
210 229 255
210 229 255
210 229 255
210 229 255
210 229 255
210 229 255
210 230 255
210 230 255
210 230 255
211 230 255
211 230 255
211 230 255
211 230 255
211 230 255
211 230 255
211 230 255
211 230 255
211 230 255
211 230 255
211 230 255
211 230 255
211 230 255
211 230 255
211 230 255
211 230 255
210 230 255
210 230 255
210 230 255
210 229 255
210 229 255
210 229 255
210 229 255
210 229 255
210 229 255
210 229 255
210 229 255
210 229 255
210 229 255
210 229 255
210 229 255
210 229 255
210 229 255
210 229 255
210 229 255
210 229 255
210 229 255
210 229 255
210 229 255
210 229 255
209 229 255
209 229 255
209 229 255
209 229 255
209 229 255
209 229 255
209 228 254
209 229 255
210 229 255
210 229 255
209 229 255
208 228 254
209 229 255
210 229 254
208 228 255
208 228 255
208 228 255
207 228 254
208 228 255
208 228 255
209 228 255
208 228 255
209 228 254
208 228 255
209 229 255
208 228 255
208 228 254
208 228 255
208 228 255
208 228 255
208 228 255
208 228 255
208 228 255
208 228 255
208 228 255
208 228 255
208 228 255
208 228 255
208 228 255
208 228 255
207 228 255
207 228 255
207 228 255
207 228 255
207 228 255
207 228 255
207 228 255
207 228 255
207 228 255
207 228 255
207 228 255
207 228 255
207 228 255
207 228 255
207 227 255
207 227 255
207 227 255
207 227 255
206 227 255
206 227 255
206 227 255
206 227 255
206 227 255
206 227 255
206 227 255
206 227 255
206 227 255
206 227 255
206 227 255
206 227 255
206 227 255
206 227 255
206 227 255
206 227 255
206 227 255
205 227 255
205 227 255
205 227 255
205 227 255
205 227 255
205 227 255
205 227 255
205 227 255
205 227 255
205 227 255
205 226 255
205 226 255
205 226 255
205 226 255
205 226 255
205 226 255
205 226 255
204 226 255
204 226 255
204 226 255
204 226 255
204 226 255
204 226 255
204 226 255
204 226 255
204 226 255
204 226 255
204 226 255
204 226 255
204 226 255
204 226 255
204 226 255
204 226 255
204 226 255
204 226 255
203 226 255
203 226 255
203 226 255
203 226 255
203 226 255
203 226 255
203 226 255
203 226 255
203 226 255
203 226 255
203 225 255
203 225 255
203 225 255
203 225 255
203 225 255
203 225 255
203 225 255
203 225 255
203 225 255
203 225 255
203 225 255
203 225 255
203 225 255
202 225 255
202 225 255
202 225 255
202 225 255
202 225 255
202 225 255
202 225 255
202 225 255
202 225 255
202 225 255
202 225 255
202 225 255
202 225 255
202 225 255
202 225 255
202 225 255
202 225 255
202 225 255
202 225 255
202 225 255
202 225 255
202 225 255
202 225 255
202 225 255
202 225 255
202 225 255
202 225 255
202 225 255
202 225 255
202 225 255
202 225 255
202 225 255
202 225 255
202 225 255
202 225 255
202 225 255
202 225 255
202 225 255
202 225 255
202 225 255
202 225 255
202 225 255
202 225 255
202 225 255
202 225 255
202 225 255
202 225 255
202 225 255
202 225 255
202 225 255
202 225 255
202 225 255
202 225 255
202 225 255
202 225 255
202 225 255
202 225 255
202 225 255
202 225 255
202 225 255
202 225 255
202 225 255
202 225 255
202 225 255
202 225 255
202 225 255
203 225 255
203 225 255
203 225 255
203 225 255
203 225 255
203 225 255
203 225 255
203 225 255
203 225 255
203 225 255
203 225 255
203 225 255
203 225 255
203 226 255
203 226 255
203 226 255
203 226 255
203 226 255
203 226 255
203 226 255
203 226 255
203 226 255
203 226 255
204 226 255
204 226 255
204 226 255
204 226 255
204 226 255
204 226 255
204 226 255
204 226 255
204 226 255
204 226 255
204 226 255
204 226 255
204 226 255
204 226 255
204 226 255
204 226 255
204 226 255
204 226 255
205 226 255
205 226 255
205 226 255
205 226 255
205 226 255
205 226 255
205 226 255
205 227 255
205 227 255
205 227 255
205 227 255
205 227 255
205 227 255
205 227 255
205 227 255
205 227 255
205 227 255
206 227 255
206 227 255
206 227 255
206 227 255
206 227 255
206 227 255
206 227 255
206 227 255
206 227 255
206 227 255
206 227 255
206 227 255
206 227 255
206 227 255
206 227 255
206 227 255
206 227 255
207 227 255
207 227 255
207 227 255
207 227 255
207 228 255
207 228 255
207 228 255
207 228 255
207 228 255
207 228 255
207 228 255
207 228 255
207 228 255
207 228 255
207 228 255
207 228 255
207 228 255
207 228 255
208 228 255
208 228 255
208 228 255
208 228 255
208 228 255
208 228 255
208 228 255
208 228 255
208 228 255
208 228 255
208 228 255
208 228 255
207 227 253
204 223 247
197 214 235
193 209 229
186 201 217
187 201 213
180 194 207
185 198 209
181 193 200
179 190 193
169 182 191
169 180 188
180 193 203
177 188 191
176 187 193
180 194 209
185 200 216
188 201 213
189 203 219
192 209 228
186 202 220
199 216 239
204 222 244
207 227 253
209 229 255
209 229 255
209 229 255
209 229 255
210 229 255
210 229 255
210 229 255
210 229 255
210 229 255
210 229 255
210 229 255
210 229 255
210 229 255
210 229 255
210 229 255
210 229 255
210 229 255
210 229 255
210 229 255
210 229 255
210 229 255
210 229 255
210 229 255
210 229 255
210 229 255
210 230 255
210 230 255
210 230 255
211 230 255
211 230 255
211 230 255
211 230 255
211 230 255
211 230 255
211 230 255
211 230 255
211 230 255
211 230 255
211 230 255
211 230 255
211 230 255
211 230 255
211 230 255
211 230 255
211 230 255
211 230 255
211 230 255
211 230 255
211 230 255
211 230 255
211 230 255
211 230 255
210 230 255
210 230 255
210 230 255
210 229 255
210 229 255
210 229 255
210 229 255
210 229 255
210 229 255
210 229 255
210 229 255
210 229 255
210 229 255
210 229 255
210 229 255
210 229 255
210 229 255
210 229 255
210 229 255
210 229 255
210 229 253
210 229 254
208 228 253
210 229 255
210 229 254
208 228 252
208 228 252
208 228 253
208 228 253
209 229 254
207 228 254
209 228 255
207 228 255
208 228 254
209 228 253
208 228 254
207 227 254
209 229 253
207 227 252
208 228 253
208 228 252
208 228 255
207 227 255
208 228 253
207 228 255
206 227 249
207 227 250
208 228 254
209 229 255
210 229 255
208 228 255
208 228 254
208 228 255
208 228 255
208 228 255
208 228 255
208 228 255
208 228 255
208 228 255
208 228 255
208 228 255
208 228 255
208 228 255
208 228 255
207 228 255
207 228 255
207 228 255
207 228 255
207 228 255
207 228 255
207 228 255
207 228 255
207 228 255
207 228 255
207 228 255
207 228 255
207 228 255
207 227 255
207 227 255
207 227 255
207 227 255
206 227 255
206 227 255
206 227 255
206 227 255
206 227 255
206 227 255
206 227 255
206 227 255
206 227 255
206 227 255
206 227 255
206 227 255
206 227 255
206 227 255
206 227 255
206 227 255
206 227 255
206 227 255
205 227 255
205 227 255
205 227 255
205 227 255
205 227 255
205 227 255
205 227 255
205 227 255
205 227 255
205 227 255
205 226 255
205 226 255
205 226 255
205 226 255
205 226 255
205 226 255
205 226 255
204 226 255
204 226 255
204 226 255
204 226 255
204 226 255
204 226 255
204 226 255
204 226 255
204 226 255
204 226 255
204 226 255
204 226 255
204 226 255
204 226 255
204 226 255
204 226 255
204 226 255
204 226 255
204 226 255
203 226 255
203 226 255
203 226 255
203 226 255
203 226 255
203 226 255
203 226 255
203 226 255
203 226 255
203 226 255
203 225 255
203 225 255
203 225 255
203 225 255
203 225 255
203 225 255
203 225 255
203 225 255
203 225 255
203 225 255
203 225 255
203 225 255
203 225 255
203 225 255
203 225 255
202 225 255
202 225 255
202 225 255
202 225 255
202 225 255
202 225 255
202 225 255
202 225 255
202 225 255
202 225 255
202 225 255
202 225 255
202 225 255
202 225 255
202 225 255
202 225 255
202 225 255
202 225 255
202 225 255
202 225 255
202 225 255
202 225 255
202 225 255
202 225 255
202 225 255
202 225 255
202 225 255
202 225 255
202 225 255
202 225 255
202 225 255
202 225 255
202 225 255
202 225 255
202 225 255
202 225 255
202 225 255
202 225 255
202 225 255
202 225 255
202 225 255
202 225 255
202 225 255
202 225 255
202 225 255
202 225 255
202 225 255
202 225 255
202 225 255
202 225 255
202 225 255
202 225 255
203 225 255
203 225 255
203 225 255
203 225 255
203 225 255
203 225 255
203 225 255
203 225 255
203 225 255
203 225 255
203 225 255
203 225 255
203 225 255
203 225 255
203 225 255
203 226 255
203 226 255
203 226 255
203 226 255
203 226 255
203 226 255
203 226 255
203 226 255
203 226 255
203 226 255
204 226 255
204 226 255
204 226 255
204 226 255
204 226 255
204 226 255
204 226 255
204 226 255
204 226 255
204 226 255
204 226 255
204 226 255
204 226 255
204 226 255
204 226 255
204 226 255
204 226 255
204 226 255
204 226 255
205 226 255
205 226 255
205 226 255
205 226 255
205 226 255
205 226 255
205 226 255
205 227 255
205 227 255
205 227 255
205 227 255
205 227 255
205 227 255
205 227 255
205 227 255
205 227 255
205 227 255
205 227 255
206 227 255
206 227 255
206 227 255
206 227 255
206 227 255
206 227 255
206 227 255
206 227 255
206 227 255
206 227 255
206 227 255
206 227 255
206 227 255
206 227 255
206 227 255
206 227 255
206 227 255
207 227 255
207 227 255
207 227 255
207 227 255
207 228 255
207 228 255
207 228 255
207 228 255
207 228 255
207 228 255
207 228 255
207 228 255
207 228 255
207 228 255
207 228 255
207 228 255
207 228 255
208 228 255
208 228 255
208 228 255
208 228 255
208 228 255
208 228 255
208 228 255
205 225 252
202 221 244
186 200 214
166 178 187
164 173 172
160 168 167
163 168 155
149 151 125
138 137 104
125 123 82
143 140 93
122 121 80
128 126 84
136 134 89
129 126 84
126 124 82
122 120 80
133 130 86
132 130 85
137 135 90
128 126 84
123 120 79
132 129 85
141 138 91
133 130 87
134 131 86
136 134 89
134 132 87
130 127 80
133 130 84
124 122 80
128 125 81
128 125 81
126 125 90
160 163 140
153 157 142
148 154 149
167 177 179
176 187 195
189 204 220
198 215 236
205 224 249
210 229 255
210 229 255
210 229 255
210 229 255
210 229 255
210 229 255
210 229 255
210 229 255
210 229 255
210 229 255
210 229 255
210 229 255
210 230 255
210 230 255
210 230 255
211 230 255
211 230 255
211 230 255
211 230 255
211 230 255
211 230 255
211 230 255
211 230 255
211 230 255
211 230 255
211 230 255
211 230 255
211 230 255
211 230 255
211 230 255
211 230 255
211 230 255
211 230 255
211 230 255
211 230 255
211 230 255
211 230 255
211 230 255
211 230 255
211 230 255
211 230 255
211 230 255
211 230 255
211 230 255
211 230 255
211 230 255
211 230 255
210 230 255
210 230 255
210 230 255
210 229 255
210 229 255
210 229 255
210 229 255
210 230 255
209 229 252
211 230 254
210 229 252
210 229 253
208 228 254
210 229 255
207 228 253
209 229 255
209 228 253
209 228 254
205 226 249
208 228 253
208 228 254
205 226 252
207 227 253
208 228 255
206 226 246
205 226 249
206 227 254
207 227 253
207 227 254
206 227 254
207 227 254
206 227 253
206 227 253
205 226 250
205 226 252
206 227 254
205 226 254
205 226 253
207 228 255
206 227 254
204 226 253
205 225 245
203 225 250
206 227 254
207 228 255
205 226 252
206 227 252
206 227 253
204 225 248
208 228 254
205 226 252
209 228 254
207 228 254
208 228 254
207 227 254
208 228 254
208 228 255
208 228 255
207 228 255
208 228 255
208 228 255
208 228 255
208 228 255
207 228 255
207 228 255
207 228 255
207 228 255
207 228 255
207 228 255
207 228 255
207 228 255
207 228 255
207 228 255
207 228 255
207 228 255
207 228 255
207 228 255
207 227 255
207 227 255
207 227 255
207 227 255
206 227 255
206 227 255
206 227 255
206 227 255
206 227 255
206 227 255
206 227 255
206 227 255
206 227 255
206 227 255
206 227 255
206 227 255
206 227 255
206 227 255
206 227 255
206 227 255
206 227 255
205 227 255
205 227 255
205 227 255
205 227 255
205 227 255
205 227 255
205 227 255
205 227 255
205 227 255
205 227 255
205 227 255
205 226 255
205 226 255
205 226 255
205 226 255
205 226 255
205 226 255
205 226 255
204 226 255
204 226 255
204 226 255
204 226 255
204 226 255
204 226 255
204 226 255
204 226 255
204 226 255
204 226 255
204 226 255
204 226 255
204 226 255
204 226 255
204 226 255
204 226 255
204 226 255
204 226 255
204 226 255
204 226 255
203 226 255
203 226 255
203 226 255
203 226 255
203 226 255
203 226 255
203 226 255
203 226 255
203 226 255
203 226 255
203 225 255
203 225 255
203 225 255
203 225 255
203 225 255
203 225 255
203 225 255
203 225 255
203 225 255
203 225 255
203 225 255
203 225 255
203 225 255
203 225 255
203 225 255
203 225 255
203 225 255
203 225 255
203 225 255
202 225 255
202 225 255
202 225 255
202 225 255
202 225 255
202 225 255
202 225 255
202 225 255
202 225 255
202 225 255
202 225 255
202 225 255
202 225 255
202 225 255
202 225 255
202 225 255
202 225 255
202 225 255
202 225 255
202 225 255
202 225 255
202 225 255
202 225 255
202 225 255
202 225 255
202 225 255
202 225 255
202 225 255
202 225 255
202 225 255
202 225 255
202 225 255
202 225 255
203 225 255
203 225 255
203 225 255
203 225 255
203 225 255
203 225 255
203 225 255
203 225 255
203 225 255
203 225 255
203 225 255
203 225 255
203 225 255
203 225 255
203 225 255
203 225 255
203 225 255
203 225 255
203 225 255
203 225 255
203 226 255
203 226 255
203 226 255
203 226 255
203 226 255
203 226 255
203 226 255
203 226 255
203 226 255
203 226 255
204 226 255
204 226 255
204 226 255
204 226 255
204 226 255
204 226 255
204 226 255
204 226 255
204 226 255
204 226 255
204 226 255
204 226 255
204 226 255
204 226 255
204 226 255
204 226 255
204 226 255
204 226 255
204 226 255
204 226 255
205 226 255
205 226 255
205 226 255
205 226 255
205 226 255
205 226 255
205 226 255
205 227 255
205 227 255
205 227 255
205 227 255
205 227 255
205 227 255
205 227 255
205 227 255
205 227 255
205 227 255
205 227 255
206 227 255
206 227 255
206 227 255
206 227 255
206 227 255
206 227 255
206 227 255
206 227 255
206 227 255
206 227 255
206 227 255
206 227 255
206 227 255
206 227 255
206 227 255
206 227 255
206 227 255
207 227 255
207 227 255
207 227 255
207 227 255
207 228 255
207 228 255
207 228 255
207 228 255
207 228 255
207 228 255
207 228 255
207 228 255
207 228 255
207 228 255
207 228 255
207 228 255
207 228 255
207 228 255
208 228 255
208 228 255
208 228 255
208 228 255
204 224 249
197 215 236
178 191 197
170 179 177
145 150 134
138 138 110
129 128 86
124 122 81
126 124 83
135 133 89
124 122 81
125 123 82
137 135 90
125 122 81
126 124 83
122 121 81
139 136 91
136 133 89
139 137 91
136 134 89
134 132 87
132 131 87
141 139 93
136 133 88
137 135 90
139 137 91
130 127 84
133 132 88
142 140 93
127 124 82
131 128 85
133 130 87
128 126 84
134 132 86
138 135 88
137 134 89
133 130 86
141 139 93
127 124 81
127 124 81
130 128 84
131 129 84
139 135 89
135 133 87
130 127 84
139 135 88
127 124 81
133 129 85
138 137 99
154 159 148
159 167 168
169 181 188
196 212 231
208 227 252
210 229 255
210 229 255
210 230 255
210 230 255
210 230 255
211 230 255
211 230 255
211 230 255
211 230 255
211 230 255
211 230 255
211 230 255
211 230 255
211 230 255
211 230 255
211 230 255
211 230 255
211 230 255
211 230 255
211 230 255
211 230 255
211 230 255
211 230 255
211 230 255
211 230 255
211 230 255
211 230 255
211 230 255
211 230 255
211 230 255
211 230 255
211 230 255
211 230 255
211 230 255
211 230 255
211 230 255
211 230 255
211 230 255
211 230 255
211 230 255
211 230 255
211 230 255
211 229 253
210 229 255
208 228 253
210 229 253
210 229 253
209 229 252
209 228 252
208 228 249
209 228 254
207 227 253
207 227 252
207 227 252
208 228 254
206 227 252
207 227 250
207 227 255
207 228 253
208 228 253
207 228 254
205 227 254
206 227 253
206 227 255
205 227 255
205 226 255
206 227 254
205 227 255
206 227 255
204 226 255
205 227 255
205 227 255
204 226 255
204 226 255
203 226 255
205 227 255
205 226 254
204 226 255
205 227 255
204 226 255
204 226 255
203 226 254
204 226 254
205 226 255
204 226 255
204 226 254
203 225 254
204 226 254
204 226 255
204 226 254
204 226 252
204 226 253
204 225 250
205 226 252
206 227 254
203 225 249
206 227 253
206 226 248
206 227 252
206 227 252
207 227 253
207 227 252
209 229 255
208 228 254
208 228 255
208 228 255
208 228 255
208 228 255
207 228 255
207 228 255
207 228 255
207 228 255
207 228 255
207 228 255
207 228 255
207 228 255
207 228 255
207 228 255
207 228 255
207 228 255
207 228 255
207 227 255
207 227 255
207 227 255
207 227 255
207 227 255
206 227 255
206 227 255
206 227 255
206 227 255
206 227 255
206 227 255
206 227 255
206 227 255
206 227 255
206 227 255
206 227 255
206 227 255
206 227 255
206 227 255
206 227 255
206 227 255
206 227 255
205 227 255
205 227 255
205 227 255
205 227 255
205 227 255
205 227 255
205 227 255
205 227 255
205 227 255
205 227 255
205 227 255
205 226 255
205 226 255
205 226 255
205 226 255
205 226 255
205 226 255
205 226 255
205 226 255
204 226 255
204 226 255
204 226 255
204 226 255
204 226 255
204 226 255
204 226 255
204 226 255
204 226 255
204 226 255
204 226 255
204 226 255
204 226 255
204 226 255
204 226 255
204 226 255
204 226 255
204 226 255
204 226 255
204 226 255
203 226 255
203 226 255
203 226 255
203 226 255
203 226 255
203 226 255
203 226 255
203 226 255
203 226 255
203 226 255
203 226 255
203 226 255
203 225 255
203 225 255
203 225 255
203 225 255
203 225 255
203 225 255
203 225 255
203 225 255
203 225 255
203 225 255
203 225 255
203 225 255
203 225 255
203 225 255
203 225 255
203 225 255
203 225 255
203 225 255
203 225 255
203 225 255
203 225 255
203 225 255
203 225 255
203 225 255
203 225 255
203 225 255
203 225 255
203 225 255
203 225 255
203 225 255
203 225 255
203 225 255
203 225 255
203 225 255
203 225 255
203 225 255
203 225 255
203 225 255
203 225 255
203 225 255
203 225 255
203 225 255
203 225 255
203 225 255
203 225 255
203 225 255
203 225 255
203 225 255
203 225 255
203 225 255
203 225 255
203 225 255
203 225 255
203 225 255
203 225 255
203 225 255
203 225 255
203 225 255
203 226 255
203 226 255
203 226 255
203 226 255
203 226 255
203 226 255
203 226 255
203 226 255
203 226 255
203 226 255
203 226 255
203 226 255
204 226 255
204 226 255
204 226 255
204 226 255
204 226 255
204 226 255
204 226 255
204 226 255
204 226 255
204 226 255
204 226 255
204 226 255
204 226 255
204 226 255
204 226 255
204 226 255
204 226 255
204 226 255
204 226 255
204 226 255
204 226 255
205 226 255
205 226 255
205 226 255
205 226 255
205 226 255
205 226 255
205 226 255
205 227 255
205 227 255
205 227 255
205 227 255
205 227 255
205 227 255
205 227 255
205 227 255
205 227 255
205 227 255
205 227 255
206 227 255
206 227 255
206 227 255
206 227 255
206 227 255
206 227 255
206 227 255
206 227 255
206 227 255
206 227 255
206 227 255
206 227 255
206 227 255
206 227 255
206 227 255
206 227 255
206 227 255
207 227 255
207 227 255
207 227 255
207 227 255
207 227 255
207 228 255
207 228 255
207 228 255
207 228 255
207 228 255
207 228 255
207 228 255
207 228 255
207 228 255
207 228 255
207 228 255
207 228 255
207 228 255
208 228 255
208 228 255
208 228 255
203 222 248
189 204 220
173 184 187
159 165 157
138 137 100
121 119 80
134 132 88
130 129 87
137 135 90
131 129 86
131 129 86
136 135 90
127 126 84
134 132 88
132 130 87
128 126 84
138 136 91
136 134 90
130 129 86
131 130 87
137 136 91
134 133 89
135 133 89
136 135 90
138 136 90
142 140 94
142 140 93
143 141 94
135 134 90
145 143 95
136 133 89
133 132 88
136 134 90
147 145 97
144 142 93
131 129 86
134 131 87
145 142 95
140 137 91
125 123 81
134 131 87
135 134 90
143 140 93
137 135 89
130 128 83
135 133 88
143 140 93
139 137 91
136 134 89
126 125 82
135 132 87
125 122 80
138 134 87
133 129 84
138 135 88
134 130 86
130 126 80
118 116 76
129 126 81
152 151 119
160 166 158
164 173 175
185 200 215
203 221 245
211 230 255
211 230 255
211 230 255
211 230 255
211 230 255
211 230 255
211 230 255
211 230 255
211 230 255
211 230 255
211 230 255
211 230 255
211 230 255
211 230 255
211 230 255
211 230 255
211 230 255
211 230 255
211 230 255
211 230 255
211 230 255
211 230 255
211 230 255
211 230 255
211 230 255
211 230 255
211 230 255
211 230 255
211 230 255
211 230 255
211 230 255
211 230 255
211 230 255
211 230 255
211 230 254
211 230 255
211 230 255
209 229 255
210 229 254
209 228 252
207 227 250
209 228 253
209 229 255
208 228 254
207 227 252
209 228 255
209 228 253
206 227 255
206 227 255
208 228 255
208 228 255
207 228 255
206 227 255
205 226 255
206 227 255
204 226 255
205 227 255
205 227 255
203 225 255
204 226 255
204 226 254
203 226 255
204 226 255
202 225 255
203 225 255
203 225 255
202 225 254
202 225 254
202 225 254
202 225 254
203 225 255
202 225 255
201 225 255
202 225 255
202 225 255
203 225 255
202 225 255
202 225 255
202 225 255
202 225 255
201 224 254
202 225 254
202 225 255
203 225 255
202 225 255
203 225 255
203 225 254
202 225 255
203 226 255
204 226 255
203 225 253
202 225 253
205 226 255
203 225 250
205 226 253
205 226 253
207 227 253
206 227 254
207 227 252
205 226 253
207 228 253
207 228 252
208 228 255
208 228 255
208 228 255
208 228 255
207 228 255
207 228 255
207 228 255
207 228 255
207 228 255
207 228 255
207 228 255
207 228 255
207 228 255
207 228 255
207 228 255
207 228 255
207 228 255
207 228 255
207 227 255
207 227 255
207 227 255
207 227 255
206 227 255
206 227 255
206 227 255
206 227 255
206 227 255
206 227 255
206 227 255
206 227 255
206 227 255
206 227 255
206 227 255
206 227 255
206 227 255
206 227 255
206 227 255
206 227 255
206 227 255
206 227 255
205 227 255
205 227 255
205 227 255
205 227 255
205 227 255
205 227 255
205 227 255
205 227 255
205 227 255
205 227 255
205 227 255
205 226 255
205 226 255
205 226 255
205 226 255
205 226 255
205 226 255
205 226 255
205 226 255
204 226 255
204 226 255
204 226 255
204 226 255
204 226 255
204 226 255
204 226 255
204 226 255
204 226 255
204 226 255
204 226 255
204 226 255
204 226 255
204 226 255
204 226 255
204 226 255
204 226 255
204 226 255
204 226 255
204 226 255
204 226 255
204 226 255
203 226 255
203 226 255
203 226 255
203 226 255
203 226 255
203 226 255
203 226 255
203 226 255
203 226 255
203 226 255
203 226 255
203 226 255
203 226 255
203 226 255
203 226 255
203 225 255
203 225 255
203 225 255
203 225 255
203 225 255
203 225 255
203 225 255
203 225 255
203 225 255
203 225 255
203 225 255
203 225 255
203 225 255
203 225 255
203 225 255
203 225 255
203 225 255
203 225 255
203 225 255
203 225 255
203 225 255
203 225 255
203 225 255
203 225 255
203 225 255
203 225 255
203 225 255
203 225 255
203 225 255
203 225 255
203 225 255
203 225 255
203 225 255
203 225 255
203 225 255
203 225 255
203 225 255
203 225 255
203 225 255
203 225 255
203 226 255
203 226 255
203 226 255
203 226 255
203 226 255
203 226 255
203 226 255
203 226 255
203 226 255
203 226 255
203 226 255
203 226 255
203 226 255
203 226 255
203 226 255
204 226 255
204 226 255
204 226 255
204 226 255
204 226 255
204 226 255
204 226 255
204 226 255
204 226 255
204 226 255
204 226 255
204 226 255
204 226 255
204 226 255
204 226 255
204 226 255
204 226 255
204 226 255
204 226 255
204 226 255
204 226 255
204 226 255
205 226 255
205 226 255
205 226 255
205 226 255
205 226 255
205 226 255
205 226 255
205 226 255
205 227 255
205 227 255
205 227 255
205 227 255
205 227 255
205 227 255
205 227 255
205 227 255
205 227 255
205 227 255
205 227 255
206 227 255
206 227 255
206 227 255
206 227 255
206 227 255
206 227 255
206 227 255
206 227 255
206 227 255
206 227 255
206 227 255
206 227 255
206 227 255
206 227 255
206 227 255
206 227 255
206 227 255
206 227 255
207 227 255
207 227 255
207 227 255
207 227 255
207 228 255
207 228 255
207 228 255
207 228 255
207 228 255
207 228 255
207 228 255
207 228 255
207 228 255
207 228 255
207 228 255
207 228 255
207 228 255
207 228 255
208 228 255
208 228 255
201 219 242
186 200 212
163 171 168
136 138 115
123 121 80
126 124 83
130 128 86
134 132 88
137 135 90
132 130 87
137 136 91
141 139 93
143 142 95
137 136 91
137 135 90
139 137 92
139 139 93
127 125 84
137 136 91
143 141 94
143 141 94
136 134 90
139 137 92
143 141 94
140 138 93
138 136 91
129 127 84
142 140 93
132 130 87
135 133 88
138 137 92
137 134 89
138 136 90
127 126 84
134 133 89
138 136 91
139 137 91
148 146 97
142 140 93
146 143 95
140 137 90
140 138 92
144 142 94
129 127 84
134 131 87
139 136 89
140 137 90
143 140 93
140 136 90
143 139 92
137 135 89
147 143 95
147 144 95
131 128 85
142 140 93
126 123 81
131 129 83
132 130 84
134 131 85
132 128 84
133 128 84
132 128 81
130 126 80
139 137 90
131 130 86
135 132 86
133 129 83
129 125 81
134 135 113
164 171 169
179 192 202
196 213 234
210 229 254
211 230 255
211 230 255
211 230 255
211 230 255
211 230 255
211 230 255
211 230 255
211 230 255
211 230 255
211 230 255
211 230 255
211 230 255
211 230 255
212 230 255
212 230 255
212 230 255
212 230 255
211 230 255
211 230 255
211 230 255
211 230 255
211 230 255
211 230 255
211 230 255
211 230 254
210 229 252
211 230 255
212 230 255
211 230 252
211 230 254
210 229 250
209 229 254
209 229 255
207 227 250
208 228 253
208 228 252
207 228 253
208 228 254
208 228 254
208 228 255
207 228 255
206 227 255
206 227 255
206 227 255
205 227 255
205 226 255
206 227 255
203 226 255
204 226 255
203 226 255
204 226 255
203 226 255
203 226 255
203 225 255
203 226 255
202 225 254
202 225 254
202 225 254
203 225 255
201 225 255
201 224 255
201 224 255
202 225 255
201 224 255
201 224 255
201 224 255
200 224 255
200 224 255
200 224 255
200 224 255
201 224 255
200 224 255
200 224 255
200 224 255
200 224 255
199 224 255
199 224 255
200 224 255
200 224 255
199 224 255
201 224 255
201 224 255
200 224 255
200 224 255
202 225 255
201 225 255
202 225 254
203 225 255
201 225 255
202 225 255
204 226 255
204 226 255
202 225 252
204 226 253
205 226 254
205 226 255
206 227 254
207 228 255
208 228 255
209 229 255
207 228 253
209 229 255
208 228 255
208 228 255
208 228 255
207 228 255
207 228 255
207 228 255
207 228 255
207 228 255
207 228 255
207 228 255
207 228 255
207 228 255
207 228 255
207 228 255
207 228 255
207 228 255
207 228 255
207 227 255
207 227 255
207 227 255
207 227 255
206 227 255
206 227 255
206 227 255
206 227 255
206 227 255
206 227 255
206 227 255
206 227 255
206 227 255
206 227 255
206 227 255
206 227 255
206 227 255
206 227 255
206 227 255
206 227 255
206 227 255
206 227 255
205 227 255
205 227 255
205 227 255
205 227 255
205 227 255
205 227 255
205 227 255
205 227 255
205 227 255
205 227 255
205 227 255
205 226 255
205 226 255
205 226 255
205 226 255
205 226 255
205 226 255
205 226 255
205 226 255
204 226 255
204 226 255
204 226 255
204 226 255
204 226 255
204 226 255
204 226 255
204 226 255
204 226 255
204 226 255
204 226 255
204 226 255
204 226 255
204 226 255
204 226 255
204 226 255
204 226 255
204 226 255
204 226 255
204 226 255
204 226 255
204 226 255
204 226 255
204 226 255
204 226 255
204 226 255
203 226 255
203 226 255
203 226 255
203 226 255
203 226 255
203 226 255
203 226 255
203 226 255
203 226 255
203 226 255
203 226 255
203 226 255
203 226 255
203 226 255
203 226 255
203 226 255
203 226 255
203 226 255
203 226 255
203 226 255
203 226 255
203 226 255
203 226 255
203 226 255
203 226 255
203 226 255
203 226 255
203 226 255
203 226 255
203 226 255
203 226 255
203 226 255
203 226 255
203 226 255
203 226 255
203 226 255
203 226 255
203 226 255
203 226 255
203 226 255
203 226 255
203 226 255
203 226 255
203 226 255
203 226 255
203 226 255
203 226 255
203 226 255
203 226 255
203 226 255
203 226 255
203 226 255
203 226 255
203 226 255
203 226 255
204 226 255
204 226 255
204 226 255
204 226 255
204 226 255
204 226 255
204 226 255
204 226 255
204 226 255
204 226 255
204 226 255
204 226 255
204 226 255
204 226 255
204 226 255
204 226 255
204 226 255
204 226 255
204 226 255
204 226 255
204 226 255
204 226 255
204 226 255
204 226 255
204 226 255
205 226 255
205 226 255
205 226 255
205 226 255
205 226 255
205 226 255
205 226 255
205 226 255
205 227 255
205 227 255
205 227 255
205 227 255
205 227 255
205 227 255
205 227 255
205 227 255
205 227 255
205 227 255
205 227 255
206 227 255
206 227 255
206 227 255
206 227 255
206 227 255
206 227 255
206 227 255
206 227 255
206 227 255
206 227 255
206 227 255
206 227 255
206 227 255
206 227 255
206 227 255
206 227 255
206 227 255
206 227 255
207 227 255
207 227 255
207 227 255
207 227 255
207 228 255
207 228 255
207 228 255
207 228 255
207 228 255
207 228 255
207 228 255
207 228 255
207 228 255
207 228 255
207 228 255
207 228 255
207 228 255
207 228 255
208 228 255
208 228 255
205 225 250
190 206 221
170 180 181
147 149 122
135 133 89
129 127 85
140 138 92
147 144 96
140 139 93
126 124 83
132 131 88
134 134 90
131 130 87
133 132 89
129 128 86
143 142 96
138 136 91
139 138 93
144 142 95
140 138 93
139 138 93
147 145 97
144 142 95
126 126 84
142 141 95
136 134 90
140 138 92
148 147 99
146 143 95
145 143 96
147 145 97
141 139 93
144 142 95
137 135 90
139 137 91
140 138 92
143 141 95
130 128 85
139 137 92
152 150 100
146 144 97
139 138 93
156 152 99
141 139 93
137 135 90
134 132 88
145 142 93
144 142 94
145 143 95
136 133 87
151 149 100
137 134 88
139 136 90
133 130 86
141 138 90
148 144 94
145 142 93
131 128 85
139 137 90
137 134 86
140 137 90
135 133 86
141 138 90
142 139 91
126 124 81
135 132 87
135 132 86
135 132 86
134 130 85
135 131 83
145 142 93
126 123 80
144 141 89
137 133 86
131 128 83
121 119 77
139 139 110
160 168 167
188 201 212
207 224 246
211 230 255
211 230 255
211 230 255
211 230 255
211 230 255
211 230 255
212 230 255
212 230 255
212 230 255
212 230 255
212 230 255
212 230 255
212 230 255
212 230 255
212 230 255
212 230 255
212 230 255
212 230 255
212 230 255
212 230 255
212 230 255
210 229 254
209 228 248
209 229 253
210 229 254
208 228 252
208 228 252
206 226 246
208 228 254
208 228 255
207 228 255
207 228 255
209 229 255
207 228 255
206 227 255
206 227 253
206 227 255
205 227 254
205 227 255
205 226 255
203 225 255
204 226 255
203 226 254
204 226 255
203 226 255
203 225 255
203 225 255
202 225 255
201 224 255
202 225 255
201 224 254
201 224 255
201 224 255
200 224 255
200 224 255
200 224 255
199 224 255
200 224 255
200 224 255
198 223 255
199 223 254
199 223 255
199 223 255
199 223 255
197 222 255
198 223 255
198 223 255
197 222 255
198 223 254
198 223 255
197 222 255
198 223 255
197 223 255
198 223 255
197 222 255
197 222 255
198 223 254
198 223 255
198 223 255
198 223 255
198 223 254
199 224 255
200 224 255
200 224 255
199 223 255
200 224 255
201 224 255
201 225 255
201 224 255
202 225 255
201 224 255
203 225 255
203 225 255
204 226 253
204 226 253
206 227 254
205 226 248
204 226 252
207 227 253
207 227 252
207 228 254
208 228 255
208 228 255
208 228 255
208 228 255
208 228 255
207 228 255
207 228 255
207 228 255
207 228 255
207 228 255
207 228 255
207 228 255
207 228 255
207 228 255
207 228 255
207 228 255
207 228 255
207 228 255
207 228 255
207 227 255
207 227 255
207 227 255
207 227 255
206 227 255
206 227 255
206 227 255
206 227 255
206 227 255
206 227 255
206 227 255
206 227 255
206 227 255
206 227 255
206 227 255
206 227 255
206 227 255
206 227 255
206 227 255
206 227 255
206 227 255
206 227 255
205 227 255
205 227 255
205 227 255
205 227 255
205 227 255
205 227 255
205 227 255
205 227 255
205 227 255
205 227 255
205 227 255
205 227 255
205 226 255
205 226 255
205 226 255
205 226 255
205 226 255
205 226 255
205 226 255
205 226 255
204 226 255
204 226 255
204 226 255
204 226 255
204 226 255
204 226 255
204 226 255
204 226 255
204 226 255
204 226 255
204 226 255
204 226 255
204 226 255
204 226 255
204 226 255
204 226 255
204 226 255
204 226 255
204 226 255
204 226 255
204 226 255
204 226 255
204 226 255
204 226 255
204 226 255
204 226 255
204 226 255
204 226 255
204 226 255
204 226 255
203 226 255
203 226 255
203 226 255
203 226 255
203 226 255
203 226 255
203 226 255
203 226 255
203 226 255
203 226 255
203 226 255
203 226 255
203 226 255
203 226 255
203 226 255
203 226 255
203 226 255
203 226 255
203 226 255
203 226 255
203 226 255
203 226 255
203 226 255
203 226 255
203 226 255
203 226 255
203 226 255
203 226 255
203 226 255
203 226 255
203 226 255
203 226 255
203 226 255
203 226 255
203 226 255
203 226 255
204 226 255
204 226 255
204 226 255
204 226 255
204 226 255
204 226 255
204 226 255
204 226 255
204 226 255
204 226 255
204 226 255
204 226 255
204 226 255
204 226 255
204 226 255
204 226 255
204 226 255
204 226 255
204 226 255
204 226 255
204 226 255
204 226 255
204 226 255
204 226 255
204 226 255
204 226 255
204 226 255
204 226 255
204 226 255
204 226 255
205 226 255
205 226 255
205 226 255
205 226 255
205 226 255
205 226 255
205 226 255
205 226 255
205 227 255
205 227 255
205 227 255
205 227 255
205 227 255
205 227 255
205 227 255
205 227 255
205 227 255
205 227 255
205 227 255
205 227 255
206 227 255
206 227 255
206 227 255
206 227 255
206 227 255
206 227 255
206 227 255
206 227 255
206 227 255
206 227 255
206 227 255
206 227 255
206 227 255
206 227 255
206 227 255
206 227 255
206 227 255
206 227 255
207 227 255
207 227 255
207 227 255
207 227 255
207 228 255
207 228 255
207 228 255
207 228 255
207 228 255
207 228 255
207 228 255
207 228 255
207 228 255
207 228 255
207 228 255
207 228 255
207 228 255
207 228 255
208 228 255
208 228 255
208 228 255
199 216 238
173 186 196
142 143 117
124 123 82
133 131 87
133 130 87
127 125 84
144 143 96
145 143 96
138 136 91
131 131 88
138 136 91
132 131 88
142 140 94
142 141 95
137 136 91
137 136 91
142 140 94
137 136 92
139 137 92
138 137 93
141 140 94
140 140 94
139 139 93
147 145 97
139 138 93
143 141 95
146 144 96
144 142 95
141 140 94
139 137 92
147 145 97
147 145 97
148 146 97
138 136 91
145 143 95
144 143 96
148 146 97
143 141 93
140 139 93
142 139 93
144 142 95
143 141 94
151 148 99
134 132 87
151 149 99
145 143 95
145 142 95
147 144 95
149 146 97
139 136 89
137 134 89
143 140 93
143 140 91
148 145 96
137 134 88
147 144 95
142 139 93
137 134 88
144 140 93
139 136 90
140 136 89
145 141 90
131 129 86
146 143 94
134 132 84
135 132 87
140 136 87
142 138 90
147 144 94
150 144 93
131 127 83
142 137 86
139 137 89
142 138 90
139 135 88
144 139 92
133 129 84
139 135 86
137 134 87
142 137 88
130 127 83
136 133 89
147 151 134
175 186 192
198 213 231
212 230 255
212 230 255
212 230 255
212 230 255
212 230 255
212 230 255
212 230 255
212 230 255
212 230 255
212 230 255
212 230 255
212 230 255
212 230 254
211 230 253
212 230 252
211 230 255
210 229 252
211 230 254
208 227 248
209 229 254
211 230 255
210 229 255
209 229 255
208 228 255
208 228 255
210 229 255
207 228 255
206 227 253
206 227 254
206 227 255
206 227 255
206 227 255
205 227 255
204 226 255
204 226 255
204 226 255
203 226 255
203 225 255
203 225 255
201 224 254
201 225 255
202 225 255
201 224 255
202 225 255
201 224 255
200 224 255
200 224 255
200 224 255
198 223 254
199 223 254
198 223 255
198 223 255
198 223 255
198 223 255
198 223 255
197 222 255
197 222 255
197 222 255
198 223 255
196 222 255
197 222 255
197 222 255
196 222 255
197 222 255
196 222 255
195 221 255
196 222 255
196 222 255
195 221 255
196 221 255
196 222 255
196 222 255
197 222 255
196 222 255
196 222 255
196 221 255
195 221 255
196 222 255
196 222 255
196 222 255
198 223 255
197 222 255
198 223 255
198 222 254
197 222 255
199 223 255
198 223 255
200 224 255
200 224 255
200 224 255
201 224 254
201 224 255
203 226 255
203 226 255
204 226 255
203 225 253
205 227 254
206 227 254
205 226 253
208 228 253
208 228 254
208 228 255
207 228 255
208 228 255
208 228 255
208 228 255
208 228 255
207 228 255
207 228 255
207 228 255
207 228 255
207 228 255
207 228 255
207 228 255
207 228 255
207 228 255
207 228 255
207 228 255
207 228 255
207 228 255
207 228 255
207 227 255
207 227 255
207 227 255
207 227 255
206 227 255
206 227 255
206 227 255
206 227 255
206 227 255
206 227 255
206 227 255
206 227 255
206 227 255
206 227 255
206 227 255
206 227 255
206 227 255
206 227 255
206 227 255
206 227 255
206 227 255
206 227 255
206 227 255
205 227 255
205 227 255
205 227 255
205 227 255
205 227 255
205 227 255
205 227 255
205 227 255
205 227 255
205 227 255
205 227 255
205 227 255
205 226 255
205 226 255
205 226 255
205 226 255
205 226 255
205 226 255
205 226 255
205 226 255
205 226 255
204 226 255
204 226 255
204 226 255
204 226 255
204 226 255
204 226 255
204 226 255
204 226 255
204 226 255
204 226 255
204 226 255
204 226 255
204 226 255
204 226 255
204 226 255
204 226 255
204 226 255
204 226 255
204 226 255
204 226 255
204 226 255
204 226 255
204 226 255
204 226 255
204 226 255
204 226 255
204 226 255
204 226 255
204 226 255
204 226 255
204 226 255
204 226 255
204 226 255
204 226 255
204 226 255
204 226 255
204 226 255
204 226 255
204 226 255
204 226 255
204 226 255
204 226 255
204 226 255
204 226 255
204 226 255
204 226 255
204 226 255
204 226 255
204 226 255
204 226 255
204 226 255
204 226 255
204 226 255
204 226 255
204 226 255
204 226 255
204 226 255
204 226 255
204 226 255
204 226 255
204 226 255
204 226 255
204 226 255
204 226 255
204 226 255
204 226 255
204 226 255
204 226 255
204 226 255
204 226 255
204 226 255
204 226 255
204 226 255
204 226 255
204 226 255
204 226 255
204 226 255
204 226 255
204 226 255
204 226 255
204 226 255
204 226 255
204 226 255
204 226 255
205 226 255
205 226 255
205 226 255
205 226 255
205 226 255
205 226 255
205 226 255
205 226 255
205 226 255
205 227 255
205 227 255
205 227 255
205 227 255
205 227 255
205 227 255
205 227 255
205 227 255
205 227 255
205 227 255
205 227 255
205 227 255
206 227 255
206 227 255
206 227 255
206 227 255
206 227 255
206 227 255
206 227 255
206 227 255
206 227 255
206 227 255
206 227 255
206 227 255
206 227 255
206 227 255
206 227 255
206 227 255
206 227 255
206 227 255
206 227 255
207 227 255
207 227 255
207 227 255
207 227 255
207 228 255
207 228 255
207 228 255
207 228 255
207 228 255
207 228 255
207 228 255
207 228 255
207 228 255
207 228 255
207 228 255
207 228 255
207 228 255
207 228 255
208 228 255
208 228 255
208 228 255
208 228 255
195 213 234
170 181 183
154 157 138
140 138 93
123 122 81
140 139 93
128 126 84
144 142 95
133 132 88
136 135 90
143 142 95
144 143 96
144 142 95
140 139 93
138 138 93
144 143 96
135 134 90
140 139 93
142 141 95
141 140 94
138 137 92
146 144 97
133 132 89
154 152 102
136 135 90
145 142 95
145 143 95
140 139 93
144 143 96
145 143 96
153 151 101
153 151 101
140 139 93
145 143 96
145 143 96
134 133 89
148 146 97
145 143 95
141 140 94
137 135 90
141 139 93
142 140 94
149 146 97
141 139 92
137 135 90
146 144 96
154 152 101
155 151 101
143 141 94
148 146 97
139 136 90
151 149 99
140 138 92
152 149 99
155 152 101
139 137 90
154 150 99
140 138 90
138 135 88
143 139 92
151 148 98
141 139 93
145 142 93
146 142 93
145 141 92
140 137 90
153 149 96
142 139 90
141 138 92
138 134 86
139 136 87
139 136 90
149 145 93
141 139 90
137 133 87
129 126 79
132 129 84
133 129 84
133 130 84
143 139 89
137 134 88
137 135 88
125 122 80
144 140 91
143 139 89
124 122 79
131 127 82
121 118 75
133 129 83
142 142 116
173 183 189
196 212 233
212 230 255
212 230 255
212 230 255
212 230 255
212 230 255
212 230 255
212 231 255
211 229 253
211 230 255
211 230 253
210 229 250
211 230 254
209 229 252
209 229 253
209 228 253
208 228 252
209 229 254
209 229 255
209 229 255
207 228 255
208 228 255
206 227 255
206 227 255
207 228 255
206 227 255
206 227 255
205 226 255
205 226 255
204 226 255
204 226 255
203 225 254
204 226 255
202 225 255
202 225 255
202 225 255
202 225 255
202 225 255
200 224 254
200 224 255
200 224 255
200 224 255
199 223 255
199 223 255
199 223 255
198 223 255
198 223 255
198 223 255
198 223 255
198 223 255
198 223 255
197 222 255
197 222 255
196 222 255
196 222 255
196 222 255
196 222 255
195 221 255
195 221 255
194 221 255
194 221 255
195 221 255
194 221 255
195 221 255
194 221 255
194 221 255
194 220 255
194 221 255
194 221 255
194 220 255
194 220 255
194 221 255
195 221 255
194 221 255
195 221 255
195 221 255
195 221 255
195 221 255
195 221 255
196 221 255
196 222 255
195 221 255
196 221 255
197 222 255
196 222 255
197 222 255
198 223 255
197 222 255
198 223 255
200 224 255
199 223 255
200 224 255
200 224 255
202 225 255
202 225 255
202 225 254
203 226 255
204 226 252
204 226 253
205 226 250
206 227 253
206 227 254
208 228 255
208 228 255
208 228 255
208 228 255
208 228 255
208 228 255
208 228 255
207 228 255
207 228 255
207 228 255
207 228 255
207 228 255
207 228 255
207 228 255
207 228 255
207 228 255
207 228 255
207 228 255
207 228 255
207 228 255
207 227 255
207 227 255
207 227 255
207 227 255
207 227 255
206 227 255
206 227 255
206 227 255
206 227 255
206 227 255
206 227 255
206 227 255
206 227 255
206 227 255
206 227 255
206 227 255
206 227 255
206 227 255
206 227 255
206 227 255
206 227 255
206 227 255
206 227 255
206 227 255
206 227 255
205 227 255
205 227 255
205 227 255
205 227 255
205 227 255
205 227 255
205 227 255
205 227 255
205 227 255
205 227 255
205 227 255
205 227 255
205 226 255
205 226 255
205 226 255
205 226 255
205 226 255
205 226 255
205 226 255
205 226 255
205 226 255
205 226 255
204 226 255
204 226 255
204 226 255
204 226 255
204 226 255
204 226 255
204 226 255
204 226 255
204 226 255
204 226 255
204 226 255
204 226 255
204 226 255
204 226 255
204 226 255
204 226 255
204 226 255
204 226 255
204 226 255
204 226 255
204 226 255
204 226 255
204 226 255
204 226 255
204 226 255
204 226 255
204 226 255
204 226 255
204 226 255
204 226 255
204 226 255
204 226 255
204 226 255
204 226 255
204 226 255
204 226 255
204 226 255
204 226 255
204 226 255
204 226 255
204 226 255
204 226 255
204 226 255
204 226 255
204 226 255
204 226 255
204 226 255
204 226 255
204 226 255
204 226 255
204 226 255
204 226 255
204 226 255
204 226 255
204 226 255
204 226 255
204 226 255
204 226 255
204 226 255
204 226 255
204 226 255
204 226 255
204 226 255
204 226 255
204 226 255
204 226 255
204 226 255
204 226 255
204 226 255
204 226 255
204 226 255
204 226 255
205 226 255
205 226 255
205 226 255
205 226 255
205 226 255
205 226 255
205 226 255
205 226 255
205 226 255
205 226 255
205 227 255
205 227 255
205 227 255
205 227 255
205 227 255
205 227 255
205 227 255
205 227 255
205 227 255
205 227 255
205 227 255
205 227 255
205 227 255
206 227 255
206 227 255
206 227 255
206 227 255
206 227 255
206 227 255
206 227 255
206 227 255
206 227 255
206 227 255
206 227 255
206 227 255
206 227 255
206 227 255
206 227 255
206 227 255
206 227 255
206 227 255
206 227 255
207 227 255
207 227 255
207 227 255
207 227 255
207 228 255
207 228 255
207 228 255
207 228 255
207 228 255
207 228 255
207 228 255
207 228 255
207 228 255
207 228 255
207 228 255
207 228 255
207 228 255
207 228 255
208 228 255
208 228 255
208 228 255
208 228 255
208 228 255
200 218 240
167 176 175
155 157 131
130 129 87
134 133 89
135 133 89
142 141 95
135 134 90
137 136 91
138 136 91
134 132 89
143 141 95
143 142 95
139 138 93
136 135 91
141 141 95
140 139 94
137 136 92
145 144 97
139 138 93
149 147 99
144 143 95
145 144 97
137 137 92
149 148 99
144 144 97
148 146 98
144 142 95
146 144 97
150 148 99
141 140 94
141 139 93
142 140 93
149 148 99
150 148 99
147 145 97
148 146 98
150 148 98
144 142 95
149 147 98
147 145 97
153 151 101
148 146 97
144 143 95
153 151 101
143 142 95
150 147 97
149 148 99
147 145 96
149 147 98
146 144 96
136 133 89
141 140 94
145 142 93
152 150 101
149 146 97
154 152 101
136 133 86
141 139 92
151 148 99
150 147 98
143 140 93
151 149 98
145 141 93
148 144 94
148 145 95
150 146 96
145 143 94
137 135 87
145 143 95
144 141 93
144 140 91
147 143 94
140 138 90
140 137 89
131 129 84
142 139 91
141 138 90
149 144 93
138 134 87
139 136 87
137 134 88
144 140 89
145 140 90
143 139 89
134 130 86
133 130 83
137 134 83
140 136 87
140 136 87
136 132 84
131 128 80
143 139 88
133 130 83
127 123 79
159 160 134
167 177 183
200 216 235
212 230 255
212 230 254
211 229 252
212 230 253
211 229 252
211 230 255
210 229 254
209 229 253
209 229 255
210 229 255
209 228 253
210 229 255
208 228 255
208 228 255
207 228 255
207 228 255
207 228 255
206 227 255
207 227 255
205 227 255
205 227 255
204 226 254
205 226 255
204 226 255
203 226 255
202 225 254
203 226 255
203 225 255
202 225 254
202 225 255
201 224 255
201 224 255
200 224 255
200 224 255
200 224 255
199 223 255
199 223 255
198 223 255
198 223 255
197 222 255
198 223 255
198 223 255
196 222 255
196 222 255
197 222 255
196 222 255
196 222 255
195 221 255
196 222 255
195 221 255
195 221 255
194 221 255
194 221 255
194 221 255
194 221 255
193 220 255
194 221 255
193 220 255
193 220 255
192 220 255
193 220 255
193 220 255
192 220 255
192 220 255
192 220 255
193 220 255
192 220 255
193 220 255
192 220 255
192 220 255
192 220 255
192 220 255
192 220 255
192 220 255
193 220 255
192 220 255
193 220 255
193 220 255
194 220 255
193 220 255
194 221 255
194 221 255
195 221 254
196 222 255
195 221 255
196 222 255
197 222 255
197 222 255
198 223 255
198 223 255
199 223 255
201 224 255
200 224 255
202 225 255
203 225 254
204 226 255
205 226 254
204 226 254
205 226 252
207 227 250
206 227 252
209 229 255
208 228 255
208 228 255
208 228 255
208 228 255
208 228 255
208 228 255
208 228 255
207 228 255
207 228 255
207 228 255
207 228 255
207 228 255
207 228 255
207 228 255
207 228 255
207 228 255
207 228 255
207 228 255
207 228 255
207 228 255
207 228 255
207 227 255
207 227 255
207 227 255
207 227 255
207 227 255
206 227 255
206 227 255
206 227 255
206 227 255
206 227 255
206 227 255
206 227 255
206 227 255
206 227 255
206 227 255
206 227 255
206 227 255
206 227 255
206 227 255
206 227 255
206 227 255
206 227 255
206 227 255
206 227 255
205 227 255
205 227 255
205 227 255
205 227 255
205 227 255
205 227 255
205 227 255
205 227 255
205 227 255
205 227 255
205 227 255
205 227 255
205 227 255
205 227 255
205 227 255
205 226 255
205 226 255
205 226 255
205 226 255
205 226 255
205 226 255
205 226 255
205 226 255
205 226 255
205 226 255
205 226 255
204 226 255
204 226 255
204 226 255
204 226 255
204 226 255
204 226 255
204 226 255
204 226 255
204 226 255
204 226 255
204 226 255
204 226 255
204 226 255
204 226 255
204 226 255
204 226 255
204 226 255
204 226 255
204 226 255
204 226 255
204 226 255
204 226 255
204 226 255
204 226 255
204 226 255
204 226 255
204 226 255
204 226 255
204 226 255
204 226 255
204 226 255
204 226 255
204 226 255
204 226 255
204 226 255
204 226 255
204 226 255
204 226 255
204 226 255
204 226 255
204 226 255
204 226 255
204 226 255
204 226 255
204 226 255
204 226 255
204 226 255
204 226 255
204 226 255
204 226 255
204 226 255
204 226 255
204 226 255
204 226 255
204 226 255
204 226 255
205 226 255
205 226 255
205 226 255
205 226 255
205 226 255
205 226 255
205 226 255
205 226 255
205 226 255
205 226 255
205 226 255
205 226 255
205 227 255
205 227 255
205 227 255
205 227 255
205 227 255
205 227 255
205 227 255
205 227 255
205 227 255
205 227 255
205 227 255
205 227 255
205 227 255
206 227 255
206 227 255
206 227 255
206 227 255
206 227 255
206 227 255
206 227 255
206 227 255
206 227 255
206 227 255
206 227 255
206 227 255
206 227 255
206 227 255
206 227 255
206 227 255
206 227 255
206 227 255
206 227 255
206 227 255
206 227 255
207 227 255
207 227 255
207 227 255
207 227 255
207 228 255
207 228 255
207 228 255
207 228 255
207 228 255
207 228 255
207 228 255
207 228 255
207 228 255
207 228 255
207 228 255
207 228 255
207 228 255
207 228 255
208 228 255
208 228 255
208 228 255
208 228 255
208 228 255
208 228 255
203 222 247
174 187 196
154 159 143
130 128 85
133 131 87
136 134 90
126 125 84
128 127 85
134 133 89
142 141 95
136 134 90
143 141 95
141 141 95
135 134 90
135 134 90
136 135 91
148 147 99
140 138 92
140 138 93
142 140 94
137 137 92
134 132 88
148 146 98
146 144 97
149 148 99
152 149 99
152 150 101
141 141 95
148 146 98
147 145 97
142 142 95
138 136 91
133 132 88
145 143 95
155 154 103
147 146 98
145 143 96
152 151 101
141 140 94
148 146 98
145 143 95
144 142 95
143 142 95
146 144 96
150 149 99
149 146 97
145 143 95
153 151 100
144 142 95
151 150 101
146 144 95
149 146 95
147 144 96
143 142 94
154 151 100
151 147 97
147 143 95
149 146 97
155 152 100
148 147 99
148 145 95
148 145 96
144 142 94
141 139 91
147 145 95
148 145 96
145 142 93
148 146 96
147 144 95
142 140 93
147 144 95
150 146 96
134 131 84
146 143 93
138 135 88
154 150 99
138 135 87
146 143 93
152 148 96
143 140 93
140 137 89
141 138 90
148 145 94
140 138 89
137 134 87
137 134 87
144 140 91
134 131 85
139 136 90
140 136 87
138 133 87
147 143 92
133 129 84
135 131 84
143 138 88
139 134 85
125 123 79
133 129 81
126 123 79
125 122 78
131 128 81
153 156 138
212 230 254
209 228 248
212 230 253
209 228 250
210 229 253
210 229 254
210 229 254
209 229 255
209 229 255
209 229 255
209 229 255
208 228 255
208 228 255
206 227 255
207 228 255
206 227 255
205 226 255
205 227 255
205 227 255
204 226 254
204 226 255
203 226 255
203 225 254
203 225 255
202 225 255
202 225 255
201 224 255
201 224 255
200 224 255
200 224 255
199 224 255
199 224 255
199 223 255
199 223 255
199 223 255
197 222 255
197 222 255
197 222 255
197 222 255
196 222 255
196 222 255
196 222 255
195 221 255
195 221 255
195 221 255
195 221 255
194 221 255
194 221 255
194 221 255
194 220 255
193 220 255
193 220 255
193 220 255
193 220 255
193 220 255
192 220 255
192 220 255
191 219 255
192 220 255
192 220 255
191 219 255
192 219 255
191 219 255
191 219 255
191 219 255
190 219 255
191 219 255
191 219 255
191 219 255
191 219 255
191 219 255
191 219 255
190 219 255
191 219 255
190 219 255
191 219 255
191 219 255
192 219 255
192 220 255
192 220 255
192 220 255
193 220 255
193 220 255
194 220 255
194 221 255
195 221 255
195 221 255
196 222 255
197 222 254
197 222 255
197 222 254
199 223 255
199 223 255
200 224 255
201 224 255
202 225 255
203 225 255
203 225 255
205 226 254
204 226 254
206 227 254
207 227 252
207 228 254
208 228 255
208 228 255
208 228 255
208 228 255
208 228 255
208 228 255
208 228 255
208 228 255
208 228 255
207 228 255
207 228 255
207 228 255
207 228 255
207 228 255
207 228 255
207 228 255
207 228 255
207 228 255
207 228 255
207 228 255
207 228 255
207 228 255
207 228 255
207 227 255
207 227 255
207 227 255
207 227 255
207 227 255
206 227 255
206 227 255
206 227 255
206 227 255
206 227 255
206 227 255
206 227 255
206 227 255
206 227 255
206 227 255
206 227 255
206 227 255
206 227 255
206 227 255
206 227 255
206 227 255
206 227 255
206 227 255
206 227 255
206 227 255
206 227 255
205 227 255
205 227 255
205 227 255
205 227 255
205 227 255
205 227 255
205 227 255
205 227 255
205 227 255
205 227 255
205 227 255
205 227 255
205 227 255
205 227 255
205 227 255
205 226 255
205 226 255
205 226 255
205 226 255
205 226 255
205 226 255
205 226 255
205 226 255
205 226 255
205 226 255
205 226 255
205 226 255
205 226 255
205 226 255
205 226 255
205 226 255
204 226 255
204 226 255
204 226 255
204 226 255
204 226 255
204 226 255
204 226 255
204 226 255
204 226 255
204 226 255
204 226 255
204 226 255
204 226 255
204 226 255
204 226 255
204 226 255
204 226 255
204 226 255
204 226 255
204 226 255
204 226 255
204 226 255
204 226 255
204 226 255
204 226 255
204 226 255
204 226 255
204 226 255
204 226 255
204 226 255
204 226 255
204 226 255
204 226 255
204 226 255
205 226 255
205 226 255
205 226 255
205 226 255
205 226 255
205 226 255
205 226 255
205 226 255
205 226 255
205 226 255
205 226 255
205 226 255
205 226 255
205 226 255
205 226 255
205 226 255
205 227 255
205 227 255
205 227 255
205 227 255
205 227 255
205 227 255
205 227 255
205 227 255
205 227 255
205 227 255
205 227 255
205 227 255
205 227 255
205 227 255
205 227 255
206 227 255
206 227 255
206 227 255
206 227 255
206 227 255
206 227 255
206 227 255
206 227 255
206 227 255
206 227 255
206 227 255
206 227 255
206 227 255
206 227 255
206 227 255
206 227 255
206 227 255
206 227 255
206 227 255
206 227 255
206 227 255
207 227 255
207 227 255
207 227 255
207 227 255
207 227 255
207 228 255
207 228 255
207 228 255
207 228 255
207 228 255
207 228 255
207 228 255
207 228 255
207 228 255
207 228 255
207 228 255
207 228 255
207 228 255
207 228 255
208 228 255
208 228 255
208 228 255
208 228 255
208 228 255
208 228 255
208 228 255
208 228 255
197 215 237
161 172 176
134 132 93
136 134 90
135 132 88
136 134 90
135 134 90
130 128 86
141 140 94
146 144 97
140 138 93
128 127 85
133 132 89
145 144 97
145 144 97
138 137 93
143 142 95
145 143 96
149 149 100
148 147 99
143 142 95
144 143 96
143 142 96
144 142 95
150 149 100
146 144 97
146 144 97
154 153 103
145 144 97
145 143 96
151 149 99
149 147 99
152 151 102
159 157 106
142 140 93
151 149 100
150 148 99
157 155 104
153 152 102
148 146 97
143 142 95
146 144 96
149 148 99
148 146 97
144 143 95
146 145 97
148 145 97
149 147 98
150 147 98
148 146 97
149 147 99
155 152 101
141 138 90
152 149 99
147 145 97
149 146 96
140 138 92
145 142 95
143 141 92
137 135 89
148 144 95
152 148 98
150 148 98
148 145 95
153 151 101
155 153 100
142 138 92
146 144 95
148 144 95
149 146 95
149 147 97
141 139 91
143 140 91
146 143 94
153 150 97
147 144 95
149 146 96
156 151 99
145 141 93
152 148 97
147 144 92
146 142 94
146 142 90
139 136 87
152 148 96
147 144 93
146 142 91
136 133 87
142 138 90
147 143 93
144 140 92
136 132 85
142 139 90
139 135 88
137 135 87
144 140 92
129 126 81
133 129 82
143 140 90
134 131 81
143 138 88
123 119 76
138 134 84
128 125 80
211 229 253
210 229 254
209 229 252
210 229 255
210 229 255
208 228 255
209 229 255
208 228 255
208 228 255
207 228 255
208 228 255
206 227 255
207 228 255
205 227 255
205 227 255
205 226 255
205 227 255
205 227 255
204 226 255
203 225 254
203 225 255
203 225 255
202 225 255
201 225 255
201 224 255
201 224 255
201 224 255
199 223 255
200 224 255
200 224 255
199 223 255
198 223 255
198 223 255
198 223 255
197 222 255
197 222 255
197 222 255
196 222 255
196 222 255
196 222 255
196 222 255
195 221 255
195 221 255
194 221 255
194 221 255
193 220 255
193 220 255
193 220 255
193 220 255
193 220 255
192 220 255
192 220 255
191 219 255
192 219 255
191 219 255
191 219 255
191 219 255
191 219 255
190 219 255
190 219 255
190 219 255
190 218 255
189 218 255
190 219 255
189 218 255
189 218 255
189 218 255
189 218 255
190 218 255
189 218 255
190 218 255
190 218 255
190 219 255
190 218 255
191 219 255
190 218 255
190 218 255
190 218 255
191 219 255
190 219 255
191 219 255
191 219 255
191 219 255
192 219 255
192 220 255
193 220 255
192 220 255
194 221 255
193 220 255
194 221 255
195 221 255
196 222 255
196 222 255
198 223 255
199 223 255
199 223 254
200 224 255
201 224 254
203 226 255
203 225 255
205 226 254
206 227 253
204 226 252
208 228 255
207 227 254
209 229 255
208 228 255
208 228 255
208 228 255
208 228 255
208 228 255
208 228 255
208 228 255
208 228 255
208 228 255
208 228 255
207 228 255
207 228 255
207 228 255
207 228 255
207 228 255
207 228 255
207 228 255
207 228 255
207 228 255
207 228 255
207 228 255
207 228 255
207 228 255
207 228 255
207 228 255
207 227 255
207 227 255
207 227 255
207 227 255
207 227 255
206 227 255
206 227 255
206 227 255
206 227 255
206 227 255
206 227 255
206 227 255
206 227 255
206 227 255
206 227 255
206 227 255
206 227 255
206 227 255
206 227 255
206 227 255
206 227 255
206 227 255
206 227 255
206 227 255
206 227 255
206 227 255
205 227 255
205 227 255
205 227 255
205 227 255
205 227 255
205 227 255
205 227 255
205 227 255
205 227 255
205 227 255
205 227 255
205 227 255
205 227 255
205 227 255
205 227 255
205 227 255
205 227 255
205 227 255
205 227 255
205 226 255
205 226 255
205 226 255
205 226 255
205 226 255
205 226 255
205 226 255
205 226 255
205 226 255
205 226 255
205 226 255
205 226 255
205 226 255
205 226 255
205 226 255
205 226 255
205 226 255
205 226 255
205 226 255
205 226 255
205 226 255
205 226 255
205 226 255
205 226 255
205 226 255
205 226 255
205 226 255
205 226 255
205 226 255
205 226 255
205 226 255
205 226 255
205 226 255
205 226 255
205 226 255
205 226 255
205 226 255
205 226 255
205 226 255
205 226 255
205 226 255
205 226 255
205 226 255
205 226 255
205 226 255
205 226 255
205 226 255
205 226 255
205 227 255
205 227 255
205 227 255
205 227 255
205 227 255
205 227 255
205 227 255
205 227 255
205 227 255
205 227 255
205 227 255
205 227 255
205 227 255
205 227 255
205 227 255
205 227 255
205 227 255
205 227 255
206 227 255
206 227 255
206 227 255
206 227 255
206 227 255
206 227 255
206 227 255
206 227 255
206 227 255
206 227 255
206 227 255
206 227 255
206 227 255
206 227 255
206 227 255
206 227 255
206 227 255
206 227 255
206 227 255
206 227 255
206 227 255
206 227 255
207 227 255
207 227 255
207 227 255
207 227 255
207 227 255
207 228 255
207 228 255
207 228 255
207 228 255
207 228 255
207 228 255
207 228 255
207 228 255
207 228 255
207 228 255
207 228 255
207 228 255
207 228 255
207 228 255
208 228 255
208 228 255
208 228 255
208 228 255
208 228 255
208 228 255
208 228 255
208 228 255
208 228 255
208 228 255
208 228 255
188 204 220
150 153 135
133 132 88
130 128 86
133 132 88
132 130 87
127 125 84
136 135 90
140 138 93
131 130 87
140 139 93
148 147 99
140 139 93
147 146 98
151 149 100
144 143 96
140 139 93
147 146 99
152 150 101
152 152 102
141 140 95
142 141 94
144 143 96
144 143 96
145 144 97
145 144 97
145 143 96
147 145 97
146 144 97
153 151 101
146 144 97
148 146 98
149 146 97
150 150 101
144 143 96
150 148 99
149 147 99
146 145 97
158 156 104
146 145 97
149 147 98
148 146 97
153 151 101
144 143 96
148 145 97
155 152 101
151 149 99
160 157 104
148 145 96
149 147 98
158 155 103
153 151 100
148 146 98
159 156 103
150 147 98
151 147 97
154 151 99
142 141 95
144 141 94
154 152 100
146 144 96
146 143 95
147 145 95
143 141 94
150 147 97
148 145 96
157 153 101
155 150 98
144 142 93
149 146 97
144 141 92
153 149 97
150 146 95
153 149 98
145 142 94
152 148 96
143 140 91
145 141 90
150 147 96
145 141 93
136 134 86
142 138 89
148 145 94
142 140 91
146 144 94
147 143 93
149 145 96
149 145 93
142 137 90
144 141 92
144 140 90
134 131 83
147 144 95
144 140 91
143 139 90
142 138 90
144 140 89
142 137 88
149 145 92
136 133 84
131 126 78
143 138 89
139 136 88
144 141 91
136 132 84
139 136 87
209 229 253
210 229 254
209 229 255
210 229 255
208 228 255
209 229 255
208 228 255
207 228 255
208 228 255
207 228 255
207 227 255
206 227 255
206 227 255
205 227 255
205 226 255
204 226 255
203 225 254
203 226 255
203 225 255
203 225 255
203 225 255
202 225 255
201 225 255
201 224 255
200 224 255
200 224 255
199 224 255
199 223 255
199 223 255
198 223 255
198 223 255
198 223 255
198 223 255
197 222 255
197 222 255
196 222 255
196 222 255
195 221 255
195 221 255
195 221 255
194 221 255
194 221 255
193 220 255
193 220 255
193 220 255
193 220 255
192 220 255
192 219 255
192 220 255
192 219 255
191 219 255
191 219 255
191 219 255
191 219 255
190 219 255
190 219 255
190 218 255
190 218 255
190 219 255
190 219 255
189 218 255
189 218 255
189 218 255
189 218 255
188 218 255
189 218 255
188 218 255
188 218 255
188 217 255
188 218 255
188 218 255
188 217 255
188 218 255
188 218 255
188 218 255
189 218 255
189 218 255
188 218 255
188 218 255
189 218 255
190 218 255
188 218 255
189 218 255
190 219 255
190 219 255
191 219 255
191 219 255
191 219 255
192 219 255
192 219 255
193 220 255
193 220 255
194 221 255
194 221 255
195 221 255
195 221 254
197 222 255
198 223 255
199 223 255
202 225 255
201 224 255
204 226 255
203 226 254
204 226 255
205 226 253
205 226 248
207 228 255
208 228 254
208 228 255
208 228 255
208 228 255
208 228 255
208 228 255
208 228 255
208 228 255
208 228 255
208 228 255
208 228 255
208 228 255
208 228 255
208 228 255
207 228 255
207 228 255
207 228 255
207 228 255
207 228 255
207 228 255
207 228 255
207 228 255
207 228 255
207 228 255
207 228 255
207 228 255
207 228 255
207 228 255
207 228 255
207 227 255
207 227 255
207 227 255
207 227 255
207 227 255
206 227 255
206 227 255
206 227 255
206 227 255
206 227 255
206 227 255
206 227 255
206 227 255
206 227 255
206 227 255
206 227 255
206 227 255
206 227 255
206 227 255
206 227 255
206 227 255
206 227 255
206 227 255
206 227 255
206 227 255
206 227 255
206 227 255
206 227 255
205 227 255
205 227 255
205 227 255
205 227 255
205 227 255
205 227 255
205 227 255
205 227 255
205 227 255
205 227 255
205 227 255
205 227 255
205 227 255
205 227 255
205 227 255
205 227 255
205 227 255
205 227 255
205 227 255
205 227 255
205 227 255
205 227 255
205 227 255
205 227 255
205 227 255
205 226 255
205 226 255
205 226 255
205 226 255
205 226 255
205 226 255
205 226 255
205 226 255
205 226 255
205 226 255
205 226 255
205 226 255
205 226 255
205 226 255
205 226 255
205 226 255
205 226 255
205 226 255
205 226 255
205 226 255
205 226 255
205 227 255
205 227 255
205 227 255
205 227 255
205 227 255
205 227 255
205 227 255
205 227 255
205 227 255
205 227 255
205 227 255
205 227 255
205 227 255
205 227 255
205 227 255
205 227 255
205 227 255
205 227 255
205 227 255
205 227 255
205 227 255
205 227 255
205 227 255
205 227 255
205 227 255
206 227 255
206 227 255
206 227 255
206 227 255
206 227 255
206 227 255
206 227 255
206 227 255
206 227 255
206 227 255
206 227 255
206 227 255
206 227 255
206 227 255
206 227 255
206 227 255
206 227 255
206 227 255
206 227 255
206 227 255
206 227 255
206 227 255
206 227 255
206 227 255
207 227 255
207 227 255
207 227 255
207 227 255
207 227 255
207 228 255
207 228 255
207 228 255
207 228 255
207 228 255
207 228 255
207 228 255
207 228 255
207 228 255
207 228 255
207 228 255
207 228 255
207 228 255
207 228 255
207 228 255
208 228 255
208 228 255
208 228 255
208 228 255
208 228 255
208 228 255
208 228 255
208 228 255
208 228 255
208 228 255
208 228 255
208 228 255
203 222 247
177 190 203
146 149 122
139 137 92
135 134 90
136 134 89
126 124 83
130 129 86
137 136 91
142 141 95
131 129 87
141 140 94
142 141 95
140 138 93
146 145 97
138 137 92
147 146 98
142 141 95
145 144 97
144 142 95
149 148 99
142 141 95
151 149 100
144 143 96
149 147 98
151 150 101
147 145 97
155 154 103
146 145 97
155 153 103
152 151 101
144 143 96
151 149 100
141 140 94
149 148 99
146 145 97
154 152 102
153 151 101
139 137 92
149 147 99
147 145 97
149 147 99
151 148 99
150 149 100
152 149 99
146 144 96
149 147 98
150 148 99
145 143 95
152 150 101
154 151 100
155 152 101
140 138 92
156 154 103
149 147 97
147 145 97
151 149 100
155 153 101
136 133 87
146 142 94
153 149 99
147 145 97
156 153 101
148 145 97
146 144 96
152 149 98
153 150 97
152 148 97
143 141 92
151 149 99
153 149 97
150 147 95
148 145 95
158 154 101
152 149 97
143 141 90
149 147 95
149 146 97
139 136 87
144 140 92
147 143 95
143 140 91
145 142 93
141 139 88
154 151 99
148 144 95
145 141 90
149 145 95
134 131 84
143 138 89
145 141 90
149 145 93
144 141 91
140 135 86
152 149 95
144 141 92
137 133 83
137 134 88
138 134 85
136 132 84
139 135 87
142 138 89
142 137 84
129 125 78
139 135 85
133 130 84
140 136 87
143 139 88
144 138 88
210 229 254
209 229 255
210 229 255
210 229 255
208 228 255
208 228 254
208 228 255
207 228 255
207 227 255
206 227 255
205 227 255
206 227 255
205 226 255
204 226 255
204 226 254
203 226 255
203 226 255
202 225 255
203 225 255
202 225 255
201 224 255
201 224 255
201 224 255
201 224 255
200 224 255
199 223 255
198 223 255
198 223 255
198 223 255
198 223 255
197 222 255
196 222 255
196 222 255
196 222 255
195 221 255
195 221 255
195 221 255
195 221 255
194 221 255
194 221 255
193 220 255
193 220 255
193 220 255
193 220 255
192 220 255
192 220 255
191 219 255
191 219 255
191 219 255
191 219 255
190 219 255
190 219 255
190 218 255
190 218 255
189 218 255
189 218 255
189 218 255
188 218 255
189 218 255
188 218 255
188 217 255
188 217 255
188 217 255
188 218 255
188 217 255
187 217 255
187 217 255
188 217 255
188 217 255
187 217 255
187 217 255
187 217 255
188 217 255
187 217 255
187 217 255
187 217 255
187 217 255
187 217 255
187 217 255
187 217 255
187 217 255
188 218 255
188 218 255
188 218 255
188 218 255
188 218 255
189 218 255
189 218 255
191 219 255
190 219 255
191 219 255
192 219 255
192 219 255
193 220 255
193 220 255
194 221 255
195 221 255
196 222 255
197 222 255
198 222 254
198 223 255
200 224 255
201 224 255
200 224 254
203 226 255
205 226 254
206 227 255
206 227 254
207 228 253
208 228 255
208 228 255
208 228 255
208 228 255
208 228 255
208 228 255
208 228 255
208 228 255
208 228 255
208 228 255
208 228 255
208 228 255
208 228 255
208 228 255
208 228 255
208 228 255
207 228 255
207 228 255
207 228 255
207 228 255
207 228 255
207 228 255
207 228 255
207 228 255
207 228 255
207 228 255
207 228 255
207 228 255
207 228 255
207 228 255
207 228 255
207 228 255
207 227 255
207 227 255
207 227 255
207 227 255
207 227 255
206 227 255
206 227 255
206 227 255
206 227 255
206 227 255
206 227 255
206 227 255
206 227 255
206 227 255
206 227 255
206 227 255
206 227 255
206 227 255
206 227 255
206 227 255
206 227 255
206 227 255
206 227 255
206 227 255
206 227 255
206 227 255
206 227 255
206 227 255
206 227 255
206 227 255
206 227 255
206 227 255
205 227 255
205 227 255
205 227 255
205 227 255
205 227 255
205 227 255
205 227 255
205 227 255
205 227 255
205 227 255
205 227 255
205 227 255
205 227 255
205 227 255
205 227 255
205 227 255
205 227 255
205 227 255
205 227 255
205 227 255
205 227 255
205 227 255
205 227 255
205 227 255
203 225 254
197 219 250
200 222 251
201 223 253
204 226 255
204 226 255
205 227 255
205 227 255
205 227 255
205 227 255
205 227 255
205 227 255
205 227 255
205 227 255
205 227 255
205 227 255
205 227 255
205 227 255
205 227 255
205 227 255
205 227 255
205 227 255
205 227 255
205 227 255
205 227 255
205 227 255
205 227 255
205 227 255
205 227 255
205 227 255
206 227 255
206 227 255
206 227 255
206 227 255
206 227 255
206 227 255
206 227 255
206 227 255
206 227 255
206 227 255
206 227 255
206 227 255
206 227 255
206 227 255
206 227 255
206 227 255
206 227 255
206 227 255
206 227 255
206 227 255
206 227 255
206 227 255
206 227 255
206 227 255
206 227 255
206 227 255
206 227 255
207 227 255
207 227 255
207 227 255
207 227 255
207 227 255
207 227 255
207 228 255
207 228 255
207 228 255
207 228 255
207 228 255
207 228 255
207 228 255
207 228 255
207 228 255
207 228 255
207 228 255
207 228 255
207 228 255
207 228 255
207 228 255
208 228 255
208 228 255
208 228 255
208 228 255
208 228 255
208 228 255
208 228 255
208 228 255
208 228 255
208 228 255
208 228 255
208 228 255
208 228 255
208 228 255
205 224 248
167 180 190
144 144 116
138 135 90
135 134 90
140 138 92
127 126 85
131 130 87
137 136 91
138 137 92
145 144 97
150 148 99
148 146 98
145 144 97
146 146 98
146 144 97
142 142 95
139 138 93
145 144 97
143 141 95
140 138 93
148 146 98
144 143 96
145 144 97
141 140 94
149 147 99
156 154 103
152 150 101
133 132 89
151 149 99
152 150 101
149 148 99
152 151 102
154 152 102
150 150 101
148 145 97
152 151 101
150 149 101
149 147 99
147 145 97
152 150 101
154 152 102
148 147 99
152 150 100
148 146 98
150 148 99
152 149 99
149 148 99
148 146 98
152 150 100
154 152 101
145 143 95
147 144 96
150 147 97
151 148 98
162 159 106
160 157 104
158 154 101
153 150 99
149 147 97
148 145 96
151 148 97
153 150 100
147 144 94
159 156 103
160 157 103
154 151 100
153 150 100
152 149 97
146 143 95
158 155 102
148 145 95
148 144 95
148 145 96
150 147 97
155 151 100
154 150 99
147 144 93
151 148 97
154 150 99
154 151 99
142 139 92
151 147 96
147 144 95
154 151 98
148 145 95
148 145 93
148 145 96
156 152 99
145 142 93
147 143 94
151 146 95
147 144 93
146 143 93
147 143 91
149 145 95
144 141 91
142 139 90
150 147 95
140 138 90
147 143 90
142 139 90
132 128 83
140 136 90
141 137 88
145 141 90
140 136 83
136 133 87
139 134 87
138 134 86
148 143 90
209 229 255
210 229 254
209 229 255
208 228 254
207 228 255
207 227 255
206 227 255
205 227 254
206 227 254
206 227 255
204 226 254
205 226 255
204 226 254
204 226 255
204 226 255
202 225 255
202 225 255
202 225 255
202 225 255
201 224 255
201 224 255
200 224 255
200 224 255
199 224 255
199 223 255
198 223 255
198 223 255
198 223 255
197 222 255
197 222 255
197 222 255
196 222 255
196 222 255
196 221 255
194 221 255
194 221 255
195 221 255
194 221 255
194 220 255
193 220 255
193 220 255
192 220 255
192 220 255
192 220 255
191 219 255
191 219 255
191 219 255
191 219 255
191 219 255
190 219 255
189 218 255
190 218 255
189 218 255
189 218 255
188 218 255
189 218 255
188 218 255
188 218 255
188 217 255
187 217 255
188 217 255
187 217 255
187 217 255
187 217 255
187 217 255
187 217 255
186 217 255
186 217 255
186 216 255
186 217 255
186 216 255
186 216 255
186 216 255
186 216 255
185 216 255
186 216 255
186 217 255
186 216 255
186 217 255
186 217 255
186 217 255
186 217 255
187 217 255
187 217 255
187 217 255
187 217 255
188 217 255
188 218 255
188 218 255
189 218 255
189 218 255
190 218 255
190 219 255
191 219 255
191 219 255
192 220 255
193 220 255
193 220 255
194 221 255
196 222 255
196 222 255
197 222 255
198 223 255
199 224 255
202 225 255
202 225 255
202 225 254
203 225 255
205 227 254
205 226 249
207 228 255
209 229 255
209 229 255
208 228 255
208 228 255
208 228 255
208 228 255
208 228 255
208 228 255
208 228 255
208 228 255
208 228 255
208 228 255
208 228 255
208 228 255
208 228 255
208 228 255
208 228 255
208 228 255
208 228 255
207 228 255
207 228 255
207 228 255
207 228 255
207 228 255
207 228 255
207 228 255
207 228 255
207 228 255
207 228 255
207 228 255
207 228 255
207 228 255
207 228 255
207 228 255
207 228 255
207 227 255
207 227 255
207 227 255
207 227 255
207 227 255
207 227 255
206 227 255
206 227 255
206 227 255
206 227 255
206 227 255
206 227 255
206 227 255
206 227 255
206 227 255
206 227 255
206 227 255
206 227 255
206 227 255
206 227 255
206 227 255
206 227 255
206 227 255
206 227 255
206 227 255
206 227 255
206 227 255
206 227 255
206 227 255
206 227 255
206 227 255
206 227 255
206 227 255
206 227 255
206 227 255
206 227 255
206 227 255
206 227 255
205 227 255
206 227 255
205 227 255
205 227 255
205 227 255
204 225 254
193 215 246
160 183 224
153 176 220
121 146 201
109 136 198
98 126 191
81 113 184
68 103 178
62 99 180
62 99 178
62 99 171
62 99 177
62 99 176
77 110 181
107 135 197
121 146 203
120 146 201
149 173 220
171 193 232
193 214 247
204 225 254
205 227 255
205 227 255
205 227 255
206 227 255
206 227 255
206 227 255
206 227 255
206 227 255
206 227 255
206 227 255
206 227 255
206 227 255
206 227 255
206 227 255
206 227 255
206 227 255
206 227 255
206 227 255
206 227 255
206 227 255
206 227 255
206 227 255
206 227 255
206 227 255
206 227 255
206 227 255
206 227 255
206 227 255
206 227 255
206 227 255
206 227 255
206 227 255
206 227 255
206 227 255
206 227 255
206 227 255
206 227 255
207 227 255
207 227 255
207 227 255
207 227 255
207 227 255
207 227 255
207 228 255
207 228 255
207 228 255
207 228 255
207 228 255
207 228 255
207 228 255
207 228 255
207 228 255
207 228 255
207 228 255
207 228 255
207 228 255
207 228 255
207 228 255
207 228 255
208 228 255
208 228 255
208 228 255
208 228 255
208 228 255
208 228 255
208 228 255
208 228 255
208 228 255
208 228 255
208 228 255
208 228 255
208 228 255
208 228 255
208 228 255
208 228 255
208 228 255
204 223 248
179 191 196
137 136 97
131 129 87
140 138 92
140 138 92
128 127 85
144 142 95
150 148 99
141 139 94
147 145 98
142 140 94
134 133 90
145 144 97
139 139 93
147 145 97
144 143 96
141 140 94
146 144 97
147 147 99
148 147 99
147 145 97
147 147 99
148 148 99
161 159 106
145 144 97
152 151 101
152 151 101
152 150 101
154 152 102
152 152 102
152 151 101
150 149 100
146 145 97
157 155 104
151 149 100
152 151 101
155 153 102
151 149 100
150 148 99
154 152 102
155 153 102
146 145 97
156 155 104
149 147 99
158 155 103
150 148 99
149 146 97
154 151 100
150 148 99
152 149 99
154 152 101
153 152 102
155 153 101
160 156 103
150 147 98
152 149 99
158 155 103
161 158 106
151 149 99
155 151 99
155 152 101
141 138 92
147 145 97
157 155 103
144 141 93
156 153 101
156 152 101
153 150 99
145 143 93
156 154 101
159 155 102
152 149 99
152 148 97
152 149 98
145 142 93
153 150 97
146 143 95
152 149 99
146 142 91
148 145 95
144 142 92
154 151 100
153 149 98
157 154 101
152 149 96
148 144 93
150 146 95
150 147 98
152 147 96
142 139 90
157 154 99
145 142 94
156 151 99
147 142 90
135 133 85
143 139 89
145 141 90
150 147 95
142 138 88
150 145 93
152 148 96
147 142 87
146 142 90
145 141 87
150 146 94
143 140 92
142 138 84
144 140 89
138 134 83
149 144 91
147 144 93
148 144 93
209 228 255
209 229 255
208 228 255
207 227 254
207 228 255
206 227 255
206 227 255
206 227 255
205 227 255
204 226 255
204 226 255
204 226 255
203 226 255
203 225 255
203 225 255
202 225 255
202 225 255
202 225 255
201 224 255
201 224 255
200 224 255
200 224 255
200 224 255
199 223 255
199 223 255
198 223 255
198 223 255
198 223 255
197 222 255
197 222 255
196 222 255
195 221 255
195 221 255
195 221 255
195 221 255
194 221 255
194 221 255
194 221 255
193 220 255
193 220 255
192 220 255
192 220 255
191 219 255
191 219 255
191 219 255
191 219 255
190 219 255
190 219 255
190 218 255
190 218 255
189 218 255
189 218 255
189 218 255
188 218 255
188 218 255
188 217 255
187 217 255
188 217 255
187 217 255
187 217 255
187 217 255
186 217 255
186 217 255
186 217 255
186 216 255
186 216 255
186 216 255
185 216 255
185 216 255
185 216 255
185 216 255
185 216 255
185 216 255
185 216 255
185 216 255
185 216 255
185 216 255
185 216 255
185 216 255
185 216 255
185 216 255
185 216 255
185 216 255
186 216 255
185 216 255
186 216 255
186 217 255
186 217 255
186 217 255
187 217 255
188 217 255
188 217 255
189 218 255
189 218 255
189 218 255
190 219 255
191 219 255
192 219 255
193 220 255
193 220 255
193 220 255
195 221 255
196 222 255
197 222 255
198 222 254
199 223 255
200 224 255
202 225 255
203 226 255
204 226 253
204 226 252
205 226 250
209 228 254
208 228 254
208 228 255
208 228 255
208 228 255
208 228 255
208 228 255
208 228 255
208 228 255
208 228 255
208 228 255
208 228 255
208 228 255
208 228 255
208 228 255
208 228 255
208 228 255
208 228 255
208 228 255
208 228 255
208 228 255
208 228 255
208 228 255
207 228 255
207 228 255
207 228 255
207 228 255
207 228 255
207 228 255
207 228 255
207 228 255
207 228 255
207 228 255
207 228 255
207 228 255
207 228 255
207 228 255
207 228 255
207 228 255
207 228 255
207 227 255
207 227 255
207 227 255
207 227 255
207 227 255
207 227 255
207 227 255
206 227 255
206 227 255
206 227 255
206 227 255
206 227 255
206 227 255
206 227 255
206 227 255
206 227 255
206 227 255
206 227 255
206 227 255
206 227 255
206 227 255
206 227 255
206 227 255
206 227 255
206 227 255
206 227 255
206 227 255
206 227 255
206 227 255
206 227 255
206 227 255
206 227 255
206 227 255
199 220 251
177 199 235
145 169 215
107 134 194
68 103 180
63 99 176
62 99 179
62 99 177
62 99 177
62 98 173
63 100 178
62 99 171
63 100 177
62 99 174
62 98 171
62 98 174
62 99 178
61 98 170
62 98 174
62 99 176
62 99 179
62 99 174
62 99 175
62 98 173
61 98 175
78 111 185
111 137 197
152 175 220
187 209 241
203 224 254
206 227 255
206 227 255
206 227 255
206 227 255
206 227 255
206 227 255
206 227 255
206 227 255
206 227 255
206 227 255
206 227 255
206 227 255
206 227 255
206 227 255
206 227 255
206 227 255
206 227 255
206 227 255
206 227 255
206 227 255
206 227 255
206 227 255
206 227 255
206 227 255
206 227 255
206 227 255
207 227 255
207 227 255
207 227 255
207 227 255
207 227 255
207 227 255
207 227 255
207 228 255
207 228 255
207 228 255
207 228 255
207 228 255
207 228 255
207 228 255
207 228 255
207 228 255
207 228 255
207 228 255
207 228 255
207 228 255
207 228 255
207 228 255
207 228 255
207 228 255
208 228 255
208 228 255
208 228 255
208 228 255
208 228 255
208 228 255
208 228 255
208 228 255
208 228 255
208 228 255
208 228 255
208 228 255
208 228 255
208 228 255
208 228 255
208 228 255
208 228 255
208 228 255
208 228 255
208 228 255
209 228 255
183 196 204
133 134 108
135 133 89
125 123 82
136 134 90
132 130 87
133 132 89
138 136 91
140 139 93
142 141 95
143 142 96
143 141 95
138 136 91
140 138 93
147 145 97
152 151 101
151 150 101
142 140 94
144 143 96
152 151 101
151 149 99
156 155 104
147 145 97
150 149 100
151 150 101
149 148 99
143 142 96
145 143 96
152 150 100
145 143 96
152 150 101
152 150 101
157 155 104
152 150 101
152 150 101
158 156 104
152 150 101
149 147 98
152 150 100
155 154 103
152 150 101
154 151 101
152 151 101
151 149 100
152 150 100
151 149 100
153 151 101
152 150 101
158 156 104
151 149 100
154 152 101
153 149 99
159 155 103
154 152 102
153 150 99
154 152 101
160 157 104
162 160 106
151 149 99
154 152 101
155 152 100
145 142 93
155 153 102
153 150 99
161 157 103
160 157 104
154 151 100
158 155 102
149 147 98
147 145 96
157 153 99
157 154 102
153 150 97
154 151 99
154 151 99
160 156 102
156 151 99
149 145 95
147 144 94
153 150 99
148 145 95
148 145 95
151 147 95
147 143 94
149 145 93
152 149 97
155 150 97
151 147 93
153 149 97
149 146 95
156 151 97
146 141 89
144 141 90
151 147 93
146 142 93
142 138 87
144 141 90
158 154 100
147 143 93
144 141 91
154 151 97
149 145 93
143 139 87
143 140 91
149 144 90
148 143 91
147 143 91
149 145 90
141 138 86
141 137 86
150 146 92
149 144 89
144 140 89
141 136 85
208 228 255
208 228 254
207 227 255
207 228 255
206 227 255
206 227 255
206 227 255
205 226 255
205 226 255
204 226 255
204 226 255
204 226 255
203 225 255
203 225 255
202 225 255
202 225 255
201 225 255
201 224 255
201 224 255
200 224 255
199 224 255
199 224 255
199 223 255
199 223 255
198 223 255
198 223 255
197 222 255
197 222 255
196 222 255
196 221 255
196 222 255
195 221 255
195 221 255
194 221 255
194 221 255
194 220 255
193 220 255
193 220 255
193 220 255
193 220 255
192 220 255
192 219 255
191 219 255
191 219 255
190 219 255
190 219 255
190 219 255
190 219 255
189 218 255
189 218 255
189 218 255
188 218 255
188 218 255
188 217 255
188 217 255
188 217 254
188 217 255
189 218 254
188 217 253
190 219 255
188 217 249
191 219 254
189 217 250
191 219 254
188 217 250
191 219 254
190 218 253
191 218 250
188 216 246
190 218 253
191 219 254
189 217 249
187 217 254
187 216 254
186 216 254
186 216 255
185 216 255
184 215 255
184 216 255
184 215 255
184 215 255
184 215 255
184 215 255
184 216 255
185 216 255
185 216 255
185 216 255
185 216 255
186 216 255
186 216 255
186 217 255
186 217 255
187 217 255
188 217 255
188 217 255
188 218 255
189 218 255
190 218 255
190 219 255
191 219 255
192 219 255
192 220 255
194 221 255
194 221 255
196 221 255
196 222 255
197 222 255
200 224 255
199 223 255
201 225 255
204 226 255
204 226 254
206 227 255
206 227 253
209 229 255
209 229 255
209 229 255
209 229 255
209 228 255
208 228 255
208 228 255
208 228 255
208 228 255
208 228 255
208 228 255
208 228 255
208 228 255
208 228 255
208 228 255
208 228 255
208 228 255
208 228 255
208 228 255
208 228 255
208 228 255
208 228 255
208 228 255
208 228 255
208 228 255
208 228 255
207 228 255
207 228 255
207 228 255
207 228 255
207 228 255
207 228 255
207 228 255
207 228 255
207 228 255
207 228 255
207 228 255
207 228 255
207 228 255
207 228 255
207 228 255
207 228 255
207 228 255
207 228 255
207 228 255
207 227 255
207 227 255
207 227 255
207 227 255
207 227 255
207 227 255
207 227 255
206 227 255
206 227 255
206 227 255
206 227 255
206 227 255
206 227 255
206 227 255
206 227 255
206 227 255
206 227 255
206 227 255
206 227 255
206 227 255
206 227 255
206 227 255
206 227 255
205 226 255
175 196 233
104 131 190
76 109 181
62 99 174
62 99 171
62 99 178
62 99 174
62 99 175
62 99 173
62 99 175
63 99 175
63 100 175
62 99 175
62 99 177
62 99 178
62 98 170
61 98 173
63 100 177
62 99 176
62 99 173
62 99 175
63 100 176
62 98 168
62 99 173
62 99 169
63 99 171
62 98 170
62 98 174
61 98 175
61 98 173
62 99 178
76 108 179
133 158 211
172 194 233
196 217 248
206 227 255
206 227 255
206 227 255
206 227 255
206 227 255
206 227 255
206 227 255
206 227 255
206 227 255
206 227 255
206 227 255
206 227 255
206 227 255
206 227 255
206 227 255
206 227 255
207 227 255
207 227 255
207 227 255
207 227 255
207 227 255
207 227 255
207 227 255
207 228 255
207 228 255
207 228 255
207 228 255
207 228 255
207 228 255
207 228 255
207 228 255
207 228 255
207 228 255
207 228 255
207 228 255
207 228 255
207 228 255
207 228 255
207 228 255
207 228 255
207 228 255
208 228 255
208 228 255
208 228 255
208 228 255
208 228 255
208 228 255
208 228 255
208 228 255
208 228 255
208 228 255
208 228 255
208 228 255
208 228 255
208 228 255
208 228 255
208 228 255
208 228 255
208 228 255
208 228 255
208 228 255
208 228 255
209 228 255
209 228 255
209 229 255
209 229 255
180 196 212
151 154 128
141 139 93
139 136 90
136 134 89
142 140 93
137 136 92
141 140 94
144 142 96
144 143 97
147 145 97
130 128 86
154 151 101
153 152 102
140 139 93
136 135 91
143 142 95
149 148 100
148 146 98
143 143 96
151 149 100
148 147 99
145 144 97
152 152 103
150 149 100
152 151 101
152 151 101
149 148 100
153 151 101
148 146 98
152 150 101
149 147 98
156 155 104
153 151 102
159 157 104
155 153 102
155 153 103
148 146 98
152 150 101
159 157 104
160 158 106
157 155 103
157 154 103
152 150 101
158 155 104
157 154 103
151 149 99
155 153 102
157 154 103
158 155 104
159 156 103
157 155 103
157 155 103
157 154 103
162 159 106
150 148 99
155 153 101
156 154 103
156 154 102
155 153 102
154 152 101
152 150 99
159 156 103
152 150 100
155 152 101
159 156 103
145 143 93
152 148 98
156 154 101
160 157 103
164 161 104
150 147 96
152 149 97
154 151 99
155 152 99
159 155 100
154 151 99
156 153 102
150 147 97
158 156 103
157 153 100
154 151 97
141 139 90
154 150 95
149 146 96
150 146 93
158 155 101
157 154 100
150 147 95
159 155 101
147 144 90
152 149 97
151 147 93
147 143 93
150 146 94
156 151 96
149 144 92
153 149 95
152 149 95
139 135 87
145 140 89
150 146 95
151 148 95
151 148 93
147 142 91
146 143 93
140 136 88
146 143 93
143 139 90
153 148 94
140 136 85
140 137 84
149 144 90
147 143 89
149 146 93
135 131 81
207 228 255
207 228 255
207 228 255
205 226 253
206 227 255
206 227 255
204 226 255
205 227 255
204 226 255
203 226 255
204 226 255
203 225 255
202 225 255
201 225 255
202 225 255
201 224 255
200 224 255
201 224 255
200 224 255
200 224 255
199 223 255
199 223 255
198 223 255
198 223 255
198 223 255
197 222 255
197 222 255
196 222 255
196 222 255
195 221 255
195 221 255
195 221 255
195 221 255
194 221 255
194 221 255
193 220 255
193 220 255
193 220 255
192 220 255
192 220 255
191 219 255
191 219 255
191 219 255
190 219 255
190 219 255
190 218 255
189 218 255
189 218 255
189 217 254
189 218 253
191 219 252
192 219 250
192 218 248
197 222 254
196 221 246
197 222 249
193 219 248
195 220 246
195 221 252
195 221 249
196 221 252
197 222 250
194 220 249
196 221 249
197 222 249
195 220 249
195 220 246
195 220 242
195 221 252
196 221 249
194 220 248
194 221 253
192 219 245
194 220 248
195 221 252
193 220 249
194 220 250
192 219 246
192 219 246
190 218 252
188 218 254
188 217 253
187 217 253
185 216 255
183 215 255
184 215 255
184 215 255
184 215 255
184 215 255
185 216 255
185 216 255
186 216 255
185 216 255
186 216 255
186 217 255
187 217 255
187 217 255
188 217 255
189 218 255
189 218 255
190 218 255
190 219 255
191 219 255
192 220 255
193 220 255
194 221 255
195 221 255
197 222 255
198 223 255
200 224 255
200 224 254
202 225 255
203 226 255
204 226 255
205 226 249
207 227 253
209 229 255
209 229 254
209 229 255
209 229 255
209 229 255
209 229 255
209 229 255
209 228 255
208 228 255
208 228 255
208 228 255
208 228 255
208 228 255
208 228 255
208 228 255
208 228 255
208 228 255
208 228 255
208 228 255
208 228 255
208 228 255
208 228 255
208 228 255
208 228 255
208 228 255
208 228 255
208 228 255
208 228 255
208 228 255
208 228 255
207 228 255
207 228 255
207 228 255
207 228 255
207 228 255
207 228 255
207 228 255
207 228 255
207 228 255
207 228 255
207 228 255
207 228 255
207 228 255
207 228 255
207 228 255
207 228 255
207 228 255
207 228 255
207 228 255
207 228 255
207 228 255
207 227 255
207 227 255
207 227 255
207 227 255
207 227 255
207 227 255
207 227 255
207 227 255
206 227 255
206 227 255
206 227 255
206 227 255
206 227 255
184 206 239
141 164 212
73 107 178
62 99 175
62 99 174
63 100 179
63 99 176
62 99 175
62 99 173
62 99 177
62 99 174
62 99 177
62 98 171
62 99 174
61 98 170
62 99 176
62 99 174
61 98 174
61 98 174
63 99 172
62 98 169
62 98 170
62 98 170
62 99 175
61 97 165
62 99 175
62 99 171
62 98 175
62 99 173
63 99 170
63 99 174
61 98 170
61 98 170
62 99 173
61 98 173
63 99 176
62 98 173
67 102 177
123 148 202
181 203 238
206 227 255
206 227 255
206 227 255
206 227 255
207 227 255
207 227 255
207 227 255
207 227 255
207 227 255
207 227 255
207 227 255
207 227 255
207 227 255
207 228 255
207 228 255
207 228 255
207 228 255
207 228 255
207 228 255
207 228 255
207 228 255
207 228 255
207 228 255
207 228 255
207 228 255
207 228 255
207 228 255
207 228 255
207 228 255
207 228 255
207 228 255
207 228 255
207 228 255
207 228 255
208 228 255
208 228 255
208 228 255
208 228 255
208 228 255
208 228 255
208 228 255
208 228 255
208 228 255
208 228 255
208 228 255
208 228 255
208 228 255
208 228 255
208 228 255
208 228 255
208 228 255
208 228 255
208 228 255
208 228 255
208 228 255
208 228 255
209 228 255
209 229 255
209 229 255
209 229 255
209 229 255
209 229 255
199 216 237
161 168 162
130 128 84
134 132 87
125 123 82
131 129 87
139 138 93
134 133 89
148 146 98
147 145 97
144 143 96
140 139 93
141 141 96
144 143 96
150 149 100
150 148 100
146 145 98
148 148 100
144 143 96
145 144 97
151 149 100
142 141 95
149 147 99
151 150 101
158 155 103
146 144 97
143 142 96
146 145 98
152 150 100
154 152 102
150 148 99
152 151 101
153 151 102
154 152 102
153 151 101
158 156 104
153 152 102
152 150 101
157 156 104
155 153 103
146 144 96
159 157 104
156 154 103
152 150 100
153 150 100
152 150 100
154 152 101
158 155 103
156 154 103
155 154 103
152 149 99
161 158 104
148 146 97
152 150 99
150 147 97
157 155 103
157 155 103
162 158 104
153 150 100
149 146 97
151 148 97
164 161 106
162 158 105
156 153 101
159 155 103
155 152 100
150 148 97
150 148 97
158 153 101
152 149 99
154 151 99
158 155 102
159 155 101
155 152 99
161 156 103
160 155 101
148 144 93
148 143 91
160 156 103
156 153 99
161 157 102
155 151 98
160 157 102
152 149 98
154 151 98
154 150 95
149 145 95
159 154 98
152 147 95
155 151 97
146 143 94
151 146 93
161 158 104
154 150 97
157 152 98
149 146 94
157 155 101
155 150 98
148 144 94
151 147 95
151 148 94
150 146 94
148 145 93
161 157 101
148 144 92
141 137 87
150 146 95
140 136 87
149 145 92
152 148 93
144 139 88
146 141 90
146 142 89
152 147 95
142 139 87
149 145 93
142 139 89
142 138 86
207 228 255
207 228 255
206 227 255
206 227 255
206 227 255
205 227 255
204 226 255
204 226 255
204 226 255
203 225 255
203 226 255
202 225 255
202 225 255
202 225 255
201 225 255
201 224 255
201 224 255
200 224 255
200 224 255
199 223 255
199 223 255
198 223 255
198 223 255
198 223 255
197 222 255
197 222 255
196 222 255
196 222 255
196 222 255
195 221 255
195 221 255
194 221 255
194 221 255
194 221 255
193 220 255
193 220 255
192 220 255
192 220 255
192 219 255
191 219 255
191 219 255
191 219 255
191 219 255
191 219 255
193 220 254
195 220 248
195 221 250
197 222 249
195 220 240
198 222 252
197 222 253
197 222 252
197 222 250
196 221 242
196 221 248
198 222 250
199 223 252
196 221 248
196 221 250
196 221 246
196 221 249
197 222 252
197 222 249
198 222 250
196 221 245
197 222 252
195 220 245
195 221 249
195 220 242
197 222 252
196 221 248
195 220 246
195 220 245
195 220 240
194 220 242
194 220 244
195 221 252
193 218 238
196 221 249
194 220 249
195 220 250
197 222 249
195 221 250
193 220 249
195 221 253
191 218 246
189 218 252
187 216 248
185 216 253
184 215 255
184 215 255
184 215 255
184 216 255
184 216 255
185 216 255
185 216 255
186 216 255
187 217 255
187 217 255
188 217 255
188 218 255
189 218 255
190 218 255
190 219 255
191 219 255
192 220 255
193 220 255
195 221 255
196 222 255
197 222 255
198 223 255
200 224 255
201 224 255
202 225 255
204 226 254
206 227 254
206 227 253
208 228 254
209 229 255
209 229 255
209 229 255
209 229 255
209 229 255
209 229 255
209 229 255
209 229 255
209 229 255
209 229 255
209 228 255
209 228 255
208 228 255
208 228 255
208 228 255
208 228 255
208 228 255
208 228 255
208 228 255
208 228 255
208 228 255
208 228 255
208 228 255
208 228 255
208 228 255
208 228 255
208 228 255
208 228 255
208 228 255
208 228 255
208 228 255
208 228 255
208 228 255
208 228 255
208 228 255
207 228 255
207 228 255
207 228 255
207 228 255
207 228 255
207 228 255
207 228 255
207 228 255
207 228 255
207 228 255
207 228 255
207 228 255
207 228 255
207 228 255
207 228 255
207 228 255
207 228 255
207 228 255
207 228 255
207 228 255
207 228 255
207 228 255
207 228 255
207 227 255
205 226 254
172 193 233
104 131 192
63 99 177
62 99 176
62 99 174
62 99 173
62 99 177
63 100 177
62 98 172
61 98 172
62 99 174
62 99 171
62 99 172
63 99 172
62 98 170
63 100 178
62 98 169
62 98 168
63 99 171
62 98 172
62 99 171
62 99 172
63 99 171
62 98 171
63 99 172
62 99 169
62 99 172
62 99 175
62 98 170
62 98 173
62 98 165
62 99 174
63 99 176
62 98 171
63 99 174
61 98 174
62 99 174
62 98 171
62 99 176
62 98 174
62 98 176
62 98 176
98 126 187
169 191 231
205 226 254
207 227 255
207 228 255
207 228 255
207 228 255
207 228 255
207 228 255
207 228 255
207 228 255
207 228 255
207 228 255
207 228 255
207 228 255
207 228 255
207 228 255
207 228 255
207 228 255
207 228 255
207 228 255
207 228 255
207 228 255
207 228 255
207 228 255
207 228 255
207 228 255
208 228 255
208 228 255
208 228 255
208 228 255
208 228 255
208 228 255
208 228 255
208 228 255
208 228 255
208 228 255
208 228 255
208 228 255
208 228 255
208 228 255
208 228 255
208 228 255
208 228 255
208 228 255
208 228 255
208 228 255
208 228 255
208 228 255
208 228 255
209 228 255
209 228 255
209 229 255
209 229 255
209 229 255
209 229 255
209 229 255
209 229 255
209 229 255
209 229 255
208 227 253
179 193 207
140 141 112
134 132 88
141 138 92
139 138 93
134 133 90
136 134 90
135 135 91
141 139 93
135 134 90
144 142 94
140 139 94
145 144 98
138 136 91
144 142 96
150 148 99
148 147 99
153 151 101
152 150 101
142 140 94
146 145 98
156 154 103
152 151 101
152 150 100
150 149 100
156 154 103
153 151 102
152 150 101
152 150 101
154 152 101
155 153 103
156 155 104
160 157 105
148 147 98
155 152 102
149 148 99
158 156 104
160 157 104
155 153 102
151 150 101
158 157 105
155 153 103
157 154 103
146 144 96
155 153 102
152 148 99
156 154 103
162 160 107
155 153 102
157 155 103
154 151 100
159 156 104
162 159 106
160 158 104
162 159 106
154 151 100
165 161 106
156 153 102
160 156 101
160 157 103
162 159 105
154 151 99
162 160 106
168 164 108
163 159 104
161 157 103
153 150 98
161 157 103
164 161 106
156 153 102
147 145 96
163 159 104
158 154 100
156 153 100
154 151 99
158 155 102
158 154 101
155 151 99
158 155 102
157 153 101
157 153 97
159 156 103
150 147 95
149 145 93
153 149 97
147 145 94
159 155 99
148 145 95
153 149 95
165 160 103
161 157 102
152 147 95
151 147 95
148 145 95
152 148 97
154 151 98
152 149 97
150 146 95
147 143 88
153 150 97
156 152 99
143 140 91
145 142 93
155 150 95
145 140 90
156 152 97
152 147 94
148 144 90
151 147 95
147 143 90
147 143 90
153 149 94
141 138 87
147 143 93
147 143 90
137 134 87
144 139 83
141 136 86
138 133 87
206 227 255
206 227 255
206 227 255
205 227 255
205 227 255
205 227 255
204 226 255
204 226 255
203 225 255
203 226 255
202 225 255
202 225 255
202 225 255
201 225 255
201 224 255
201 224 255
200 224 255
200 224 255
199 223 255
199 223 255
199 223 255
198 223 255
198 223 255
197 222 255
197 222 255
197 222 255
196 222 255
196 221 255
195 221 255
195 221 255
195 221 255
194 221 255
194 221 255
194 220 255
193 220 255
193 220 255
192 220 255
192 220 255
192 220 255
192 219 253
195 221 253
195 221 254
196 221 248
198 222 248
197 221 246
198 222 249
199 223 250
200 224 254
197 222 248
198 222 248
197 221 248
198 222 250
199 223 249
199 223 253
199 223 250
198 222 249
196 221 245
196 220 242
198 222 250
198 222 246
197 221 248
195 220 244
197 222 248
196 221 242
196 220 244
198 222 250
198 222 250
197 221 242
198 222 245
198 223 252
195 220 242
197 221 246
198 222 248
197 221 246
195 221 246
195 221 246
197 221 244
195 221 246
195 220 246
196 221 249
196 221 246
195 220 246
194 220 249
195 221 252
195 220 248
196 221 249
194 220 250
194 220 244
193 219 246
192 219 246
191 219 250
188 217 254
185 216 252
184 216 255
184 215 255
185 216 255
185 216 255
185 216 255
186 216 255
186 217 255
187 217 255
187 217 255
188 218 255
189 218 255
190 219 255
190 219 255
191 219 255
192 220 255
194 221 255
195 221 255
196 221 255
197 222 255
198 223 255
200 224 255
202 225 255
202 225 253
205 227 255
206 227 254
207 227 252
210 229 255
210 229 255
209 229 255
209 229 255
209 229 255
209 229 255
209 229 255
209 229 255
209 229 255
209 229 255
209 229 255
209 229 255
209 229 255
209 229 255
209 229 255
209 228 255
208 228 255
208 228 255
208 228 255
208 228 255
208 228 255
208 228 255
208 228 255
208 228 255
208 228 255
208 228 255
208 228 255
208 228 255
208 228 255
208 228 255
208 228 255
208 228 255
208 228 255
208 228 255
208 228 255
208 228 255
208 228 255
208 228 255
208 228 255
208 228 255
208 228 255
207 228 255
207 228 255
207 228 255
207 228 255
207 228 255
207 228 255
207 228 255
207 228 255
207 228 255
207 228 255
207 228 255
207 228 255
207 228 255
207 228 255
207 228 255
207 228 255
164 186 226
93 122 188
62 99 172
62 99 172
62 99 174
62 99 171
62 99 175
62 99 173
62 99 170
62 99 169
62 99 170
62 98 169
62 98 164
63 100 175
62 98 171
62 98 165
62 99 174
62 99 172
61 98 167
62 98 172
62 99 166
63 99 176
61 98 173
63 99 170
62 98 168
62 99 170
62 98 170
63 99 173
62 99 174
62 99 171
62 98 166
62 99 173
62 99 173
62 97 169
62 98 166
62 98 171
62 98 167
62 99 176
62 99 175
62 99 174
61 97 170
63 99 173
62 99 175
62 99 173
62 99 175
60 96 168
92 121 188
175 197 233
207 228 255
207 228 255
207 228 255
207 228 255
207 228 255
207 228 255
207 228 255
207 228 255
207 228 255
207 228 255
207 228 255
207 228 255
207 228 255
207 228 255
207 228 255
207 228 255
208 228 255
208 228 255
208 228 255
208 228 255
208 228 255
208 228 255
208 228 255
208 228 255
208 228 255
208 228 255
208 228 255
208 228 255
208 228 255
208 228 255
208 228 255
208 228 255
208 228 255
208 228 255
208 228 255
208 228 255
208 228 255
208 228 255
208 228 255
208 228 255
208 228 255
209 228 255
209 229 255
209 229 255
209 229 255
209 229 255
209 229 255
209 229 255
209 229 255
209 229 255
209 229 255
209 229 255
209 229 255
209 229 255
209 229 255
197 214 234
154 155 128
135 133 89
128 127 84
131 129 87
137 135 90
139 137 92
139 138 93
147 146 98
142 141 95
142 141 95
146 145 97
137 135 91
143 142 96
138 137 92
142 141 95
139 138 93
150 149 100
148 148 100
153 150 100
157 156 105
146 145 98
150 148 99
159 157 104
144 142 95
149 148 100
155 153 102
155 153 103
154 152 101
157 155 104
153 152 102
156 154 103
156 155 103
150 148 99
157 155 104
162 159 106
155 152 101
157 155 103
158 156 104
153 151 101
153 150 100
158 156 104
152 150 101
156 153 101
161 158 106
157 155 103
158 156 104
158 156 104
153 151 101
163 160 106
161 158 106
161 158 104
156 154 103
158 155 103
166 162 106
159 156 104
158 156 103
147 143 95
154 150 99
154 151 101
159 156 104
159 156 103
159 155 102
159 156 104
149 147 96
157 153 101
162 157 104
156 153 101
165 161 107
158 154 101
155 151 99
155 152 99
157 154 100
159 156 103
159 155 102
156 152 99
160 156 101
146 144 94
152 149 98
154 150 98
154 149 97
160 155 101
156 152 99
157 154 99
151 148 98
152 149 95
155 152 99
162 159 103
147 143 93
150 146 95
161 157 101
152 149 95
156 153 98
149 145 92
152 148 97
154 150 99
147 144 90
153 148 95
160 155 100
152 148 95
154 151 99
148 144 93
159 154 97
147 143 88
152 148 96
153 148 95
152 148 93
162 156 97
146 142 88
145 142 90
148 144 90
151 147 95
141 137 88
146 140 90
137 132 84
143 139 87
149 144 93
144 141 88
143 139 87
143 139 87
153 149 95
205 227 255
206 227 255
205 227 255
205 227 255
205 226 255
204 226 255
204 226 255
203 226 255
204 226 255
203 225 255
202 225 255
202 225 255
201 225 255
201 224 255
200 224 255
200 224 255
200 224 255
199 223 255
199 223 255
198 223 255
198 223 255
198 223 255
197 222 255
197 222 255
196 222 255
196 222 255
196 222 255
195 221 255
195 221 255
195 221 255
194 221 255
194 221 255
194 221 255
193 220 255
193 220 255
193 220 255
195 221 252
196 221 252
198 223 254
200 223 252
199 223 250
200 223 250
197 221 241
199 223 250
198 222 248
199 223 246
199 222 245
199 223 250
196 220 238
199 223 252
198 222 248
198 222 248
198 222 246
199 223 248
200 223 249
198 222 248
199 222 245
198 222 244
199 222 246
198 222 244
199 222 245
199 223 249
198 222 250
199 223 249
199 223 252
198 222 252
198 222 246
200 223 250
197 221 246
197 221 246
197 221 245
196 221 246
198 222 248
197 222 250
198 222 248
199 223 253
197 222 252
197 221 249
200 224 250
197 222 253
197 222 250
195 221 249
196 220 246
195 220 241
195 220 242
196 221 248
194 220 246
195 221 249
195 220 246
194 220 249
194 219 245
194 220 250
193 219 246
193 220 250
192 220 254
188 217 254
185 216 255
184 216 255
185 216 255
185 216 255
186 216 255
186 217 255
187 217 255
188 217 255
188 218 255
189 218 255
190 218 255
190 219 255
191 219 255
192 220 255
194 220 255
194 221 255
197 222 255
197 222 255
199 223 255
201 224 255
202 225 255
204 226 255
205 227 254
206 227 254
207 227 254
210 229 255
209 229 255
209 229 255
209 229 255
209 229 255
209 229 255
209 229 255
209 229 255
209 229 255
209 229 255
209 229 255
209 229 255
209 229 255
209 229 255
209 229 255
209 229 255
209 229 255
209 229 255
209 228 255
209 228 255
208 228 255
208 228 255
208 228 255
208 228 255
208 228 255
208 228 255
208 228 255
208 228 255
208 228 255
208 228 255
208 228 255
208 228 255
208 228 255
208 228 255
208 228 255
208 228 255
208 228 255
208 228 255
208 228 255
208 228 255
208 228 255
208 228 255
208 228 255
208 228 255
208 228 255
208 228 255
208 228 255
207 228 255
207 228 255
207 228 255
207 228 255
207 228 255
207 228 255
179 200 235
88 118 183
63 99 175
62 99 169
62 99 171
62 99 171
62 99 174
63 99 170
62 98 168
62 99 174
62 98 172
63 99 166
62 98 169
62 99 171
62 99 171
62 99 171
62 99 173
62 98 168
62 99 173
62 99 169
62 99 170
63 100 172
62 99 174
64 100 172
63 100 172
62 98 167
62 99 168
63 99 173
61 98 167
62 98 166
61 98 167
61 98 170
62 99 171
62 99 171
62 98 170
62 99 169
62 99 172
62 98 167
62 98 167
62 98 171
61 98 166
62 99 173
62 98 170
61 98 169
62 99 172
62 98 172
62 98 170
62 98 173
62 98 174
62 98 173
98 126 190
173 195 231
207 228 255
207 228 255
207 228 255
207 228 255
207 228 255
208 228 255
208 228 255
208 228 255
208 228 255
208 228 255
208 228 255
208 228 255
208 228 255
208 228 255
208 228 255
208 228 255
208 228 255
208 228 255
208 228 255
208 228 255
208 228 255
208 228 255
208 228 255
208 228 255
208 228 255
208 228 255
208 228 255
208 228 255
208 228 255
208 228 255
208 228 255
208 228 255
208 228 255
209 228 255
209 228 255
209 229 255
209 229 255
209 229 255
209 229 255
209 229 255
209 229 255
209 229 255
209 229 255
209 229 255
209 229 255
209 229 255
209 229 255
209 229 255
209 229 255
209 229 255
209 229 255
205 224 250
177 188 193
132 129 85
138 135 90
143 141 94
135 134 90
133 132 89
130 128 86
132 132 89
146 145 97
137 136 91
143 143 96
143 142 96
142 141 95
146 145 98
140 140 95
138 137 93
143 143 96
138 137 91
153 151 101
143 142 96
148 147 99
150 149 100
152 151 101
157 156 105
154 152 102
150 149 100
153 152 102
155 153 103
142 140 94
155 153 103
153 151 101
158 156 104
155 152 102
156 154 103
159 157 105
154 153 103
158 156 104
164 162 108
152 150 101
164 161 107
159 156 104
154 151 101
156 154 103
153 150 100
162 159 106
161 159 106
157 155 104
159 157 104
158 155 102
156 153 102
156 153 103
159 155 103
156 153 101
161 158 104
162 158 104
163 160 106
166 163 108
167 162 108
158 155 102
160 157 104
159 156 103
155 153 101
164 160 105
156 153 101
163 161 106
160 157 104
161 158 105
160 157 103
151 148 97
160 156 103
154 150 98
155 152 100
157 154 102
156 153 99
155 152 99
165 162 107
157 153 99
162 159 103
157 153 101
157 154 101
165 161 106
156 152 99
151 148 96
160 157 102
161 157 101
151 147 96
152 150 96
160 156 102
156 152 96
157 153 101
153 149 96
156 152 99
154 150 98
161 156 100
154 149 95
157 152 99
148 144 92
160 155 101
157 153 97
147 144 94
155 149 93
151 147 95
150 146 91
152 149 95
150 145 91
152 147 93
146 142 91
154 150 96
151 148 95
152 147 92
146 142 90
155 151 97
146 142 88
144 141 90
145 141 90
145 142 90
157 152 96
146 143 87
145 140 87
148 144 91
149 145 92
143 139 86
206 227 255
206 227 255
206 227 255
205 226 255
204 226 255
204 226 255
203 226 255
203 226 255
203 225 255
202 225 255
202 225 255
201 225 255
201 224 255
201 224 255
200 224 255
200 224 255
199 224 255
199 224 255
199 223 255
198 223 255
198 223 255
198 223 255
197 222 255
197 222 255
197 222 255
196 222 255
196 222 255
195 221 255
195 221 255
195 221 255
194 221 255
194 221 255
194 221 255
197 222 254
198 222 253
199 223 252
199 223 248
200 223 248
200 224 252
201 223 245
201 224 249
199 222 245
199 223 248
200 223 248
200 223 250
201 224 249
200 223 246
200 223 248
199 223 248
199 223 246
199 223 249
201 224 250
201 224 254
200 223 249
196 221 242
200 223 246
200 223 250
196 220 238
197 221 241
197 222 246
197 221 238
198 222 249
196 220 234
195 219 233
196 220 241
197 221 244
195 220 237
192 216 224
195 220 237
194 219 231
196 221 242
195 219 236
192 217 234
194 219 234
194 219 236
194 220 244
195 220 237
195 220 242
195 220 242
195 219 234
195 220 241
196 220 242
198 222 249
197 221 240
197 222 249
198 222 248
198 222 249
195 220 244
194 220 246
196 221 248
194 220 249
193 219 237
194 219 240
194 219 242
193 220 250
193 220 249
191 218 248
193 219 250
188 217 253
185 216 255
185 216 255
185 216 255
186 216 255
186 217 255
187 217 255
187 217 255
189 218 255
189 218 255
190 219 255
190 219 255
192 220 255
193 220 255
195 221 255
196 222 255
196 222 255
198 223 255
199 223 255
202 225 255
203 226 255
205 227 255
206 227 255
208 228 253
209 229 255
210 229 255
209 229 255
209 229 255
209 229 255
209 229 255
209 229 255
209 229 255
209 229 255
209 229 255
209 229 255
209 229 255
209 229 255
209 229 255
209 229 255
209 229 255
209 229 255
209 229 255
209 229 255
209 229 255
209 229 255
209 229 255
209 229 255
209 228 255
209 228 255
208 228 255
208 228 255
208 228 255
208 228 255
208 228 255
208 228 255
208 228 255
208 228 255
208 228 255
208 228 255
208 228 255
208 228 255
208 228 255
208 228 255
208 228 255
208 228 255
208 228 255
208 228 255
208 228 255
208 228 255
208 228 255
208 228 255
208 228 255
208 228 255
208 228 255
199 219 248
115 141 198
62 99 177
62 99 176
62 98 171
62 98 170
62 99 176
62 99 178
61 98 169
62 99 173
62 99 171
62 99 175
61 98 168
62 98 166
62 98 166
63 99 174
61 98 173
61 98 169
61 98 169
62 99 172
62 98 170
63 99 173
62 98 164
62 98 166
63 99 170
61 98 164
62 99 170
62 99 171
62 99 169
62 98 173
62 99 171
62 99 172
62 98 167
61 98 166
61 97 167
63 99 170
62 98 170
62 99 175
62 98 165
62 98 168
63 99 172
62 98 167
62 98 170
61 97 168
62 98 171
62 98 165
62 99 176
61 97 167
62 98 171
61 97 169
62 99 174
62 98 168
61 97 166
61 98 173
126 151 201
191 211 242
208 228 255
208 228 255
208 228 255
208 228 255
208 228 255
208 228 255
208 228 255
208 228 255
208 228 255
208 228 255
208 228 255
208 228 255
208 228 255
208 228 255
208 228 255
208 228 255
208 228 255
208 228 255
208 228 255
208 228 255
208 228 255
208 228 255
208 228 255
208 228 255
209 228 255
209 228 255
209 229 255
209 229 255
209 229 255
209 229 255
209 229 255
209 229 255
209 229 255
209 229 255
209 229 255
209 229 255
209 229 255
209 229 255
209 229 255
209 229 255
209 229 255
209 229 255
209 229 255
209 229 255
209 229 255
209 229 255
209 229 255
209 229 255
201 217 237
153 154 131
126 125 83
136 134 89
142 140 94
138 137 93
132 130 87
139 137 91
144 143 97
147 146 99
138 137 92
137 135 91
148 146 99
149 147 99
152 150 101
153 151 101
148 147 100
147 146 98
147 146 98
145 144 96
146 144 96
151 150 101
149 148 100
151 150 101
157 155 104
155 153 102
161 160 107
152 150 100
157 156 104
159 156 104
149 148 99
150 148 100
157 155 103
150 148 99
152 150 100
164 162 108
152 149 99
161 159 106
164 161 108
158 155 103
159 157 105
163 159 105
157 154 103
163 159 106
167 164 109
160 157 105
161 158 104
153 151 101
160 158 105
160 156 104
155 152 101
161 159 106
165 162 108
164 160 106
161 158 105
157 153 101
166 162 106
151 148 98
163 159 104
159 156 102
160 156 103
161 157 103
159 156 103
156 153 99
155 153 100
164 161 104
161 158 105
149 146 96
161 158 104
164 160 104
164 159 104
148 145 93
168 164 107
158 154 101
155 152 101
158 155 100
156 152 99
166 161 104
161 157 101
153 149 98
164 159 104
159 155 101
156 153 100
165 160 104
157 153 100
159 155 99
156 152 97
162 158 101
163 158 97
152 149 98
154 151 97
151 149 97
154 150 95
169 163 102
150 147 96
161 156 100
158 156 104
155 152 98
155 150 96
158 153 96
153 148 95
149 145 95
163 157 98
154 149 96
154 149 97
149 145 92
156 152 95
158 154 93
149 146 90
155 151 97
143 141 91
148 143 89
149 144 87
152 148 91
146 141 90
147 143 90
158 153 99
143 140 87
148 143 92
149 145 90
153 148 94
143 140 91
152 146 90
152 147 93
206 227 255
205 227 255
205 226 255
205 226 255
204 226 255
204 226 255
203 226 255
203 225 255
202 225 255
202 225 255
202 225 255
202 225 255
201 224 255
200 224 255
200 224 255
200 224 255
200 224 255
199 223 255
199 223 255
198 223 255
198 223 255
198 223 255
197 222 255
197 222 255
196 222 255
196 222 255
196 222 255
195 221 255
195 221 255
195 221 255
195 220 252
197 221 252
199 223 252
199 222 241
201 224 252
202 225 253
199 222 248
201 224 246
200 223 245
201 224 250
199 223 249
201 224 252
201 224 253
201 224 248
200 223 249
199 222 241
201 224 249
201 224 250
201 224 248
201 224 249
201 224 249
201 223 248
197 221 241
198 221 241
198 222 242
198 222 246
197 220 236
197 221 240
198 222 242
198 221 244
195 219 233
197 220 237
196 220 237
195 219 233
196 220 237
197 222 245
197 221 245
196 220 241
198 222 246
197 221 245
197 221 246
196 220 240
196 220 238
197 221 244
196 221 246
193 217 224
195 220 238
194 219 240
194 218 233
196 220 241
195 219 236
192 217 227
195 220 244
194 219 237
194 219 237
194 219 234
195 220 241
195 220 242
197 221 249
197 222 253
197 221 248
197 222 249
196 221 253
198 222 253
194 220 246
194 219 244
196 221 249
193 219 250
196 221 249
193 220 249
190 218 253
187 216 254
185 216 255
185 216 255
186 216 255
187 217 255
187 217 255
188 218 255
188 218 255
190 218 255
191 219 255
192 219 255
193 220 255
194 221 255
195 221 255
196 222 255
198 223 255
199 223 255
201 224 255
202 225 255
205 226 255
206 227 254
208 228 255
207 227 252
210 229 255
210 229 255
210 229 255
210 229 255
210 229 255
209 229 255
209 229 255
209 229 255
209 229 255
209 229 255
209 229 255
209 229 255
209 229 255
209 229 255
209 229 255
209 229 255
209 229 255
209 229 255
209 229 255
209 229 255
209 229 255
209 229 255
209 229 255
209 229 255
209 229 255
209 229 255
209 229 255
209 229 255
209 229 255
209 228 255
209 228 255
208 228 255
208 228 255
208 228 255
208 228 255
208 228 255
208 228 255
208 228 255
208 228 255
208 228 255
208 228 255
208 228 255
208 228 255
208 228 255
208 228 255
208 228 255
208 228 255
155 177 217
72 106 181
63 99 169
62 99 173
62 98 169
62 99 173
61 98 169
62 99 168
62 99 170
62 99 171
62 98 162
62 99 172
62 99 172
63 99 170
62 98 170
62 98 165
62 98 171
62 98 167
62 98 167
62 98 166
63 99 170
62 98 170
61 98 164
62 98 166
62 99 171
63 99 172
63 99 168
62 98 163
61 98 162
62 99 172
63 99 170
62 99 168
62 99 169
62 98 168
62 98 166
62 98 164
62 98 164
62 99 172
60 97 163
61 97 166
61 97 168
62 98 168
62 98 167
61 97 163
62 98 168
62 98 169
63 99 170
62 98 169
62 99 169
62 98 167
61 97 170
61 97 167
62 98 167
61 97 167
61 97 166
61 97 168
75 107 173
147 169 211
206 226 254
208 228 255
208 228 255
208 228 255
208 228 255
208 228 255
208 228 255
208 228 255
208 228 255
208 228 255
208 228 255
208 228 255
208 228 255
208 228 255
208 228 255
208 228 255
209 228 255
209 228 255
209 228 255
209 229 255
209 229 255
209 229 255
209 229 255
209 229 255
209 229 255
209 229 255
209 229 255
209 229 255
209 229 255
209 229 255
209 229 255
209 229 255
209 229 255
209 229 255
209 229 255
209 229 255
209 229 255
209 229 255
209 229 255
209 229 255
209 229 255
210 229 255
210 229 255
210 229 255
210 229 255
210 229 255
183 196 207
136 135 102
137 135 90
137 135 90
133 131 87
135 133 90
133 131 87
142 141 95
136 134 90
142 141 95
143 141 95
143 142 96
140 138 93
147 146 99
138 137 93
140 138 93
146 145 98
134 134 90
149 148 100
153 151 101
151 149 100
151 150 101
151 150 101
154 152 102
153 151 101
156 154 104
147 145 98
154 152 102
155 154 103
155 153 103
156 154 103
156 155 103
159 157 105
153 151 101
159 156 104
155 152 102
159 156 104
155 153 102
156 153 103
153 151 100
164 162 108
154 151 101
152 149 99
157 155 104
154 151 100
155 152 101
160 157 105
159 155 103
154 152 101
158 156 104
158 154 101
153 150 100
166 162 107
164 160 105
157 154 102
162 158 104
160 157 104
162 159 106
158 156 103
158 155 102
168 163 106
158 155 101
163 158 104
163 159 104
162 158 103
160 156 103
162 159 104
161 158 103
163 159 105
155 152 100
162 159 104
168 163 106
161 158 103
159 156 103
167 162 106
159 156 103
164 160 104
164 159 103
167 163 105
159 156 102
157 153 99
160 157 100
152 148 95
160 156 100
159 154 101
161 157 98
160 157 101
154 151 98
154 151 99
159 156 100
169 164 108
156 152 95
155 151 97
161 157 100
165 161 102
156 152 99
158 153 99
159 156 99
158 153 94
153 149 93
154 150 93
155 151 97
151 146 92
160 155 99
154 150 96
160 155 99
155 151 97
155 151 97
161 156 98
151 147 94
154 150 93
144 141 87
160 156 99
159 154 100
151 147 94
154 149 93
160 153 95
142 138 84
151 146 93
146 142 92
150 145 92
148 144 93
151 145 93
145 140 86
149 145 91
206 227 255
205 227 255
205 227 255
205 226 255
204 226 255
204 226 255
203 226 255
203 225 255
202 225 255
203 225 255
202 225 255
201 225 255
201 224 255
201 224 255
200 224 255
200 224 255
200 224 255
199 223 255
199 223 255
198 223 255
198 223 255
198 223 255
197 222 255
197 222 255
196 222 255
196 222 255
196 221 255
196 221 254
199 223 254
202 225 254
200 223 248
200 223 244
200 223 249
201 224 252
202 225 252
200 223 244
200 223 245
201 224 249
200 224 250
199 223 250
203 225 249
200 223 242
200 222 240
201 224 245
202 224 250
202 224 250
202 225 252
199 222 245
199 222 242
197 220 234
197 220 238
197 221 238
199 222 238
198 221 240
198 221 240
198 221 240
198 221 237
198 222 241
198 221 242
199 222 245
197 221 240
198 222 246
198 221 236
197 220 242
197 221 238
198 221 237
196 220 237
198 222 245
197 221 237
199 223 249
197 221 244
197 221 241
197 221 245
197 221 242
197 221 245
197 221 240
198 221 241
196 220 238
195 220 237
198 222 248
195 219 240
196 220 240
196 221 246
197 222 246
196 221 248
196 220 238
196 221 245
195 220 241
194 219 238
193 218 236
194 219 234
194 219 238
195 220 244
199 223 252
197 221 245
196 221 249
197 222 249
197 222 249
196 221 248
196 221 249
195 221 252
195 221 253
194 220 249
190 218 254
187 217 255
185 216 255
186 217 255
187 217 255
188 217 255
188 218 255
189 218 255
190 219 255
191 219 255
192 220 255
193 220 255
195 221 255
196 222 255
197 222 255
199 223 255
199 223 255
202 225 255
204 226 255
206 227 255
207 227 252
208 228 253
210 229 252
210 229 255
210 229 255
210 229 255
210 229 255
210 229 255
210 229 255
210 229 255
210 229 255
210 229 255
210 229 255
209 229 255
209 229 255
209 229 255
209 229 255
209 229 255
209 229 255
209 229 255
209 229 255
209 229 255
209 229 255
209 229 255
209 229 255
209 229 255
209 229 255
209 229 255
209 229 255
209 229 255
209 229 255
209 229 255
209 229 255
209 229 255
209 229 255
209 229 255
209 229 255
209 229 255
209 228 255
208 228 255
208 228 255
208 228 255
208 228 255
208 228 255
208 228 255
208 228 255
193 213 245
107 133 191
62 98 167
62 99 170
61 98 168
62 98 171
62 98 171
62 98 164
62 99 170
62 99 170
62 99 171
62 98 167
62 98 166
62 99 170
62 98 166
62 99 170
62 98 168
62 99 171
63 100 174
62 98 164
61 97 164
62 98 163
62 98 160
62 99 173
62 99 171
62 98 168
61 98 164
61 97 166
62 98 167
62 98 163
62 98 171
63 99 171
62 98 164
63 99 169
61 97 160
62 99 172
63 99 172
62 99 171
62 98 163
62 98 165
62 98 168
61 97 163
63 99 168
62 98 167
61 98 168
62 99 173
62 98 170
62 98 170
62 99 174
62 98 163
62 98 172
62 98 170
62 98 169
61 97 166
61 96 162
61 97 165
62 98 170
61 98 172
61 96 164
61 97 170
117 143 200
201 221 250
208 228 255
208 228 255
208 228 255
208 228 255
208 228 255
208 228 255
209 228 255
209 228 255
209 228 255
209 229 255
209 229 255
209 229 255
209 229 255
209 229 255
209 229 255
209 229 255
209 229 255
209 229 255
209 229 255
209 229 255
209 229 255
209 229 255
209 229 255
209 229 255
209 229 255
209 229 255
209 229 255
209 229 255
209 229 255
209 229 255
209 229 255
209 229 255
209 229 255
210 229 255
210 229 255
210 229 255
210 229 255
210 229 255
210 229 255
210 229 255
210 229 255
210 229 255
205 223 247
160 166 158
128 126 82
133 131 86
138 136 91
138 137 91
139 137 91
146 144 97
144 142 96
142 140 94
133 132 90
148 147 99
141 139 95
151 150 102
143 142 96
150 149 100
139 137 92
142 140 94
141 139 94
145 144 97
147 146 99
146 145 97
142 141 95
152 150 101
153 151 101
154 151 102
151 150 101
154 153 103
153 151 102
155 153 103
155 152 102
157 156 104
155 152 101
158 156 104
157 155 103
151 149 100
159 157 105
160 157 105
154 151 100
152 150 101
158 155 103
150 148 99
159 157 105
158 155 103
150 149 99
161 158 105
162 159 106
161 158 105
164 161 107
159 156 103
163 160 106
153 150 99
160 157 103
159 156 103
165 161 107
161 158 104
160 156 103
160 157 104
164 161 106
167 163 104
161 158 105
152 149 98
166 163 107
159 157 103
162 158 103
160 156 103
164 160 105
160 157 103
159 155 102
170 166 108
166 161 105
163 158 103
156 152 99
159 155 101
157 154 102
157 154 100
156 153 100
164 161 105
160 156 101
154 150 96
165 161 103
163 160 104
166 161 103
159 155 100
159 154 99
160 157 101
156 151 99
160 156 99
160 157 103
165 161 104
155 151 98
162 158 103
164 159 103
166 162 105
165 161 101
156 152 97
160 157 101
157 153 96
157 153 97
160 156 97
144 139 87
161 156 99
157 153 99
145 141 87
161 155 99
155 151 97
150 145 93
157 152 95
150 146 90
161 157 100
146 142 89
148 144 89
153 149 97
162 157 98
148 144 92
151 147 92
154 150 93
157 153 97
157 152 95
150 146 90
144 139 84
147 144 90
155 150 94
156 152 95
152 147 93
152 146 91
151 146 92
206 227 255
205 226 255
205 226 255
204 226 255
204 226 255
204 226 255
203 226 255
203 225 255
202 225 255
202 225 255
202 225 255
201 225 255
201 224 255
201 224 255
200 224 255
200 224 255
199 223 255
199 223 255
199 223 255
198 223 255
198 223 255
197 222 255
197 222 255
197 222 255
197 222 255
197 222 255
198 222 249
202 224 253
202 225 253
201 223 248
202 225 254
200 223 245
204 225 252
201 224 252
200 223 245
201 224 248
200 222 245
203 225 248
200 222 242
200 223 244
202 224 246
203 225 249
203 225 248
199 222 246
201 223 246
198 221 236
197 220 236
198 222 240
198 221 238
197 220 234
199 222 242
198 221 236
198 221 238
197 220 230
198 221 238
199 222 240
199 222 244
197 221 236
198 222 240
198 221 238
198 222 241
200 223 245
198 221 240
198 221 237
201 224 249
199 222 246
198 222 241
199 223 245
198 221 242
198 221 242
199 223 248
197 221 244
198 222 240
198 221 240
199 222 244
197 221 238
198 222 245
199 223 250
198 221 241
197 221 242
198 222 246
198 222 244
196 220 240
196 221 245
196 220 237
198 222 249
196 220 241
197 221 240
196 220 238
197 221 244
195 220 237
197 222 249
196 220 242
194 219 238
194 219 233
195 220 241
195 220 245
199 223 254
198 222 250
197 223 255
196 221 248
195 220 242
194 220 250
195 221 250
195 221 250
190 218 246
188 217 255
186 216 255
186 217 255
187 217 255
188 218 255
189 218 255
190 219 255
191 219 255
192 219 255
193 220 255
194 221 255
195 221 255
196 222 255
198 223 255
200 224 255
201 225 255
203 225 255
206 227 255
207 228 255
208 228 253
209 228 252
210 229 255
210 229 255
210 229 255
210 229 255
210 229 255
210 229 255
210 229 255
210 229 255
210 229 255
210 229 255
210 229 255
210 229 255
210 229 255
210 229 255
210 229 255
209 229 255
209 229 255
209 229 255
209 229 255
209 229 255
209 229 255
209 229 255
209 229 255
209 229 255
209 229 255
209 229 255
209 229 255
209 229 255
209 229 255
209 229 255
209 229 255
209 229 255
209 229 255
209 229 255
209 229 255
209 229 255
209 229 255
209 229 255
209 229 255
209 229 255
209 229 255
164 185 225
77 109 181
61 98 165
62 98 167
61 98 171
62 99 173
63 99 175
62 99 174
62 98 169
62 99 170
62 98 165
61 98 166
63 99 170
62 98 167
62 98 163
62 98 165
62 98 167
62 98 161
62 98 166
62 98 166
63 99 169
62 98 164
63 99 167
62 98 164
62 98 165
62 98 166
63 99 172
62 98 164
61 98 164
62 98 163
62 98 167
61 98 165
62 98 167
63 99 167
62 99 169
62 99 171
62 99 169
62 99 170
63 99 171
62 98 164
63 99 172
62 98 165
62 98 162
62 98 168
63 99 165
61 97 163
62 99 170
61 97 165
63 99 172
61 97 164
61 97 164
62 99 171
61 97 163
62 98 168
61 98 170
63 99 170
62 97 162
61 97 163
62 97 168
61 96 169
62 98 171
61 97 167
70 104 176
175 196 233
209 229 255
209 229 255
209 229 255
209 229 255
209 229 255
209 229 255
209 229 255
209 229 255
209 229 255
209 229 255
209 229 255
209 229 255
209 229 255
209 229 255
209 229 255
209 229 255
209 229 255
209 229 255
209 229 255
209 229 255
209 229 255
209 229 255
209 229 255
209 229 255
209 229 255
209 229 255
210 229 255
210 229 255
210 229 255
210 229 255
210 229 255
210 229 255
210 229 255
210 229 255
210 229 255
210 229 255
210 229 255
210 229 255
210 229 255
210 229 255
200 217 237
145 146 120
129 127 83
145 144 95
145 143 95
126 124 84
133 131 88
134 133 91
136 135 91
137 135 90
143 142 96
142 141 96
140 139 94
144 143 97
142 140 95
154 153 103
140 140 95
151 149 99
141 141 95
151 150 101
144 143 97
150 148 100
147 146 99
153 151 102
155 153 102
154 153 103
157 154 103
152 150 101
151 150 101
153 152 102
155 153 103
153 151 101
153 151 101
158 155 104
158 156 104
153 151 101
164 161 108
151 149 100
152 149 99
162 158 105
159 156 104
156 153 102
157 154 103
153 150 100
161 158 105
163 159 106
163 160 106
161 157 103
163 159 105
162 158 105
167 162 108
161 158 104
165 161 106
161 157 103
160 158 104
167 163 108
161 158 105
162 158 104
162 158 104
160 157 104
160 156 102
167 162 106
163 160 105
157 154 100
158 155 103
166 163 108
160 156 101
161 158 104
159 156 100
164 161 105
156 152 99
169 165 109
156 152 97
161 157 103
163 159 103
167 163 108
163 159 104
163 159 104
153 149 98
161 157 103
155 152 99
161 157 101
153 150 97
156 153 101
161 157 101
159 155 99
162 157 101
159 155 99
159 155 98
161 156 101
163 158 99
163 158 101
158 154 99
160 155 100
157 153 99
159 156 101
155 152 95
163 159 103
158 154 99
158 155 99
157 151 95
157 153 93
155 151 95
156 152 99
158 153 94
153 149 95
159 153 95
164 161 101
151 147 93
163 159 102
151 146 95
150 146 91
157 152 95
157 152 95
151 147 94
154 148 95
154 150 95
151 147 87
152 147 92
156 151 96
152 148 94
140 136 84
157 152 94
150 146 90
151 146 87
144 140 84
146 141 84
157 151 96
205 227 255
205 227 255
204 226 255
204 226 255
204 226 255
204 226 255
203 226 255
203 225 255
202 225 255
202 225 255
202 225 255
201 225 255
201 224 255
201 224 255
200 224 255
200 224 255
200 224 255
199 223 255
199 223 255
198 223 255
198 223 255
198 223 255
197 222 255
198 223 253
201 224 252
201 223 246
202 224 249
201 224 253
203 225 250
203 225 249
203 225 252
201 223 242
203 225 248
200 223 246
202 224 249
202 224 241
204 225 249
203 225 250
201 224 249
204 226 253
202 224 248
202 224 246
199 222 244
198 221 237
199 221 237
199 222 241
199 222 237
201 224 248
200 222 244
199 222 240
197 220 236
201 223 244
202 224 248
199 222 241
201 223 246
201 224 248
200 222 238
200 223 242
199 222 238
199 222 245
200 223 244
200 223 248
199 222 237
200 223 246
200 222 240
200 223 242
199 222 241
200 223 248
199 222 242
198 221 242
198 221 238
200 223 246
199 222 244
200 223 248
199 222 242
199 222 245
198 221 237
199 222 242
200 223 249
199 222 244
198 221 237
199 222 242
199 222 245
198 222 245
197 220 240
197 221 240
198 222 245
199 222 249
197 221 242
197 221 246
196 220 242
196 221 244
194 219 240
195 220 240
195 219 241
196 221 245
193 219 237
194 219 237
194 219 234
197 221 244
197 222 250
198 222 246
196 220 246
195 220 246
195 220 250
196 221 245
196 221 250
193 220 254
189 218 255
186 217 255
187 217 255
188 218 255
189 218 255
189 218 255
191 219 255
191 219 255
193 220 255
194 221 255
195 221 255
196 222 255
198 223 255
199 224 255
200 224 255
204 226 255
205 226 254
206 227 255
207 228 254
209 229 254
210 229 254
210 229 255
210 229 255
210 229 255
210 229 255
210 229 255
210 229 255
210 229 255
210 229 255
210 229 255
210 229 255
210 229 255
210 229 255
210 229 255
210 229 255
210 229 255
210 229 255
210 229 255
210 229 255
210 229 255
210 229 255
209 229 255
209 229 255
209 229 255
209 229 255
209 229 255
209 229 255
209 229 255
209 229 255
209 229 255
209 229 255
209 229 255
209 229 255
209 229 255
209 229 255
209 229 255
209 229 255
209 229 255
208 228 255
154 176 217
62 98 170
61 97 158
62 98 169
62 99 167
61 98 168
62 98 168
61 98 167
63 99 171
62 98 164
62 99 165
62 98 167
62 99 167
62 98 166
62 98 167
62 99 171
63 99 164
62 99 168
62 98 164
62 98 167
63 99 172
62 98 164
63 99 168
62 98 172
62 98 164
62 99 167
62 98 170
62 98 165
62 98 165
62 98 166
62 98 162
62 99 170
61 97 157
61 97 163
61 97 159
61 97 163
62 98 163
62 98 159
62 98 164
63 99 167
62 98 172
62 98 165
61 98 165
62 98 167
63 99 167
62 98 167
62 98 165
62 97 165
62 97 163
62 98 167
62 97 168
61 98 165
61 97 158
61 97 166
62 97 164
62 98 170
63 99 173
60 95 161
63 98 168
61 96 161
61 96 166
61 97 166
60 95 160
60 95 161
67 101 172
148 170 210
209 229 255
209 229 255
209 229 255
209 229 255
209 229 255
209 229 255
209 229 255
209 229 255
209 229 255
209 229 255
209 229 255
209 229 255
209 229 255
209 229 255
209 229 255
209 229 255
209 229 255
209 229 255
210 229 255
210 229 255
210 229 255
210 229 255
210 229 255
210 229 255
210 229 255
210 229 255
210 229 255
210 229 255
210 229 255
210 229 255
210 229 255
210 229 255
210 229 255
210 229 255
210 229 255
210 229 255
210 229 255
210 229 255
192 207 220
137 136 106
134 131 87
128 125 84
134 132 89
130 129 87
142 141 95
146 144 96
142 141 95
136 136 93
137 135 92
132 131 89
155 154 103
147 146 99
151 149 100
151 149 100
146 144 96
151 150 101
155 152 101
146 145 97
142 140 95
154 153 103
140 139 93
149 148 99
152 151 101
159 157 105
151 149 99
155 154 103
157 156 105
150 148 99
152 150 101
158 156 104
153 152 102
165 162 108
160 157 105
155 152 102
155 153 102
164 160 106
159 156 104
162 160 106
161 159 107
166 163 108
162 159 106
160 158 105
158 156 104
157 154 103
165 161 106
158 156 103
162 158 104
161 157 105
160 157 103
161 157 103
159 156 103
167 163 108
166 162 107
162 159 106
166 162 107
165 162 106
166 162 106
160 157 103
164 161 106
158 155 101
164 160 106
165 161 107
165 160 104
160 157 104
161 158 103
162 158 102
160 156 101
166 161 104
163 159 103
162 158 104
154 151 95
164 160 105
167 163 104
167 163 106
165 161 104
163 158 103
164 159 104
158 154 99
166 161 104
159 155 98
167 163 105
160 156 103
158 154 98
158 154 97
162 157 98
168 162 103
163 158 101
158 154 99
162 157 97
162 157 99
162 157 97
160 156 99
158 155 101
156 152 97
161 156 97
158 153 96
159 154 101
158 154 97
162 157 103
161 155 97
154 149 95
164 159 102
145 141 89
155 150 94
155 151 97
156 153 94
152 148 93
159 153 96
153 148 95
155 150 95
151 147 97
159 154 97
160 155 98
160 155 97
150 146 90
154 150 95
151 145 90
161 156 97
150 145 91
153 149 93
157 153 98
155 150 90
161 156 97
153 149 94
153 149 92
152 148 93
138 135 82
205 227 255
205 227 255
205 226 255
204 226 255
204 226 255
203 226 255
203 226 255
202 225 255
202 225 255
202 225 255
202 225 255
201 225 255
201 224 255
201 224 255
200 224 255
200 224 255
200 224 255
199 223 255
199 223 255
199 223 255
198 223 255
199 223 254
200 223 248
202 224 252
203 225 252
203 225 252
203 225 252
204 226 252
202 224 250
202 224 245
204 225 250
201 224 248
202 224 246
202 224 248
202 224 250
203 225 246
204 226 250
203 224 246
202 224 245
201 223 240
198 220 230
200 222 240
201 223 246
199 222 237
200 223 240
200 222 237
201 224 246
202 224 248
201 223 238
201 224 246
201 224 246
201 223 245
200 222 241
201 223 242
201 224 246
201 223 244
201 223 242
201 223 242
201 223 242
201 223 245
202 224 252
200 223 246
201 224 246
198 220 237
201 223 248
200 223 245
202 225 249
201 223 248
200 223 242
200 222 244
201 223 249
197 220 236
201 223 244
202 225 254
201 223 249
199 222 242
200 223 242
199 222 242
202 225 252
200 223 245
198 222 242
200 223 248
200 223 242
200 223 246
200 223 248
199 222 246
198 222 248
199 222 246
199 222 242
197 221 242
196 220 237
198 222 244
198 222 246
198 222 246
196 220 244
196 220 241
195 220 236
197 220 240
195 220 242
194 219 236
196 220 242
196 221 242
197 221 244
198 223 254
197 221 246
195 221 250
196 221 245
196 221 252
195 221 250
193 219 245
189 218 254
187 217 255
188 217 255
189 218 255
190 218 255
190 219 255
192 219 255
192 220 255
194 221 255
195 221 255
196 222 255
197 222 255
199 224 255
201 224 255
203 225 255
205 226 255
206 227 255
207 227 252
210 229 254
210 229 255
210 230 255
210 230 255
210 230 255
210 229 255
210 229 255
210 229 255
210 229 255
210 229 255
210 229 255
210 229 255
210 229 255
210 229 255
210 229 255
210 229 255
210 229 255
210 229 255
210 229 255
210 229 255
210 229 255
210 229 255
210 229 255
210 229 255
210 229 255
210 229 255
210 229 255
210 229 255
210 229 255
209 229 255
209 229 255
209 229 255
209 229 255
209 229 255
209 229 255
209 229 255
209 229 255
207 227 254
127 152 200
62 98 170
62 98 171
63 99 166
62 98 170
62 98 167
62 98 165
62 98 167
62 99 171
62 99 167
62 98 161
62 99 171
61 98 165
63 99 166
61 97 158
62 98 165
62 98 164
61 98 164
62 98 161
62 98 164
63 99 168
62 98 156
62 98 163
61 98 165
62 99 165
62 98 164
62 98 169
62 98 163
63 99 168
62 98 165
62 98 162
62 98 165
61 97 161
61 97 158
62 98 162
62 98 164
61 96 155
62 98 167
62 98 161
63 99 170
62 98 163
62 98 167
61 97 164
62 98 162
62 98 166
61 97 159
61 98 161
62 97 158
62 98 167
62 98 166
61 97 162
62 98 172
61 97 159
62 98 163
62 97 163
62 98 168
62 99 170
61 98 168
60 96 161
61 97 165
62 97 166
62 98 170
61 96 166
61 97 166
61 96 167
61 96 163
60 96 170
130 153 198
208 228 255
209 229 255
209 229 255
209 229 255
209 229 255
209 229 255
209 229 255
209 229 255
209 229 255
210 229 255
210 229 255
210 229 255
210 229 255
210 229 255
210 229 255
210 229 255
210 229 255
210 229 255
210 229 255
210 229 255
210 229 255
210 229 255
210 229 255
210 229 255
210 229 255
210 229 255
210 229 255
210 229 255
210 229 255
210 229 255
210 229 255
210 229 255
210 229 255
210 230 255
210 230 255
210 230 255
196 208 216
133 131 91
129 126 84
132 130 86
149 147 98
140 138 93
140 139 94
133 132 91
134 133 91
138 136 92
141 140 95
144 142 95
143 141 95
142 140 95
147 146 99
145 144 97
147 145 97
147 145 98
141 140 95
142 141 95
143 141 95
153 151 101
147 146 98
145 144 97
154 152 102
154 152 102
152 152 103
161 159 107
163 159 105
161 158 106
154 152 102
164 161 107
158 155 103
160 158 105
153 151 101
164 161 107
154 152 101
159 156 103
160 157 104
158 155 103
159 157 103
159 156 103
156 154 101
164 160 106
159 156 103
165 162 107
160 158 104
166 163 107
166 162 108
165 161 106
161 158 104
165 162 107
164 160 106
165 162 107
166 162 107
163 159 105
167 164 108
168 164 108
166 162 106
171 168 110
169 163 106
170 166 108
165 161 105
163 159 105
164 161 107
166 163 107
167 163 107
165 162 105
167 162 104
165 161 105
165 161 104
156 152 97
166 161 103
168 163 106
164 160 103
163 159 101
164 160 104
163 159 102
161 157 101
164 161 103
164 160 103
165 160 104
170 165 106
166 162 105
164 159 103
164 160 102
160 156 102
163 158 101
161 157 100
156 152 94
162 158 101
166 162 101
166 160 101
159 154 100
158 155 97
158 154 97
166 161 104
155 152 96
162 158 101
160 156 99
153 149 93
160 155 96
155 151 95
151 147 91
157 152 93
162 158 101
157 153 99
161 156 97
151 147 92
158 153 99
151 146 92
148 143 87
157 153 93
157 152 98
159 155 97
146 142 89
153 149 95
165 160 101
159 153 95
152 148 90
152 147 92
158 153 96
158 153 97
152 147 90
153 148 91
157 152 96
157 152 92
148 144 90
154 149 93
154 148 88
205 227 255
205 226 255
204 226 255
204 226 255
204 226 255
204 226 255
203 225 255
203 225 255
202 225 255
202 225 255
202 225 255
201 225 255
201 224 255
201 224 255
200 224 255
200 224 255
200 224 255
199 223 255
199 223 255
200 224 255
201 224 250
204 225 248
203 225 252
203 225 250
204 225 250
204 225 252
204 226 252
203 225 249
205 226 250
205 226 249
205 226 252
204 225 248
203 225 248
205 226 252
204 226 255
205 226 253
202 224 248
202 224 245
201 223 238
200 223 244
202 224 246
201 223 241
200 222 240
201 223 242
202 224 244
202 224 246
202 224 245
199 221 231
202 224 241
202 224 248
202 224 244
203 225 249
202 224 242
200 222 238
203 224 244
203 225 249
202 224 248
202 224 246
201 223 242
203 225 248
203 225 248
199 222 236
201 223 242
201 223 241
201 223 237
201 224 245
200 222 242
200 223 240
201 223 245
202 225 250
202 224 248
203 225 250
200 223 249
203 225 246
200 223 242
202 224 248
199 222 242
201 224 246
201 224 249
201 224 248
200 222 240
200 223 248
200 223 248
201 224 248
200 223 249
199 222 241
200 223 245
201 224 250
200 223 245
199 222 245
199 222 246
199 223 252
199 222 245
199 222 248
197 221 240
198 222 245
197 221 241
198 222 245
196 220 241
195 220 238
196 220 244
197 221 242
195 220 238
197 221 246
195 220 244
198 222 250
198 222 250
198 222 250
196 221 250
196 221 245
194 220 242
194 220 250
190 218 255
188 217 255
189 218 255
190 218 255
190 219 255
191 219 255
192 220 255
194 221 255
195 221 255
196 222 255
197 222 255
199 223 255
201 224 255
203 226 255
203 226 255
206 227 255
208 228 253
210 229 255
210 229 254
211 230 255
211 230 255
211 230 255
211 230 255
211 230 255
210 230 255
210 230 255
210 230 255
210 230 255
210 229 255
210 229 255
210 229 255
210 229 255
210 229 255
210 229 255
210 229 255
210 229 255
210 229 255
210 229 255
210 229 255
210 229 255
210 229 255
210 229 255
210 229 255
210 229 255
210 229 255
210 229 255
210 229 255
210 229 255
210 229 255
210 229 255
210 229 255
210 229 255
203 222 250
99 126 185
62 98 168
62 99 170
63 99 166
62 98 168
62 98 166
62 98 165
61 98 166
61 98 166
62 99 165
62 98 168
62 98 159
62 98 160
62 98 166
62 99 169
63 99 168
62 98 164
62 99 169
63 99 166
62 99 167
63 99 167
61 97 165
62 99 163
61 97 161
62 98 164
62 98 167
61 97 160
62 98 164
62 98 163
62 97 157
62 98 164
62 98 161
62 98 164
62 98 163
62 99 169
61 97 157
62 98 164
62 98 161
62 98 160
62 98 166
61 97 159
62 98 165
62 98 168
62 98 168
61 97 163
62 99 169
62 98 163
62 98 165
61 97 167
62 99 168
62 98 165
62 98 169
61 97 159
63 98 164
62 98 164
61 98 164
60 96 154
61 97 162
61 97 165
62 98 167
60 95 158
60 95 155
61 97 170
61 97 163
62 98 169
61 96 165
61 95 163
61 96 168
61 96 165
102 128 184
199 218 247
210 229 255
210 229 255
210 229 255
210 229 255
210 229 255
210 229 255
210 229 255
210 229 255
210 229 255
210 229 255
210 229 255
210 229 255
210 229 255
210 229 255
210 229 255
210 229 255
210 229 255
210 229 255
210 229 255
210 229 255
210 229 255
210 229 255
210 229 255
210 229 255
210 230 255
210 230 255
210 230 255
211 230 255
211 230 255
211 230 255
211 230 255
211 230 255
211 230 255
184 195 200
143 140 95
124 122 81
125 124 82
133 132 89
129 128 87
136 135 92
143 141 95
138 136 93
139 138 93
144 143 97
143 142 96
141 139 94
143 142 96
147 146 99
146 145 97
146 144 98
152 150 101
151 149 100
158 157 106
145 144 97
152 151 102
149 148 99
151 149 100
146 145 97
149 147 99
157 155 104
152 150 101
152 149 100
153 151 101
153 152 102
156 154 103
163 160 106
165 162 107
151 149 100
161 159 106
156 153 101
160 157 104
169 165 109
158 156 104
157 154 102
161 158 103
164 161 106
166 162 107
163 160 105
168 165 108
164 160 106
165 162 105
161 158 105
155 152 99
162 158 103
157 154 101
167 162 106
166 161 104
160 157 104
165 162 106
167 163 106
165 161 107
168 165 109
171 167 109
164 161 105
160 157 103
167 163 104
170 165 107
168 162 106
166 161 104
167 163 108
164 160 104
155 152 96
167 162 106
164 160 103
168 163 106
163 159 104
160 157 103
171 166 108
171 166 108
162 158 103
158 154 99
164 160 103
160 156 100
166 161 103
161 158 101
162 158 102
163 158 102
159 155 101
162 158 99
159 155 101
165 160 104
162 157 101
170 165 106
164 159 101
162 158 99
166 161 104
160 156 98
167 161 103
160 155 98
157 152 98
161 157 99
159 155 99
162 158 101
146 142 89
161 157 100
166 161 100
158 155 99
161 155 96
164 159 103
161 157 96
159 154 95
162 156 99
161 155 96
159 154 98
161 157 97
157 152 94
158 153 94
160 156 95
151 146 91
160 156 97
153 149 95
147 143 88
158 152 95
151 147 92
154 149 93
153 148 93
150 145 91
151 147 90
144 140 83
151 146 90
152 146 89
147 143 85
147 143 88
146 142 90
206 227 255
205 226 255
205 226 255
204 226 255
204 226 255
203 226 255
203 226 255
203 225 255
202 225 255
202 225 255
202 225 255
201 225 255
201 224 255
201 224 255
200 224 255
200 224 255
200 224 255
200 224 255
202 225 252
203 225 250
204 225 246
204 225 250
201 223 242
203 225 250
203 225 248
204 226 250
205 227 254
205 226 250
204 226 249
204 226 249
202 224 242
206 227 253
206 227 252
202 224 244
201 223 237
198 221 233
201 223 238
201 223 240
200 222 237
202 224 244
201 223 238
203 224 246
202 223 244
201 223 236
202 223 244
203 224 246
201 223 241
200 222 240
202 224 242
202 224 245
202 224 246
203 225 250
202 223 241
202 223 241
202 224 244
202 224 242
199 220 236
202 224 241
203 225 248
200 223 242
201 223 240
202 224 246
204 225 248
203 225 246
202 224 244
201 223 246
203 224 246
203 225 246
202 223 244
202 224 242
201 223 238
201 223 244
201 223 244
202 224 244
200 222 240
201 223 245
201 223 245
203 225 249
201 223 244
201 223 246
202 225 250
201 223 244
201 223 245
201 223 246
202 224 246
201 223 244
201 223 249
201 223 246
201 224 248
202 224 250
201 224 249
199 222 245
201 224 248
199 222 244
199 222 244
199 222 244
197 220 234
198 222 245
198 222 245
200 223 248
199 222 246
197 221 236
196 220 237
198 222 245
195 220 238
195 220 240
199 222 242
196 221 248
199 222 245
198 222 248
198 222 252
197 222 249
195 220 245
194 221 254
190 218 255
189 218 255
189 218 255
191 219 255
192 219 255
192 220 255
194 220 255
195 221 255
196 222 255
198 223 255
199 224 255
201 224 255
203 225 255
204 226 255
206 227 255
209 229 255
208 227 248
210 229 254
211 230 255
211 230 255
211 230 255
211 230 255
211 230 255
211 230 255
211 230 255
211 230 255
211 230 255
211 230 255
211 230 255
211 230 255
210 230 255
210 230 255
210 230 255
210 229 255
210 229 255
210 229 255
210 229 255
210 229 255
210 229 255
210 229 255
210 229 255
210 229 255
210 229 255
210 229 255
210 229 255
210 229 255
210 229 255
210 229 255
210 229 255
200 220 248
102 130 190
62 99 172
62 98 171
63 99 173
61 98 164
62 98 164
61 98 165
62 98 170
63 99 169
62 98 164
62 98 161
62 98 168
62 99 172
62 98 160
63 99 166
62 98 163
63 99 169
62 98 164
63 99 168
61 97 163
62 98 162
62 98 162
62 98 165
63 99 166
63 99 167
63 99 167
62 99 168
62 98 164
62 98 163
61 98 158
62 98 158
62 98 165
62 98 166
62 98 164
61 97 155
61 97 158
62 98 167
61 97 163
63 99 169
62 98 166
61 97 161
62 98 160
61 98 161
61 96 157
62 97 158
61 97 159
61 98 163
61 97 162
62 97 159
62 98 164
62 99 168
62 97 156
62 98 164
62 98 167
62 97 160
61 98 167
62 97 160
63 99 168
62 97 164
61 98 164
62 98 169
62 98 167
60 95 154
61 96 162
61 97 170
62 98 168
62 98 168
61 97 167
61 97 165
61 96 165
60 95 163
110 134 185
202 222 250
210 229 255
210 229 255
210 229 255
210 229 255
210 229 255
210 229 255
210 229 255
210 229 255
210 229 255
210 229 255
210 229 255
210 229 255
210 229 255
210 229 255
210 229 255
210 229 255
210 230 255
210 230 255
210 230 255
211 230 255
211 230 255
211 230 255
211 230 255
211 230 255
211 230 255
211 230 255
211 230 255
211 230 255
211 230 255
211 230 255
211 230 255
176 185 188
132 129 85
133 130 86
134 131 87
134 133 89
131 130 89
133 132 89
135 134 92
144 142 95
142 140 94
131 129 87
137 136 92
142 141 96
146 144 97
139 138 94
140 139 95
151 149 101
134 133 91
148 146 98
142 140 95
150 149 100
153 150 100
143 142 96
145 143 96
156 154 104
152 150 100
157 156 104
153 152 103
156 154 102
162 159 107
155 153 103
155 152 102
157 155 104
167 163 108
155 153 103
157 154 103
163 161 108
163 160 106
157 155 103
158 155 103
160 157 103
163 160 106
163 159 105
166 163 106
167 164 109
163 160 105
155 152 99
165 160 103
163 160 105
166 162 108
165 162 107
165 161 105
166 162 104
164 159 104
162 159 105
161 157 102
162 159 105
166 161 106
169 165 107
170 166 108
170 165 108
158 155 101
162 158 103
161 158 103
167 163 107
160 156 101
165 160 105
168 164 105
164 159 103
162 158 102
165 161 104
165 159 104
164 161 106
167 162 103
166 161 103
165 162 105
168 163 106
161 157 101
165 161 104
159 155 101
167 162 106
162 158 101
160 156 99
170 164 104
166 161 105
162 158 101
166 161 103
165 160 103
160 155 100
167 161 103
160 156 99
165 160 100
169 166 108
162 157 99
166 161 104
165 160 104
164 160 100
164 160 102
156 152 95
162 157 99
158 153 95
152 149 93
158 154 96
160 155 97
159 155 99
157 154 96
148 144 90
166 160 103
156 151 95
152 147 90
154 150 95
163 158 101
167 162 101
158 153 95
163 158 97
149 145 90
147 142 88
150 146 89
156 152 96
155 151 92
154 150 92
154 149 90
156 152 96
157 152 93
156 152 94
150 146 90
169 163 99
155 150 92
153 149 93
159 154 95
151 146 90
153 148 87
206 227 255
205 227 255
205 226 255
204 226 255
204 226 255
204 226 255
203 226 255
203 225 255
202 225 255
202 225 255
202 225 255
202 225 255
201 225 255
201 224 255
201 224 255
200 224 255
202 225 254
205 226 250
204 226 252
205 226 250
204 226 250
205 227 254
204 225 246
205 226 249
205 226 250
205 226 252
206 227 250
205 226 250
204 225 246
204 225 246
205 226 249
204 225 250
203 225 245
202 224 242
200 222 237
201 223 241
201 223 237
203 224 242
202 223 241
199 221 231
202 224 241
203 224 242
204 226 250
201 222 238
203 225 245
204 225 245
201 223 237
203 225 245
203 225 248
202 224 245
202 224 241
201 223 244
205 226 253
203 225 245
204 225 246
202 223 237
204 225 246
204 226 252
203 224 242
203 224 241
201 224 244
203 225 245
206 227 252
203 224 244
200 222 237
203 225 249
202 224 248
203 225 252
204 225 250
204 225 246
201 223 244
202 224 245
201 223 242
202 224 244
203 225 249
202 224 248
201 223 244
205 227 255
201 223 241
201 223 240
203 225 246
201 223 244
202 225 249
201 224 246
201 223 245
201 223 242
202 224 246
201 223 240
201 223 241
202 224 246
200 223 242
199 222 242
201 224 250
200 223 248
200 222 242
200 223 248
201 223 246
201 224 250
198 221 241
198 222 238
199 222 242
196 220 236
199 222 245
197 221 240
198 222 245
197 221 241
195 220 238
195 220 238
198 222 244
198 222 249
198 222 245
198 222 250
197 221 246
197 221 246
194 219 246
193 220 254
189 218 255
190 219 255
191 219 255
192 219 255
192 220 255
194 221 255
195 221 255
196 222 255
198 223 255
199 224 255
201 224 255
203 225 255
204 226 255
206 227 255
209 229 255
209 229 254
211 230 254
211 230 255
211 230 255
211 230 255
211 230 255
211 230 255
211 230 255
211 230 255
211 230 255
211 230 255
211 230 255
211 230 255
211 230 255
211 230 255
211 230 255
211 230 255
211 230 255
211 230 255
211 230 255
211 230 255
210 230 255
210 230 255
210 230 255
210 230 255
210 229 255
210 229 255
210 229 255
210 229 255
210 229 255
210 229 255
202 222 250
109 135 189
62 99 165
62 98 166
62 98 164
62 99 172
62 98 166
62 98 163
62 98 161
62 98 166
62 98 163
61 98 170
62 98 166
62 98 161
61 97 159
62 98 166
62 98 164
62 98 169
62 98 166
61 96 157
62 98 161
61 97 156
62 98 160
62 98 167
61 97 149
63 99 170
61 98 165
62 98 163
62 99 169
62 98 162
62 98 166
61 98 163
62 98 161
62 98 166
62 97 160
62 98 160
62 98 163
62 98 160
62 98 162
61 97 155
62 98 163
62 98 162
62 98 160
61 97 159
63 99 164
60 96 153
62 98 161
62 98 162
62 97 154
63 98 166
62 97 158
62 98 161
61 97 152
62 98 170
61 97 159
62 98 161
61 96 155
61 97 161
62 97 160
61 95 156
61 97 167
61 96 155
61 96 158
62 97 162
62 98 166
61 96 159
60 96 156
60 95 157
60 95 160
61 95 157
61 96 158
60 95 161
61 96 166
61 96 166
90 118 176
207 227 254
210 229 255
210 229 255
210 229 255
210 229 255
210 229 255
210 229 255
210 230 255
210 230 255
210 230 255
210 230 255
211 230 255
211 230 255
211 230 255
211 230 255
211 230 255
211 230 255
211 230 255
211 230 255
211 230 255
211 230 255
211 230 255
211 230 255
211 230 255
211 230 255
211 230 255
211 230 255
211 230 255
211 230 255
211 229 254
170 179 180
134 131 85
135 133 87
134 132 88
135 133 89
141 138 93
133 132 90
144 143 96
135 134 89
140 138 93
146 144 98
132 131 90
149 148 100
149 148 100
143 142 96
155 154 105
147 146 99
143 143 97
151 149 100
156 154 103
148 147 100
141 141 96
151 150 102
152 151 102
150 148 101
154 152 102
158 156 104
161 159 106
160 158 106
156 154 104
154 152 102
159 156 104
158 155 103
156 153 102
157 154 103
156 153 102
161 158 105
159 155 103
163 159 105
168 164 109
166 162 107
165 162 109
160 156 103
164 160 105
169 165 108
162 160 104
163 159 105
169 165 108
167 163 108
166 162 106
165 161 107
164 161 104
161 158 104
164 161 105
170 166 108
170 166 108
163 159 105
157 153 100
167 163 103
165 160 103
168 164 106
168 164 108
162 158 102
159 156 102
167 162 106
167 162 104
166 162 104
167 162 103
172 168 108
165 162 105
162 159 101
168 164 106
169 165 105
166 162 102
163 157 100
161 158 102
164 160 103
170 164 104
163 159 102
159 156 100
166 161 103
166 161 103
165 161 103
157 154 99
171 166 104
167 163 104
169 164 105
166 161 103
164 159 99
166 161 103
168 162 101
169 164 104
161 157 99
159 155 98
166 160 101
164 160 102
162 158 101
156 151 95
165 159 101
158 153 97
166 162 99
161 155 95
161 156 97
162 158 99
164 160 102
166 161 99
163 157 95
162 159 100
158 154 99
163 158 97
155 151 94
156 151 93
159 154 98
155 151 96
155 150 92
158 152 93
166 161 99
159 153 93
155 150 93
160 155 97
159 153 95
152 148 93
161 156 95
158 153 97
152 146 91
146 142 84
144 139 84
155 149 93
142 137 84
151 146 87
155 150 93
153 148 87
151 146 89
205 227 255
205 227 255
205 226 255
204 226 255
204 226 255
204 226 255
203 226 255
203 226 255
203 225 255
202 225 255
202 225 255
202 225 255
202 225 255
201 225 255
201 225 255
203 225 252
205 227 254
204 226 249
205 226 248
205 226 249
206 226 248
206 226 249
204 225 244
202 223 241
206 227 248
205 226 252
206 226 249
204 226 250
206 226 248
206 227 253
203 224 242
202 224 242
203 224 241
201 222 231
202 223 238
200 222 236
202 223 234
203 224 244
203 225 245
204 225 246
202 223 233
201 223 236
200 222 236
202 224 240
203 224 242
204 225 242
204 225 246
204 225 244
203 224 245
203 224 240
204 225 245
205 226 250
203 224 240
204 225 248
203 224 245
203 224 246
204 225 244
200 221 231
204 226 248
202 224 240
203 225 248
202 223 241
204 225 248
204 225 242
205 226 252
203 225 249
205 226 249
202 223 244
204 225 246
204 225 249
203 225 246
202 223 241
204 225 245
205 226 250
205 226 250
202 223 244
203 225 248
202 224 245
204 226 249
202 224 241
203 224 249
200 222 238
203 225 249
200 223 244
202 223 241
202 224 249
201 223 244
202 224 245
202 224 246
202 224 250
202 224 245
200 222 241
200 223 242
201 223 242
200 223 246
200 223 240
202 224 250
200 222 240
201 224 249
199 222 244
199 222 240
199 222 241
201 224 248
197 221 242
199 222 246
198 221 242
196 220 234
198 221 240
197 221 238
197 221 240
199 223 249
199 223 248
198 222 245
198 222 245
197 222 246
196 221 249
194 220 245
191 219 255
190 219 255
191 219 255
192 220 255
193 220 255
195 221 255
195 221 255
197 222 255
198 223 255
200 224 255
201 224 255
203 225 255
205 226 255
206 227 255
208 228 255
210 229 252
211 230 255
211 230 255
211 230 255
211 230 255
211 230 255
211 230 255
211 230 255
211 230 255
211 230 255
211 230 255
211 230 255
211 230 255
211 230 255
211 230 255
211 230 255
211 230 255
211 230 255
211 230 255
211 230 255
211 230 255
211 230 255
211 230 255
211 230 255
211 230 255
211 230 255
211 230 255
211 230 255
211 230 255
208 227 254
122 146 196
62 98 166
62 98 162
62 99 171
62 98 164
62 99 167
62 98 163
62 98 168
63 100 174
61 98 164
62 98 165
62 98 167
62 98 164
62 98 162
62 98 167
62 98 163
63 99 169
61 98 162
61 97 157
62 99 169
61 97 159
63 99 167
63 99 163
62 98 164
61 97 157
63 99 165
62 97 160
63 99 167
63 99 164
61 97 159
63 99 164
62 98 161
62 98 164
62 98 163
62 98 166
62 98 161
63 99 165
62 99 169
62 97 160
62 98 159
62 98 166
62 98 168
61 98 162
62 98 161
61 97 157
63 99 166
62 98 164
61 97 157
63 99 171
61 97 158
61 97 157
62 97 162
62 97 154
62 98 168
60 96 164
62 97 163
62 98 167
62 97 163
61 97 164
62 97 160
62 98 163
61 96 159
62 98 166
61 97 164
62 98 165
60 96 156
62 97 162
61 96 159
61 95 159
59 93 151
60 95 157
61 96 166
61 96 160
60 95 160
59 92 152
107 131 182
207 226 252
211 230 255
211 230 255
211 230 255
211 230 255
211 230 255
211 230 255
211 230 255
211 230 255
211 230 255
211 230 255
211 230 255
211 230 255
211 230 255
211 230 255
211 230 255
211 230 255
211 230 255
211 230 255
211 230 255
211 230 255
211 230 255
211 230 255
211 230 255
211 230 255
211 230 255
211 230 255
211 230 255
166 174 176
119 116 75
133 130 86
141 139 93
133 130 87
133 131 89
120 119 81
133 131 89
134 133 90
136 135 92
132 131 89
131 131 90
137 137 94
140 139 94
145 144 98
141 141 96
147 147 100
154 152 103
143 142 96
155 153 103
149 148 101
148 147 99
143 141 95
150 148 99
150 149 101
155 153 102
152 150 100
155 153 102
148 145 96
154 152 103
157 154 103
156 153 101
153 151 101
159 156 104
161 158 103
161 158 104
163 159 106
161 158 104
160 157 103
161 158 105
161 158 105
161 159 106
159 156 104
162 159 105
153 150 99
158 154 100
169 165 108
167 163 106
162 158 103
170 165 108
163 159 103
161 158 102
160 157 103
166 162 105
159 156 103
166 162 104
166 163 108
171 166 108
168 163 108
168 164 106
168 163 106
158 154 99
165 161 104
170 165 107
168 163 106
163 158 100
166 161 102
166 161 103
168 163 105
165 161 105
171 166 107
163 159 103
169 163 104
167 162 103
167 161 104
165 161 100
162 157 103
164 160 103
165 160 101
170 166 106
166 162 104
161 156 101
164 160 101
170 164 104
165 161 100
165 160 101
165 161 104
168 163 101
165 160 101
157 153 95
165 160 101
161 157 101
165 161 102
156 153 95
163 158 98
161 156 99
159 153 97
169 163 101
160 155 97
164 159 101
164 159 101
157 153 95
159 154 97
166 159 101
159 154 97
158 154 97
158 153 93
164 158 101
155 151 94
163 158 97
159 155 90
165 160 101
165 160 99
156 151 93
160 155 96
163 159 95
161 157 100
152 147 90
158 154 94
158 153 95
156 151 91
149 144 87
163 158 96
153 148 88
157 151 94
155 151 93
157 151 90
156 152 94
152 148 90
150 145 91
145 141 87
157 152 97
144 141 88
154 149 91
206 227 255
205 227 255
205 226 255
205 226 255
204 226 255
204 226 255
204 226 255
203 226 255
203 225 255
203 225 255
202 225 255
202 225 255
202 225 255
202 224 254
207 227 254
206 227 250
206 226 248
205 226 249
206 226 250
204 224 248
205 225 246
206 227 250
206 227 250
205 226 248
206 226 248
207 227 249
204 225 248
207 227 253
203 224 241
203 224 241
202 223 233
203 224 244
200 221 231
204 225 246
203 224 240
204 225 241
204 224 244
204 225 248
203 224 244
203 224 241
205 226 248
204 225 242
202 223 236
205 226 249
203 224 244
204 225 248
205 226 252
205 225 245
205 226 248
204 225 252
203 224 240
203 225 244
205 226 248
205 226 248
203 224 242
205 225 248
202 223 240
203 224 241
205 226 245
206 227 250
204 225 246
202 223 244
205 226 249
204 225 246
203 224 246
204 225 240
204 225 244
202 223 241
202 223 237
203 224 241
203 224 244
205 226 250
203 224 244
203 224 245
204 225 246
202 224 242
201 223 244
204 226 250
204 225 250
203 225 246
204 225 249
202 223 241
204 226 249
202 224 240
204 225 248
203 225 244
203 224 246
201 222 237
204 226 250
203 224 244
203 225 249
202 224 249
202 224 245
203 225 248
202 224 246
201 223 246
200 222 240
202 224 249
202 224 244
202 224 246
198 221 231
202 224 246
202 225 250
202 224 250
201 224 253
200 222 242
199 222 244
199 222 244
198 221 237
198 222 241
197 221 240
196 220 238
200 223 248
199 222 244
198 222 248
198 222 246
198 222 248
198 223 253
193 220 249
191 219 255
191 219 255
192 220 255
193 220 255
195 221 255
196 222 255
197 222 255
199 223 255
200 224 255
201 224 255
204 226 255
205 227 255
206 227 254
209 229 254
211 230 254
212 230 254
212 230 255
212 230 255
212 230 255
212 230 255
211 230 255
211 230 255
211 230 255
211 230 255
211 230 255
211 230 255
211 230 255
211 230 255
211 230 255
211 230 255
211 230 255
211 230 255
211 230 255
211 230 255
211 230 255
211 230 255
211 230 255
211 230 255
211 230 255
211 230 255
211 230 255
205 224 252
117 142 195
62 98 164
62 98 167
62 98 165
61 98 167
62 98 164
63 99 165
62 98 160
62 98 165
61 97 163
61 98 169
61 98 161
61 97 158
61 97 165
62 98 158
62 98 161
62 99 164
62 98 166
62 98 164
60 96 156
62 98 158
62 98 165
62 99 164
62 98 158
63 99 168
62 97 155
62 98 163
62 98 159
61 97 157
62 98 168
62 98 161
62 98 167
61 98 162
61 97 160
61 98 163
62 97 163
62 98 161
61 97 156
62 98 164
62 98 164
62 98 163
62 98 166
60 96 149
61 97 154
63 99 165
62 98 163
62 98 158
62 97 163
62 99 169
61 97 156
61 97 162
62 97 161
62 98 164
60 95 157
61 97 163
61 97 155
63 99 169
61 97 163
61 97 163
61 97 158
61 96 162
62 97 160
61 96 156
61 96 157
62 98 166
61 97 163
60 95 153
60 96 161
60 95 160
60 95 156
60 95 161
60 94 154
60 96 161
60 96 161
61 96 157
59 93 157
60 94 164
104 129 182
203 222 248
211 230 255
211 230 255
211 230 255
211 230 255
211 230 255
211 230 255
211 230 255
211 230 255
211 230 255
211 230 255
211 230 255
211 230 255
211 230 255
211 230 255
211 230 255
211 230 255
211 230 255
211 230 255
211 230 255
211 230 255
211 230 255
212 230 255
212 230 255
212 230 255
212 230 255
175 185 188
132 128 84
130 128 86
136 134 89
133 131 88
129 129 87
133 132 89
127 127 87
132 131 87
132 131 89
132 132 90
139 139 95
143 141 95
133 133 90
130 130 89
138 138 93
149 148 100
137 136 93
147 146 99
140 139 95
141 141 96
147 145 99
149 148 99
154 151 102
152 150 99
159 157 106
154 152 100
154 152 102
153 149 99
157 154 102
159 157 104
162 158 104
154 151 100
156 154 102
156 154 103
151 148 98
159 156 103
163 160 104
162 159 106
167 163 107
159 155 102
164 161 105
166 161 107
160 157 102
166 163 106
164 160 105
161 158 103
164 160 104
165 161 107
162 158 104
168 163 105
170 165 108
162 159 104
163 160 104
169 165 108
171 167 110
168 163 107
170 166 108
165 162 106
162 159 106
167 163 105
165 161 105
170 165 106
172 167 109
171 167 109
170 165 106
164 160 103
167 164 104
171 166 108
169 165 106
171 166 108
171 166 108
163 159 103
169 165 107
165 161 104
167 162 103
159 155 98
166 162 103
166 162 104
166 161 101
166 162 103
161 156 95
166 162 104
166 161 101
169 164 103
168 164 104
164 158 98
161 156 101
169 165 101
170 165 104
162 159 95
163 159 99
161 156 99
167 162 104
167 162 101
167 162 100
167 163 102
168 162 100
158 153 95
168 162 103
161 157 96
168 163 99
159 154 100
163 157 100
163 158 99
161 157 99
164 158 100
167 163 104
168 163 101
163 158 101
161 156 95
159 154 96
164 159 101
159 154 95
158 153 96
154 148 91
157 152 97
162 156 98
159 154 93
161 156 97
155 149 93
157 153 97
155 150 94
161 156 94
156 152 93
153 148 91
155 151 93
161 154 94
160 155 90
156 150 92
154 149 93
157 150 88
157 152 93
158 153 93
153 148 90
206 227 255
205 227 255
205 227 255
205 226 255
204 226 255
204 226 255
204 226 255
203 226 255
203 226 255
203 225 255
203 225 255
202 225 254
204 225 250
207 227 254
208 228 254
205 226 248
204 225 245
206 227 248
205 226 248
206 226 248
206 226 245
205 225 244
206 226 249
207 227 248
207 227 250
206 226 242
206 226 246
204 225 244
204 224 241
203 225 244
202 223 242
204 225 241
204 225 242
203 224 240
203 224 240
204 225 248
206 227 252
205 225 245
204 225 241
203 224 244
206 227 250
203 224 245
206 226 248
204 224 242
204 224 245
204 224 241
205 226 246
206 226 246
205 226 248
203 224 241
206 226 246
204 225 245
204 224 240
204 225 240
204 224 245
204 225 240
204 225 241
205 226 244
206 226 246
204 224 245
206 227 252
206 227 250
204 225 245
203 224 245
202 223 242
204 225 248
203 224 248
207 227 250
205 226 249
204 225 245
205 226 249
206 226 246
205 226 246
205 226 246
206 226 249
204 225 244
201 223 240
204 225 249
203 224 246
201 223 237
203 224 244
205 226 249
205 226 248
205 226 250
204 226 252
204 226 250
204 225 246
204 225 248
204 225 246
202 224 241
204 225 248
203 225 246
202 223 240
205 226 249
203 225 248
202 223 242
202 224 245
204 225 252
200 223 242
201 223 240
202 224 249
201 222 241
200 223 241
202 224 246
200 222 240
200 222 238
199 222 241
201 223 246
199 222 241
198 222 241
198 221 238
199 222 245
198 221 238
199 222 242
200 224 252
198 222 248
199 222 244
199 223 249
197 222 250
196 221 254
192 219 254
192 220 255
192 220 255
193 220 255
195 221 255
197 222 255
197 223 255
198 223 255
200 224 255
202 225 255
203 226 255
206 227 255
207 228 255
209 229 255
211 229 254
212 230 254
212 230 255
212 230 255
212 230 255
212 230 255
212 230 255
212 230 255
212 230 255
212 230 255
212 230 255
212 230 255
212 230 255
212 230 255
211 230 255
211 230 255
211 230 255
211 230 255
211 230 255
211 230 255
211 230 255
211 230 255
211 230 255
211 230 255
211 230 255
211 230 255
141 163 211
61 98 164
62 98 165
62 98 160
61 97 159
62 98 161
62 98 169
62 98 163
62 98 165
62 97 158
61 97 161
62 98 160
61 97 153
61 97 160
62 98 155
62 98 159
61 97 153
62 98 161
63 99 166
61 96 156
62 98 162
62 99 165
61 97 159
62 98 162
62 98 160
62 98 162
62 98 165
61 98 160
62 98 161
63 99 164
61 97 158
62 98 159
62 98 165
61 97 160
61 97 157
61 97 157
61 97 156
61 97 151
63 99 169
62 98 161
61 97 154
62 97 157
63 99 168
61 97 156
61 97 158
62 97 152
62 98 161
61 96 158
62 99 168
61 96 152
62 97 157
63 99 168
62 98 164
62 98 159
62 97 155
60 96 157
61 96 160
62 97 161
61 97 161
61 97 166
60 95 154
62 97 161
62 97 155
61 96 156
62 97 167
61 97 160
61 97 156
62 97 162
61 96 154
61 96 164
61 96 158
61 96 163
60 95 163
60 94 155
60 94 154
60 94 157
60 96 166
59 92 150
60 95 159
143 164 205
211 230 255
211 230 255
211 230 255
211 230 255
211 230 255
211 230 255
211 230 255
211 230 255
211 230 255
211 230 255
211 230 255
211 230 255
212 230 255
212 230 255
212 230 255
212 230 255
212 230 255
212 230 255
212 230 255
212 230 255
212 230 255
212 230 255
212 230 255
212 230 255
187 198 206
124 121 79
120 118 79
137 136 92
139 137 92
133 132 89
131 130 88
140 138 92
134 134 92
139 137 93
133 132 91
132 131 91
136 135 92
140 139 95
141 141 96
137 136 91
144 143 96
141 140 95
144 143 97
141 140 96
141 141 96
149 147 100
149 147 99
147 145 98
155 153 103
143 142 97
152 149 100
152 150 101
151 149 100
155 153 102
158 155 102
156 153 102
163 160 105
160 156 104
160 158 105
161 159 107
147 146 99
163 161 107
160 157 104
163 160 106
162 159 107
157 155 102
162 158 105
169 165 107
167 164 108
164 161 105
163 159 102
168 164 108
165 162 105
160 157 104
162 159 102
163 159 102
166 162 103
170 166 108
167 163 105
173 168 110
165 162 106
168 164 106
164 160 103
170 164 106
170 165 106
169 165 108
169 164 104
164 160 101
168 163 104
165 161 103
164 159 102
168 164 104
169 164 106
171 167 107
167 162 105
171 165 107
165 160 102
166 163 105
169 164 104
168 163 104
166 162 104
163 159 99
171 166 108
169 164 106
170 165 106
173 167 106
166 162 100
168 164 104
171 165 106
165 160 101
162 158 99
167 162 102
166 161 103
164 158 100
166 161 102
167 163 102
168 163 103
172 166 104
169 163 103
165 160 99
165 161 101
159 155 94
171 165 103
164 159 96
164 158 98
166 162 101
162 158 100
164 158 101
153 149 92
163 159 97
168 163 104
164 160 99
162 158 99
159 154 95
158 153 97
154 149 91
164 159 99
164 158 99
162 158 97
162 157 99
159 154 95
157 151 95
162 156 95
153 148 91
160 155 97
157 153 95
157 153 95
149 146 88
149 144 88
148 144 87
155 151 92
156 151 89
158 152 93
154 151 93
147 143 89
160 154 94
151 145 88
158 153 93
150 145 90
153 148 89
206 227 255
205 227 255
205 227 255
205 226 255
205 226 255
204 226 255
204 226 255
204 226 255
204 226 255
203 226 255
204 226 254
206 227 253
206 227 250
208 228 253
207 227 246
204 225 245
203 224 244
207 227 250
204 225 245
208 228 253
206 226 245
206 227 248
207 227 250
206 226 246
207 227 249
206 226 241
205 225 244
203 224 242
203 223 234
203 224 240
202 223 236
206 226 248
205 225 244
205 225 245
205 226 245
205 226 245
204 225 244
205 226 244
205 225 248
205 226 244
206 226 244
204 225 240
204 224 244
206 226 245
205 225 245
205 225 244
206 226 242
205 226 244
203 223 245
205 226 245
204 225 244
205 225 248
206 226 245
206 226 249
205 226 246
206 226 246
205 226 246
206 226 246
207 227 248
207 227 252
204 225 242
207 227 250
206 226 245
204 224 241
204 225 249
205 226 246
208 228 253
205 226 245
205 226 248
205 225 248
205 225 245
206 226 248
204 225 240
206 227 249
206 227 250
204 225 241
204 225 246
204 225 245
204 225 244
202 223 241
205 226 246
204 225 245
206 226 248
205 226 246
204 224 245
203 224 244
204 225 244
206 226 249
203 224 242
205 226 248
202 223 242
204 225 242
204 225 246
202 224 242
203 224 241
204 225 249
202 224 242
205 226 252
204 225 244
203 224 246
203 225 249
203 225 249
201 223 242
204 226 249
203 225 250
201 223 242
201 223 245
202 224 246
200 223 242
201 223 245
199 222 240
200 223 246
198 221 238
199 222 241
198 221 242
202 224 249
201 224 248
200 223 244
198 222 242
197 221 244
197 221 250
193 220 254
192 220 255
193 220 255
194 221 255
195 221 255
196 222 255
198 223 255
199 223 255
201 224 255
202 225 255
204 226 255
206 227 255
208 228 255
209 228 254
210 229 253
213 231 255
212 230 255
212 230 255
212 230 255
212 230 255
212 230 255
212 230 255
212 230 255
212 230 255
212 230 255
212 230 255
212 230 255
212 230 255
212 230 255
212 230 255
212 230 255
212 230 255
212 230 255
212 230 255
212 230 255
212 230 255
211 230 255
211 230 255
160 181 220
61 97 164
62 98 165
63 99 176
62 99 168
61 97 162
62 98 161
63 99 168
62 98 162
63 99 169
62 98 164
61 97 156
63 99 169
62 98 165
61 97 157
62 98 165
61 98 162
62 98 166
61 97 154
62 99 167
62 98 160
63 99 166
63 99 165
61 97 159
62 98 164
61 97 161
61 97 157
62 98 160
62 98 167
62 97 155
62 98 160
62 98 160
62 98 162
61 98 162
62 98 165
62 98 158
62 98 156
62 99 164
61 98 160
61 98 158
62 98 160
63 99 164
62 98 168
61 97 153
61 97 158
62 98 164
62 97 155
62 98 162
62 97 159
62 98 160
61 96 153
62 98 164
62 98 165
61 97 159
61 97 153
61 96 143
62 99 165
60 96 159
61 97 152
62 98 158
61 96 158
62 97 163
60 96 157
61 97 162
61 97 162
61 96 155
61 97 158
60 94 154
61 97 157
61 97 154
60 95 156
61 96 157
62 98 165
62 97 161
60 95 153
62 97 166
58 92 149
61 95 158
59 93 155
59 93 153
58 91 155
163 182 217
211 230 255
211 230 255
212 230 255
212 230 255
212 230 255
212 230 255
212 230 255
212 230 255
212 230 255
212 230 255
212 230 255
212 230 255
212 230 255
212 230 255
212 230 255
212 230 255
212 230 255
212 230 255
212 230 255
212 230 255
212 230 255
212 230 255
193 206 217
124 122 83
126 124 82
131 130 88
128 127 86
134 132 89
125 125 86
142 141 96
126 127 88
140 140 96
137 136 92
132 132 90
141 140 95
138 136 92
139 138 94
143 143 97
144 143 97
141 140 95
146 144 97
152 151 101
145 144 98
136 136 94
148 146 98
146 145 97
149 148 100
149 148 99
148 147 99
152 150 101
153 151 101
156 153 101
151 149 101
161 159 105
154 152 102
157 153 101
163 159 104
161 158 103
158 155 102
158 155 101
166 162 106
152 149 98
161 159 105
160 157 104
164 161 105
153 150 99
166 161 104
160 157 104
163 160 105
161 158 103
163 160 105
163 160 105
166 162 106
167 162 104
162 159 103
170 166 108
165 161 105
168 164 106
170 166 108
167 162 104
171 167 109
166 162 103
169 164 105
169 165 109
168 163 103
168 164 106
171 165 105
173 168 107
166 161 102
171 166 107
175 169 108
166 160 103
170 164 105
167 162 102
174 169 107
165 160 103
165 160 101
166 161 103
170 165 104
168 162 101
165 161 102
170 165 103
166 162 103
168 164 103
171 165 104
170 165 102
170 165 104
167 162 103
174 168 106
165 162 100
168 163 104
169 164 103
173 167 108
167 162 101
160 157 99
166 161 101
170 164 103
168 163 101
169 164 104
163 159 102
168 162 99
164 158 99
162 157 96
164 160 101
158 154 94
160 156 97
163 159 100
161 156 97
166 161 100
168 163 103
160 155 97
160 155 95
159 153 95
162 157 97
162 157 98
161 156 97
162 156 97
153 148 89
160 155 96
155 151 93
159 153 92
163 158 97
156 151 92
165 159 95
162 157 95
160 154 95
166 159 99
151 146 85
156 150 92
152 148 91
161 156 97
161 156 96
150 144 87
159 153 92
155 150 90
152 146 88
152 148 87
156 150 93
159 154 92
206 227 255
206 227 255
206 227 255
205 227 255
205 227 255
205 226 255
204 226 255
204 226 255
204 226 255
203 225 253
206 227 246
207 227 253
207 227 248
206 226 248
207 227 248
207 227 250
206 227 250
208 228 250
207 226 245
206 226 245
207 227 250
206 226 245
210 229 252
208 228 252
203 223 236
203 224 241
203 224 238
205 225 244
203 224 236
202 223 234
205 225 245
205 225 240
206 226 245
205 225 240
206 226 246
205 226 242
206 226 246
205 225 244
205 225 242
206 226 245
204 224 241
206 226 248
206 226 248
207 227 250
206 227 250
207 227 249
205 225 245
206 226 245
208 228 253
207 227 248
205 226 242
206 227 249
206 226 244
206 226 245
206 226 250
206 226 246
207 227 250
204 224 245
208 228 252
205 226 244
206 227 246
205 225 246
205 225 246
205 225 244
205 225 241
206 226 249
205 226 248
205 225 242
205 225 245
204 225 245
204 225 245
204 225 245
205 226 244
206 226 249
203 224 241
207 227 253
205 225 245
204 225 238
206 226 246
203 224 241
204 225 245
204 225 248
205 226 248
204 225 249
207 227 250
204 225 245
206 227 250
204 224 240
205 226 249
206 227 252
205 226 246
205 226 248
203 225 244
205 226 248
205 226 249
204 225 249
203 224 248
205 226 248
202 224 244
204 225 246
204 226 249
201 223 241
204 226 249
203 225 252
203 225 246
203 225 245
201 222 240
203 225 246
201 224 245
200 222 240
199 222 237
200 222 236
201 223 244
198 221 238
200 223 244
199 222 244
198 221 240
202 225 252
201 223 246
201 224 253
200 223 250
198 222 248
195 221 254
193 220 255
194 221 255
195 221 255
196 222 255
197 222 255
198 223 255
200 224 255
201 224 255
203 226 255
205 226 255
206 227 254
208 228 255
210 229 254
210 229 248
213 231 255
212 231 255
212 231 255
212 231 255
212 231 255
212 231 255
212 230 255
212 230 255
212 230 255
212 230 255
212 230 255
212 230 255
212 230 255
212 230 255
212 230 255
212 230 255
212 230 255
212 230 255
212 230 255
212 230 255
212 230 255
189 208 240
74 107 171
61 97 158
63 99 166
62 98 163
62 99 166
61 97 151
62 98 166
62 98 161
61 97 157
61 97 159
60 96 156
62 98 162
61 96 147
62 97 155
62 97 156
62 98 161
63 98 158
62 98 164
62 99 166
62 98 159
61 97 159
62 98 159
61 97 156
62 98 160
62 98 164
61 97 154
62 98 155
62 98 161
61 97 155
62 97 159
62 97 155
62 98 159
61 96 152
61 97 156
62 98 156
63 99 167
62 98 154
62 98 158
62 98 160
62 98 161
62 99 164
61 98 159
61 97 151
61 97 152
61 97 154
61 97 153
62 98 164
62 97 156
62 98 156
61 96 156
62 98 160
62 98 160
62 97 153
62 98 165
61 97 153
62 98 163
62 97 162
62 97 157
62 98 159
61 96 152
62 98 162
61 97 160
60 95 153
61 97 162
61 96 156
61 96 156
61 97 156
60 95 155
62 97 164
61 95 156
59 93 151
60 96 156
61 96 159
60 95 156
61 97 165
61 95 158
60 95 155
60 93 158
61 95 162
60 94 160
60 94 156
62 95 154
189 208 240
212 230 255
212 230 255
212 230 255
212 230 255
212 230 255
212 230 255
212 230 255
212 230 255
212 230 255
212 230 255
212 230 255
212 230 255
212 230 255
212 230 255
212 230 255
212 231 255
212 231 255
212 231 255
212 231 255
212 231 255
190 205 221
128 125 86
138 135 89
120 119 81
138 137 93
137 136 92
132 132 90
130 130 88
127 127 88
128 128 87
127 128 88
127 127 86
141 140 95
137 137 94
139 138 95
136 135 91
129 129 89
132 133 92
136 135 91
144 143 97
148 147 98
138 136 92
145 143 95
148 146 98
149 148 99
154 153 102
150 148 100
157 155 104
149 148 99
162 159 107
151 149 100
159 157 104
156 153 102
164 160 104
153 151 100
158 155 102
159 156 104
160 158 105
164 161 107
160 156 103
163 160 105
167 163 106
168 165 107
162 159 104
162 158 101
161 158 103
165 160 104
166 161 106
162 159 103
168 164 104
161 158 102
167 164 108
162 158 102
160 156 100
170 165 105
167 162 103
170 165 106
168 164 103
165 160 103
168 164 105
170 165 107
166 163 105
172 167 109
169 164 106
173 168 107
169 164 105
171 166 106
168 163 102
165 161 101
168 163 103
170 165 104
167 162 102
167 162 101
169 164 106
169 165 105
173 167 106
170 165 103
167 162 103
167 162 101
170 165 107
164 159 101
163 158 101
173 168 106
164 158 95
168 163 101
167 162 104
171 165 103
169 164 104
170 164 103
167 162 103
164 159 99
169 164 103
164 159 102
163 158 100
168 164 103
163 158 99
169 163 103
165 160 101
162 158 95
169 164 101
171 166 103
163 157 96
159 154 93
170 163 101
171 164 103
166 159 97
164 159 99
159 153 95
160 155 95
162 158 97
157 153 92
164 159 96
156 152 90
156 153 95
172 166 101
153 149 89
162 156 95
157 153 90
158 153 90
158 153 93
155 150 91
155 150 92
158 152 95
159 153 95
155 151 93
159 154 94
155 149 89
154 148 88
155 151 91
161 156 93
163 157 97
159 154 92
152 147 84
158 153 92
163 157 92
148 144 89
156 151 88
150 146 89
206 227 255
206 227 255
206 227 255
205 227 255
205 227 255
205 226 255
205 226 255
204 226 255
205 226 252
207 227 249
208 228 253
208 228 250
207 227 250
207 227 249
206 226 248
206 226 245
208 228 249
209 228 250
209 229 254
208 227 248
208 227 248
207 226 246
207 227 248
205 226 245
206 226 245
205 225 241
204 224 238
205 225 241
206 226 245
205 226 244
204 225 240
204 224 238
205 225 240
205 225 240
206 226 242
207 227 250
207 227 250
207 227 246
206 226 246
208 228 250
207 227 245
207 227 252
206 226 248
204 224 238
208 227 249
203 222 238
208 228 249
207 227 245
208 228 252
208 228 252
208 227 249
208 227 249
206 226 245
207 226 249
207 227 246
207 227 248
206 226 244
207 227 246
206 226 249
208 227 249
207 227 250
208 228 250
208 228 252
208 228 252
206 226 244
206 226 246
206 226 246
206 226 246
205 225 244
208 228 253
204 225 240
207 227 246
208 228 253
206 226 245
205 225 244
206 227 248
207 227 249
205 226 245
207 227 245
205 226 245
206 226 246
205 225 249
206 226 245
206 226 246
204 225 245
205 225 246
206 226 242
205 226 249
206 227 250
206 227 250
205 226 249
207 227 252
202 223 242
206 226 248
205 226 252
204 225 245
205 226 246
204 225 246
204 225 248
204 225 245
204 225 246
201 222 240
202 224 241
203 224 241
205 226 252
203 224 245
204 225 253
203 225 248
200 222 238
201 223 242
201 223 245
202 224 244
201 223 244
200 223 245
199 222 241
198 221 233
199 222 241
200 223 246
203 225 252
201 224 248
201 224 249
200 223 252
201 224 249
197 222 252
194 220 255
195 221 255
196 222 255
197 222 255
198 223 255
199 223 255
200 224 255
202 225 255
203 226 255
205 226 255
207 228 255
209 229 255
211 229 254
211 229 250
213 231 255
213 231 255
213 231 255
213 231 255
212 231 255
212 231 255
212 231 255
212 231 255
212 231 255
212 231 255
212 231 255
212 231 255
212 231 255
212 231 255
212 230 255
212 230 255
212 230 255
212 230 255
212 230 255
207 226 252
102 129 182
62 99 168
62 98 163
62 98 164
61 97 163
62 98 157
61 97 154
61 97 154
62 98 164
62 98 165
62 98 160
63 99 165
62 98 164
62 98 161
62 98 159
62 98 157
62 97 156
62 98 155
61 97 156
62 97 152
61 97 156
62 98 160
62 98 160
62 98 157
62 98 162
63 99 166
63 99 161
62 98 160
62 98 159
62 97 154
61 97 159
63 99 165
63 99 161
63 98 160
61 97 155
63 99 163
62 98 159
63 99 166
62 98 159
62 98 158
63 98 162
62 98 155
62 98 156
61 96 150
61 96 155
61 97 157
63 98 161
61 96 149
63 100 171
62 97 156
61 96 151
62 98 165
62 97 158
62 98 159
62 97 155
62 98 160
61 97 163
61 97 156
61 96 160
62 97 160
61 97 157
61 97 158
61 96 159
61 97 155
61 96 157
62 97 152
62 97 155
60 96 156
60 95 151
59 94 150
59 94 150
62 97 163
61 96 165
63 98 167
61 97 156
61 96 156
61 95 157
59 94 157
60 94 156
59 92 148
60 94 154
58 91 149
59 93 157
105 129 178
208 227 252
212 230 255
212 230 255
212 230 255
212 230 255
212 231 255
212 231 255
212 231 255
212 231 255
212 231 255
212 231 255
212 231 255
212 231 255
212 231 255
212 231 255
212 231 255
213 231 255
213 231 255
213 231 255
207 224 244
138 137 104
113 112 76
122 121 82
123 122 83
132 130 88
137 136 93
133 132 90
126 126 87
136 135 92
122 122 84
127 126 86
135 134 92
129 129 88
134 133 91
136 136 93
136 135 91
139 138 94
137 137 94
133 133 91
138 137 93
149 148 100
148 147 100
146 145 98
148 147 100
148 147 98
149 148 100
144 144 97
152 150 99
152 150 101
154 153 104
155 152 100
154 151 100
148 147 99
160 157 106
157 155 104
161 158 103
160 157 104
159 156 103
162 159 104
164 161 105
167 163 104
162 158 104
165 160 104
167 163 106
162 158 103
161 156 101
171 166 108
172 167 106
157 154 100
170 167 109
158 154 100
172 167 108
167 162 103
166 162 105
164 161 103
169 166 107
167 163 103
168 163 104
169 165 105
169 164 105
169 164 104
167 162 103
169 164 103
168 163 106
172 167 107
168 164 104
165 160 100
168 164 104
167 162 101
165 160 101
171 166 104
167 162 103
168 163 103
166 161 100
173 167 106
175 169 108
168 163 103
169 163 103
172 167 105
169 163 103
170 165 103
168 162 103
169 164 102
170 166 104
171 166 105
165 160 99
169 164 103
165 160 100
169 164 104
167 163 102
166 162 103
170 165 104
166 162 98
172 166 103
165 159 96
166 161 104
166 160 99
164 158 96
163 158 98
164 158 98
168 163 100
161 156 95
172 166 105
162 157 96
163 158 95
163 157 93
168 162 99
161 156 98
171 164 103
165 159 95
165 159 99
161 156 95
166 161 97
161 155 96
163 157 95
166 161 96
165 158 97
163 158 96
155 150 92
159 155 95
168 163 103
163 158 97
163 157 95
159 153 95
162 157 96
162 158 96
160 155 93
154 149 90
157 153 94
155 151 87
160 155 95
155 150 92
154 149 91
157 151 87
157 151 91
156 151 95
150 145 90
154 149 90
207 227 255
206 227 255
206 227 255
206 227 255
206 227 255
205 227 255
205 227 255
206 227 254
206 226 249
209 229 254
208 228 253
209 228 248
209 228 252
206 226 242
208 228 249
207 227 248
208 227 248
207 226 246
208 228 249
208 227 246
207 227 244
210 229 249
204 225 237
204 224 234
204 224 240
205 225 241
205 225 244
204 224 242
204 224 238
205 225 238
208 227 249
206 225 244
205 225 241
204 224 238
202 222 233
208 227 246
206 226 245
207 227 245
206 226 242
208 227 249
205 225 242
207 227 246
206 225 241
208 227 245
203 223 241
206 226 246
208 227 246
207 227 245
205 225 241
204 224 240
209 228 252
207 226 246
206 226 248
205 225 246
207 227 248
208 227 248
206 225 244
208 228 252
209 228 249
207 227 248
207 227 250
206 226 245
207 227 245
207 227 249
205 225 244
208 227 248
205 225 242
208 228 252
208 227 249
207 226 249
207 226 246
206 226 246
205 225 246
207 227 249
206 226 246
209 228 252
206 226 245
205 225 246
207 226 249
206 226 246
208 227 249
206 226 250
208 228 252
206 226 246
205 225 240
207 227 252
204 225 242
204 224 245
206 226 246
206 226 248
205 225 244
206 226 246
205 225 245
207 227 249
205 226 250
205 226 250
205 226 248
203 224 244
204 224 240
205 226 246
204 225 248
207 227 249
202 224 248
206 227 252
202 224 241
204 225 245
203 225 250
204 225 246
203 224 245
203 225 246
203 224 242
203 224 244
202 224 244
201 223 238
202 224 244
201 223 242
201 223 244
199 222 238
200 223 242
200 223 241
203 225 250
201 224 246
203 225 250
201 224 252
198 223 252
195 221 255
195 221 255
196 222 255
197 222 255
199 223 255
200 224 255
201 224 255
203 225 255
204 226 255
206 227 255
208 228 255
210 229 255
212 230 255
212 231 255
213 231 255
213 231 255
213 231 255
213 231 255
213 231 255
213 231 255
213 231 255
213 231 255
213 231 255
213 231 255
213 231 255
213 231 255
213 231 255
212 231 255
212 231 255
212 231 255
212 231 255
212 231 255
143 165 209
62 99 165
60 96 153
62 98 164
62 98 162
62 98 162
62 97 154
61 98 164
61 97 156
61 97 156
62 97 156
63 99 162
61 97 160
61 97 157
62 98 163
61 97 150
62 98 161
62 98 157
62 98 162
62 98 163
61 97 157
63 99 164
62 98 157
61 97 154
61 97 153
62 98 157
62 98 158
62 98 161
62 98 162
61 97 150
62 98 161
62 97 158
62 98 159
63 99 163
62 97 153
61 97 156
61 97 163
63 99 162
61 97 158
61 97 151
60 95 137
61 96 149
61 97 150
61 96 148
62 97 155
63 99 162
62 98 157
61 97 157
63 99 167
62 98 159
61 97 155
62 97 156
62 98 159
62 98 161
62 97 155
62 98 162
61 96 150
61 96 148
62 98 158
62 98 159
61 96 153
61 96 151
61 96 152
62 97 157
60 94 146
61 96 151
61 96 155
61 96 155
61 97 156
61 96 155
61 96 153
61 96 154
61 96 162
61 96 155
62 96 162
61 95 152
61 96 156
59 93 150
60 95 154
59 93 153
60 94 155
60 93 151
60 93 150
57 89 147
58 91 154
131 153 194
212 231 255
212 231 255
212 231 255
212 231 255
212 231 255
213 231 255
213 231 255
213 231 255
213 231 255
213 231 255
213 231 255
213 231 255
213 231 255
213 231 255
213 231 255
213 231 255
213 231 255
212 229 252
147 150 134
121 119 79
133 130 86
122 121 83
115 114 78
131 130 88
135 136 94
134 133 92
127 126 86
136 136 94
138 138 96
118 119 83
136 135 93
136 136 92
145 144 98
134 134 92
131 132 91
134 135 94
142 142 98
141 140 97
136 136 94
145 143 97
146 146 97
150 149 100
136 136 93
153 151 101
152 150 100
154 152 100
157 156 103
158 156 102
158 155 101
156 153 100
155 152 98
162 159 105
157 154 102
161 158 104
153 150 99
154 152 102
161 157 104
160 157 104
159 156 101
165 161 105
165 161 104
163 160 102
168 164 104
164 161 105
159 156 99
163 160 105
167 164 104
167 163 105
167 164 107
166 163 106
170 166 108
172 167 107
164 160 100
170 166 106
170 166 107
171 166 108
169 163 105
167 162 103
169 164 104
166 162 101
167 162 102
170 166 106
169 164 104
168 163 100
176 170 107
171 166 106
168 163 106
169 164 102
173 167 104
174 169 106
168 162 101
172 166 104
168 163 104
168 162 103
166 162 103
166 162 101
172 166 104
172 166 103
169 164 101
164 159 101
167 162 101
170 164 105
162 157 97
168 164 99
170 165 104
171 165 102
167 163 100
169 163 101
167 162 101
166 162 102
174 167 103
169 162 100
169 164 104
168 163 103
169 164 102
168 163 101
171 166 104
171 165 99
160 155 95
167 162 98
167 162 99
169 163 100
168 162 103
160 155 99
160 154 94
165 160 97
159 154 94
167 161 99
165 160 98
163 158 97
168 163 99
158 153 95
163 157 96
161 156 95
161 157 94
161 157 97
167 160 99
168 162 97
159 155 94
165 159 99
154 149 87
157 153 93
160 155 94
160 154 93
159 153 90
155 150 91
153 148 88
162 157 95
161 155 93
155 150 92
157 152 92
152 146 87
149 144 88
155 150 93
149 144 91
149 143 81
157 151 89
207 228 255
207 228 255
206 227 255
206 227 255
206 227 255
206 227 255
207 227 254
209 228 252
208 228 250
209 228 252
209 228 252
209 228 252
209 228 250
208 227 246
210 229 254
209 228 252
207 227 248
208 227 246
208 228 248
209 228 249
208 227 248
204 224 236
206 226 242
206 226 244
205 225 238
205 225 237
206 226 240
207 227 244
207 226 244
206 226 240
205 224 237
206 226 240
207 227 248
207 226 242
207 226 241
207 227 245
208 227 245
205 225 238
207 226 245
207 227 248
207 227 245
208 227 246
206 225 244
208 228 249
210 229 252
205 225 241
208 228 248
205 225 246
208 227 246
207 226 246
206 226 242
209 228 249
208 227 248
208 228 250
210 229 252
206 226 245
209 228 248
209 228 250
206 225 248
208 228 248
203 223 237
208 227 245
207 226 246
208 228 249
209 228 250
208 228 249
206 226 246
209 228 252
206 226 240
208 227 249
209 228 248
208 228 249
207 227 248
208 228 248
207 227 246
208 228 252
205 225 242
207 227 252
207 226 246
207 227 248
207 226 240
207 227 249
207 227 249
205 225 245
207 227 249
209 228 253
208 228 252
206 226 245
207 227 252
205 226 246
204 224 240
205 225 242
206 226 248
204 225 244
202 223 242
206 226 249
205 226 245
208 227 250
206 226 245
205 226 246
206 226 246
206 226 245
206 227 249
206 226 248
206 227 253
206 226 248
204 225 246
205 225 246
205 226 252
206 226 248
203 225 248
204 225 245
204 225 248
202 223 237
203 225 248
203 224 246
203 225 248
200 223 238
199 222 236
200 222 238
203 225 246
201 224 246
202 224 249
199 223 245
200 223 244
198 222 250
195 221 254
196 222 255
197 222 255
198 223 255
199 223 255
201 224 255
202 225 255
204 226 255
205 227 255
206 227 255
209 229 255
211 230 255
211 230 253
213 231 255
213 231 255
213 231 255
213 231 255
213 231 255
213 231 255
213 231 255
213 231 255
213 231 255
213 231 255
213 231 255
213 231 255
213 231 255
213 231 255
213 231 255
213 231 255
213 231 255
177 197 230
62 98 166
62 98 156
61 97 159
61 97 156
61 97 158
62 98 159
62 97 155
62 98 164
61 97 158
62 98 159
62 98 160
61 97 159
62 98 158
61 97 153
62 98 161
62 98 156
62 98 159
62 98 157
62 97 156
62 98 154
62 98 158
60 96 151
62 98 155
61 97 160
62 98 160
61 97 152
62 97 153
61 97 154
60 96 156
61 96 151
61 96 153
62 98 158
62 98 159
62 98 158
62 97 153
61 96 149
62 98 161
62 98 158
61 97 152
62 98 156
61 97 153
62 97 156
61 97 152
62 98 162
60 96 151
63 99 159
62 97 151
62 98 155
60 96 148
61 97 157
62 98 161
61 97 155
62 98 158
60 94 150
61 97 155
62 98 156
61 97 152
61 97 156
62 98 160
61 96 154
61 97 154
61 97 159
61 95 144
60 95 151
62 97 162
59 94 148
62 97 161
60 96 155
60 95 153
61 96 154
60 94 150
62 97 159
61 96 154
60 93 147
61 95 149
61 96 151
62 97 159
60 94 152
60 94 151
58 91 150
60 93 151
61 95 151
60 95 161
58 91 148
59 92 155
57 89 147
171 190 221
213 231 255
213 231 255
213 231 255
213 231 255
213 231 255
213 231 255
213 231 255
213 231 255
213 231 255
213 231 255
213 231 255
213 231 255
213 231 255
213 231 255
213 231 255
213 231 255
170 180 184
120 118 78
121 121 81
121 121 84
115 114 79
120 119 80
123 124 85
130 129 90
129 128 88
124 124 85
127 127 87
131 132 91
127 127 87
126 126 87
135 134 92
133 132 91
137 136 92
150 148 100
142 141 93
137 137 95
144 142 95
149 147 98
143 143 97
147 146 99
137 136 93
142 141 96
142 142 95
148 146 96
150 148 98
152 149 98
152 150 99
163 159 103
161 158 105
156 152 102
156 153 100
157 154 101
160 157 103
155 153 100
158 155 99
166 162 106
159 156 99
162 159 103
162 159 103
158 155 100
166 163 106
157 154 98
163 159 101
167 163 104
166 162 102
166 163 105
164 160 102
167 162 104
164 159 101
170 166 106
170 165 104
174 169 107
175 170 110
172 168 106
174 169 109
166 161 103
172 167 105
167 162 103
173 168 108
169 165 105
167 162 103
171 166 105
167 163 101
173 168 106
174 169 107
169 165 104
172 167 105
169 164 104
174 169 107
171 166 101
170 166 104
165 160 100
170 165 104
169 164 103
174 168 103
169 164 101
168 163 99
167 162 103
169 164 102
169 165 101
169 163 103
171 165 104
168 163 103
170 164 101
176 170 106
169 164 101
162 157 96
168 163 103
165 161 101
166 161 97
167 161 98
167 162 98
164 159 97
167 161 99
166 161 101
167 162 100
168 162 102
165 160 97
163 158 97
172 166 103
167 163 99
165 160 99
167 161 101
166 160 97
160 155 95
162 157 91
169 164 103
162 157 94
167 160 100
160 155 95
162 157 94
158 155 93
163 158 94
163 158 99
164 158 100
167 162 99
164 159 97
163 157 93
166 161 99
157 153 90
159 155 94
161 156 95
161 156 93
167 161 98
158 152 90
164 158 97
159 154 93
153 148 90
158 153 90
152 147 87
156 151 90
149 144 86
153 148 91
156 149 88
160 155 92
163 157 91
207 228 255
207 228 255
207 228 255
206 227 255
206 227 255
207 227 249
208 228 250
209 229 253
208 227 248
209 229 250
209 228 253
207 227 245
208 228 249
209 228 249
210 229 253
210 229 252
207 226 244
208 227 245
210 229 253
210 229 252
204 224 233
206 226 244
208 227 246
206 226 241
208 227 246
204 224 233
207 226 244
207 227 245
205 225 237
208 228 250
207 226 240
207 227 242
210 229 252
208 227 246
207 226 241
207 227 245
207 226 245
206 226 240
208 227 246
208 228 248
208 227 245
208 226 246
210 229 249
207 226 246
206 225 238
208 228 246
209 228 249
206 226 242
208 228 248
207 227 245
209 228 252
207 227 244
207 226 244
209 228 250
205 224 240
206 226 241
205 225 245
206 225 240
208 227 245
208 227 246
207 227 250
208 228 248
208 228 250
206 226 242
206 226 246
209 228 250
206 226 245
208 228 250
206 226 241
208 227 249
207 227 246
207 227 249
206 225 242
208 228 248
208 228 249
207 227 242
207 227 246
206 226 244
205 225 241
207 227 248
208 228 249
207 226 248
208 228 250
206 225 245
207 227 250
207 227 246
210 229 254
205 226 245
208 228 252
208 228 252
206 226 246
207 226 249
206 226 246
207 227 249
206 226 248
208 227 246
207 227 249
206 226 245
207 227 250
207 227 248
206 226 248
205 226 248
204 224 240
206 226 248
207 227 250
206 226 248
204 225 242
204 225 242
205 226 248
206 226 248
204 225 245
204 225 242
206 227 252
204 225 246
203 225 248
204 225 246
201 223 242
203 225 246
201 222 240
200 223 240
200 223 242
201 223 244
202 224 246
203 225 249
202 224 246
201 224 249
198 222 252
196 221 254
197 222 255
198 223 255
199 223 255
200 224 255
201 225 255
202 225 255
205 226 255
206 227 255
207 228 255
209 229 255
211 230 255
213 231 254
213 231 254
213 231 255
213 231 255
213 231 255
213 231 255
213 231 255
213 231 255
213 231 255
213 231 255
213 231 255
213 231 255
213 231 255
213 231 255
213 231 255
213 231 255
211 229 254
86 116 174
62 97 161
62 98 161
61 97 158
61 97 152
62 98 162
62 99 169
62 98 160
61 97 157
62 98 162
62 98 161
62 97 155
61 97 157
62 97 156
62 98 156
62 97 150
61 97 153
61 97 151
62 98 159
62 98 157
62 97 156
61 97 151
62 97 156
62 98 155
62 98 158
62 97 155
60 96 150
61 97 158
62 98 158
61 97 151
61 97 152
62 97 148
61 97 153
61 97 152
61 97 152
62 98 160
61 96 147
62 98 156
63 98 154
61 97 156
62 98 157
61 97 158
62 97 151
62 97 154
61 97 153
62 97 157
63 98 162
61 97 153
61 97 149
62 98 159
62 98 154
62 98 158
61 97 156
62 97 158
61 97 157
60 95 149
61 96 152
62 97 151
62 97 154
62 97 158
61 97 160
60 96 150
61 97 156
62 97 156
61 97 159
61 97 157
61 97 156
61 95 147
63 99 163
61 96 155
61 97 158
61 95 151
61 96 153
60 95 159
62 97 160
60 95 149
60 94 150
60 94 151
60 94 156
61 95 157
59 92 151
61 95 151
58 91 149
59 93 151
60 94 157
61 95 159
57 90 144
95 118 162
211 229 254
213 231 255
213 231 255
213 231 255
213 231 255
213 231 255
213 231 255
213 231 255
213 231 255
213 231 255
213 231 255
213 231 255
213 231 255
213 231 255
213 231 255
196 210 227
118 117 82
135 132 88
122 121 81
120 119 81
131 130 89
123 122 84
119 121 84
126 127 89
128 128 88
127 128 90
136 135 92
125 125 86
123 124 86
122 124 87
133 133 91
134 134 90
139 138 94
140 140 96
138 138 94
150 149 99
138 138 94
142 142 97
141 140 94
145 143 96
147 146 98
152 150 97
153 152 102
156 153 103
152 150 97
149 147 96
160 158 106
158 155 104
153 152 100
156 153 102
157 155 104
155 152 101
153 150 99
159 155 99
151 149 98
162 158 103
164 160 103
165 161 102
172 167 107
166 162 103
160 157 101
164 160 103
166 162 104
165 162 104
164 161 104
165 160 98
168 163 103
169 165 106
169 163 104
167 163 105
175 170 109
171 167 105
169 166 103
165 161 101
172 166 105
168 164 104
171 166 104
172 167 107
169 165 103
167 162 100
166 161 100
173 168 108
174 168 106
173 167 105
171 166 105
169 164 102
171 166 104
173 167 106
172 167 106
167 162 100
170 164 103
169 164 104
171 165 102
171 164 103
170 165 96
173 167 103
173 168 103
170 165 106
164 159 97
170 165 103
170 165 103
170 165 103
167 161 101
168 162 99
165 161 102
169 164 104
171 165 100
166 160 99
174 168 103
166 161 97
164 159 97
170 164 99
164 159 98
173 166 103
165 160 97
168 162 99
167 162 98
167 162 95
169 164 100
170 164 103
165 160 101
168 163 97
162 158 97
162 156 96
163 158 95
167 162 101
165 159 95
166 160 98
165 160 93
163 157 95
167 162 99
161 155 93
163 158 94
154 149 92
161 156 94
162 158 97
161 156 94
160 156 95
159 155 92
161 155 90
154 148 87
157 151 92
155 150 89
159 154 92
163 156 94
160 155 90
159 152 93
155 149 90
159 153 93
160 154 94
158 153 89
148 143 83
152 147 84
157 151 93
158 153 93
147 142 81
208 228 255
207 228 255
207 228 255
207 228 255
209 228 253
209 228 250
210 229 254
210 229 252
210 229 252
211 229 253
209 228 248
209 228 246
211 229 253
209 228 245
209 228 246
211 229 252
209 228 246
208 227 246
209 228 248
207 226 241
207 226 241
206 225 241
206 226 240
206 226 241
208 227 245
206 226 238
208 227 245
206 226 242
206 225 240
207 226 242
209 228 248
208 227 248
208 227 244
208 227 244
210 229 250
209 228 249
210 229 250
209 228 248
207 226 245
207 226 244
208 228 248
209 228 252
208 227 248
207 226 244
209 228 248
209 228 246
209 228 249
209 228 249
208 227 248
209 227 248
207 226 246
208 227 244
208 227 249
207 227 240
207 226 241
209 228 249
208 227 244
208 227 249
209 228 246
209 228 248
208 227 249
208 227 248
207 226 246
204 224 236
207 226 244
207 226 248
209 228 246
208 228 246
206 226 245
209 228 246
209 229 252
208 227 246
207 226 246
206 225 246
208 227 249
207 226 246
207 226 248
207 226 248
208 228 250
208 228 252
209 228 253
207 227 248
207 226 245
207 227 250
207 227 244
209 228 252
206 225 244
206 226 246
209 228 249
208 228 249
208 228 250
207 227 246
208 227 246
207 227 245
208 227 248
208 227 249
205 226 242
206 226 248
204 224 238
206 226 249
206 226 245
205 225 248
206 226 244
209 228 252
204 225 244
204 224 244
205 225 244
204 225 244
204 225 244
203 224 237
204 225 242
206 227 250
205 226 245
203 224 244
206 227 249
204 225 245
201 223 240
204 226 250
201 223 238
202 224 248
203 225 246
202 224 242
200 222 238
203 225 248
201 224 244
204 225 250
203 225 252
201 224 253
197 222 255
198 223 255
199 223 255
200 224 255
201 224 255
202 225 255
203 226 255
205 227 255
207 228 255
208 228 255
210 229 255
212 230 254
214 231 255
214 231 255
214 231 255
214 231 255
214 231 255
214 231 255
213 231 255
214 231 255
213 231 255
213 231 255
213 231 255
213 231 255
213 231 255
213 231 255
213 231 255
152 173 207
62 98 166
62 98 163
61 97 159
61 98 161
61 96 154
62 98 160
61 97 149
61 97 158
62 98 157
62 98 161
61 97 156
62 98 157
62 98 158
61 96 148
62 98 155
61 97 151
61 96 149
62 97 154
62 98 156
62 98 155
62 98 157
61 97 157
61 96 154
61 97 156
62 98 156
62 97 150
61 97 154
61 97 157
62 98 161
62 98 156
62 97 152
61 96 150
61 97 156
62 97 158
61 97 151
61 97 158
62 97 153
62 97 151
61 97 151
61 97 151
61 96 143
61 96 149
61 97 152
62 98 159
61 96 152
62 98 158
62 97 156
62 98 158
62 97 159
61 97 158
60 95 150
63 98 161
62 97 153
61 97 155
61 97 155
62 97 156
61 97 154
61 96 159
61 96 152
61 96 150
61 96 150
62 98 158
61 96 151
62 97 159
61 97 156
62 97 159
62 97 154
62 97 153
62 98 167
61 96 151
62 98 158
59 92 141
62 97 160
61 96 158
60 94 153
60 94 147
61 96 156
61 96 154
60 95 153
61 96 158
59 92 147
60 93 150
60 95 155
59 93 148
60 93 151
59 93 152
56 88 138
57 90 144
151 170 203
213 231 255
213 231 255
213 231 255
213 231 255
213 231 255
213 231 255
213 231 255
213 231 255
214 231 255
214 231 255
214 231 255
214 231 255
214 231 255
211 228 252
143 144 114
130 128 83
111 110 73
128 126 85
120 120 82
116 116 79
114 115 79
124 124 87
128 129 88
130 130 89
131 131 90
119 119 83
132 133 92
123 125 87
126 126 87
144 142 95
141 139 94
130 129 89
130 129 88
136 135 90
136 135 89
133 133 91
143 143 97
146 144 99
152 150 100
150 147 97
145 144 97
156 153 100
153 151 100
150 149 99
153 151 99
151 150 100
158 155 104
154 152 102
151 148 97
151 149 99
161 158 102
161 158 104
163 159 102
159 156 100
163 159 102
157 154 99
165 161 104
164 160 102
166 161 103
165 161 101
164 160 101
165 161 103
168 164 105
167 163 104
168 163 103
162 159 101
168 163 104
171 167 106
161 157 97
169 165 106
168 163 103
164 160 100
162 158 101
174 169 105
171 166 108
174 169 108
170 166 105
170 165 102
168 164 104
169 164 105
170 165 104
171 166 102
167 162 103
163 158 101
168 163 102
169 164 101
166 161 101
172 165 103
165 160 95
170 164 99
168 163 101
170 165 100
173 167 103
168 162 97
171 167 106
173 167 103
170 165 101
166 162 96
170 165 101
169 164 101
168 163 96
170 165 99
168 162 98
173 167 101
166 162 97
173 168 105
170 165 101
160 156 93
167 162 101
168 162 102
170 165 101
171 165 102
167 162 98
163 158 97
167 161 97
166 160 96
171 166 101
167 161 98
166 160 96
164 158 99
163 158 95
155 150 90
166 160 91
162 158 95
163 157 95
170 164 99
167 163 97
161 154 91
164 158 97
165 160 97
168 163 97
160 154 94
165 159 96
161 155 94
160 155 94
165 159 94
163 158 93
159 154 93
157 152 87
160 155 96
160 154 93
156 151 90
159 153 91
167 161 98
157 151 90
153 148 89
165 158 91
160 154 93
154 148 89
158 152 90
158 153 95
151 146 89
152 147 86
156 151 88
159 153 94
208 228 255
208 228 255
208 228 255
207 227 250
210 228 245
211 230 253
211 230 254
209 228 249
211 230 254
207 226 241
209 228 248
210 228 250
209 228 248
209 228 248
208 228 245
210 228 248
212 230 253
212 230 253
207 226 240
208 227 246
207 227 244
206 225 238
207 227 242
207 226 244
207 227 241
207 227 241
210 228 249
208 227 248
207 227 241
208 227 244
208 227 242
208 228 246
209 228 250
209 228 248
209 228 248
209 228 248
207 226 246
210 228 250
206 225 240
206 226 240
208 227 244
207 227 244
211 229 250
210 228 248
209 228 246
208 227 241
208 227 244
208 227 248
210 228 249
209 227 245
207 227 244
210 229 252
208 227 248
211 229 252
207 226 246
207 226 249
209 228 245
206 225 242
210 229 250
211 229 252
209 227 249
209 228 249
208 227 242
209 228 245
209 228 249
206 225 242
209 227 248
209 228 249
208 227 246
208 227 246
208 227 250
208 227 248
208 227 246
211 230 254
209 228 249
210 228 248
209 228 250
209 228 246
207 226 246
208 227 248
208 227 249
209 228 246
209 228 246
207 227 248
207 227 246
206 225 244
208 228 250
209 228 249
206 225 244
208 227 245
208 227 244
208 227 249
209 229 253
208 228 250
209 228 252
208 227 245
209 228 250
208 227 249
207 226 245
206 226 246
208 227 246
205 226 245
206 226 245
204 224 241
207 227 248
206 226 244
207 227 248
205 226 244
208 227 248
204 225 240
206 227 249
206 226 250
205 226 246
205 225 248
204 225 241
204 225 245
205 226 246
205 226 248
201 222 234
203 225 242
202 224 238
202 223 240
202 224 241
202 224 240
204 225 246
204 226 253
203 225 245
203 225 250
200 224 253
198 223 255
199 223 255
200 224 255
201 224 255
202 225 255
203 226 255
205 226 255
206 227 255
207 228 255
210 229 255
211 230 255
213 231 254
214 231 254
214 231 255
214 231 255
214 231 255
214 231 255
214 231 255
214 231 255
214 231 255
214 231 255
214 231 255
214 231 255
214 231 255
214 231 255
203 221 246
64 100 163
62 98 162
62 98 166
61 97 154
61 97 159
62 98 158
62 98 161
62 98 164
62 98 155
62 97 152
62 98 157
61 96 151
61 97 155
62 97 153
61 97 151
61 97 159
61 97 156
63 98 159
62 98 154
62 98 158
61 96 155
62 98 154
62 98 160
62 97 157
61 97 152
61 97 145
61 96 148
61 96 156
61 97 150
61 96 152
63 99 164
62 97 152
61 97 159
62 97 147
61 96 157
61 97 159
62 97 153
61 96 142
62 98 163
61 97 155
62 97 154
61 97 154
62 98 158
61 96 151
61 97 154
61 97 154
61 97 155
61 97 157
60 96 150
61 97 149
62 98 161
60 96 145
60 95 141
61 96 149
62 98 159
60 95 151
62 98 160
62 97 160
62 97 159
62 98 158
61 97 152
61 96 151
62 97 153
61 97 156
61 96 152
61 96 152
61 96 157
60 95 146
61 97 152
61 96 153
61 96 154
60 95 146
60 94 142
62 98 163
61 96 156
60 95 155
61 95 158
59 94 147
59 93 145
59 93 147
59 93 149
60 94 148
60 94 156
61 95 152
59 94 149
58 92 148
60 94 149
59 93 154
60 93 157
68 97 150
191 209 236
214 231 255
214 231 255
214 231 255
214 231 255
214 231 255
214 231 255
214 231 255
214 231 255
214 231 255
214 231 255
214 231 255
214 231 255
160 167 167
125 122 82
129 127 84
126 125 85
129 128 88
123 122 84
124 124 85
121 121 83
115 117 81
123 123 85
118 119 84
120 121 84
116 117 81
128 128 88
134 134 93
132 131 89
133 133 91
124 124 86
136 135 91
128 129 89
133 133 90
138 139 95
140 140 96
136 136 94
146 144 96
145 143 95
150 149 99
138 137 93
153 150 99
150 149 100
160 157 104
148 145 97
144 142 94
159 156 101
149 147 97
155 153 99
167 163 104
151 148 98
156 153 101
158 156 104
158 154 97
161 156 100
165 160 102
168 164 107
167 163 105
168 163 107
169 165 105
165 159 100
166 163 105
168 163 104
169 164 104
172 166 103
167 162 101
162 158 97
170 165 104
174 169 108
168 164 106
168 163 102
172 168 108
172 167 107
165 161 101
174 168 106
171 166 105
169 164 104
170 165 104
173 168 106
168 163 101
174 167 105
170 164 103
174 168 104
175 169 102
172 168 106
173 168 103
175 169 106
169 165 100
168 164 100
172 166 106
172 167 104
171 165 103
171 165 101
169 163 97
170 165 104
171 165 99
171 166 100
166 161 97
174 168 103
167 163 101
170 165 102
168 164 103
170 164 98
169 163 99
172 165 101
169 164 98
166 160 95
168 162 96
168 162 98
164 159 97
169 163 100
163 157 93
165 161 97
166 159 95
168 163 99
171 163 97
170 164 100
169 164 99
165 160 98
164 159 95
161 157 93
167 161 97
162 157 97
166 161 97
164 158 95
161 156 90
165 158 97
157 152 92
162 156 94
162 157 91
166 160 95
161 156 93
164 158 95
158 154 92
161 156 92
159 154 92
160 154 87
159 153 89
164 159 93
166 160 98
156 150 90
156 151 84
157 153 86
163 157 95
156 151 87
159 153 92
153 147 86
155 151 88
154 148 90
158 153 90
158 153 85
158 154 93
143 139 82
149 144 85
157 151 88
208 228 255
208 228 255
208 228 253
211 230 252
210 229 250
211 230 254
211 230 253
211 229 252
210 228 246
209 228 245
210 229 250
212 230 252
210 228 250
211 229 252
208 227 241
212 230 252
210 228 248
209 228 245
208 227 244
209 228 248
208 227 245
207 226 241
210 228 250
207 226 240
208 227 244
209 227 244
208 227 241
207 226 241
210 228 250
208 227 244
210 229 249
209 228 246
210 228 249
206 225 240
210 228 246
210 228 246
211 229 250
210 229 249
210 229 250
208 227 244
209 227 245
209 228 246
209 227 246
211 229 250
209 227 246
210 229 248
210 229 248
210 229 252
210 228 252
210 229 249
210 228 248
208 227 241
209 228 248
208 227 244
209 228 248
206 225 240
210 229 250
207 225 244
209 228 250
209 228 249
209 228 246
207 226 237
207 226 242
208 226 242
206 224 242
210 229 253
209 228 249
208 227 246
209 227 248
209 228 246
208 227 246
209 228 248
208 227 244
208 226 248
210 229 250
209 228 246
209 227 244
209 228 252
208 227 244
208 227 252
208 227 248
208 228 252
207 226 242
208 227 246
209 228 248
208 227 248
206 225 237
208 228 248
208 227 245
209 228 249
207 226 244
208 227 245
206 225 240
208 228 249
207 226 246
208 227 249
207 227 248
209 228 250
208 227 245
208 228 249
209 227 246
207 227 248
209 228 250
207 226 244
206 226 246
209 228 250
207 226 244
207 227 245
206 226 242
206 226 244
205 226 242
208 228 249
205 225 245
207 227 253
206 227 248
206 226 246
207 227 252
206 226 246
205 226 248
205 226 248
203 224 238
204 225 241
204 225 245
203 224 242
204 225 244
204 225 242
203 224 244
205 226 253
203 224 248
201 224 253
199 223 255
200 224 255
201 224 255
202 225 255
203 225 255
204 226 255
206 227 255
208 228 255
208 228 255
210 229 254
212 230 255
213 231 253
214 231 255
214 232 255
214 232 255
214 232 255
214 232 255
214 232 255
214 232 255
214 232 255
214 231 255
214 231 255
214 231 255
214 231 255
137 159 198
61 97 159
62 98 159
62 98 160
61 96 152
62 98 163
61 97 152
62 98 159
62 98 156
61 96 152
61 97 157
63 99 165
62 98 158
62 98 158
61 96 153
61 97 157
62 97 158
61 96 153
61 97 151
61 97 156
61 97 153
62 98 155
62 98 160
61 96 148
62 98 158
61 97 152
62 98 156
61 96 149
62 98 158
62 97 154
62 97 152
63 99 160
61 96 151
62 99 166
62 98 158
63 98 158
62 98 159
60 96 144
61 96 150
62 98 159
62 98 154
62 97 156
62 97 157
62 97 150
62 97 156
61 97 154
62 97 161
62 97 159
62 98 159
62 97 149
63 98 155
62 97 152
61 97 154
62 97 157
62 97 156
62 97 151
60 96 147
61 96 151
61 97 158
62 97 156
61 97 158
62 98 159
62 98 159
62 97 155
60 95 149
60 95 146
60 95 147
60 95 140
61 96 151
62 96 157
60 94 140
60 94 147
62 97 154
60 94 145
61 96 154
62 97 155
60 95 151
60 94 148
60 94 147
61 95 154
60 94 149
60 95 158
60 94 152
60 94 152
61 96 160
60 94 153
60 94 155
59 92 147
57 90 143
56 89 143
55 85 137
137 155 184
214 231 255
214 231 255
214 231 255
214 231 255
214 232 255
214 232 255
214 232 255
214 232 255
214 232 255
214 232 255
214 232 255
201 216 232
119 118 82
130 127 84
116 114 78
119 119 81
120 119 80
111 112 79
114 116 82
116 118 82
115 116 81
124 125 87
127 128 89
136 135 91
123 124 86
137 136 94
127 128 88
128 130 90
133 132 89
137 137 93
141 140 95
129 129 90
127 127 87
138 137 93
134 134 92
143 143 95
147 146 97
147 145 97
155 152 98
141 141 94
159 156 101
142 142 94
154 151 98
154 152 101
151 149 95
158 155 103
152 151 97
154 153 101
155 153 102
162 159 101
157 154 100
157 154 101
163 159 104
163 159 102
161 157 100
164 159 102
167 163 104
161 157 99
166 162 103
163 159 102
165 162 104
159 156 100
169 164 103
169 164 97
162 158 101
171 165 104
168 163 103
163 159 100
172 165 103
169 165 102
169 164 101
168 163 100
170 165 103
170 165 101
167 163 103
167 163 100
176 170 107
169 165 102
170 165 98
170 164 100
166 162 101
173 168 105
168 163 100
171 166 104
171 166 102
173 168 102
172 167 103
168 163 98
168 163 99
169 163 101
171 166 103
167 163 99
175 169 106
166 161 101
165 160 96
166 159 96
174 168 104
175 168 104
170 163 103
175 169 103
171 165 101
166 160 96
165 160 98
169 164 100
164 159 97
171 165 95
171 165 99
169 163 101
169 164 99
167 161 98
164 160 94
162 158 93
166 161 96
166 160 95
171 165 99
166 161 97
163 158 97
171 165 101
161 156 93
164 158 93
163 157 93
166 161 97
169 164 100
162 157 93
160 155 95
160 155 95
159 153 90
164 157 93
166 161 99
161 155 93
163 158 93
165 158 95
157 152 92
166 159 97
160 154 91
165 160 96
164 158 92
163 156 95
159 153 92
167 161 93
159 153 90
158 153 91
160 154 92
161 156 92
154 149 90
162 158 96
162 156 93
154 148 87
153 148 85
154 149 86
159 154 88
161 154 93
160 155 92
149 144 85
209 229 255
208 228 253
211 229 250
211 229 252
212 230 252
211 230 252
212 230 254
211 229 252
210 229 249
211 229 246
211 229 249
210 229 248
210 228 245
210 228 246
211 229 249
209 228 245
208 226 240
207 227 241
208 227 238
208 227 240
208 227 240
206 225 238
209 227 241
207 227 240
208 227 244
208 227 240
211 230 253
208 227 240
210 229 248
211 230 252
209 227 246
208 226 242
210 228 245
209 228 246
207 226 241
208 227 241
209 227 244
211 229 249
209 227 247
208 227 241
210 228 250
210 229 248
210 228 248
208 227 244
209 228 244
208 227 242
210 229 248
210 229 250
210 228 249
208 227 246
210 229 250
209 227 248
208 227 245
208 227 240
210 228 248
207 226 242
209 228 248
209 227 248
207 225 237
208 226 244
210 228 249
205 224 238
211 229 250
211 229 250
207 226 244
211 229 252
207 226 245
208 227 245
210 228 250
207 226 248
208 226 242
208 227 246
209 228 248
210 229 249
209 228 250
208 227 245
209 228 248
206 226 242
208 227 248
209 228 249
209 227 246
209 228 248
209 228 248
208 227 248
207 226 242
207 226 242
210 228 253
209 228 248
208 227 245
209 227 245
209 228 252
207 226 244
207 226 242
209 228 250
209 228 249
208 227 244
209 227 248
205 225 241
209 228 248
208 227 248
208 228 249
209 228 248
209 228 250
207 226 244
208 227 245
206 226 244
208 228 250
206 226 245
205 225 240
208 228 250
208 228 249
207 227 248
207 227 250
207 227 248
208 228 250
207 227 249
206 226 246
207 228 253
206 226 241
205 225 244
204 224 238
205 226 245
203 224 238
203 224 241
204 225 245
204 225 248
205 226 250
205 226 248
205 226 250
204 225 250
201 224 255
200 224 255
201 224 255
202 225 255
203 225 255
204 226 255
206 227 255
207 227 255
208 228 255
210 229 255
212 230 255
213 231 255
214 231 255
214 232 255
214 232 255
214 232 255
214 232 255
214 232 255
214 232 255
214 232 255
214 232 255
214 232 255
214 232 255
202 220 246
71 104 156
61 97 159
60 95 152
61 97 153
61 97 156
61 96 152
61 97 155
61 96 149
61 96 143
62 97 156
61 97 158
62 98 157
61 97 152
62 98 153
62 98 160
61 97 160
62 97 154
61 97 159
60 96 148
62 98 160
61 97 148
61 97 145
61 97 154
61 96 151
61 97 156
61 97 154
62 97 156
62 97 154
61 97 154
61 97 157
61 97 151
62 98 160
61 97 156
61 97 153
63 98 155
61 97 152
61 97 153
62 97 151
62 97 155
60 96 145
62 98 152
62 97 154
62 98 153
61 97 151
60 95 141
61 97 156
61 97 147
61 97 153
61 96 151
61 97 155
60 95 144
62 97 153
60 95 144
61 96 152
62 98 155
59 94 143
62 97 152
61 96 151
61 96 151
62 98 160
61 96 142
61 96 149
60 95 142
60 96 146
62 97 155
60 95 146
61 96 154
61 97 150
60 94 151
62 97 156
60 96 148
61 96 149
60 95 146
59 93 139
60 95 154
61 96 152
61 96 152
59 93 141
60 93 136
59 92 145
59 92 145
60 93 150
59 93 152
58 91 145
58 91 147
61 95 158
59 91 142
58 92 151
60 93 149
56 88 138
59 93 155
63 92 147
202 219 243
214 232 255
214 232 255
214 232 255
214 232 255
214 232 255
214 232 255
214 232 255
214 232 255
214 232 255
214 232 255
144 150 143
113 111 73
117 115 78
127 125 84
119 119 80
106 107 75
119 120 85
107 108 77
119 121 86
121 122 85
110 111 77
121 122 85
122 122 84
119 121 86
130 130 90
126 127 89
133 133 91
135 135 93
134 134 92
140 140 97
134 134 91
143 142 97
142 141 96
142 140 92
148 146 99
141 140 92
139 140 95
150 148 99
143 141 93
149 147 96
152 150 97
154 151 99
148 146 93
160 157 103
158 154 101
164 161 104
155 152 99
153 151 97
161 158 102
158 155 98
161 158 100
157 154 101
165 161 102
164 160 102
160 157 97
166 162 102
162 157 100
163 159 100
164 160 102
167 163 104
165 160 97
163 159 97
163 159 102
173 167 104
170 165 104
172 167 107
170 164 102
172 168 106
168 163 101
174 168 102
170 166 103
170 166 103
173 168 103
171 165 104
169 164 99
175 169 104
170 165 102
173 167 103
171 167 103
170 165 104
170 165 103
168 164 96
176 169 107
171 165 100
173 168 103
172 166 103
169 163 98
171 166 100
173 167 104
173 168 103
170 165 103
172 166 101
173 166 106
172 166 100
173 167 103
174 168 104
169 164 101
173 167 101
165 159 93
164 159 96
176 170 105
166 161 99
170 164 98
167 161 96
166 162 95
170 164 98
169 164 97
170 164 99
170 165 101
171 165 99
170 164 100
170 164 100
162 157 92
169 164 98
169 164 101
173 167 101
168 163 96
167 162 99
161 156 95
167 161 99
163 157 86
169 163 99
165 159 97
164 158 95
172 165 101
171 164 101
161 154 90
162 157 92
162 157 88
169 163 97
167 160 98
163 158 95
165 159 97
161 156 93
167 161 92
164 159 94
164 159 94
162 157 95
160 154 90
164 158 93
157 152 91
161 155 90
155 150 88
164 159 95
165 160 95
163 157 90
145 141 78
161 155 90
164 157 93
157 152 89
158 152 86
162 157 93
158 152 90
209 229 254
211 230 252
211 230 252
211 229 252
212 230 253
210 228 244
211 229 249
210 229 249
212 231 254
212 230 254
210 228 249
211 229 248
212 230 249
213 230 253
211 229 252
212 230 252
208 227 238
209 228 242
207 226 240
209 228 244
210 228 244
209 228 242
209 228 245
210 228 246
207 225 238
209 227 249
207 226 238
209 227 246
209 227 244
210 228 245
209 228 246
210 228 245
211 230 250
209 227 244
211 229 249
212 230 253
211 229 245
209 227 244
210 228 245
213 230 253
209 227 245
211 230 252
210 229 250
209 227 245
210 229 245
211 229 250
210 228 245
212 230 252
211 229 250
208 226 242
206 225 240
212 230 250
208 226 242
211 229 249
209 227 246
208 226 248
212 230 254
211 229 249
208 227 248
210 228 246
209 227 245
209 227 245
208 227 244
209 228 244
211 229 249
210 228 249
210 229 252
209 227 245
207 226 242
209 228 246
210 228 249
207 225 240
210 228 248
209 227 246
211 230 252
207 226 242
210 228 248
210 229 250
208 227 244
209 228 246
207 226 242
212 230 254
207 226 244
212 230 253
211 230 250
210 228 249
209 228 244
209 228 248
211 229 252
211 230 253
205 224 240
210 229 249
210 229 249
209 228 248
209 228 253
211 229 252
209 227 249
210 229 254
209 228 248
209 228 252
210 229 252
209 228 245
208 227 245
210 229 250
208 227 244
208 228 245
206 226 240
210 228 246
208 227 242
207 226 246
208 228 249
208 228 249
206 225 244
208 228 250
207 227 249
206 226 244
205 225 241
207 227 248
208 227 249
206 226 246
205 226 242
205 225 245
204 225 241
203 224 238
205 226 246
203 224 240
207 227 252
206 227 248
205 226 246
204 225 246
204 226 253
201 224 254
201 225 255
202 225 255
203 225 255
204 226 255
205 227 255
206 227 255
208 228 255
209 229 255
211 230 255
213 231 255
214 232 254
215 232 255
215 232 255
215 232 255
215 232 255
215 232 255
215 232 255
215 232 255
215 232 255
215 232 255
215 232 255
144 164 203
61 97 156
61 97 161
60 95 149
61 96 154
61 97 155
61 97 162
62 98 155
61 97 152
61 96 155
62 98 158
61 97 152
61 97 154
61 96 149
62 98 157
62 97 156
62 98 161
62 98 157
62 98 157
61 97 156
62 97 150
61 97 150
59 94 142
62 98 156
61 97 150
61 97 158
61 96 151
61 97 145
61 97 152
62 98 159
61 96 150
61 96 150
62 97 154
62 97 153
62 97 155
61 97 157
62 97 154
62 98 158
62 97 155
61 97 151
62 98 157
61 97 148
62 98 156
61 97 155
61 97 154
61 96 143
62 97 153
62 98 158
61 97 153
62 97 155
61 96 147
61 97 153
62 98 159
61 97 154
61 96 154
61 96 154
62 98 160
60 95 140
61 97 157
61 97 161
61 96 149
60 95 145
61 97 152
60 96 150
60 95 152
62 97 150
62 97 153
62 97 152
62 97 156
60 94 146
62 97 155
61 95 149
60 95 151
58 92 134
60 94 145
59 93 138
61 96 154
60 94 142
59 94 148
59 93 147
61 97 156
61 95 153
58 91 135
60 94 141
60 94 143
59 93 156
60 94 147
59 92 146
57 90 139
60 93 155
59 93 154
56 86 136
55 86 135
148 167 200
215 232 255
215 232 255
215 232 255
215 232 255
215 232 255
215 232 255
215 232 255
215 232 255
215 232 255
184 195 203
124 121 76
117 117 80
101 101 69
116 116 80
118 118 81
115 116 81
119 120 83
127 127 86
113 116 83
118 120 83
117 118 83
122 123 86
133 133 91
127 127 86
118 120 85
129 130 89
122 123 85
131 131 89
136 136 91
136 136 92
142 141 96
141 139 92
140 139 92
144 144 98
136 136 92
133 133 90
151 148 97
162 158 105
143 141 89
152 149 96
144 142 93
157 154 102
152 149 94
154 152 98
158 154 98
147 144 93
157 155 101
157 154 98
158 155 100
160 157 98
162 159 103
163 159 99
164 160 103
159 155 95
164 160 100
166 162 103
165 161 100
167 163 103
162 158 100
162 158 98
167 162 103
168 163 103
170 166 105
166 161 102
167 162 102
174 169 107
171 165 102
170 165 100
170 165 102
174 168 106
171 165 104
168 163 99
172 167 102
173 166 102
171 166 103
169 164 97
171 166 103
169 165 102
170 165 100
172 166 101
169 163 98
170 165 103
172 167 105
171 166 101
173 168 103
172 167 102
172 167 104
169 164 98
173 168 104
174 168 101
168 163 99
174 169 106
171 166 99
172 166 99
173 168 101
166 161 96
172 166 102
170 165 99
171 165 99
166 160 96
167 162 97
168 163 99
166 161 98
164 159 90
169 164 94
170 164 97
169 163 103
166 159 92
166 161 97
169 163 97
167 162 99
170 164 97
169 163 100
168 162 96
166 161 97
167 161 97
166 160 94
169 162 97
172 165 99
168 162 95
164 159 97
164 158 97
163 157 94
162 157 93
169 163 97
166 160 95
159 154 95
162 156 93
167 161 93
163 158 93
164 158 90
170 163 97
163 157 91
160 155 90
155 150 87
158 152 87
163 157 95
167 160 97
166 160 92
162 156 90
155 148 87
165 158 97
157 151 84
161 155 84
159 154 92
159 153 84
160 154 87
160 154 90
157 151 90
166 159 94
159 153 89
156 150 88
157 152 83
210 228 252
211 230 252
212 230 253
212 230 250
211 229 248
213 230 252
210 228 245
211 229 248
212 230 252
213 231 254
212 230 252
213 231 254
211 229 246
213 231 253
212 230 250
207 226 238
210 228 245
211 229 250
209 228 241
208 227 240
210 228 244
209 227 241
209 228 244
211 229 246
210 228 245
209 228 241
209 227 242
209 227 244
211 229 246
211 229 246
211 229 245
210 228 246
208 226 244
207 225 242
210 228 245
211 230 249
211 229 246
211 229 245
211 229 246
211 229 249
207 226 237
211 229 248
212 230 250
212 230 253
210 228 244
209 227 241
212 230 249
210 228 245
209 227 242
210 229 248
210 228 249
210 228 242
213 230 249
207 225 240
210 228 249
209 227 248
209 227 246
205 224 236
207 226 244
210 228 248
212 230 249
210 228 249
210 228 248
211 228 249
210 228 246
211 229 250
210 228 250
210 228 248
211 229 249
207 225 244
207 225 245
210 228 245
208 226 246
211 229 252
211 230 250
211 229 252
207 226 245
208 226 248
208 226 245
209 228 248
208 226 245
210 228 248
211 229 248
211 229 249
209 227 245
210 228 248
210 229 248
209 227 242
209 228 246
209 228 249
209 228 248
210 228 248
210 228 244
207 225 236
209 228 244
208 227 242
211 229 245
205 225 241
208 227 244
210 229 246
211 230 253
210 228 246
210 229 250
208 228 245
209 228 246
209 228 249
211 229 252
209 228 248
208 227 244
209 228 245
207 226 241
209 228 245
208 227 246
207 227 248
208 227 246
209 228 249
206 226 241
206 226 244
207 226 244
205 225 241
203 223 233
206 226 246
205 226 242
207 227 249
205 225 242
203 224 238
204 224 240
205 226 245
204 225 244
203 224 247
203 224 250
203 225 251
200 223 254
201 224 255
203 226 255
204 226 255
205 227 255
206 227 255
207 228 255
209 229 255
211 230 255
212 230 255
213 231 255
213 231 253
215 232 255
215 232 255
215 232 255
215 232 255
215 232 255
215 232 255
215 232 255
215 232 255
205 222 248
64 99 154
60 95 145
62 98 158
62 98 155
62 98 156
61 96 147
61 97 152
62 98 162
61 96 153
61 97 156
62 97 154
61 97 151
61 97 156
60 95 142
62 97 156
61 97 152
62 97 155
62 97 154
62 98 156
61 97 147
61 97 156
60 96 143
61 97 159
62 97 152
61 96 147
62 98 158
61 96 150
62 98 155
62 98 155
61 96 147
62 97 156
61 96 150
62 97 153
61 97 150
60 96 148
61 96 149
62 98 151
60 95 141
62 97 153
61 96 151
62 97 156
61 97 155
61 97 151
62 97 154
60 96 147
60 96 149
62 97 157
60 95 141
61 97 149
60 96 150
61 96 149
61 96 149
62 98 161
61 96 147
61 97 154
61 96 148
63 98 159
63 99 164
61 97 150
61 96 147
61 96 154
61 96 149
62 97 160
62 98 155
61 96 152
60 96 151
61 97 161
61 96 150
60 95 146
60 95 149
60 95 138
61 96 147
59 93 142
60 93 149
60 94 144
59 94 144
61 95 154
61 95 145
60 94 147
59 93 143
60 95 152
60 94 153
60 93 148
58 91 138
58 92 144
59 92 148
59 92 138
58 92 149
58 92 137
57 89 143
57 88 135
59 91 141
55 85 128
64 93 141
208 225 249
215 232 255
215 232 255
215 232 255
215 232 255
215 232 255
215 232 255
215 232 255
214 231 254
137 140 124
113 112 76
98 97 64
123 122 82
109 110 75
107 108 75
108 109 76
114 116 82
106 107 75
124 125 86
99 102 73
123 124 86
122 122 84
126 127 88
130 130 90
121 121 83
136 136 94
125 126 88
132 131 89
132 133 89
141 140 93
130 130 89
136 136 91
140 139 95
139 138 92
145 144 95
146 145 95
137 136 87
144 143 95
147 145 95
151 149 94
148 145 94
142 142 92
150 147 96
157 154 99
148 146 93
159 156 100
154 151 98
154 151 95
164 160 104
162 157 100
165 161 103
160 157 101
159 155 98
159 156 99
167 163 105
163 159 101
167 162 102
164 161 103
167 163 102
165 160 99
165 161 100
170 165 104
166 162 102
169 164 102
169 164 106
169 164 103
168 163 98
169 163 98
172 166 104
169 164 103
173 167 103
172 166 102
171 166 103
171 166 102
170 165 101
175 169 100
171 165 102
171 166 103
170 165 99
167 162 100
175 168 101
171 164 98
170 166 102
172 166 99
177 170 106
173 167 101
171 166 103
174 167 103
170 165 101
173 167 104
171 166 98
172 166 102
171 165 97
167 162 97
169 164 99
169 164 101
171 165 99
172 166 101
166 161 97
173 168 101
173 166 99
173 167 99
173 167 103
168 164 102
167 161 97
167 160 99
172 166 101
169 162 95
165 160 98
168 163 97
173 167 102
166 160 92
167 161 95
170 164 97
168 162 93
169 164 97
166 160 96
168 162 95
169 163 97
167 161 99
162 157 94
168 163 97
168 162 97
168 162 97
159 154 90
157 151 89
161 155 87
166 160 95
163 158 95
166 161 95
166 160 93
161 155 90
163 156 88
163 157 95
158 152 88
161 157 95
159 154 87
166 160 96
160 153 93
164 157 91
162 156 89
153 148 88
159 154 87
158 152 93
151 146 82
163 158 96
152 148 86
160 154 87
156 151 87
155 149 89
161 154 90
155 148 92
161 155 89
211 229 249
213 231 254
213 231 253
213 231 253
212 230 249
211 229 249
211 229 245
213 231 252
212 230 248
213 231 252
212 230 249
213 230 250
213 231 252
211 229 248
212 230 249
209 228 242
210 228 244
209 227 238
209 228 244
210 228 244
210 228 245
209 227 240
209 227 241
209 227 240
210 228 245
210 229 245
211 229 246
210 228 248
211 229 246
210 228 245
210 228 246
208 226 246
211 229 248
210 228 244
209 227 244
209 227 242
209 228 242
209 227 240
209 228 244
213 231 252
212 230 249
212 229 248
211 229 245
213 231 253
210 228 244
212 230 249
210 228 246
212 230 250
210 228 245
212 229 246
211 229 250
213 231 255
212 230 252
208 226 241
208 225 245
211 229 252
210 229 245
207 225 242
210 228 246
211 229 249
210 227 249
210 228 248
209 227 248
212 230 253
207 225 238
212 230 253
208 226 241
210 228 248
210 228 249
210 228 248
208 227 244
211 229 249
212 230 250
210 228 248
210 228 245
211 229 245
212 230 253
209 227 245
211 228 248
209 227 248
210 228 250
209 227 242
209 228 248
209 227 244
210 228 248
209 228 245
210 228 248
210 228 248
210 228 246
209 227 245
210 229 249
211 229 250
208 227 242
210 228 249
210 228 249
211 229 248
211 229 249
211 229 248
207 226 242
209 228 245
209 228 245
209 228 245
211 229 250
210 229 248
211 229 250
210 228 246
209 228 248
207 226 242
208 227 244
208 227 245
210 229 249
209 228 246
208 227 244
209 228 245
206 225 242
209 228 249
207 226 242
209 228 249
207 227 244
208 228 246
208 227 246
207 227 246
206 226 244
206 226 245
206 226 245
206 226 245
205 225 244
202 223 238
207 226 250
204 225 248
203 223 246
207 227 250
200 222 247
196 219 251
197 219 250
204 226 255
204 226 254
206 227 255
207 228 255
209 229 255
210 229 254
212 230 255
214 231 255
213 231 250
215 232 253
215 232 255
215 232 255
215 232 255
215 232 255
215 232 255
215 232 255
215 232 255
145 166 203
60 96 151
63 99 162
61 96 149
61 96 148
61 97 148
60 95 152
61 97 155
62 98 154
62 97 156
62 97 150
60 96 151
61 96 149
61 97 156
61 96 153
61 97 150
61 96 151
61 96 147
61 96 145
61 97 152
60 95 147
61 97 154
61 97 149
60 95 149
61 97 152
62 97 152
61 97 157
61 96 151
61 97 152
61 97 151
62 97 151
61 97 149
61 97 151
61 96 145
62 97 153
61 96 145
61 97 153
60 95 139
61 97 152
60 95 140
61 97 151
61 97 155
61 97 150
60 96 148
61 96 147
61 97 151
62 98 156
60 96 149
61 97 147
60 95 145
60 95 148
62 98 152
62 98 159
61 96 145
61 97 151
62 97 154
61 96 150
61 97 150
61 96 149
62 97 155
61 96 150
61 97 157
61 97 155
61 96 149
62 97 149
61 96 152
61 96 147
60 96 146
61 96 148
60 95 142
62 97 153
61 97 160
62 97 154
60 95 145
60 94 144
61 96 152
61 95 150
60 94 144
59 94 147
60 94 148
59 93 142
59 94 143
59 93 149
59 92 145
59 93 146
60 94 151
59 92 144
59 91 140
59 92 149
59 93 144
59 92 137
58 90 143
56 87 136
54 85 139
56 86 135
153 171 199
215 232 255
215 232 255
215 232 255
215 232 255
215 232 255
215 232 255
215 232 255
193 204 211
125 121 78
119 117 78
112 112 78
114 114 79
108 108 75
104 106 74
101 102 72
111 112 80
112 113 79
114 115 81
101 103 73
123 123 86
118 119 83
115 117 84
117 119 87
117 119 84
125 126 87
125 126 84
128 128 87
113 116 81
138 137 93
136 135 91
144 143 94
133 134 91
137 137 93
146 144 96
139 138 90
141 141 92
151 149 97
141 140 93
142 140 89
148 146 92
152 150 99
146 145 94
155 152 96
153 150 98
152 150 98
153 151 95
157 154 98
160 157 101
163 159 98
154 150 96
157 154 100
161 157 101
167 162 101
165 161 102
161 157 95
163 160 100
164 160 98
166 162 101
168 163 102
165 161 95
167 162 102
169 165 103
169 164 104
164 160 98
167 163 99
168 163 96
171 166 101
169 163 99
167 162 101
173 168 106
171 166 102
171 166 101
167 162 95
172 166 103
169 163 99
175 169 104
173 167 100
171 165 101
173 167 101
173 168 101
171 165 101
169 164 99
172 167 103
174 168 101
169 163 99
174 169 102
174 168 101
170 165 100
173 167 101
169 163 97
172 166 101
171 164 99
172 166 102
171 166 98
169 163 94
170 164 97
167 162 97
171 166 102
170 164 93
173 165 96
173 165 97
172 165 95
166 160 94
167 161 92
170 163 97
174 168 101
168 162 94
170 164 95
164 158 95
167 161 97
166 160 93
169 162 96
170 164 95
168 162 95
172 167 99
167 162 95
170 164 99
168 162 96
167 162 95
167 161 90
166 161 91
166 160 96
167 161 91
166 160 96
164 159 93
163 158 95
162 156 93
166 160 94
163 157 95
158 153 86
159 154 88
163 158 94
158 153 89
166 159 91
168 162 92
161 154 88
163 157 90
162 156 87
158 153 87
169 163 97
156 150 91
168 163 98
158 153 90
162 156 90
162 155 90
159 153 87
166 159 97
157 151 86
159 154 90
158 152 85
154 149 86
159 153 91
213 231 253
212 230 250
214 231 254
212 230 249
213 231 254
212 230 250
212 230 248
212 229 249
213 231 252
213 230 250
214 231 253
213 230 250
212 229 248
213 231 252
210 228 242
209 228 241
211 229 245
210 228 241
211 229 246
211 229 246
207 225 233
211 229 246
211 229 245
209 227 242
209 227 245
209 227 240
210 228 248
211 229 242
211 229 248
211 229 246
212 230 248
212 229 248
211 229 248
209 227 240
210 227 242
212 229 248
210 228 246
211 229 244
211 229 249
210 228 246
211 229 248
211 228 245
211 229 248
211 229 245
211 229 245
213 230 253
213 231 252
209 227 242
212 230 249
212 229 250
213 230 249
209 227 242
209 226 241
211 229 248
210 228 244
211 229 250
210 228 248
211 229 249
212 230 249
210 228 249
209 227 244
211 229 250
211 229 246
209 227 249
209 227 242
211 229 248
206 224 237
210 228 245
210 228 246
211 229 248
209 227 245
209 227 244
208 226 242
211 229 249
212 230 250
212 230 250
210 228 246
209 226 241
210 228 245
211 229 250
210 228 249
213 230 252
210 228 245
211 228 246
209 227 246
211 229 246
210 228 246
210 229 250
211 229 248
205 224 237
211 230 252
211 230 252
211 229 249
211 229 249
210 228 249
209 227 245
211 230 252
210 228 246
209 227 241
210 228 246
211 229 245
210 228 246
210 229 249
211 229 250
209 228 246
209 228 245
211 230 250
209 227 242
209 228 245
210 228 250
211 229 248
210 228 248
209 228 246
209 228 249
207 226 237
209 228 248
209 228 244
205 225 234
209 228 248
209 228 246
207 227 245
208 227 245
206 226 241
208 227 246
205 225 242
201 221 238
197 217 236
199 219 233
199 219 243
204 224 244
200 220 245
199 219 242
201 221 243
199 221 251
198 220 251
197 219 249
195 217 248
202 223 252
207 227 255
209 229 255
210 229 255
211 230 255
213 231 255
215 232 255
215 232 254
216 232 255
216 232 255
216 232 255
216 232 255
216 232 255
215 232 255
214 231 255
78 108 157
61 96 148
61 97 155
61 96 153
61 96 149
62 97 157
60 95 144
61 97 153
61 97 152
59 94 137
61 96 148
61 96 152
61 96 151
61 97 149
61 97 151
62 97 145
62 98 153
60 96 151
60 96 147
62 97 155
61 97 150
60 96 142
61 96 144
61 97 157
62 98 162
61 96 148
62 97 149
62 98 153
62 98 159
62 97 152
62 97 147
63 98 160
62 98 157
62 98 155
62 97 153
60 96 150
61 96 148
62 97 154
61 96 147
61 96 152
62 98 154
61 96 150
61 97 150
61 96 147
61 96 145
61 96 147
62 97 155
61 96 143
60 95 152
62 98 161
62 97 147
61 96 148
62 97 152
61 96 147
61 97 150
61 95 143
60 96 150
61 97 150
61 96 149
62 98 157
61 96 147
61 96 148
60 94 143
62 97 150
61 96 144
60 96 146
62 97 154
59 93 145
61 96 148
61 97 156
59 94 137
61 95 148
60 94 148
60 95 148
61 96 152
61 95 149
60 93 141
59 93 135
59 93 143
59 93 145
61 95 148
59 93 143
61 95 151
60 93 139
60 93 143
60 93 145
58 91 140
59 93 148
59 92 142
58 90 134
58 92 142
57 89 136
56 87 135
57 90 144
56 86 142
83 106 144
215 232 255
215 232 255
216 232 255
216 232 255
216 232 255
216 232 255
216 232 255
129 130 109
118 116 76
104 105 69
103 104 74
101 102 72
113 114 79
119 120 84
109 110 76
110 112 80
92 97 73
107 109 79
123 125 86
109 111 78
122 124 88
123 124 85
125 127 89
123 124 86
126 128 89
120 121 83
123 124 83
132 133 91
130 130 88
138 136 92
139 139 92
129 129 83
138 138 93
141 141 95
143 142 94
143 141 94
146 144 91
149 147 98
145 143 94
153 150 93
159 157 101
151 149 95
151 148 93
160 156 97
158 154 97
164 159 99
153 150 97
155 152 98
158 154 95
163 159 100
160 156 96
161 157 97
163 158 100
165 161 97
162 159 99
164 160 97
164 160 97
162 158 97
168 163 101
164 160 97
174 169 106
164 159 97
166 162 100
168 164 101
170 165 102
170 164 96
171 167 102
168 163 100
170 165 101
170 165 95
173 168 103
170 164 98
173 168 101
176 170 101
169 164 100
164 159 96
174 168 99
170 165 101
173 168 102
172 166 97
173 167 99
171 167 97
167 162 99
167 162 95
172 166 101
165 160 93
173 166 97
173 168 102
170 165 97
174 168 101
175 168 103
175 169 102
173 167 99
174 168 99
169 163 99
168 163 97
172 166 95
169 164 95
166 161 94
170 164 97
169 164 97
170 163 99
172 166 98
171 166 99
169 163 95
171 165 101
168 162 95
166 161 96
170 164 97
173 166 97
170 164 97
168 162 95
164 158 84
167 161 94
170 164 96
174 167 103
168 162 95
166 161 93
167 162 95
163 158 95
168 161 93
165 159 92
168 162 97
159 154 89
164 158 92
168 161 96
164 158 90
163 157 92
161 155 92
162 157 89
162 156 92
165 159 93
161 155 92
166 159 91
163 156 93
161 155 90
164 158 90
161 155 90
161 155 92
164 158 95
158 152 87
156 151 86
152 146 80
162 155 89
162 157 89
162 156 93
154 149 84
159 153 87
165 159 94
166 159 92
154 149 84
156 151 86
214 232 255
215 232 255
211 229 245
214 231 253
213 231 252
213 230 250
214 231 253
214 231 252
214 231 252
214 231 253
215 232 254
214 232 255
213 231 252
213 230 248
208 227 238
209 227 242
210 228 244
210 228 242
211 228 244
212 230 250
211 229 246
210 228 241
212 229 246
212 230 249
212 230 248
209 227 241
211 229 246
212 230 250
211 229 244
213 231 252
209 227 243
212 229 246
213 231 250
211 229 246
210 228 238
212 230 248
211 228 245
211 228 245
212 230 249
213 230 250
213 230 250
212 229 246
212 230 248
212 229 249
206 224 234
210 228 241
212 229 249
211 229 246
211 228 246
213 230 249
212 230 248
210 228 242
210 227 245
212 230 250
210 227 241
208 225 238
211 228 252
210 228 245
212 229 249
210 228 245
210 228 246
211 228 246
212 229 248
212 230 252
211 229 249
213 231 253
209 227 246
209 227 245
210 227 245
209 227 249
210 227 242
209 226 240
211 229 250
213 230 250
209 227 244
214 231 253
208 226 242
209 227 244
210 228 244
211 229 248
210 228 248
210 228 246
210 228 245
211 228 246
211 229 246
207 226 242
210 228 246
211 229 249
210 228 245
210 228 250
210 228 248
210 228 245
212 230 250
211 229 248
211 229 248
210 229 246
209 227 245
208 226 242
209 227 242
211 229 245
210 228 246
209 227 244
211 229 249
211 229 249
210 229 248
210 228 248
211 229 246
209 227 244
211 229 248
210 228 249
209 227 244
210 229 249
210 228 246
210 228 250
209 228 248
208 226 241
210 229 249
210 229 252
210 229 249
210 228 248
208 227 244
211 229 253
209 228 249
204 224 233
202 222 243
198 217 231
204 223 237
203 222 238
200 220 231
201 220 238
201 221 243
206 225 242
201 221 246
200 221 245
198 220 250
199 220 250
199 221 251
203 224 252
203 223 251
205 225 252
210 229 255
211 230 255
213 231 255
214 231 255
215 232 254
216 233 255
216 233 255
216 233 255
216 233 255
216 232 255
216 232 255
177 195 228
61 97 157
60 96 156
62 98 161
61 96 149
61 97 152
62 98 152
62 97 154
61 97 152
62 97 153
62 97 152
62 98 155
61 97 151
62 97 150
62 97 151
62 98 157
60 95 150
61 96 143
62 98 158
62 97 151
60 96 142
60 96 142
60 95 139
62 97 151
60 95 139
61 97 154
62 97 147
61 96 144
61 97 149
61 96 142
61 96 155
62 97 157
61 97 155
61 96 151
61 97 150
59 94 126
62 98 155
61 97 150
62 98 157
62 97 150
61 97 149
60 95 141
62 98 154
61 97 148
61 96 151
61 96 147
61 97 155
62 97 149
60 95 147
61 96 148
60 95 149
60 95 149
60 95 143
61 95 144
62 97 150
60 95 142
61 97 151
62 98 157
62 97 152
60 95 147
60 95 145
61 96 149
62 97 152
62 97 152
62 97 154
61 96 151
58 92 141
60 95 147
60 95 146
61 95 143
62 96 151
61 95 146
61 96 150
60 94 144
61 96 152
61 95 151
61 95 142
60 94 143
59 94 146
60 94 145
60 95 148
60 94 146
59 93 146
60 95 142
60 94 150
59 93 139
58 91 140
59 92 140
60 93 142
58 91 139
59 92 143
58 91 140
59 92 150
57 89 138
59 92 144
53 82 123
54 84 129
175 192 217
216 232 255
216 232 255
216 233 255
216 233 255
216 233 255
196 210 227
117 115 75
114 113 74
102 102 71
97 97 66
108 109 76
103 106 74
105 106 72
96 99 73
101 105 75
91 95 71
106 109 80
107 109 77
98 100 70
118 119 83
108 110 76
125 125 84
114 115 78
113 115 79
120 122 83
125 125 84
135 134 90
132 132 90
130 130 87
143 141 91
143 142 94
142 140 88
139 138 94
146 144 95
135 133 86
138 136 88
146 143 90
148 145 91
155 152 99
152 149 96
149 147 94
146 143 92
159 155 98
160 157 97
160 156 99
157 154 97
161 157 97
164 159 101
159 156 99
161 157 99
161 158 101
161 156 94
167 161 98
163 159 97
163 158 95
163 159 96
169 164 103
164 159 93
172 166 102
167 162 99
167 162 101
168 163 101
168 163 97
170 164 97
171 165 100
171 167 101
175 169 102
170 165 96
169 163 99
172 166 102
175 169 105
168 162 96
173 167 101
168 163 98
168 163 97
172 166 103
170 165 100
172 166 98
173 167 100
172 166 98
171 166 97
172 166 98
173 167 99
171 165 97
168 164 97
174 168 99
176 169 101
170 165 95
168 163 96
170 165 100
174 168 99
172 166 96
175 169 102
167 162 97
173 166 99
174 167 100
171 165 99
172 166 100
166 161 91
171 165 101
171 165 98
168 162 97
169 164 95
169 163 97
166 161 93
166 160 90
170 164 97
169 163 95
170 164 95
168 162 97
168 162 95
163 157 93
169 164 97
169 163 95
170 164 98
168 163 97
167 163 94
160 156 87
171 166 98
165 159 91
164 158 88
164 158 94
168 162 94
169 163 90
166 160 94
163 157 87
170 163 96
161 156 92
162 156 88
163 158 92
162 156 88
165 158 95
163 158 90
165 159 94
161 155 89
162 156 87
162 156 87
168 161 97
164 157 91
168 162 97
162 156 90
162 155 87
159 153 90
156 152 87
158 153 90
156 150 83
160 153 87
158 151 85
158 153 87
160 153 90
163 157 90
214 232 254
213 230 248
213 231 250
214 231 252
214 231 253
215 231 250
213 231 250
215 232 255
213 231 249
213 230 250
213 230 248
214 231 253
215 232 254
212 229 246
211 228 241
209 226 238
211 228 242
211 229 244
211 229 242
212 229 246
214 231 252
209 227 238
211 229 246
210 228 245
212 230 248
209 227 242
211 229 244
212 229 245
213 230 252
208 225 240
211 229 242
212 230 249
213 230 249
211 228 244
211 228 244
209 227 238
209 227 242
211 229 248
212 229 249
213 230 250
212 229 246
214 231 253
213 230 249
212 229 248
213 230 250
211 228 248
213 230 250
212 229 246
211 229 246
212 230 250
210 228 241
208 226 244
213 230 248
214 231 249
210 228 242
212 229 248
211 228 246
211 229 244
213 230 250
210 227 246
209 226 244
211 228 245
212 229 248
209 227 241
211 228 248
210 228 246
214 231 252
211 229 248
211 228 245
212 230 249
211 229 248
210 227 246
207 225 237
211 228 246
212 230 249
210 227 248
211 229 249
212 230 249
210 228 246
210 228 246
212 229 246
209 227 246
210 228 245
209 228 244
210 228 245
210 228 241
212 229 248
211 229 245
210 228 244
210 228 244
212 230 248
212 230 248
210 229 245
210 228 246
210 228 246
211 229 249
211 229 246
211 229 250
212 230 249
213 230 250
212 230 250
213 231 253
211 229 248
210 228 245
211 229 249
212 230 249
209 227 244
208 227 242
210 229 248
211 230 250
212 230 250
211 229 249
211 229 249
211 229 248
209 228 242
212 230 252
210 228 248
211 229 252
210 229 249
211 229 252
208 226 248
209 227 242
199 218 236
203 222 238
201 220 240
200 219 239
203 222 238
197 217 233
200 219 237
199 218 239
206 225 252
201 221 242
207 226 249
199 219 238
203 223 252
201 222 252
203 224 253
202 223 250
204 225 253
199 218 246
201 221 248
211 230 255
212 230 254
214 232 255
215 232 255
215 232 253
216 233 255
216 233 255
216 233 255
216 233 255
216 233 255
122 145 186
61 96 150
61 97 161
61 96 151
61 96 151
62 97 155
61 97 152
61 96 142
62 97 152
60 95 143
62 97 151
61 96 150
61 97 153
61 96 150
63 99 157
62 98 158
61 96 145
61 96 147
62 97 150
61 97 151
62 97 159
60 96 147
60 95 145
62 97 151
61 97 153
61 96 144
62 97 151
61 96 144
61 96 145
61 97 147
62 97 151
60 96 143
60 95 142
62 98 155
62 98 155
61 97 147
62 97 154
62 97 148
61 96 147
61 95 142
61 96 141
61 97 143
60 95 143
62 97 154
60 95 148
62 97 147
62 97 152
61 96 148
61 96 148
60 96 149
62 97 150
61 97 151
60 95 141
60 95 141
60 95 141
61 97 150
61 96 155
61 96 149
63 98 156
61 97 152
61 96 141
60 95 141
61 96 146
60 95 140
61 97 145
60 94 145
60 95 141
59 93 141
60 94 136
60 94 137
61 96 148
59 94 144
61 96 156
61 95 146
59 94 138
60 95 149
60 94 145
58 92 132
61 95 155
61 96 151
60 94 151
59 93 141
59 92 134
59 92 141
60 94 149
60 94 141
58 92 143
57 90 134
58 90 138
60 93 141
58 90 134
58 91 147
58 90 142
57 89 137
58 89 137
54 83 121
53 82 120
121 140 169
216 233 255
216 233 255
216 233 255
216 233 255
216 233 255
156 161 154
98 98 67
109 108 70
103 104 73
106 108 76
96 98 69
95 98 70
114 116 82
98 101 72
102 105 75
117 119 83
111 115 83
103 106 75
107 110 78
113 115 79
115 117 82
121 123 85
117 119 82
111 113 78
105 108 75
113 115 80
129 129 87
138 137 93
135 133 86
132 133 88
139 138 92
138 136 87
142 140 90
143 141 92
138 137 89
144 143 92
150 148 94
154 151 98
149 147 96
153 151 99
161 157 101
151 148 92
153 150 92
154 150 95
166 161 104
151 149 97
151 149 86
161 157 99
160 157 98
159 155 94
170 164 101
161 157 98
159 156 93
163 158 88
162 159 101
162 158 99
163 159 95
166 162 99
165 160 95
169 164 105
166 161 96
166 161 102
168 164 100
167 162 99
168 163 99
172 166 101
170 165 101
170 164 99
164 160 95
168 162 96
173 166 97
167 162 91
172 166 101
171 166 98
170 166 101
173 167 100
169 164 97
176 169 102
171 165 101
170 164 99
174 169 102
173 167 99
172 166 99
172 166 95
170 165 94
174 168 100
169 164 91
174 168 97
167 163 97
165 160 92
171 165 98
174 168 97
173 168 95
174 168 98
170 165 98
166 160 92
172 165 98
168 163 99
165 159 92
169 163 98
171 165 99
169 163 94
168 162 93
172 165 99
166 161 89
173 166 97
171 165 100
168 162 93
170 163 97
167 161 93
169 163 92
162 157 93
167 162 91
173 166 99
163 158 92
162 156 90
165 159 95
168 162 98
163 157 92
166 161 94
170 164 95
165 159 95
162 156 92
173 167 99
164 157 89
168 162 93
170 164 95
164 157 95
165 159 95
158 152 89
160 154 87
163 158 93
165 159 88
163 158 87
165 159 91
155 150 87
158 152 84
163 157 92
166 160 95
152 146 84
162 156 93
154 148 83
156 151 87
151 145 87
165 159 94
160 154 88
163 157 92
159 154 90
148 143 81
155 148 87
156 151 84
214 231 253
213 230 248
214 231 251
214 231 252
212 229 242
212 229 246
215 232 253
216 232 254
213 230 248
215 232 252
213 230 249
212 230 245
212 229 246
214 231 249
210 228 238
210 228 238
211 229 244
213 230 246
211 229 242
210 227 238
212 229 245
213 230 248
211 228 242
208 226 230
214 231 250
214 231 250
212 230 245
211 228 243
210 228 244
213 230 248
211 228 242
211 229 241
212 230 248
212 229 246
211 228 246
211 228 244
212 229 248
212 229 244
210 227 244
213 230 250
212 229 246
215 232 253
210 228 242
214 231 250
209 227 244
212 229 246
212 229 245
211 228 249
213 230 246
211 228 246
212 230 249
213 230 246
213 230 248
210 227 242
210 227 244
211 229 246
212 230 248
207 225 242
207 225 240
209 226 244
211 228 248
213 230 252
212 229 248
212 229 249
208 226 242
212 229 248
211 228 244
210 227 248
213 230 250
209 227 241
211 228 244
211 228 250
211 228 249
213 231 252
209 227 245
208 225 238
210 228 245
210 228 245
206 223 238
212 229 248
209 227 245
212 229 245
209 227 241
209 227 245
209 227 241
213 230 252
213 230 253
212 230 248
213 230 248
211 229 250
212 229 248
211 229 245
212 229 248
212 230 249
213 231 252
211 229 246
210 227 244
210 227 240
211 229 248
211 229 245
211 229 249
212 230 249
211 229 244
210 229 245
212 229 246
212 230 249
212 229 249
211 229 248
211 229 246
210 228 244
211 229 246
212 229 248
211 229 249
211 230 249
211 229 245
211 229 249
210 229 248
213 230 252
208 226 247
208 226 244
207 225 246
204 222 235
193 212 231
203 221 238
203 221 238
203 221 242
193 212 233
201 220 239
202 221 234
197 217 226
202 221 246
205 223 246
203 222 245
206 225 247
204 224 252
205 226 255
204 225 253
203 223 252
201 221 249
201 221 250
204 223 250
207 225 252
212 230 255
214 231 255
215 232 255
216 232 254
216 232 253
216 233 255
216 233 255
216 233 255
214 231 254
76 107 156
61 97 157
62 97 160
61 96 153
62 97 154
61 96 149
61 96 145
62 97 152
61 96 148
61 97 153
61 97 150
61 96 143
61 97 147
61 97 148
61 96 148
61 96 148
61 97 152
61 97 153
61 97 152
61 97 152
61 96 150
61 96 143
61 97 151
61 97 153
60 96 143
60 94 137
61 96 150
62 98 153
61 96 147
61 97 150
61 97 148
62 97 152
60 95 137
59 94 144
62 97 145
61 97 152
61 96 151
61 97 155
61 97 150
60 95 139
61 96 152
61 97 147
61 97 153
61 96 147
61 96 151
61 97 144
60 95 141
61 96 148
62 98 155
60 95 148
61 96 140
61 96 153
61 96 151
61 96 144
60 94 139
61 95 140
61 97 150
62 98 152
60 96 143
59 94 136
60 95 150
61 96 145
60 95 142
61 96 148
61 96 148
60 95 136
61 96 145
61 96 147
61 97 147
61 96 150
61 96 143
60 94 138
60 95 145
61 97 154
61 95 144
60 94 141
59 93 146
59 93 137
60 94 144
60 95 145
60 95 151
60 93 146
60 95 150
58 91 134
61 96 149
60 93 144
60 94 146
61 95 149
58 90 136
58 91 136
58 90 141
59 90 136
56 88 123
55 85 123
57 89 138
56 85 125
56 87 137
70 93 128
210 227 250
216 233 255
216 233 255
216 233 255
207 222 241
118 114 72
109 109 73
107 107 72
94 96 68
107 108 76
96 98 68
81 85 62
93 95 67
97 101 72
99 102 73
105 107 76
111 112 78
105 108 75
97 100 71
114 116 81
118 119 80
108 111 78
125 127 88
115 117 80
118 119 79
125 126 84
129 129 87
138 138 91
125 126 83
128 129 85
134 134 89
144 142 93
138 137 87
146 144 93
143 141 89
148 146 95
148 145 94
145 142 88
142 141 91
155 151 96
141 139 84
153 149 94
154 150 94
157 153 96
152 150 96
158 154 92
165 160 97
151 148 91
161 157 94
162 158 100
153 150 94
156 153 95
164 159 98
164 160 96
165 160 98
167 162 98
174 167 103
164 161 99
169 163 97
163 159 94
169 164 101
164 160 97
170 164 103
164 159 93
168 163 94
170 164 94
164 159 92
171 165 99
175 168 100
171 165 97
174 168 101
171 166 99
173 167 94
175 168 100
169 164 95
174 168 99
173 167 100
170 164 93
170 164 96
168 163 95
172 166 98
171 167 99
173 166 100
175 168 98
169 164 99
171 165 94
172 166 97
173 166 99
172 166 98
177 170 103
173 167 96
170 164 97
176 169 103
173 167 97
168 163 95
170 164 95
170 164 95
172 166 97
171 165 97
172 165 96
172 165 97
171 165 97
169 163 95
168 162 95
174 166 97
171 164 95
168 161 93
167 160 95
166 161 87
165 160 93
165 159 93
168 162 93
169 164 99
164 159 87
168 163 94
165 158 95
171 164 97
165 159 88
164 159 89
166 160 97
165 160 92
167 161 93
161 155 90
157 152 86
169 163 93
166 160 91
158 152 87
162 157 93
166 161 90
166 159 92
158 153 86
164 159 91
163 157 87
157 151 84
158 153 86
167 160 94
162 156 89
158 153 88
158 152 87
158 152 87
162 156 90
159 154 90
154 149 86
153 147 82
159 154 81
152 146 83
154 148 81
156 151 86
152 147 80
156 151 84
160 153 90
215 232 253
215 232 252
215 232 253
214 231 249
213 230 248
214 231 248
216 233 255
216 232 253
214 231 252
213 230 248
215 232 252
213 230 246
215 231 250
211 228 246
211 228 240
212 229 241
212 229 242
211 228 242
213 230 248
213 230 245
212 229 245
211 228 242
214 231 249
214 231 249
215 232 253
212 229 244
212 230 245
214 231 249
209 226 238
213 230 246
214 231 249
214 231 249
210 227 238
212 230 244
211 228 242
214 231 248
214 231 249
213 230 249
214 231 249
212 229 245
211 229 241
212 229 248
213 230 245
214 230 249
210 227 240
214 231 249
213 230 249
212 229 248
214 231 252
214 231 250
211 228 248
213 230 248
212 229 250
214 231 252
214 231 250
214 231 250
212 229 249
209 226 245
210 227 245
213 230 250
209 226 244
213 230 250
212 229 246
213 230 252
211 228 249
212 229 250
204 221 237
210 227 245
213 230 250
210 227 245
214 231 250
213 231 248
211 229 249
211 228 245
210 227 244
211 228 245
211 228 249
213 230 250
213 230 250
212 229 245
212 229 249
214 231 252
209 227 242
211 229 246
210 227 242
213 230 249
214 231 252
214 231 252
213 230 249
211 229 244
212 230 245
212 230 248
212 229 245
210 228 245
212 230 249
212 229 246
210 228 245
212 230 253
210 228 244
210 228 242
211 229 246
213 230 250
209 228 238
212 230 250
212 230 249
212 230 248
211 229 246
212 230 250
211 229 246
212 230 248
211 229 246
213 231 253
210 228 244
212 230 252
211 229 248
211 229 246
212 230 249
208 226 248
207 225 244
209 227 246
205 223 242
205 223 241
200 219 239
200 219 233
199 218 236
206 224 244
197 216 236
201 220 236
202 221 240
203 222 239
201 220 234
196 214 238
201 220 239
200 219 242
202 221 248
202 222 250
204 224 252
197 218 246
204 224 251
198 218 244
202 221 249
197 216 243
203 221 248
214 231 255
214 232 254
216 232 255
217 233 255
217 233 255
217 233 255
217 233 255
174 193 222
60 96 154
61 96 151
61 96 147
61 97 155
61 96 153
60 94 139
60 96 146
60 96 140
61 96 143
62 97 155
62 98 155
60 95 144
61 96 145
60 95 144
61 96 144
62 97 153
61 96 142
60 96 149
61 96 140
61 96 143
61 97 147
60 95 149
62 98 157
62 97 154
61 96 142
61 96 148
61 97 152
62 97 148
61 97 147
61 96 147
61 97 145
62 97 148
61 96 145
61 96 150
61 96 145
60 95 142
61 97 152
60 95 140
61 96 148
60 95 143
61 96 144
61 96 148
61 97 149
61 96 147
62 97 148
61 96 145
60 94 140
60 94 131
62 97 149
62 98 155
62 98 154
61 96 145
61 97 150
60 95 138
62 98 150
62 98 154
62 96 142
59 94 135
61 97 144
61 96 152
61 96 148
61 96 153
61 96 147
61 96 151
60 94 138
61 96 149
61 95 148
60 95 147
59 93 138
59 94 141
60 94 147
61 96 151
61 96 150
60 94 141
59 93 139
61 95 147
59 93 143
60 94 147
60 93 139
59 93 136
61 95 149
61 96 146
60 94 150
59 93 142
59 91 140
59 92 139
60 93 140
59 93 138
58 90 138
57 89 137
58 90 135
60 94 146
59 92 146
56 87 122
53 82 122
56 87 128
57 88 139
52 81 126
176 191 214
217 233 255
217 233 255
217 233 255
167 175 175
102 101 66
97 98 68
86 90 64
99 99 68
96 99 71
98 101 72
95 97 68
89 92 66
99 101 71
90 94 67
90 93 65
96 100 73
99 102 73
111 113 78
104 107 75
120 121 81
119 120 81
117 120 82
122 124 85
125 125 85
125 126 85
136 136 90
135 136 87
127 127 84
134 134 87
128 128 81
141 140 92
148 146 91
148 145 92
141 139 86
140 138 86
138 136 87
146 144 91
155 152 98
144 141 86
160 157 98
159 154 96
152 150 92
148 145 91
155 152 90
162 158 96
155 153 95
158 155 96
164 158 96
162 158 99
163 158 96
168 163 98
165 160 100
168 164 99
163 157 93
163 158 92
168 163 96
167 162 101
170 164 100
167 162 96
156 152 93
168 163 97
165 161 96
163 158 93
167 161 94
165 160 94
171 167 103
170 164 99
172 166 101
168 163 99
166 161 94
169 164 97
172 166 98
171 166 100
174 168 97
173 167 104
173 166 101
168 163 92
171 166 96
169 164 94
174 168 98
172 166 99
171 165 97
169 164 95
170 165 91
171 165 93
168 164 97
167 161 89
171 165 95
171 165 101
173 166 96
173 166 97
175 168 96
172 165 98
168 163 96
174 167 99
172 166 96
167 161 89
162 158 84
165 160 93
173 166 97
170 164 94
173 167 97
165 159 89
174 167 97
168 162 95
168 162 89
167 163 95
171 165 94
167 161 90
172 165 95
169 163 95
165 159 95
164 157 84
166 160 87
169 162 92
172 164 98
167 160 93
171 164 98
167 162 94
171 164 95
168 162 93
170 163 95
164 159 91
174 166 93
162 157 90
165 159 89
163 158 91
169 162 97
167 161 93
162 156 87
164 158 92
162 156 93
162 156 89
164 158 90
164 157 92
160 155 89
160 155 83
165 159 91
159 152 87
162 156 88
159 153 84
165 159 95
167 160 94
157 151 90
158 152 87
158 152 85
161 155 89
161 154 87
153 147 82
155 151 81
214 231 250
216 232 253
215 231 254
215 232 252
215 232 252
215 232 250
216 233 255
213 230 246
215 232 252
215 232 252
214 231 249
216 232 253
214 231 249
215 231 250
212 229 240
210 227 241
212 229 246
213 230 245
213 230 245
212 229 244
213 230 244
213 230 245
214 231 248
213 230 246
213 230 247
212 229 245
215 232 252
214 231 249
211 228 239
212 229 248
214 231 250
213 230 246
212 229 245
214 230 249
213 231 248
214 231 250
213 230 246
212 229 240
213 230 245
213 230 246
213 229 246
213 230 249
214 231 250
214 231 248
214 231 249
214 230 249
211 228 245
213 230 246
213 230 246
207 224 238
214 230 250
212 229 245
210 227 244
213 230 250
211 228 246
211 228 245
214 231 250
214 231 252
210 227 242
209 226 245
211 227 246
212 229 249
213 230 248
211 228 245
209 226 245
210 227 246
212 229 249
212 229 249
213 230 250
210 227 246
211 228 245
213 230 248
213 230 248
213 230 249
215 232 254
211 228 245
213 230 249
213 229 249
211 228 245
210 228 244
211 228 244
214 231 250
212 229 248
214 231 250
211 228 241
210 228 242
212 229 242
211 228 242
213 230 250
212 229 249
212 229 246
214 231 252
211 228 244
211 229 246
211 229 246
212 229 248
212 229 245
213 230 250
213 230 250
211 228 244
213 230 249
213 230 248
213 230 249
211 229 246
212 230 249
212 230 250
211 228 246
213 231 252
213 230 250
211 228 241
213 230 249
210 228 242
212 229 246
213 230 249
211 229 244
214 231 252
208 226 243
209 226 247
210 227 244
206 224 240
205 222 239
207 225 247
206 224 239
206 224 236
206 224 246
204 222 242
201 220 239
206 224 243
203 222 234
199 218 237
202 220 231
205 223 242
192 211 230
203 221 241
204 222 247
201 221 246
204 224 251
207 227 254
201 220 248
202 222 250
202 221 248
208 227 253
203 221 246
210 228 252
215 232 255
216 232 255
217 233 255
217 233 255
217 233 255
217 233 255
151 170 207
61 97 151
59 94 143
61 97 151
60 95 147
61 96 148
61 97 152
61 96 146
62 97 155
60 95 138
61 96 147
61 96 145
60 95 140
60 96 153
61 96 147
60 95 149
61 96 145
61 97 150
62 97 145
60 95 142
61 97 154
61 96 150
60 95 136
61 97 150
60 94 142
61 97 150
61 96 143
60 95 143
61 96 143
62 97 150
61 96 141
60 94 134
61 96 144
61 96 145
60 95 143
62 97 156
61 95 144
61 96 147
60 95 143
60 95 140
61 96 149
61 96 141
61 96 140
61 97 147
62 97 158
62 98 155
61 97 152
62 97 153
61 96 142
62 97 151
60 95 138
62 98 155
61 96 148
62 97 152
62 97 145
61 96 150
60 95 149
61 97 149
61 97 152
63 98 157
62 97 155
60 95 142
61 97 151
61 96 145
62 97 152
60 93 132
60 95 149
59 94 136
61 96 145
61 96 144
61 95 140
60 95 144
60 95 144
60 94 142
60 94 144
61 96 150
61 96 148
61 97 153
62 97 150
59 94 139
60 93 131
60 94 145
60 95 146
61 95 149
60 95 143
60 94 143
60 94 141
59 93 140
59 94 146
58 91 137
59 91 137
58 90 130
59 92 145
58 90 138
56 87 133
57 88 132
56 87 133
54 84 137
54 84 127
132 149 180
217 233 255
217 233 255
217 233 255
131 133 115
91 91 59
96 96 63
101 100 69
98 98 68
89 91 65
81 84 60
82 87 66
82 85 61
85 88 64
97 101 73
104 108 78
90 95 67
95 100 71
112 113 80
99 101 68
97 101 72
107 109 75
122 123 83
106 108 71
114 116 81
128 127 82
126 125 83
123 122 83
122 122 80
137 136 89
137 137 88
132 131 82
135 135 85
137 136 87
145 144 90
138 137 88
144 142 91
141 139 84
145 143 91
145 142 88
152 148 93
156 152 95
150 147 92
152 149 91
150 148 92
156 154 95
157 153 96
151 148 88
158 154 93
158 154 95
163 158 95
161 157 95
165 159 94
166 161 96
164 160 97
162 157 93
165 160 93
166 160 96
163 158 92
158 155 89
169 164 94
170 164 99
168 163 96
173 167 98
171 166 97
165 161 93
172 166 101
172 167 99
169 165 98
171 165 97
173 168 104
170 164 98
172 166 98
172 166 96
168 164 96
171 166 96
171 166 96
171 166 98
172 166 98
170 166 98
173 167 100
172 166 94
173 167 95
174 168 98
170 165 96
175 168 99
166 161 90
176 170 101
174 167 98
172 166 95
168 163 96
170 165 97
172 167 98
174 168 95
169 163 98
174 167 99
167 160 89
173 166 95
173 166 97
173 167 99
170 165 95
164 159 93
169 163 98
169 163 91
167 161 89
163 157 89
167 160 92
165 159 89
173 166 99
168 163 93
173 167 100
167 161 88
166 161 96
171 164 96
165 159 90
170 163 93
165 159 90
173 167 100
170 164 98
166 159 87
160 154 86
164 159 86
159 154 87
169 162 94
173 166 99
165 159 89
163 156 93
169 163 91
165 160 90
163 157 83
164 157 90
156 150 81
164 159 92
165 159 93
160 154 84
164 158 90
160 155 86
164 158 89
165 158 87
166 159 87
156 152 80
156 150 80
159 153 89
161 155 88
157 151 86
157 151 86
156 150 85
156 151 87
157 151 84
160 154 87
150 144 75
214 231 248
215 232 253
215 231 251
216 232 253
216 232 253
217 233 255
215 232 250
216 232 253
216 233 253
216 232 253
214 231 246
215 231 248
216 232 252
213 230 245
210 228 237
212 229 240
213 230 244
212 229 242
213 230 246
213 230 245
211 228 240
215 231 250
211 228 241
215 231 249
213 230 246
213 230 242
213 230 248
214 231 249
211 228 238
212 229 244
212 229 241
216 232 252
215 231 250
214 231 249
213 230 245
214 231 246
214 231 246
216 232 253
213 230 248
212 229 242
215 232 252
213 230 246
213 230 250
215 232 252
213 230 246
211 228 238
213 230 248
213 229 245
212 229 244
213 230 248
212 229 245
208 225 240
216 232 254
209 226 238
212 229 246
212 228 248
211 228 246
208 224 241
213 230 248
210 227 242
211 227 245
212 229 245
209 225 246
212 229 248
211 227 244
211 228 248
208 225 242
210 227 246
214 230 249
212 229 249
209 226 245
213 230 250
210 227 242
212 229 248
212 229 246
209 226 244
211 228 246
212 229 246
213 230 249
211 228 246
207 225 238
214 231 250
214 231 249
212 229 246
214 231 250
212 230 244
215 232 252
213 230 248
212 229 249
212 229 242
212 229 245
211 228 244
211 228 242
214 231 248
212 229 248
213 230 245
211 228 244
212 230 248
214 231 249
211 229 245
213 230 248
213 230 246
213 230 246
211 229 245
211 229 244
214 231 252
211 229 241
211 229 244
213 231 250
214 231 250
211 228 240
212 229 245
212 229 245
212 229 244
210 228 240
208 226 244
211 228 246
210 228 246
206 224 237
208 226 246
205 223 240
206 224 240
208 225 250
206 224 240
202 219 240
204 222 242
204 221 238
201 220 237
198 216 233
204 222 239
203 221 236
203 221 242
204 222 240
199 218 243
198 216 241
200 219 238
176 197 230
204 223 250
200 220 248
205 224 252
206 224 251
204 223 250
202 220 246
202 220 245
214 231 255
216 233 255
217 233 255
217 233 254
217 233 255
217 233 255
98 124 159
60 95 145
60 95 144
61 96 152
61 96 152
61 96 150
60 96 145
60 95 143
60 95 145
60 95 145
61 97 144
61 96 149
61 96 143
61 96 143
61 96 145
61 96 144
60 95 136
61 96 142
60 96 149
61 96 149
61 97 148
60 95 141
61 96 143
61 97 154
62 98 159
61 96 144
61 96 141
60 96 141
61 96 151
61 96 147
59 94 136
61 95 136
62 97 153
61 96 149
61 96 147
60 94 140
60 95 136
61 97 147
60 95 145
61 96 144
62 98 155
61 97 151
61 96 148
61 96 145
61 96 148
61 96 148
61 96 149
61 97 155
60 95 142
61 96 145
61 97 147
61 96 142
61 96 142
60 95 136
62 97 155
59 93 135
62 98 151
61 96 142
62 97 154
59 93 130
61 96 144
61 95 137
60 95 143
61 97 155
60 95 139
61 95 143
61 96 151
59 94 144
60 94 137
60 94 138
61 95 149
61 96 151
61 96 144
60 95 142
61 95 147
61 96 148
60 94 145
59 93 137
59 93 134
62 97 152
60 95 147
60 95 153
59 92 135
58 91 133
59 92 144
60 95 150
60 94 142
62 96 148
60 93 149
59 92 144
59 92 138
58 91 141
58 90 136
57 88 131
57 87 128
58 90 139
55 85 126
56 87 130
54 84 128
73 96 130
217 233 255
217 233 255
198 212 231
98 98 63
100 100 66
104 104 72
83 87 63
82 84 60
92 94 67
94 96 68
76 81 61
77 81 57
81 85 64
95 98 68
97 100 72
90 95 70
109 111 76
111 113 80
95 98 68
107 109 74
110 112 78
113 115 78
121 122 84
123 123 80
112 114 75
129 130 85
127 128 87
125 125 85
135 133 87
126 126 84
137 136 89
145 143 92
149 146 92
138 136 84
145 142 91
146 143 89
148 147 89
149 146 94
143 141 88
149 146 89
142 140 86
148 144 87
151 148 94
158 154 94
162 159 93
163 158 92
165 160 99
155 151 91
154 151 95
162 158 99
167 162 97
158 155 92
168 163 96
166 162 96
168 163 96
166 160 94
165 159 96
166 161 96
169 164 97
170 163 99
165 161 98
167 161 96
172 167 97
163 159 93
170 164 102
170 164 97
172 166 101
168 162 96
166 161 91
170 163 91
169 164 93
170 164 93
167 162 89
168 162 93
168 163 90
170 165 95
172 166 95
171 165 99
171 164 96
175 169 103
172 166 96
178 170 102
173 166 96
174 168 99
169 163 95
171 164 94
174 168 97
171 164 98
171 164 93
170 165 92
170 164 93
171 165 96
169 164 92
171 164 95
173 166 95
171 165 96
172 166 94
171 165 95
169 162 93
167 162 93
168 162 90
171 166 95
167 161 92
173 167 93
172 166 94
169 162 92
172 165 93
169 162 93
163 157 87
170 164 92
171 164 93
169 163 93
167 160 93
170 163 93
162 156 86
163 157 87
168 162 92
171 165 92
160 153 92
169 162 96
170 164 93
162 156 87
169 162 93
162 156 87
167 160 87
170 163 90
165 159 86
168 162 94
163 157 87
164 160 87
168 163 93
169 163 93
162 156 92
171 164 101
163 157 85
157 152 89
161 156 89
162 157 86
156 150 85
163 158 87
164 157 88
155 150 84
159 153 88
156 150 88
158 152 80
159 154 88
161 156 88
161 154 91
156 150 87
156 151 84
215 232 252
217 233 255
217 233 255
215 231 249
216 233 253
217 233 254
217 233 253
215 232 250
217 233 254
217 233 255
216 232 250
216 232 254
216 232 253
216 232 253
215 231 249
214 231 246
214 230 245
210 227 236
212 229 241
213 230 244
212 229 241
214 230 248
214 231 246
213 229 244
213 229 247
215 232 252
212 229 240
214 231 246
214 231 246
214 230 246
214 230 245
212 229 240
214 231 249
214 230 248
217 233 254
215 232 250
212 229 244
212 229 242
215 231 249
214 231 248
214 231 249
213 229 245
213 230 245
214 230 246
213 230 245
214 231 248
210 227 241
214 231 248
213 229 246
209 226 240
214 230 249
213 229 252
210 226 242
212 229 246
210 226 242
213 229 246
209 225 245
210 226 244
214 230 250
213 229 250
212 228 249
210 226 246
208 224 244
211 227 248
209 225 244
215 232 253
209 225 244
207 224 240
208 224 242
209 225 244
210 227 244
212 229 246
211 227 245
215 232 253
211 228 248
210 227 246
210 226 245
212 229 246
209 226 242
214 230 250
213 230 246
211 228 244
213 230 246
214 231 252
216 232 254
210 227 238
213 230 248
213 230 246
213 230 248
214 231 250
215 232 252
211 228 244
212 229 244
211 228 245
214 231 248
211 228 244
212 229 242
214 231 249
214 231 249
211 229 242
213 230 246
213 230 248
212 229 241
213 230 246
213 230 248
213 230 248
212 229 245
215 232 252
211 228 240
214 231 250
214 231 250
213 230 250
214 231 250
212 229 245
206 223 242
210 227 245
210 227 244
207 225 238
211 228 242
203 220 238
202 220 240
210 227 248
203 221 236
208 226 247
203 221 236
202 220 237
204 222 238
204 222 239
200 218 236
201 219 234
201 220 240
207 225 243
207 225 244
207 225 246
206 224 241
210 228 250
138 160 203
173 193 225
207 226 252
204 223 250
201 219 245
203 221 248
200 218 245
204 221 246
207 225 250
216 233 255
217 233 255
218 234 255
218 234 255
203 220 244
60 96 154
62 97 155
61 96 145
61 96 149
60 95 140
60 96 154
61 97 152
60 96 145
61 96 142
61 96 146
61 96 148
61 96 147
61 96 151
61 97 153
62 97 156
61 96 148
61 97 153
60 95 136
60 95 142
60 96 145
59 94 136
61 97 152
61 96 149
60 96 139
60 95 136
61 97 144
61 96 147
59 94 139
60 95 139
60 95 141
61 96 150
62 97 145
60 95 137
61 96 153
61 96 142
60 95 137
61 96 147
60 96 148
60 95 141
60 95 150
60 95 140
60 94 137
61 97 150
61 96 144
61 96 144
60 95 137
60 95 142
62 97 152
62 98 160
60 95 140
61 97 150
61 97 151
61 96 147
61 96 143
62 97 151
59 94 139
60 95 135
60 94 138
60 96 144
61 97 147
60 95 145
60 95 138
61 96 144
61 96 149
62 97 153
59 94 141
60 95 140
61 96 147
61 96 146
59 94 134
60 96 145
61 96 148
60 94 145
59 94 145
62 97 155
59 93 138
60 94 143
61 95 144
58 91 133
59 94 145
61 95 147
60 94 137
60 94 139
59 93 137
60 95 147
60 93 143
58 91 135
59 93 138
60 93 138
58 91 132
56 88 131
58 90 135
57 88 130
56 87 126
57 88 137
56 86 129
58 89 136
53 82 119
55 84 122
51 78 112
203 218 240
218 234 255
180 191 200
101 100 67
100 100 68
74 76 51
88 89 62
83 86 61
81 84 61
85 88 64
78 81 59
88 93 67
107 110 79
100 101 72
91 94 63
96 98 67
96 100 70
110 111 77
112 114 79
115 116 79
125 126 86
115 116 79
124 125 84
123 125 82
116 117 76
118 120 81
124 123 80
123 125 84
126 126 82
131 131 85
137 136 87
128 128 79
140 138 90
135 134 87
136 135 86
133 132 82
144 142 89
153 150 92
139 136 83
149 146 90
151 148 91
145 143 84
144 142 88
153 150 92
159 156 95
160 155 93
158 154 94
159 155 97
161 157 92
158 155 94
162 158 93
161 157 93
169 164 98
164 160 93
168 163 98
170 165 102
165 161 98
167 162 96
170 164 100
167 161 92
162 158 92
169 164 98
168 163 94
168 163 95
168 163 93
169 163 95
174 167 98
172 165 93
172 165 96
172 167 98
165 161 91
170 164 93
177 170 101
169 164 95
169 163 92
171 166 95
174 168 98
173 167 97
176 169 97
176 170 100
174 168 98
175 168 101
174 169 101
168 163 93
173 166 98
170 163 92
173 166 97
170 164 92
171 165 97
173 167 91
172 166 92
172 166 95
170 164 95
172 165 95
175 168 97
168 161 89
172 166 93
166 161 87
165 160 86
169 162 92
170 165 96
167 162 89
172 166 93
173 167 93
172 166 96
165 159 90
171 165 94
165 159 85
166 160 90
169 163 95
173 166 98
168 162 93
167 161 92
167 161 86
166 161 90
169 162 92
166 160 90
168 161 93
163 159 86
165 158 90
166 160 91
165 159 85
161 155 88
170 165 93
167 161 89
165 159 87
163 157 87
165 159 91
168 161 92
163 158 87
162 157 87
167 160 91
162 156 87
167 160 92
167 161 93
170 162 95
161 154 83
163 157 88
159 153 87
162 156 88
157 151 87
160 154 84
162 157 87
170 165 93
160 155 88
155 149 82
155 149 87
150 145 82
162 155 85
159 154 83
217 233 254
216 232 249
218 233 255
216 232 249
216 232 250
216 232 252
217 233 254
217 233 253
218 233 254
215 231 248
214 231 246
217 233 254
215 232 249
215 231 248
214 231 245
211 228 236
214 231 246
212 229 241
215 232 249
216 233 254
214 230 245
214 231 246
215 232 250
214 231 248
213 230 241
210 227 242
211 228 240
213 230 242
213 230 244
215 231 250
215 231 246
213 230 248
216 232 252
215 231 246
214 231 246
213 229 242
213 230 244
216 232 250
215 231 249
215 231 250
214 231 246
214 230 246
214 231 246
213 229 242
215 231 248
213 229 245
214 230 248
213 229 246
216 232 250
215 231 249
214 230 246
213 229 246
214 230 245
214 231 250
211 227 245
210 226 244
213 229 250
214 230 252
208 224 246
210 226 245
208 225 245
209 225 245
212 229 250
205 221 242
209 225 245
214 230 250
212 228 250
212 228 248
211 226 248
211 228 246
211 228 248
213 229 248
211 227 241
213 229 249
212 229 245
211 227 242
215 231 253
214 230 250
214 231 250
212 229 248
214 231 248
213 229 246
214 231 246
214 230 249
214 231 253
213 230 245
215 231 252
214 230 249
213 230 246
213 230 248
215 232 253
215 232 252
213 229 245
214 230 248
215 232 253
213 230 244
214 230 249
214 231 248
215 231 249
213 230 248
213 230 249
216 232 253
212 230 245
213 230 244
213 230 248
214 230 248
212 229 244
214 231 248
212 229 241
214 231 248
212 229 244
212 230 244
214 230 251
211 228 241
213 230 249
205 222 238
210 227 241
209 227 242
204 221 235
203 221 239
208 225 246
205 222 240
204 221 238
210 227 242
207 224 240
206 223 240
202 219 233
201 218 233
204 221 241
206 224 244
205 223 234
205 224 234
206 223 242
209 227 246
204 221 245
205 223 246
198 216 237
95 122 170
188 207 236
207 225 251
206 224 250
204 222 248
206 224 250
205 222 247
204 221 245
215 232 255
217 233 254
218 234 255
218 234 255
177 194 220
59 95 143
61 96 143
60 95 139
60 95 134
60 95 145
61 96 147
60 96 143
61 96 143
62 97 157
61 96 143
61 96 137
61 96 142
61 96 150
61 96 140
60 95 142
61 96 142
60 95 141
62 97 154
60 95 137
61 96 149
61 97 152
62 97 149
61 96 144
62 97 152
60 95 148
61 96 142
61 96 143
62 97 151
61 96 140
62 97 148
62 97 149
61 96 151
61 96 143
61 96 143
61 96 149
61 96 149
60 95 140
60 94 135
60 95 150
60 94 135
61 96 139
61 96 147
61 96 150
61 96 139
60 94 137
62 97 146
61 96 145
61 96 147
61 96 151
61 96 145
60 95 139
61 96 139
60 95 137
62 97 150
61 96 141
61 96 145
60 95 140
59 93 136
63 99 162
60 96 141
61 96 141
61 96 143
61 96 150
61 96 143
61 96 149
59 93 133
60 95 137
58 93 129
61 96 147
59 94 145
60 95 137
60 95 143
61 95 142
60 94 140
60 95 138
61 96 145
61 96 151
61 96 148
59 93 139
62 96 154
59 93 141
60 94 140
59 93 135
59 93 138
59 93 138
59 92 143
59 92 132
60 95 152
58 90 137
57 89 131
58 89 130
58 91 137
57 89 135
57 90 128
55 85 122
58 90 138
56 86 130
54 84 126
52 80 121
52 80 116
172 187 211
218 234 255
139 144 134
98 96 59
86 87 61
96 96 66
93 95 68
77 81 57
71 73 52
74 79 58
85 88 64
76 82 61
89 91 64
88 92 65
99 101 69
85 91 66
100 103 72
92 97 70
91 96 69
109 111 75
102 104 73
120 121 80
125 125 81
125 126 79
114 116 77
129 127 82
131 130 84
131 132 85
135 135 86
131 130 88
127 126 85
137 136 88
140 138 86
145 142 87
138 137 82
143 141 86
145 143 85
142 141 85
150 147 87
149 146 91
153 150 89
146 143 82
157 153 96
152 149 90
148 146 88
152 148 89
156 151 90
162 158 95
164 160 93
168 162 97
163 159 93
160 156 94
163 159 92
166 161 94
170 165 99
164 160 94
169 164 97
167 162 94
170 165 95
167 162 91
168 163 95
168 163 91
162 158 87
168 163 91
171 165 98
169 162 92
169 164 95
168 163 91
168 164 96
171 165 95
171 165 85
170 165 95
171 164 94
171 165 101
172 166 92
173 166 97
171 165 96
171 165 93
170 164 94
172 166 92
167 162 91
168 162 94
171 165 93
170 165 91
174 167 97
179 170 100
175 168 94
170 164 92
173 166 97
176 169 100
171 164 96
172 167 92
175 168 97
171 165 95
171 165 93
167 162 87
169 163 94
169 163 90
177 170 102
172 165 89
166 160 90
174 168 95
173 166 97
176 168 99
171 164 92
176 168 98
167 161 94
170 162 90
172 166 93
172 165 95
165 159 88
170 164 91
171 163 90
166 160 93
166 160 87
165 159 87
160 155 82
173 166 95
170 162 92
161 155 85
169 161 90
166 160 90
165 158 88
164 157 93
163 158 93
171 165 95
168 162 95
161 154 85
160 155 86
167 161 87
161 155 86
164 157 93
158 152 82
158 152 82
165 159 90
160 155 87
162 155 81
159 152 84
160 155 87
161 154 82
158 152 81
162 156 90
161 155 87
158 152 82
159 153 86
160 154 89
159 153 84
157 151 82
155 150 87
159 153 83
217 233 253
217 233 254
216 232 252
217 233 252
215 232 249
214 230 246
218 234 255
217 233 254
217 233 253
218 234 255
216 232 250
215 231 246
216 232 249
212 229 242
217 233 253
215 231 246
214 230 244
213 229 242
213 229 242
213 230 241
214 230 245
215 231 249
215 231 248
212 228 242
214 230 246
213 230 243
214 230 244
213 230 244
217 233 254
214 230 242
213 230 241
215 231 248
215 232 249
214 230 242
215 231 248
215 231 248
212 228 240
215 232 249
216 232 250
215 231 250
216 232 250
216 232 250
213 230 244
213 229 244
214 231 245
215 232 252
215 231 246
214 230 245
213 229 244
213 229 244
215 231 249
211 227 245
211 227 245
207 224 241
209 225 243
209 225 245
212 228 248
211 227 247
213 229 249
211 227 248
213 229 252
214 230 250
213 229 250
209 225 246
211 227 248
211 227 248
213 229 250
214 230 250
208 224 244
211 226 248
212 228 248
213 229 249
212 228 248
207 223 238
213 230 248
212 228 246
212 229 246
212 228 245
215 232 249
213 229 245
215 231 252
216 232 253
213 229 246
214 230 244
212 229 242
216 232 252
214 231 246
213 230 248
215 231 249
212 229 242
214 231 249
214 231 248
212 229 244
214 230 249
211 228 241
214 230 245
216 232 253
213 230 246
214 231 248
215 232 252
213 230 245
213 230 245
214 230 248
214 230 244
214 231 252
214 230 246
215 231 249
213 230 245
214 231 248
211 228 246
211 229 242
214 231 249
212 229 248
214 230 250
215 232 254
209 226 244
208 226 238
214 230 248
206 223 236
202 219 233
207 224 243
208 225 240
207 224 242
204 222 244
208 225 242
208 225 241
209 226 248
203 220 234
204 222 241
206 223 240
202 220 236
204 221 233
204 221 244
209 226 243
201 218 238
198 216 236
205 223 246
116 140 187
101 128 179
201 220 244
207 225 250
209 227 252
205 223 248
202 219 244
203 220 244
209 226 250
217 233 255
218 234 255
218 234 255
147 167 194
61 96 151
61 96 152
60 95 139
61 97 150
60 96 142
60 95 143
61 97 152
60 95 141
59 94 140
60 95 136
60 95 141
60 95 144
60 95 135
62 97 155
60 95 142
60 94 144
60 95 136
61 96 149
60 95 140
60 94 137
62 98 154
60 95 137
60 95 135
61 97 142
62 97 149
61 96 142
60 95 137
61 96 143
61 96 145
61 96 136
61 96 143
61 96 145
61 97 140
61 96 148
62 97 149
60 95 136
61 96 142
60 96 142
61 96 143
60 95 144
61 95 142
62 97 147
61 97 150
61 97 148
59 94 128
60 95 135
61 96 140
60 95 146
60 95 144
60 96 143
61 96 151
60 95 138
61 96 143
62 97 141
61 97 145
60 95 137
61 96 142
60 95 143
60 94 141
61 95 143
59 93 129
61 96 142
60 95 142
61 96 147
61 96 137
60 94 135
60 94 150
60 95 143
62 97 155
61 96 140
60 94 135
62 97 151
60 95 138
60 94 136
60 94 137
59 93 138
61 95 142
60 95 142
60 94 137
60 94 140
60 94 144
59 93 139
59 94 133
60 94 140
60 94 142
60 94 145
57 89 139
59 92 138
58 91 132
57 89 132
58 89 124
57 89 139
58 90 131
59 92 146
57 88 128
56 87 130
56 86 127
54 85 120
53 82 121
51 78 111
140 157 187
213 227 247
110 108 73
96 94 59
88 88 61
81 82 57
63 66 46
78 81 58
77 78 55
75 79 58
67 73 56
74 79 59
87 92 68
80 85 63
92 96 68
90 94 66
99 101 71
100 103 72
96 100 70
98 100 67
113 115 77
115 117 77
111 112 73
108 109 70
118 118 77
124 124 82
132 131 81
130 130 84
125 125 78
138 136 84
130 129 83
139 138 88
131 130 77
134 133 78
141 140 85
139 137 86
143 142 87
142 139 80
148 145 88
148 145 85
147 145 89
149 146 87
151 148 83
158 153 90
154 151 89
158 154 90
153 150 92
160 156 92
161 156 95
165 161 97
166 161 95
159 155 86
165 159 93
161 156 92
162 157 89
167 161 93
160 156 93
160 156 92
164 159 94
170 164 98
166 160 87
166 161 93
174 168 96
165 160 91
167 162 89
169 163 90
161 157 84
173 167 99
169 163 92
171 165 97
170 165 92
171 165 95
173 167 97
170 165 93
172 166 93
172 166 92
171 165 97
171 165 97
170 164 91
171 165 94
170 165 94
175 168 98
174 167 97
174 167 95
167 162 86
172 166 96
168 162 89
169 164 90
171 165 92
174 167 94
169 163 92
176 168 95
171 165 95
170 164 91
169 164 90
170 165 93
170 164 95
172 165 93
170 164 92
171 164 93
169 163 90
172 166 91
167 161 86
171 165 91
168 162 91
169 162 88
172 165 94
166 160 89
167 161 94
173 166 95
168 160 90
166 161 89
167 161 92
166 160 89
162 155 86
167 160 93
165 159 88
166 159 86
164 158 89
168 162 92
167 161 92
165 159 85
165 159 83
166 160 90
165 159 91
164 158 84
169 162 90
153 149 81
165 158 85
163 157 86
163 157 89
163 157 84
161 155 80
163 156 87
167 161 95
161 156 81
162 156 84
165 159 85
165 159 92
159 153 87
153 148 80
164 158 89
152 147 80
146 141 75
160 154 79
167 161 87
157 152 87
155 149 84
158 153 84
163 156 85
217 233 253
218 234 254
217 233 253
218 234 255
217 232 254
218 233 253
217 233 252
216 232 249
217 232 250
217 232 250
218 234 255
216 232 250
218 233 254
216 232 249
216 231 248
216 232 248
215 231 244
213 229 243
214 231 244
216 232 249
215 231 246
215 231 245
214 231 244
215 231 248
217 233 252
215 231 248
215 231 246
214 230 246
213 230 242
216 232 249
217 232 254
216 232 249
215 231 245
212 228 243
216 232 250
213 230 241
216 232 250
215 232 248
217 233 253
214 230 245
214 230 242
217 233 252
216 232 250
216 232 248
215 231 248
214 230 245
215 231 248
215 231 250
217 232 250
215 231 246
217 233 254
211 227 246
212 228 249
213 229 247
211 227 246
212 229 242
211 227 246
208 224 246
213 229 251
213 229 250
209 225 246
212 228 249
214 230 252
213 228 249
206 222 243
212 228 248
213 229 250
213 229 250
209 225 245
210 226 247
214 229 249
212 228 245
214 230 250
212 227 245
215 231 252
213 229 246
214 230 248
213 229 244
215 231 249
214 230 246
213 229 245
213 229 246
212 228 245
210 226 236
214 231 249
216 232 249
215 231 248
216 232 249
212 229 245
215 231 246
214 230 248
216 232 250
216 232 252
214 231 246
215 231 248
212 228 244
216 232 253
214 231 248
214 230 244
211 228 241
214 230 245
214 231 246
213 229 241
214 231 246
213 230 242
215 231 249
214 230 245
214 231 245
213 230 244
215 231 248
215 231 251
215 231 249
212 228 248
211 228 246
204 221 238
211 227 242
209 226 243
210 226 243
205 222 236
208 225 239
203 220 238
207 224 242
208 225 243
210 226 246
209 225 243
208 224 244
202 219 235
207 224 237
207 224 242
197 214 230
206 223 237
203 221 231
204 221 238
202 219 240
203 221 243
204 221 242
206 223 247
155 175 209
71 104 159
161 181 217
210 228 252
206 224 250
203 220 247
206 223 247
203 220 244
204 220 244
218 234 255
218 234 255
218 234 255
128 149 184
59 94 138
59 94 141
59 93 139
60 95 130
59 95 137
62 97 153
60 95 139
59 94 144
60 95 140
60 95 139
61 97 148
60 95 145
61 96 143
60 95 140
60 95 139
62 98 155
59 94 129
61 96 142
62 97 151
59 94 143
62 97 144
61 96 148
61 96 145
62 98 154
59 94 136
61 97 148
61 96 148
61 96 145
61 97 157
62 97 144
61 97 144
60 95 145
61 96 140
60 94 133
60 95 136
60 96 137
60 95 141
60 95 141
61 95 134
60 94 133
61 96 150
60 95 131
61 96 140
59 94 140
61 97 149
60 95 140
59 94 131
61 96 145
61 96 139
60 95 139
61 96 143
60 94 137
61 96 148
59 94 141
60 95 136
60 95 137
60 96 145
61 96 143
62 97 150
61 95 140
60 94 137
60 95 139
61 95 141
60 94 136
60 94 141
61 96 147
61 96 147
60 95 139
60 95 144
60 95 143
61 95 144
60 94 141
61 95 142
60 94 144
60 95 140
60 95 146
61 95 143
60 94 135
60 94 139
60 94 143
60 94 142
59 93 138
59 93 133
59 94 140
59 93 133
61 94 146
58 91 136
59 92 136
59 93 141
60 95 145
59 92 137
59 91 135
57 89 131
58 89 130
58 90 138
56 88 129
56 86 127
56 85 125
52 81 120
53 82 123
117 134 163
200 213 227
88 88 58
79 79 52
75 76 50
80 82 55
87 89 63
76 79 56
69 74 53
62 68 51
77 81 58
87 90 64
66 71 52
81 86 62
84 87 63
84 89 61
105 108 74
102 104 71
93 96 67
103 106 73
102 105 69
99 103 70
114 115 75
122 122 78
127 126 81
115 116 74
124 125 80
134 134 84
130 130 83
126 127 81
142 140 87
134 133 82
136 134 79
131 130 82
138 136 79
139 138 85
151 148 90
145 144 82
157 153 94
147 145 86
141 140 79
153 149 89
145 143 87
156 152 90
157 153 90
160 156 95
158 154 90
158 154 91
158 153 91
151 147 82
154 150 80
163 159 94
159 154 89
162 158 97
165 160 93
167 162 93
168 162 98
164 159 93
159 155 88
170 164 101
169 163 95
164 159 86
166 161 92
171 164 93
171 165 94
170 165 95
168 162 89
165 160 90
170 164 93
171 165 94
174 167 96
171 165 91
172 166 94
172 166 92
170 164 94
169 163 90
173 166 92
169 164 90
174 168 94
171 164 91
170 164 87
173 167 94
168 162 91
174 167 93
170 163 94
173 167 93
171 165 93
171 165 92
172 165 90
174 168 95
177 169 99
170 164 87
174 167 96
168 163 88
169 163 93
172 165 95
173 166 95
170 164 88
170 164 93
166 161 88
170 164 92
168 162 93
166 161 87
169 164 87
170 163 90
170 163 90
169 163 97
168 163 95
164 159 90
164 158 88
168 162 87
164 158 90
173 166 92
168 162 90
165 159 85
170 162 87
166 159 89
171 164 90
170 162 89
161 155 80
166 159 92
164 158 89
165 160 87
164 159 88
163 156 83
164 157 86
165 158 87
161 155 87
164 158 90
162 157 84
165 159 89
164 158 84
164 158 85
166 159 81
163 157 90
158 153 81
158 152 85
165 159 87
159 152 84
163 157 90
158 152 80
161 156 80
161 154 75
164 158 87
158 152 84
156 150 75
152 147 75
165 160 88
153 147 84
159 153 85
217 233 255
217 233 255
217 233 254
218 234 254
218 233 252
216 232 250
218 234 254
219 234 255
217 233 253
218 233 253
218 234 255
218 233 253
215 231 250
216 232 251
218 234 254
217 232 252
216 231 250
215 231 248
216 232 249
213 229 244
215 231 245
216 232 249
215 231 245
212 229 242
214 230 241
216 232 248
215 231 246
216 232 246
217 233 253
215 231 242
216 232 248
216 232 248
214 230 244
215 231 245
216 232 249
216 232 249
216 231 245
214 230 242
217 233 250
215 231 248
216 232 249
217 233 250
214 230 242
216 232 250
216 232 248
216 232 248
215 230 248
215 231 246
214 230 246
216 232 246
210 226 245
211 227 246
214 230 250
211 227 246
212 227 247
212 228 249
216 232 254
210 226 246
213 229 250
208 224 245
213 229 250
212 227 246
215 231 252
210 225 246
209 224 246
211 226 247
214 230 250
214 230 250
209 224 244
213 228 249
212 227 248
210 226 242
212 227 245
212 228 242
211 227 240
214 230 248
211 227 241
215 231 248
215 231 250
211 227 244
212 228 241
216 232 252
215 231 248
216 232 250
215 231 248
213 230 242
216 232 249
215 231 248
214 230 248
213 230 244
217 233 253
217 233 253
215 231 248
216 232 249
214 231 248
214 231 244
216 232 250
213 229 241
215 231 246
215 231 248
215 231 248
213 230 242
216 232 249
216 232 249
213 230 245
214 231 248
213 230 242
213 229 242
214 230 246
212 228 242
216 232 250
215 231 246
212 228 246
214 230 248
210 226 243
211 227 242
212 228 245
204 221 236
207 224 238
211 228 247
206 223 240
210 227 247
207 223 243
199 217 231
205 222 238
208 224 240
208 225 241
207 224 238
207 224 242
206 223 237
206 223 236
209 226 236
205 221 242
213 229 249
209 225 247
201 219 236
211 228 246
185 203 228
72 103 148
101 127 168
201 219 244
209 226 251
206 223 247
204 221 246
199 216 240
199 215 239
214 230 251
218 234 254
218 233 255
82 112 159
59 93 134
60 95 144
60 94 148
61 97 144
62 97 154
60 96 140
62 97 152
60 95 136
61 96 143
61 96 142
60 95 140
60 96 143
61 97 147
60 95 140
60 95 134
60 95 145
61 96 141
61 96 144
61 96 141
60 95 139
61 96 142
61 96 141
61 97 142
61 97 147
62 97 145
60 94 139
60 95 135
61 96 140
61 97 143
60 95 141
60 95 142
61 96 143
60 94 135
60 96 139
60 95 145
60 95 136
60 95 140
61 96 144
61 96 148
61 95 136
61 96 144
60 95 136
60 94 135
61 96 145
60 95 134
62 98 151
62 97 150
60 95 145
60 95 143
60 95 140
60 95 140
60 95 141
62 97 149
60 94 135
60 94 131
59 94 129
60 95 143
61 96 151
60 94 139
61 95 141
61 96 139
61 97 152
59 94 147
59 93 125
59 94 126
61 96 140
61 96 146
59 93 135
61 95 135
59 94 137
60 94 138
62 97 149
61 95 141
59 94 139
59 93 141
61 95 147
60 94 136
60 95 145
58 90 130
59 92 132
59 93 135
59 93 134
59 93 132
60 93 131
60 94 146
59 92 135
59 93 139
59 92 133
58 91 135
58 92 131
56 88 128
58 91 130
56 88 128
58 91 140
59 91 131
55 85 121
55 86 125
54 83 117
55 85 128
53 81 122
75 96 127
170 180 189
82 81 50
92 91 58
79 80 52
63 66 47
68 72 53
66 69 49
64 69 48
61 68 51
67 72 49
77 81 59
70 77 55
83 88 64
82 87 63
95 98 69
87 90 62
80 85 56
108 109 73
111 113 74
99 102 68
100 103 67
113 115 77
113 114 74
111 112 73
126 125 78
122 122 77
118 119 73
120 119 78
134 131 78
127 126 78
138 136 84
145 142 87
146 144 84
133 132 81
146 143 88
144 142 86
150 147 87
150 147 84
151 148 88
155 152 87
147 144 85
161 155 92
151 148 90
155 151 91
159 154 89
157 153 90
158 154 88
157 152 87
164 159 89
160 156 97
163 159 92
165 159 90
164 159 90
161 157 88
159 155 89
168 162 96
168 161 90
160 156 94
162 156 92
158 154 82
165 160 91
173 166 96
161 156 87
166 161 90
172 164 88
167 161 87
170 164 86
169 164 97
171 165 95
167 162 94
168 163 93
168 163 87
169 162 95
173 167 95
172 166 92
168 163 90
170 165 87
168 163 94
166 161 87
170 164 92
173 166 94
171 165 89
170 164 93
169 162 91
172 165 87
173 166 89
172 166 93
173 166 94
170 164 89
172 165 91
170 164 93
169 163 90
169 164 91
168 163 92
170 163 92
170 163 91
166 161 88
166 160 82
168 162 87
170 163 92
170 164 87
167 160 90
163 157 87
170 164 94
164 158 89
166 160 89
165 158 89
166 160 84
165 160 83
169 162 90
171 163 93
168 163 93
166 160 87
166 161 83
166 159 85
168 162 88
169 162 93
164 157 84
163 157 87
168 162 95
162 157 84
168 161 89
165 158 90
166 160 86
166 160 87
165 159 88
158 153 80
161 155 83
161 155 82
163 157 89
164 158 86
167 161 90
162 155 84
163 157 81
157 151 80
162 156 86
154 148 82
166 160 90
161 156 87
154 149 70
164 158 87
164 157 86
161 155 89
157 152 78
157 151 76
163 157 84
164 156 90
153 147 77
151 146 79
219 234 255
218 234 254
219 234 255
219 234 255
218 234 254
218 234 253
219 234 255
219 234 255
218 234 254
217 232 254
219 234 255
217 232 253
219 234 254
218 233 255
217 233 250
217 233 252
216 232 246
216 231 248
216 232 251
216 232 250
215 231 245
217 232 249
215 231 246
213 229 240
215 231 245
214 230 240
216 232 250
216 232 248
217 233 252
215 231 245
217 233 252
214 230 241
216 232 246
217 233 250
217 233 250
216 232 246
216 231 245
217 232 249
215 231 245
217 233 249
218 233 253
218 233 252
218 233 253
213 229 242
217 233 250
215 231 245
217 232 250
216 232 249
216 232 248
214 229 248
215 231 248
218 233 252
216 232 252
211 227 248
214 230 252
211 227 247
215 231 252
212 228 250
212 228 248
210 226 246
213 229 251
212 228 249
213 229 250
210 226 248
209 225 244
211 227 248
210 226 246
209 225 246
212 228 249
213 229 250
206 222 244
211 227 248
213 229 246
210 225 244
213 229 245
214 230 241
217 233 253
213 229 241
214 230 246
213 229 246
215 231 249
214 230 245
215 231 245
213 229 246
215 231 246
218 233 253
213 229 242
215 231 248
215 231 246
218 234 255
215 231 245
216 232 246
216 232 249
215 231 244
213 229 241
217 232 250
216 232 248
218 233 254
216 232 248
213 229 238
215 231 249
216 232 249
215 231 245
213 229 241
215 231 245
214 230 244
216 232 249
212 229 242
217 233 252
215 231 246
214 230 244
214 230 249
214 230 248
209 225 241
216 232 251
211 227 240
211 227 242
208 225 240
205 222 237
208 224 240
208 224 242
203 219 236
205 222 238
205 221 238
209 226 239
206 223 233
201 217 233
213 229 245
205 222 237
203 220 229
207 224 239
205 222 233
206 222 245
206 222 242
208 224 245
202 219 238
209 225 247
204 221 243
76 107 156
66 99 148
171 190 222
209 226 250
206 222 245
204 221 244
203 219 240
208 224 246
206 222 246
219 234 255
209 224 247
61 96 148
60 95 144
61 96 148
60 96 142
60 95 143
60 95 137
60 95 147
60 95 140
61 97 152
59 94 135
61 96 140
60 95 136
60 94 133
61 96 143
59 93 126
60 95 140
59 94 135
61 96 133
60 95 135
61 96 139
60 95 139
59 94 137
60 95 133
61 96 142
61 96 139
61 96 141
62 97 149
60 94 139
61 96 143
61 96 142
61 96 141
60 95 136
59 93 125
62 97 148
62 96 139
62 97 141
62 97 150
59 95 136
59 94 131
60 95 139
60 95 143
60 95 135
61 96 141
60 95 136
60 95 135
60 95 141
61 96 147
60 95 136
61 95 142
61 96 141
61 96 140
61 96 147
62 97 150
60 95 142
60 96 140
61 96 141
60 94 133
61 95 140
61 96 142
61 96 143
61 95 150
59 94 140
60 95 140
61 96 142
60 94 129
60 94 126
60 95 147
61 96 142
60 94 133
61 96 149
59 93 135
61 96 140
60 94 137
61 96 142
58 92 132
60 94 136
59 93 132
59 93 130
60 94 142
60 94 137
60 94 150
58 91 135
60 94 144
61 95 146
60 94 147
61 95 137
58 92 138
59 93 138
59 91 135
57 88 128
58 91 126
57 89 134
58 90 128
56 88 130
56 87 124
54 84 109
56 87 128
52 81 111
54 83 119
54 84 125
52 81 119
49 76 115
136 143 141
89 88 59
80 80 53
80 82 56
64 68 47
67 70 51
68 72 54
70 75 55
66 71 51
64 70 51
58 64 44
55 63 49
74 78 55
82 86 59
97 100 65
107 109 72
100 103 68
96 99 65
112 113 76
104 107 70
113 114 75
113 113 71
116 118 76
112 113 73
126 126 79
120 119 74
127 126 79
134 133 86
134 132 81
129 129 78
128 127 78
129 128 79
135 133 80
148 145 88
148 146 84
140 139 85
138 136 80
143 140 85
151 148 89
152 149 91
150 148 82
153 149 85
159 155 92
155 152 85
147 145 88
154 151 81
153 149 91
149 146 83
150 147 85
157 153 90
163 157 92
158 154 86
154 150 83
159 155 93
162 157 90
164 159 90
158 154 87
168 163 94
169 163 94
167 162 93
168 163 95
164 159 89
164 159 92
165 160 86
173 166 95
170 165 95
168 162 89
166 161 89
165 161 87
170 164 91
171 164 92
169 163 85
170 164 95
174 167 92
169 163 93
169 164 91
166 161 89
170 164 89
171 165 93
169 163 87
174 168 96
170 163 88
171 165 89
170 163 93
170 164 90
172 166 90
174 167 95
170 164 87
164 159 81
169 163 91
170 163 87
166 161 89
174 167 93
170 163 92
167 160 84
169 162 84
173 166 94
169 163 87
167 161 90
169 163 86
165 159 84
170 164 88
160 155 81
166 160 84
172 165 94
170 163 92
163 156 84
162 156 84
166 160 87
165 159 84
171 164 90
167 159 88
171 165 90
167 160 93
168 161 92
162 156 80
167 161 91
167 161 88
165 160 90
167 161 84
166 160 84
162 156 84
167 161 90
164 159 86
165 159 87
168 161 87
167 161 88
163 156 89
160 155 83
160 155 81
162 156 86
168 162 84
161 154 82
158 152 84
157 150 80
165 159 89
155 149 84
157 150 80
163 157 84
164 157 83
163 157 86
161 154 90
155 148 79
157 151 79
153 148 76
154 147 81
155 150 76
150 144 78
155 148 84
219 234 255
219 234 255
219 234 254
219 234 255
219 234 254
218 233 253
219 234 255
218 234 255
218 233 254
219 234 253
218 234 253
220 235 255
219 234 253
219 235 255
219 234 254
220 235 255
218 233 252
218 234 253
218 234 252
218 233 252
216 231 250
217 233 249
214 230 243
215 231 247
214 230 243
215 231 244
216 231 244
217 232 249
216 232 248
215 231 240
218 233 252
213 229 238
218 234 253
216 232 245
216 232 245
216 231 245
215 231 242
217 233 250
217 233 250
217 233 249
216 232 246
217 233 250
216 231 245
216 232 245
214 230 242
215 231 242
217 232 248
217 233 249
215 231 248
213 229 249
214 229 247
213 229 246
213 229 249
217 232 253
216 231 252
207 223 242
215 230 250
204 220 240
211 226 248
213 228 250
210 226 247
212 227 248
212 227 247
214 229 251
212 227 248
208 223 243
213 228 249
211 227 247
212 227 249
211 227 248
214 229 250
212 228 248
211 227 248
213 229 248
215 231 248
215 230 245
215 231 249
213 229 241
217 232 249
216 232 249
218 233 253
215 230 246
218 233 252
214 230 244
215 231 245
217 233 252
217 232 252
216 232 248
216 231 249
217 232 252
214 230 246
215 231 245
216 232 248
218 233 253
214 230 241
217 232 249
216 232 249
216 231 245
216 232 248
217 233 250
217 233 250
217 233 250
215 231 244
217 233 252
216 232 248
217 233 252
217 233 250
217 232 249
215 231 245
215 231 244
217 232 249
214 230 248
214 230 245
209 225 237
205 221 240
210 226 241
205 221 233
209 225 246
211 227 244
204 221 236
211 227 243
207 224 238
211 227 246
212 228 246
211 227 241
211 227 243
206 222 236
203 219 233
203 220 234
203 220 235
208 224 241
210 226 242
211 227 245
204 220 242
207 224 244
207 223 243
204 221 242
213 229 251
106 129 164
63 97 149
122 144 186
210 227 250
212 228 251
207 223 247
203 219 242
199 215 240
206 222 245
219 234 255
197 213 236
60 95 140
59 94 141
61 96 142
60 96 137
60 95 144
60 95 137
59 93 136
60 94 137
59 94 136
60 95 140
60 95 136
61 96 143
61 96 143
61 96 144
61 97 150
61 95 142
59 94 133
59 93 134
59 93 133
60 95 141
61 95 141
61 97 148
61 96 144
59 94 134
61 97 142
62 97 147
61 96 149
61 96 144
61 96 147
61 96 144
61 96 151
60 95 137
62 97 145
61 97 145
61 96 141
61 96 145
62 97 144
60 95 135
60 95 140
61 96 145
62 97 150
60 95 139
60 95 141
61 96 141
61 97 151
58 93 130
61 96 143
60 95 133
61 96 145
60 95 136
61 96 149
60 95 141
61 96 141
60 95 143
60 95 135
60 94 137
61 95 142
60 94 135
61 96 145
60 96 143
61 97 149
60 94 147
60 95 142
59 94 129
59 92 129
59 94 136
60 94 141
59 93 133
60 94 137
59 93 141
59 93 133
61 95 148
59 92 137
58 92 137
59 94 132
59 93 133
59 93 134
60 94 135
59 93 141
60 95 139
58 93 131
59 93 131
59 92 129
58 91 136
58 91 136
61 95 144
58 90 120
57 90 128
58 91 132
59 93 141
58 91 138
59 93 143
57 87 124
59 92 138
56 86 125
56 86 118
53 82 112
57 88 124
55 86 122
53 81 119
50 78 116
49 75 111
103 105 77
83 83 54
74 74 48
74 75 49
60 63 44
68 72 51
64 68 47
45 52 37
60 66 47
59 65 47
65 70 49
74 80 59
78 81 56
81 86 56
83 85 57
71 77 53
81 84 56
99 101 67
112 112 72
108 109 70
91 96 65
113 112 71
119 120 75
116 117 75
113 114 73
114 115 68
122 123 74
131 130 81
128 128 77
130 130 82
131 130 79
138 137 84
137 137 83
138 137 77
140 139 79
137 136 81
134 133 76
147 144 86
145 143 84
142 140 79
135 134 80
153 149 87
151 148 85
154 150 86
154 150 88
151 148 84
158 153 91
158 153 84
156 152 87
156 152 85
160 156 88
160 156 85
165 160 91
159 155 85
163 158 94
164 159 93
157 154 86
164 159 92
164 159 85
169 163 95
166 161 91
170 164 92
167 161 91
163 158 83
166 162 95
165 160 85
173 166 95
169 163 89
167 162 85
168 162 88
171 165 93
175 168 97
174 167 90
170 165 93
172 165 94
172 166 90
172 166 91
172 166 93
169 163 88
166 160 82
173 166 91
171 165 89
170 164 88
173 167 95
169 164 88
174 167 93
168 162 92
173 165 92
171 165 89
174 166 95
169 163 87
169 163 89
175 168 96
173 165 90
169 163 90
170 163 87
174 168 95
165 160 86
170 163 85
170 164 88
169 162 90
165 159 84
169 163 93
169 163 90
167 160 87
167 161 90
160 155 80
166 160 82
166 161 80
166 159 84
164 158 83
169 163 92
163 156 85
165 158 84
166 160 89
167 160 87
164 158 86
165 159 86
162 156 80
167 161 86
165 159 88
166 160 79
164 158 85
169 161 88
164 158 83
165 158 80
159 153 74
160 154 83
161 155 82
165 159 88
164 159 86
160 154 80
164 158 88
168 161 89
162 156 81
150 145 76
165 158 88
151 145 75
158 152 83
159 153 84
158 152 80
165 159 84
153 147 80
150 144 76
160 154 82
159 152 80
155 149 80
157 151 82
164 157 84
220 235 255
218 234 254
219 235 255
219 234 255
220 235 255
220 235 255
219 235 255
220 235 255
218 233 254
220 235 255
220 235 255
219 234 254
220 235 255
220 235 255
219 234 255
220 235 255
219 234 254
219 234 255
220 235 255
220 235 255
219 234 254
216 231 252
219 234 255
218 233 252
219 234 254
217 233 251
215 231 247
214 230 241
217 233 248
217 233 250
215 230 242
217 233 249
218 234 252
217 233 249
217 233 248
214 230 238
217 233 249
215 231 244
215 231 241
215 230 240
217 232 246
217 233 249
217 233 249
217 232 246
217 233 249
214 230 240
217 233 249
215 231 250
213 229 244
218 233 250
213 228 248
216 232 250
217 232 253
211 226 247
210 225 246
209 224 246
214 230 250
211 226 246
211 226 246
214 229 250
208 223 243
210 225 248
209 224 246
209 224 245
214 229 250
215 230 252
211 226 246
209 225 248
209 225 244
211 226 246
214 229 250
209 224 246
212 227 248
213 228 250
216 231 250
218 233 252
215 230 245
215 231 245
215 231 244
216 232 246
217 232 250
218 233 252
217 233 250
217 233 249
216 232 248
214 230 241
217 233 250
217 233 249
216 232 246
218 233 252
218 233 250
217 233 250
215 231 245
217 232 248
217 232 249
215 231 244
216 232 245
215 231 244
217 232 248
215 231 245
213 229 240
217 233 249
218 234 253
217 233 250
217 233 250
217 232 248
216 232 246
216 232 248
216 232 245
217 233 252
214 230 244
211 227 243
210 226 246
211 227 244
208 224 241
209 225 234
207 223 238
207 223 238
212 227 243
207 223 239
209 225 245
211 226 243
205 221 236
207 223 238
208 224 240
208 224 242
206 223 232
211 227 241
208 224 237
210 226 245
212 227 243
201 217 238
205 221 238
215 230 250
211 227 248
215 230 250
212 228 251
209 225 248
134 154 181
76 106 158
76 107 151
198 215 240
206 222 244
211 227 250
208 224 248
199 215 240
198 214 237
217 233 254
192 208 231
59 94 145
61 96 144
61 96 144
60 96 142
59 94 130
60 95 136
61 96 137
60 95 139
60 95 135
61 96 148
62 97 147
60 95 133
60 94 136
59 93 133
60 95 140
61 97 148
62 97 148
60 94 139
59 94 131
61 96 143
61 96 140
61 96 150
60 96 139
59 94 129
60 95 137
60 95 140
61 96 147
62 97 151
61 96 143
60 95 131
60 95 139
61 96 145
61 96 135
62 96 141
60 94 126
62 98 155
60 95 139
60 94 133
60 95 140
61 95 142
59 94 144
61 96 150
60 95 130
62 97 146
61 96 142
59 94 135
59 94 134
61 96 151
60 94 133
59 94 133
61 96 142
59 94 131
61 96 148
59 93 138
61 96 142
61 96 150
60 94 133
59 94 136
60 94 134
59 94 140
62 97 150
62 97 149
59 94 134
61 96 147
59 93 129
59 93 130
60 95 134
60 95 148
59 93 135
60 93 136
60 94 137
60 94 132
61 96 146
60 94 144
59 92 135
61 96 144
60 95 140
59 92 139
59 93 134
58 92 128
58 92 132
60 94 137
59 93 133
58 91 133
59 92 131
59 93 138
59 92 138
58 91 135
59 92 136
57 88 126
58 91 139
59 91 132
58 90 125
59 92 133
56 86 120
55 86 118
57 88 133
56 87 122
56 86 126
52 79 103
52 80 106
48 74 104
79 83 77
79 79 37
69 70 44
52 55 37
64 66 46
56 61 44
60 64 44
54 60 45
60 64 43
53 59 44
64 69 51
74 79 55
82 84 56
81 84 57
94 98 66
86 88 56
83 87 54
99 100 66
106 107 69
99 102 69
109 111 70
112 112 73
105 106 62
115 115 74
123 124 70
120 119 73
124 122 74
123 123 77
116 117 65
122 122 77
137 136 81
139 136 81
133 131 79
136 135 80
140 137 81
143 140 83
144 141 75
140 138 79
148 145 85
152 148 86
148 145 83
149 146 83
160 155 86
152 148 88
156 152 85
154 151 87
148 144 80
157 152 87
156 151 83
161 156 84
159 155 89
160 156 93
156 152 83
159 154 88
158 154 84
166 161 92
162 156 90
164 160 89
162 156 87
164 159 94
162 157 90
169 163 89
163 158 86
168 163 91
168 162 88
166 160 85
161 157 85
170 163 90
168 162 91
168 162 86
169 163 93
166 160 83
168 162 89
168 162 89
170 164 90
168 162 85
171 165 90
165 160 87
175 167 96
166 161 81
174 168 92
178 171 99
170 164 87
171 165 86
174 167 92
172 165 94
170 164 87
173 166 88
170 164 89
171 164 91
172 166 91
168 163 90
173 166 93
169 163 90
165 160 82
166 160 84
172 165 95
171 165 91
166 160 84
173 166 93
172 165 89
168 162 89
170 163 89
169 162 90
167 161 84
168 162 87
160 154 78
169 163 83
165 159 85
166 160 86
172 165 93
165 158 83
167 160 87
165 159 87
168 162 88
157 152 80
170 163 86
156 150 80
169 162 89
166 159 86
163 156 82
168 160 88
164 159 86
165 159 80
163 157 82
157 151 82
161 155 82
162 156 79
163 157 85
161 155 84
159 154 82
160 154 84
153 147 82
162 156 84
165 158 85
161 155 77
164 158 86
156 149 81
164 158 86
161 154 84
151 144 75
161 154 83
158 152 84
157 150 80
160 153 86
160 153 86
156 150 81
162 155 82
164 157 90
220 235 255
220 235 255
220 235 255
220 235 255
220 235 255
220 235 255
220 235 255
219 234 254
220 235 255
220 235 255
220 235 255
219 234 255
220 235 255
220 235 255
220 235 255
220 235 255
220 235 255
220 235 255
220 235 255
219 234 255
220 235 255
220 235 255
218 233 253
219 234 254
219 234 255
220 235 255
218 232 253
220 235 255
219 234 253
219 234 254
219 234 252
219 234 253
217 233 248
217 232 249
218 233 250
217 232 246
217 233 249
216 232 245
215 231 240
217 233 248
217 232 246
217 232 246
215 231 241
217 233 248
217 232 246
216 232 245
217 232 248
216 231 248
209 225 245
215 230 248
213 228 248
206 221 240
210 226 247
214 229 250
215 230 250
214 229 250
214 229 249
217 232 253
208 223 244
209 225 245
211 227 247
214 229 249
211 227 248
208 223 245
215 230 250
210 225 244
213 228 249
213 229 251
211 226 246
218 233 254
214 230 250
211 226 248
213 228 250
214 230 251
211 226 247
217 232 252
214 230 244
216 232 246
217 233 249
217 232 246
217 233 249
215 231 242
216 232 246
217 232 248
218 233 249
216 232 244
217 233 249
215 231 245
216 232 245
217 233 248
215 231 244
218 233 250
217 233 249
216 232 246
218 233 250
217 232 248
217 233 248
216 232 246
217 232 248
216 232 245
217 232 248
216 232 245
217 232 246
216 232 245
217 233 248
218 233 250
216 232 246
216 232 245
217 232 248
216 231 242
213 229 242
211 226 241
216 231 248
213 229 243
212 227 243
212 227 242
206 222 237
205 221 234
212 227 247
207 223 242
212 228 246
209 224 240
211 226 243
210 226 239
207 223 231
204 220 236
211 227 246
215 230 246
207 222 242
208 224 241
210 226 247
212 228 250
219 234 254
216 231 250
211 226 248
213 228 252
209 225 246
206 222 244
147 166 199
72 102 148
76 106 144
183 200 228
209 225 248
212 228 251
211 226 250
210 225 247
206 221 244
211 227 248
167 184 211
59 94 140
59 93 144
60 94 135
59 94 134
59 94 139
60 95 136
59 94 138
59 94 140
60 95 137
62 97 149
61 96 140
60 96 139
58 92 130
61 96 143
60 95 133
60 95 135
59 94 136
60 95 140
61 96 140
60 95 143
61 96 143
60 95 139
61 96 149
61 96 142
60 95 135
61 96 144
60 94 131
58 92 120
61 95 143
61 95 143
61 95 135
60 94 136
59 93 126
60 95 140
61 96 145
60 95 136
61 96 143
61 96 137
61 96 139
60 95 134
61 95 136
60 95 140
62 97 145
59 94 140
61 96 140
60 95 137
59 94 133
61 96 140
61 96 137
61 95 137
59 93 131
61 96 147
62 97 150
61 96 142
60 94 140
61 96 151
59 93 133
60 95 140
61 96 145
60 95 134
60 94 140
60 94 141
61 95 148
60 94 133
59 93 125
60 94 133
59 94 137
59 93 133
60 95 135
60 94 141
59 93 138
60 94 138
61 95 138
60 94 133
59 93 133
60 94 140
61 94 138
59 92 130
60 94 134
60 93 138
58 91 113
59 93 130
59 94 133
59 94 131
59 92 129
59 93 135
58 90 132
57 89 129
58 91 123
59 91 127
59 93 132
57 90 129
57 90 128
55 86 121
59 92 139
56 88 124
55 85 119
55 85 125
54 82 102
54 84 116
51 79 114
48 73 100
76 80 54
76 75 44
54 55 38
64 65 41
56 60 42
43 47 32
40 45 33
53 59 42
51 60 47
69 73 50
65 70 48
65 70 46
70 76 52
56 63 46
86 89 60
76 80 52
84 88 54
103 105 66
91 96 61
98 102 65
102 104 63
96 99 60
109 109 66
127 127 76
131 129 78
115 115 64
121 121 73
129 128 80
133 131 80
128 127 75
126 126 76
132 131 76
140 139 79
121 122 69
145 142 83
145 142 84
141 138 82
147 144 84
144 141 78
149 145 85
148 145 82
152 148 81
147 144 83
147 144 80
149 145 85
151 147 84
153 149 80
154 150 86
156 152 85
159 154 86
162 156 88
165 160 92
165 159 89
155 151 82
158 154 79
162 156 88
156 152 82
159 155 84
169 164 95
163 157 87
167 161 91
159 155 82
168 162 90
167 161 86
168 163 84
168 162 91
172 166 97
168 163 85
170 164 88
169 163 92
167 162 86
166 160 90
170 163 87
170 164 91
168 162 87
168 162 84
170 164 88
170 164 90
170 164 91
171 164 87
166 161 82
165 160 83
171 165 90
173 166 91
173 165 90
170 164 89
172 166 90
172 166 90
170 163 90
167 161 87
173 166 87
169 163 90
167 161 84
171 164 90
169 164 87
172 166 91
168 161 89
164 159 78
167 161 91
173 166 92
173 166 94
172 164 87
170 163 89
169 163 90
174 167 93
167 160 84
168 162 88
164 158 88
169 163 89
164 158 82
166 160 85
170 164 90
164 157 80
161 156 81
167 160 84
166 160 87
171 164 83
161 154 81
167 161 87
169 162 90
166 160 80
164 158 83
161 155 81
167 161 87
166 159 86
169 164 86
164 158 82
164 157 87
163 156 85
152 146 72
161 155 82
161 156 80
165 158 87
155 150 84
167 160 86
149 143 75
164 157 87
157 151 73
159 152 79
168 161 90
166 159 87
163 157 88
159 153 80
148 142 74
160 153 85
153 147 75
161 154 81
151 146 78
159 154 84
219 234 254
220 235 255
220 235 255
220 235 255
220 235 255
220 235 255
220 235 255
220 235 255
220 235 255
220 235 255
220 235 255
220 235 255
220 235 255
220 235 255
219 234 255
220 235 255
220 235 255
220 235 255
219 234 254
220 235 255
218 233 253
220 235 255
220 235 255
220 235 255
220 235 255
219 234 254
219 234 254
219 234 255
220 235 255
220 235 255
219 234 255
220 235 255
219 234 255
220 235 255
220 235 255
220 235 255
220 235 255
220 235 255
220 235 255
219 234 252
219 234 250
219 234 252
218 233 250
219 234 252
219 234 250
219 234 250
216 231 248
217 232 249
217 232 251
214 229 245
217 232 252
211 226 247
217 232 252
214 229 250
209 225 245
212 227 246
215 230 251
213 228 247
214 229 249
213 227 248
217 232 252
212 227 247
212 227 247
212 227 247
212 227 247
214 229 248
215 230 250
206 222 242
213 228 249
211 226 246
212 226 246
211 226 244
215 230 250
214 229 249
212 227 248
215 230 247
217 232 245
218 233 249
217 232 245
219 234 252
219 234 254
217 233 248
217 233 248
218 233 249
216 232 242
219 234 253
218 233 249
215 231 241
218 233 249
217 232 245
217 233 248
218 233 249
217 233 248
217 233 248
217 232 246
218 233 249
217 232 246
217 233 248
217 232 244
215 230 241
218 233 250
219 234 252
217 232 246
214 230 238
217 233 246
217 233 248
217 232 245
218 233 248
216 231 246
216 231 245
212 227 241
216 231 248
215 230 248
213 229 244
213 228 248
210 224 239
210 226 236
215 230 248
211 226 242
206 221 237
207 223 232
209 225 241
215 230 248
210 225 245
208 224 240
210 226 245
213 229 248
213 228 249
210 225 244
211 226 249
216 231 252
210 226 246
209 225 246
216 231 252
211 227 249
208 224 246
214 230 252
213 228 250
174 190 216
75 105 143
73 103 148
149 168 202
212 227 250
210 225 248
202 218 240
203 218 241
193 209 233
207 223 244
181 197 222
60 94 145
60 95 133
60 95 134
59 94 140
59 94 134
60 95 136
60 95 139
59 93 129
59 94 127
60 95 131
62 97 151
60 95 143
62 97 151
60 95 131
59 94 135
61 96 142
60 94 131
60 94 140
60 94 137
60 95 130
60 95 141
60 95 140
62 98 152
61 96 144
61 95 141
60 94 143
61 95 142
61 96 139
61 96 141
61 95 137
61 96 145
59 94 129
61 96 140
61 96 141
61 97 149
60 95 137
59 94 134
60 95 141
60 95 142
60 95 137
60 94 136
61 95 137
59 93 128
61 96 141
59 94 128
60 95 133
60 95 136
60 95 141
59 94 125
62 96 135
61 96 142
61 96 142
61 96 137
60 95 135
61 96 143
60 95 135
59 93 133
61 96 149
59 92 125
58 93 136
59 94 134
60 94 143
61 96 142
61 96 135
60 95 135
59 93 136
62 97 148
60 94 134
59 93 129
59 93 135
60 94 133
61 95 143
60 94 136
61 95 141
59 92 131
58 90 127
58 91 132
59 93 137
59 93 131
57 90 124
61 95 140
59 93 140
57 90 125
58 91 137
58 91 131
61 94 137
60 93 140
58 90 129
59 92 129
58 90 129
57 89 127
58 91 130
57 89 114
57 89 131
56 86 129
56 86 126
54 85 113
57 89 126
55 84 121
54 82 109
50 78 109
48 73 94
62 69 65
86 85 49
63 64 37
54 57 39
48 51 35
51 56 39
46 52 38
53 59 43
58 66 50
41 49 38
56 65 48
67 72 52
67 72 52
77 81 50
80 83 55
89 92 59
81 87 57
95 98 68
109 110 68
100 102 64
95 98 60
105 106 58
111 112 70
111 112 65
116 116 68
129 128 74
122 120 69
119 119 73
121 121 73
121 121 73
128 127 78
135 132 77
147 144 84
138 136 76
133 132 80
143 141 83
139 138 77
136 135 71
142 139 77
149 146 82
144 141 79
154 150 83
150 147 83
148 145 80
153 150 85
155 151 83
152 148 80
154 150 83
159 155 87
162 156 85
157 153 84
154 150 80
161 156 90
160 155 89
167 161 89
162 157 91
164 160 90
157 154 81
165 159 80
164 159 89
164 157 86
165 159 86
165 159 86
164 159 83
167 161 84
166 160 83
162 156 87
170 164 88
169 163 88
164 158 83
169 163 88
167 161 84
168 162 82
165 161 85
173 166 92
168 162 87
168 161 86
172 164 93
170 164 90
170 164 88
174 166 93
171 164 87
172 166 93
168 162 86
169 162 84
169 163 86
169 162 85
168 162 84
168 162 84
171 165 86
167 162 87
167 161 86
170 164 88
171 164 86
174 166 90
168 161 86
171 165 90
171 165 87
169 163 90
164 158 80
168 162 82
165 159 82
171 165 93
162 157 80
171 165 93
164 158 87
173 167 93
170 163 90
164 157 80
162 157 80
166 160 87
166 160 87
166 160 84
166 160 87
165 159 88
160 154 80
163 157 82
161 154 80
168 161 83
167 161 87
168 162 84
170 163 93
163 157 82
167 161 86
154 149 75
165 158 83
165 159 87
162 155 85
163 156 82
162 156 79
167 160 87
163 157 82
158 151 77
161 154 83
167 160 87
154 149 75
153 147 72
162 156 79
166 159 91
166 159 84
166 160 89
161 155 86
162 155 82
151 145 75
156 151 75
149 144 73
156 149 81
156 151 80
159 151 78
221 235 255
221 235 255
221 235 255
221 235 255
221 235 255
221 235 255
221 235 255
221 235 255
221 235 255
221 235 255
221 235 255
218 232 254
221 235 255
221 235 255
219 233 253
220 234 255
221 235 255
221 235 255
220 234 254
218 233 254
221 235 255
221 235 255
221 235 255
221 235 255
221 235 255
221 235 255
219 233 253
221 235 255
220 234 255
221 235 255
220 234 255
221 235 255
221 235 255
220 234 254
221 235 255
221 235 255
221 235 255
221 235 255
221 235 255
221 235 255
221 235 255
221 235 255
221 235 255
221 235 255
221 235 255
221 235 255
218 233 254
220 234 255
214 229 250
218 232 253
212 227 246
214 229 249
213 228 248
214 229 250
212 227 248
215 230 250
214 229 249
214 229 251
207 222 242
213 228 248
216 231 251
219 234 255
214 229 251
218 233 254
217 232 252
211 226 247
214 229 250
211 226 246
210 225 244
210 225 246
211 226 247
215 230 251
213 228 250
212 227 248
207 222 242
214 229 244
217 232 249
218 233 248
219 234 249
218 233 249
219 234 250
218 233 249
219 234 250
219 234 250
219 234 250
220 235 254
217 232 244
217 232 245
219 234 252
218 233 248
219 234 250
217 232 245
218 233 248
217 233 246
219 233 249
219 234 250
219 234 250
219 234 253
219 234 252
219 234 250
217 232 244
219 234 250
220 235 254
219 234 252
220 235 254
220 235 253
219 234 253
218 233 250
218 233 249
219 234 250
215 229 247
216 231 251
217 232 250
213 228 246
214 228 241
213 227 244
213 228 247
215 230 250
215 230 251
207 222 245
211 226 248
215 230 250
211 226 246
213 228 250
213 228 250
209 224 246
214 229 251
216 231 252
213 228 250
214 229 251
211 226 246
210 225 247
215 230 252
214 229 249
211 226 249
209 224 245
206 222 244
215 230 251
177 193 219
63 95 136
69 100 145
145 164 194
214 229 249
213 228 251
209 225 246
208 224 245
202 217 239
204 220 241
154 172 198
59 93 134
59 94 137
60 95 140
60 95 136
60 95 135
59 94 131
61 96 145
60 95 143
59 94 131
59 93 126
59 93 131
60 94 137
58 93 126
60 95 137
61 96 141
60 95 137
60 95 135
60 95 136
61 96 142
60 94 141
60 95 147
60 95 135
60 95 130
60 95 141
60 95 141
61 96 136
60 95 140
60 94 135
60 95 140
61 96 140
60 94 134
60 95 144
60 95 131
61 96 143
60 95 137
60 95 140
60 94 139
60 94 137
61 96 148
60 95 129
60 94 134
61 96 142
59 94 130
60 95 139
61 96 141
60 95 131
61 95 143
58 92 133
60 95 143
61 96 143
60 95 141
61 95 141
60 94 133
60 94 135
62 97 148
60 94 134
59 93 128
60 95 136
61 95 139
61 95 135
61 95 144
60 94 137
60 95 140
60 94 138
59 93 130
59 93 125
61 96 146
59 93 134
61 95 139
61 96 147
60 94 137
61 96 141
60 95 142
60 94 135
58 91 125
59 93 134
59 93 130
59 93 139
59 93 137
59 93 135
58 91 134
57 90 122
61 95 143
59 93 134
60 94 146
59 93 137
58 90 128
58 91 130
58 91 131
58 90 127
57 89 133
56 88 112
55 87 116
58 89 129
57 88 130
55 84 121
56 86 124
54 82 114
50 77 105
51 78 110
55 85 126
50 76 102
70 79 80
77 76 47
62 61 32
52 55 37
49 52 35
46 50 35
37 43 31
49 56 41
56 63 43
61 67 47
56 64 42
56 63 46
64 72 51
71 76 51
92 94 56
87 90 59
87 91 58
94 97 59
95 96 57
95 98 62
94 96 59
108 108 67
115 115 70
117 117 74
120 122 68
119 119 68
129 127 72
114 115 67
129 128 78
130 128 77
133 131 76
129 127 72
136 133 81
136 136 78
135 133 77
134 133 73
146 143 84
142 139 76
147 144 80
145 143 75
143 140 77
147 144 79
154 150 82
149 146 82
152 149 86
157 152 81
152 147 78
155 150 82
154 149 74
156 151 82
163 157 91
161 156 85
168 162 89
157 154 83
166 160 83
162 157 78
161 155 83
156 152 80
158 153 85
168 161 89
166 160 84
166 160 87
165 160 86
166 160 86
166 160 82
168 162 85
166 160 81
167 162 87
165 160 87
166 161 84
172 166 89
166 161 84
169 162 88
169 163 88
173 166 92
171 164 88
166 161 82
170 164 86
169 163 89
166 161 83
173 166 93
171 165 86
167 162 84
170 164 79
170 163 89
169 163 90
169 162 87
170 164 87
172 165 85
175 167 90
172 165 90
170 163 85
171 164 83
169 163 90
174 167 93
164 158 75
165 159 80
166 160 83
170 163 87
165 159 85
171 164 87
170 164 86
165 159 84
167 161 84
166 160 89
168 161 85
171 164 91
167 161 87
168 162 84
162 156 83
171 163 87
162 157 83
165 160 85
168 161 85
168 162 87
166 160 81
169 162 91
167 161 87
169 162 90
158 152 70
163 156 85
162 156 83
168 161 84
165 158 87
165 158 86
162 156 83
167 160 85
165 158 83
163 157 80
162 157 80
159 153 80
154 148 74
161 155 80
166 158 81
157 151 79
163 156 84
167 160 86
156 151 78
159 153 80
167 160 83
162 156 88
158 151 79
149 143 72
160 153 81
154 148 76
160 154 72
147 143 67
158 151 81
163 156 87
221 235 255
221 235 255
221 235 255
221 235 255
221 235 255
221 235 255
220 234 254
221 235 255
220 234 254
221 235 255
221 235 255
221 235 255
220 234 255
221 235 255
220 234 254
221 235 255
221 235 255
219 233 253
220 234 254
219 233 253
219 233 254
220 234 254
221 235 255
219 233 254
221 235 255
221 235 255
221 235 255
221 235 255
220 234 254
221 235 255
221 235 255
221 235 255
221 235 255
221 235 255
221 235 255
221 235 255
221 235 255
221 235 255
221 235 255
221 235 255
221 235 255
221 235 255
221 235 255
221 235 255
221 235 255
220 234 255
219 233 254
216 230 252
220 234 254
220 234 254
212 227 248
216 230 252
211 226 245
219 233 253
218 232 252
214 228 248
212 227 248
216 230 250
216 230 252
219 233 254
217 231 251
217 231 253
215 229 250
215 229 250
215 229 249
211 226 248
216 230 250
214 228 249
210 225 247
216 230 252
217 231 251
212 227 247
217 231 251
216 230 252
216 230 250
215 229 250
220 234 254
221 235 255
221 235 255
221 235 255
221 235 255
221 235 255
221 235 255
221 235 255
221 235 255
221 235 255
221 235 255
221 235 255
221 235 255
221 235 255
221 235 255
221 235 255
221 235 255
221 235 255
221 235 255
221 235 255
221 235 255
221 235 255
221 235 255
221 235 255
221 235 255
221 235 255
221 235 255
221 235 255
221 235 255
221 235 255
221 235 255
221 235 255
220 234 254
217 231 251
214 228 246
215 229 250
215 229 250
215 230 249
215 229 246
215 230 250
214 228 250
213 227 249
215 229 251
215 229 249
213 227 250
214 228 249
215 229 251
215 229 250
213 227 248
214 228 249
211 226 248
213 228 249
218 232 253
207 222 242
214 229 250
212 227 250
208 223 244
213 228 249
213 228 250
211 226 246
213 228 250
213 228 250
184 200 223
63 96 137
65 97 135
110 133 161
217 232 252
206 221 239
213 228 248
207 222 245
201 217 238
209 224 245
151 170 196
60 94 140
60 95 141
58 92 129
60 95 134
60 95 133
60 94 135
60 95 135
60 94 141
59 94 135
58 93 125
59 93 140
59 94 137
60 95 133
59 93 129
60 95 129
60 95 142
60 95 144
59 94 133
59 94 135
60 95 137
59 94 124
61 96 148
60 94 129
58 92 122
59 95 135
61 95 137
61 96 141
58 93 131
59 94 134
61 96 139
59 93 129
60 95 134
60 95 137
59 93 126
61 96 140
60 95 141
61 96 139
59 93 131
61 96 135
60 94 134
59 94 131
61 96 140
60 96 134
60 94 131
59 93 134
60 95 135
60 95 128
58 92 125
61 95 140
60 95 131
60 95 140
60 94 141
59 93 134
59 94 137
59 94 130
59 94 133
60 94 131
61 96 145
59 93 128
61 95 137
59 93 138
59 93 129
60 94 136
59 93 135
59 93 124
60 94 129
60 93 135
60 95 140
59 93 133
60 94 137
61 96 149
60 94 142
60 93 134
61 95 145
59 93 134
59 93 137
58 92 128
57 91 127
60 95 136
58 92 124
60 94 138
59 93 132
59 92 127
59 91 131
58 91 128
57 89 124
58 91 128
57 89 126
57 89 126
58 90 127
58 91 136
58 91 131
55 86 121
57 89 121
57 88 117
54 84 113
53 82 116
53 83 117
54 83 122
53 82 118
51 77 106
50 77 107
81 90 85
63 62 33
54 54 20
46 47 25
50 56 37
60 63 40
51 56 38
43 49 32
52 59 43
51 58 43
62 68 43
43 51 37
65 72 46
68 74 47
85 88 51
82 85 53
99 100 59
97 100 59
91 94 55
105 106 63
113 114 69
104 105 67
111 112 63
114 116 67
118 118 63
122 121 71
115 115 73
121 120 67
125 124 71
131 128 70
118 118 70
125 124 72
134 133 75
137 135 77
146 143 82
138 136 77
137 134 78
140 138 75
140 138 76
144 141 78
149 144 78
152 148 83
148 145 84
146 143 82
153 148 82
150 147 82
155 150 81
159 154 84
159 153 80
151 147 80
161 156 86
153 149 80
161 156 84
161 155 83
161 156 80
161 156 84
163 157 86
163 158 85
161 156 80
161 156 86
163 158 89
167 161 87
167 161 87
165 160 92
169 162 83
168 162 86
161 156 80
167 162 85
165 159 81
167 162 83
171 165 91
169 163 84
174 167 93
169 163 89
166 160 82
169 162 86
170 164 88
165 159 80
166 160 85
169 162 82
171 165 90
170 164 89
168 163 90
173 166 87
173 166 87
171 164 84
169 163 86
165 159 81
166 159 83
166 160 80
175 167 90
168 161 79
171 164 84
167 160 83
172 165 90
168 161 86
170 164 89
172 164 87
170 162 88
171 164 86
167 160 85
167 161 87
166 160 81
162 156 78
166 159 87
166 159 78
166 159 84
165 160 79
168 161 90
171 163 90
165 158 81
160 153 80
161 155 85
168 160 84
167 160 87
161 155 76
166 160 87
164 158 84
160 153 79
164 157 84
160 154 84
158 153 79
166 161 84
165 159 81
165 159 77
158 152 79
166 160 87
162 155 78
163 157 81
163 155 87
159 153 78
163 157 85
161 156 80
160 154 87
161 154 82
157 150 78
160 154 74
161 154 84
150 145 67
157 151 81
153 146 74
156 150 75
153 147 75
159 152 76
163 157 84
159 153 77
159 153 84
154 148 77
160 154 80
221 236 255
221 236 255
221 236 255
221 236 255
221 236 255
221 236 255
221 236 255
220 234 254
221 236 255
220 235 254
221 236 255
221 236 255
221 236 255
221 236 255
221 236 255
221 236 255
221 236 255
220 235 255
221 236 255
221 236 255
220 235 254
218 233 254
220 234 254
220 235 255
221 236 255
220 235 255
221 236 255
220 235 254
221 236 255
221 236 255
221 236 255
221 236 255
221 236 255
221 236 255
221 236 255
221 236 255
221 236 255
221 236 255
221 236 255
221 236 255
221 236 255
221 236 255
221 236 255
221 236 255
221 236 255
219 234 254
214 229 249
217 232 252
217 232 251
217 231 250
218 233 253
210 224 244
219 234 254
212 226 246
217 231 251
218 232 253
214 228 249
215 229 248
214 229 250
217 232 252
213 227 248
217 231 251
217 231 252
213 227 248
211 225 245
211 225 246
220 234 254
214 228 248
215 229 249
219 234 254
216 231 251
216 231 252
213 227 248
216 231 251
215 229 250
213 228 250
219 234 254
221 236 255
221 236 255
221 236 255
221 236 255
221 236 255
221 236 255
221 236 255
221 236 255
221 236 255
221 236 255
221 236 255
221 236 255
221 236 255
221 236 255
221 236 255
221 236 255
221 236 255
221 236 255
221 236 255
221 236 255
221 236 255
221 236 255
221 236 255
221 236 255
221 236 255
221 236 255
221 236 255
221 236 255
221 236 255
221 236 255
221 236 255
219 233 253
220 234 253
217 231 251
219 234 254
214 228 248
215 229 249
217 231 250
212 226 245
212 226 247
214 229 250
211 225 245
210 224 246
215 230 250
214 228 247
214 229 250
205 220 242
216 231 251
208 223 244
216 231 252
213 227 248
218 232 252
211 225 247
214 228 248
213 228 250
213 227 248
215 230 251
215 230 250
217 232 252
213 227 247
217 231 250
195 210 234
70 101 143
87 113 147
116 138 174
211 225 245
209 223 246
211 225 247
205 220 240
188 204 228
202 216 235
150 169 195
58 93 118
59 94 134
60 95 134
60 95 141
60 95 140
59 94 134
60 94 139
60 95 133
59 94 133
59 94 128
59 94 141
60 95 131
60 95 139
60 95 137
60 94 140
60 94 140
60 95 136
60 94 133
61 96 149
60 95 140
60 94 131
61 96 145
60 94 136
60 94 136
60 94 129
61 96 131
61 96 143
61 96 141
61 96 143
60 94 129
60 95 135
59 94 130
61 96 135
60 95 139
60 94 133
58 93 128
60 94 134
59 93 125
60 95 131
58 92 125
61 96 141
60 94 131
60 95 143
60 95 134
61 95 135
60 95 136
59 93 128
59 93 133
59 94 124
60 95 135
59 93 137
62 96 142
61 97 143
60 95 139
60 95 142
60 95 136
58 92 124
59 94 133
59 93 125
60 95 139
60 94 134
58 91 124
59 94 126
59 93 134
58 92 128
59 93 129
60 94 133
61 95 139
59 93 128
61 95 145
58 92 130
59 93 129
57 90 128
59 92 137
60 94 136
59 92 130
60 94 136
58 92 134
58 91 128
58 92 131
59 92 122
60 94 137
60 94 137
60 94 140
58 91 127
60 94 140
56 88 120
58 91 125
57 88 125
57 89 126
58 90 124
58 91 128
58 89 127
55 86 118
57 89 122
57 88 125
56 87 122
53 81 112
55 84 116
52 81 115
51 79 107
51 77 104
56 70 75
53 53 28
28 31 21
47 49 27
50 52 33
41 47 30
49 53 31
45 52 36
52 60 44
50 58 41
56 63 46
57 62 41
57 64 40
67 73 48
78 84 55
78 83 52
82 87 52
86 88 47
89 91 54
98 101 60
96 99 57
101 103 63
108 109 60
114 113 67
112 112 61
118 117 72
125 125 68
117 117 69
124 123 66
119 119 68
133 131 74
131 130 71
124 123 69
142 140 77
133 132 71
138 135 76
142 139 74
146 143 84
147 144 77
140 136 70
148 144 79
143 140 75
144 141 76
154 149 88
148 145 77
148 145 75
152 148 78
156 152 81
164 158 89
162 156 84
158 153 82
153 150 74
159 154 79
159 154 81
159 154 74
160 156 83
161 156 82
161 156 82
160 154 82
162 157 84
168 163 90
165 159 83
167 161 90
170 163 88
164 159 79
163 158 80
166 160 83
159 155 73
169 162 86
165 159 78
168 163 86
167 161 86
167 162 80
172 164 89
168 162 87
162 158 73
170 163 84
174 166 87
170 163 88
169 162 88
164 158 81
168 160 86
169 162 84
170 163 84
169 162 84
171 164 88
167 161 84
167 160 88
168 162 81
171 165 85
169 162 88
164 157 82
166 160 79
160 155 74
167 160 84
168 162 79
168 161 84
168 161 81
166 160 77
169 161 84
168 162 87
169 162 88
170 163 92
167 160 86
162 156 75
170 164 87
164 158 80
164 158 80
164 158 82
162 156 79
157 152 75
164 158 79
162 157 80
167 162 79
164 158 84
161 155 81
160 154 75
163 157 80
163 156 77
164 157 88
164 158 73
161 155 83
162 157 82
157 151 74
158 153 73
167 159 90
158 151 77
167 160 82
160 155 81
162 156 82
161 155 81
163 157 83
160 154 82
155 149 76
166 158 84
158 152 76
160 154 78
158 151 77
161 155 84
158 152 84
161 155 81
160 153 81
161 154 77
156 150 77
165 158 80
162 155 84
154 148 78
154 149 69
158 151 78
222 236 255
221 235 255
222 236 255
222 236 255
221 236 255
222 236 255
221 236 255
220 235 254
220 235 254
222 236 255
222 236 255
222 236 255
221 235 255
222 236 255
219 234 254
221 236 255
221 236 255
221 236 255
221 236 255
219 234 253
219 234 253
221 236 255
220 235 255
221 236 255
222 236 255
220 235 255
221 236 255
219 234 253
221 236 255
220 235 255
221 236 255
222 236 255
220 235 254
222 236 255
222 236 255
221 236 255
221 236 255
221 236 255
221 236 255
222 236 255
221 236 255
221 236 255
221 236 255
220 235 254
221 236 255
220 235 254
218 233 253
220 235 254
217 232 252
216 231 251
210 225 246
215 230 249
212 227 248
218 233 253
210 224 244
217 232 252
213 228 248
218 233 252
212 227 246
214 229 249
213 227 247
215 229 248
214 229 249
214 229 250
216 231 252
214 229 248
210 225 245
219 233 253
212 227 248
218 233 252
211 225 246
213 228 249
211 226 248
212 227 248
217 232 251
218 233 253
219 234 254
222 236 255
221 236 255
222 236 255
220 234 253
221 236 255
221 236 255
222 236 255
221 236 255
221 236 255
221 236 255
221 235 254
221 236 255
221 235 254
221 236 255
222 236 255
221 235 254
221 236 255
221 236 255
222 236 255
221 236 255
221 236 255
222 236 255
221 236 255
221 235 254
221 236 255
222 236 255
221 236 255
222 236 255
221 235 254
222 236 255
221 236 255
221 235 254
218 232 251
215 229 248
217 232 252
218 233 254
216 231 252
210 224 241
213 226 243
213 228 249
216 231 250
211 226 245
212 227 246
218 233 253
218 233 252
212 227 247
212 226 246
210 224 244
219 233 253
218 233 253
214 229 248
212 227 247
207 221 243
215 230 251
212 227 246
211 226 247
207 221 244
215 230 250
214 229 248
211 226 246
218 232 252
193 208 228
58 91 122
86 112 147
112 134 165
214 228 249
213 228 246
207 221 240
207 221 242
199 214 235
208 222 242
158 175 198
58 92 134
59 94 136
59 93 128
60 95 142
60 94 134
59 94 137
59 94 136
60 94 134
59 94 131
58 93 126
60 95 130
59 94 137
59 93 126
60 96 143
60 94 131
59 93 131
60 95 137
61 95 134
59 94 131
59 93 135
59 93 134
60 96 148
60 95 139
59 93 124
60 95 135
60 95 139
60 95 140
60 95 128
59 93 124
60 94 135
59 94 131
60 95 137
60 95 131
60 95 141
59 93 133
61 96 141
60 95 137
60 95 137
60 95 136
60 94 126
61 95 143
60 94 139
61 96 139
60 95 143
60 95 135
60 95 134
60 95 133
59 93 126
59 93 124
60 95 141
59 93 126
59 93 122
59 92 122
60 94 136
59 93 131
61 95 134
59 93 130
59 94 130
60 94 128
61 96 137
61 96 142
60 94 141
59 94 131
61 95 148
60 94 140
59 94 133
61 95 142
58 92 130
60 94 135
58 92 124
60 94 135
60 93 136
60 94 139
58 92 129
60 93 134
58 91 123
60 94 136
59 93 125
60 94 126
57 90 118
59 92 141
59 92 124
58 91 133
60 93 129
59 92 129
60 93 137
59 93 128
58 90 130
57 90 131
56 88 120
58 91 123
57 88 119
58 91 134
55 85 121
55 86 123
56 86 113
56 86 115
55 84 118
53 81 108
54 83 111
50 77 103
49 74 89
66 72 67
46 46 25
47 47 23
50 51 29
39 43 24
46 50 29
45 49 30
32 38 22
48 55 39
61 66 42
53 60 41
55 63 40
73 77 42
81 84 52
60 68 48
83 86 52
89 91 56
86 90 51
98 99 55
100 102 62
99 100 59
90 92 57
97 99 52
99 101 61
110 111 62
109 110 68
122 121 70
108 109 61
118 117 64
115 115 65
128 127 69
132 130 72
128 125 70
126 125 69
127 126 64
143 140 71
128 127 70
139 136 70
140 138 77
148 144 80
142 139 72
139 136 73
146 143 76
144 141 74
149 145 73
156 151 84
155 151 79
152 147 79
155 150 81
159 155 86
157 151 77
153 149 73
162 157 82
152 149 81
153 150 79
162 156 84
157 153 79
165 159 86
168 161 87
160 154 80
155 152 76
165 160 89
167 161 85
168 161 82
160 155 85
171 164 86
166 160 78
165 160 80
167 161 88
168 162 84
168 162 84
167 161 85
167 161 84
166 160 80
164 159 77
169 162 86
167 162 83
166 160 80
169 162 84
170 164 87
167 162 84
172 165 90
165 159 81
170 163 87
168 162 86
167 161 84
170 163 86
168 162 85
168 162 82
168 161 84
170 164 85
168 162 74
171 164 87
165 158 80
170 163 84
168 161 81
170 163 86
167 161 81
169 162 88
167 160 85
166 160 80
170 162 86
169 163 87
164 158 80
166 160 78
165 157 76
167 161 81
166 160 81
167 161 82
167 161 85
164 157 79
163 157 79
164 157 84
159 154 74
159 154 75
164 158 82
165 158 82
159 154 77
165 158 84
160 154 78
164 158 79
165 159 83
166 159 81
167 160 84
168 161 84
169 162 85
158 153 75
164 158 84
161 154 76
161 155 75
157 151 79
160 154 87
166 158 82
157 150 77
161 155 80
158 151 79
165 158 90
159 152 78
162 155 83
161 154 81
162 155 82
164 157 86
157 150 81
157 151 77
154 149 79
152 146 77
160 154 79
151 144 72
164 158 84
222 236 255
222 236 255
222 236 255
221 235 255
222 236 255
222 236 255
221 235 255
222 236 255
222 236 255
222 236 255
222 236 255
222 236 255
222 236 255
222 236 255
222 236 255
221 235 255
221 235 255
220 234 254
222 236 255
222 236 255
222 236 255
221 235 255
222 236 255
222 236 255
221 235 255
220 234 254
221 235 255
221 235 254
222 236 255
221 235 254
222 236 255
222 236 255
222 236 255
221 235 255
222 236 255
222 236 255
222 236 255
222 236 255
222 236 255
222 236 255
222 236 255
222 236 255
222 236 255
222 236 255
222 236 255
222 236 255
216 230 251
217 231 251
219 233 253
219 233 253
215 229 250
221 235 254
217 231 250
218 232 252
213 227 248
214 228 248
209 224 245
213 227 248
214 228 248
217 231 250
213 227 246
214 228 246
218 232 251
216 231 249
218 232 252
214 228 248
219 233 251
218 232 252
214 228 249
217 231 251
214 228 245
216 230 250
219 233 254
216 230 250
214 229 248
217 232 251
221 235 255
221 235 254
222 236 255
222 236 255
222 236 255
222 236 254
221 236 255
222 236 255
221 235 254
221 236 255
222 236 255
221 235 254
222 236 255
222 236 255
222 236 255
222 236 255
221 235 253
222 236 255
222 236 255
222 236 255
221 236 254
222 236 255
221 235 254
221 235 253
222 236 255
222 236 255
222 236 255
221 235 253
222 236 255
222 236 255
222 236 255
222 236 255
219 233 252
219 233 252
221 235 254
220 234 254
219 233 254
218 232 251
219 234 253
214 227 244
214 229 248
215 230 249
210 224 244
218 232 253
219 233 252
215 230 249
212 227 248
212 227 246
214 229 249
213 228 248
219 233 252
215 229 248
219 233 253
218 232 252
211 226 246
217 231 251
212 227 245
211 226 244
210 225 246
215 229 249
212 226 245
216 230 249
177 193 214
71 101 140
62 95 132
139 157 179
213 227 247
215 229 250
217 231 251
213 227 248
192 208 231
212 226 246
160 177 205
57 91 126
59 94 140
61 96 144
60 95 139
59 94 129
60 94 136
59 94 131
58 93 133
60 95 139
58 93 121
60 94 128
60 95 133
58 92 126
61 96 143
60 95 140
61 95 134
60 94 134
61 96 142
60 95 135
60 95 141
61 96 145
60 94 133
59 94 140
60 95 143
60 94 122
60 95 134
62 97 142
60 94 130
59 94 135
61 96 140
61 97 141
60 95 139
60 95 139
60 95 130
61 95 134
60 94 135
57 90 117
60 94 121
60 95 142
60 94 139
59 94 137
59 94 134
61 95 142
60 94 136
60 94 130
60 94 135
60 94 139
60 94 133
58 92 121
59 93 129
59 94 128
58 92 124
61 95 135
60 95 135
59 93 126
59 93 129
60 94 129
61 95 136
59 94 135
58 92 128
60 94 134
61 95 140
59 93 131
58 92 124
58 92 134
59 93 133
59 92 132
59 93 140
59 92 124
59 93 140
59 93 128
58 91 126
58 92 123
59 93 131
59 92 131
58 91 123
60 94 135
59 93 130
57 90 125
59 92 137
59 93 125
57 90 121
58 91 132
61 95 139
59 92 128
58 90 127
60 94 136
58 91 121
59 91 131
58 90 130
57 88 126
56 88 116
56 87 117
57 89 126
55 85 111
56 87 114
56 87 125
52 79 105
56 86 125
54 81 117
53 81 107
48 72 81
67 74 57
71 69 33
63 62 32
51 52 30
51 54 27
59 62 37
43 50 30
47 53 31
59 63 36
35 44 33
49 55 36
51 59 43
64 70 39
68 73 43
70 74 46
84 87 51
77 81 43
75 82 51
83 86 44
93 94 52
98 100 60
101 104 61
100 102 61
105 107 60
117 117 66
106 107 60
108 108 64
115 116 62
112 113 65
131 130 68
134 132 67
138 135 71
126 125 65
130 128 68
140 137 77
139 135 73
143 140 81
150 146 81
144 141 74
145 141 71
153 149 82
152 148 80
144 140 75
144 141 71
159 154 81
151 148 82
156 150 83
147 144 73
162 157 81
156 151 78
161 155 84
157 152 82
152 148 75
162 156 81
158 154 80
155 150 76
159 153 86
154 150 73
163 157 79
164 159 84
166 161 86
167 161 87
169 162 87
169 163 84
163 157 77
165 159 80
171 164 85
167 161 86
163 159 77
164 158 84
167 161 81
166 160 82
168 162 80
163 158 79
169 163 86
164 159 78
166 160 82
174 167 90
166 160 77
169 163 82
167 160 80
168 162 80
169 162 86
168 162 80
168 161 83
173 165 87
170 163 86
169 162 81
163 157 75
170 163 84
169 162 84
174 167 93
166 159 84
168 162 82
171 164 91
162 157 74
161 156 78
170 163 87
166 160 81
164 157 77
173 166 90
168 161 84
167 161 80
166 160 80
169 161 83
161 156 69
162 156 76
165 158 79
167 160 83
166 160 75
168 161 81
163 155 77
166 159 78
168 161 82
156 151 73
167 160 83
163 157 79
168 161 87
166 160 81
164 158 83
164 158 85
160 155 74
161 155 78
166 158 86
164 157 77
162 156 77
154 148 72
169 162 87
159 153 83
163 156 78
159 153 76
166 160 80
160 154 77
166 159 84
154 147 80
159 152 72
158 152 80
162 155 79
160 153 77
156 151 73
162 155 79
155 149 69
157 151 80
157 151 76
156 150 76
160 153 81
161 154 77
163 157 80
159 152 82
222 236 255
222 236 255
222 236 255
222 236 255
222 236 255
222 236 255
222 236 255
222 236 255
221 235 255
222 236 255
222 236 255
222 236 255
222 236 255
222 236 255
222 236 255
220 234 254
222 236 255
222 236 255
221 235 255
220 234 254
221 235 255
222 236 255
222 236 255
222 236 255
221 235 255
220 234 254
222 236 255
221 235 254
222 236 255
222 236 255
222 236 255
222 236 255
222 236 255
222 236 255
222 236 255
222 236 255
222 236 255
222 236 255
222 236 255
222 236 255
222 236 255
222 236 255
222 236 255
222 236 255
222 236 255
221 235 255
217 231 252
221 235 254
219 233 252
220 234 254
220 234 252
218 232 251
217 231 251
217 231 251
212 227 247
217 231 251
215 229 250
218 232 252
218 232 250
219 233 252
220 234 253
220 234 252
216 230 249
215 229 248
209 223 242
217 230 250
210 224 244
210 225 239
214 228 247
212 226 243
215 229 246
216 230 248
214 228 242
217 231 252
213 228 244
213 227 246
221 235 254
221 236 254
221 235 254
222 236 254
221 235 252
220 234 250
220 235 250
220 235 250
221 235 253
220 234 249
220 235 252
220 234 250
222 236 255
221 235 252
218 233 244
220 235 252
219 234 249
219 234 248
220 234 250
218 233 244
219 233 246
219 234 248
221 235 253
218 233 245
219 234 249
219 233 249
221 236 254
219 233 246
219 234 248
218 233 245
220 234 249
219 233 248
218 233 246
220 235 250
216 231 250
218 232 250
212 227 244
216 230 248
219 232 249
214 228 246
216 230 250
215 229 250
213 227 247
211 225 246
215 229 248
214 228 249
213 227 246
213 227 246
213 227 246
217 231 251
214 228 248
209 224 244
217 231 250
212 226 247
215 229 249
208 222 242
213 227 245
213 227 246
218 232 251
219 232 251
211 225 244
219 232 251
170 186 211
63 96 138
75 104 137
156 173 194
220 234 252
213 226 244
210 224 245
203 218 237
204 218 240
211 225 246
173 189 211
59 94 131
59 93 133
60 94 131
60 95 134
59 93 128
60 95 137
59 93 130
60 94 134
59 94 134
59 94 130
59 93 129
60 95 134
59 94 122
60 94 140
60 95 139
57 90 131
60 94 134
61 96 137
59 93 130
59 93 124
60 94 135
59 94 118
60 95 134
60 95 134
60 95 129
61 96 142
60 94 124
58 92 126
58 92 126
60 94 133
58 92 130
59 94 125
59 93 134
60 95 135
60 95 133
59 93 126
61 96 137
61 95 137
60 94 125
60 95 139
60 95 133
59 93 120
60 95 128
61 96 144
59 93 125
61 96 144
60 94 136
60 95 139
57 91 126
61 95 140
60 94 134
61 96 143
61 96 140
61 96 139
59 93 129
59 93 134
59 93 130
60 95 140
59 93 126
61 95 139
59 93 125
60 94 131
60 94 143
58 92 120
59 94 126
60 95 135
60 94 138
58 92 123
59 94 136
59 93 119
59 93 131
60 93 141
59 93 128
60 93 132
59 92 134
60 94 136
59 93 129
59 93 129
59 93 133
60 94 136
60 94 133
57 89 117
58 90 121
58 90 129
57 89 132
59 92 135
59 93 140
58 90 128
58 91 131
55 87 120
56 87 119
56 88 120
57 89 122
56 88 118
56 88 122
53 81 102
56 86 108
55 86 125
52 79 100
53 81 114
50 76 97
52 79 113
47 55 43
58 58 28
52 51 28
28 34 19
39 43 21
49 54 32
44 48 26
33 42 30
45 52 33
43 50 29
52 58 37
51 57 35
59 65 42
69 75 44
80 82 48
82 86 49
80 84 48
87 91 55
94 97 63
101 102 57
101 102 53
91 93 53
105 105 61
113 112 58
101 103 60
103 104 56
112 111 61
114 115 64
123 122 71
130 127 73
128 126 70
126 125 68
133 130 69
127 125 66
135 132 71
128 126 68
142 138 74
142 139 73
136 134 70
154 150 75
143 140 69
146 142 80
145 141 72
150 145 72
151 146 76
145 141 72
155 151 77
151 147 77
149 145 74
152 147 69
157 152 77
159 154 80
156 151 74
162 157 80
163 157 87
156 151 72
157 152 76
159 155 76
165 159 85
159 153 76
165 159 82
165 159 86
167 161 85
168 162 84
155 151 74
165 158 86
167 162 84
163 157 77
161 156 74
169 162 86
160 154 68
171 164 84
163 157 78
166 160 82
162 156 76
169 163 80
164 158 79
165 159 80
169 163 85
169 162 83
166 160 75
165 158 75
170 163 85
163 158 68
168 162 80
167 161 84
167 161 82
167 160 81
169 163 79
167 161 86
166 160 75
168 161 84
168 162 85
170 162 83
167 160 86
172 165 86
167 161 82
170 162 88
169 162 87
163 157 75
167 161 84
168 162 81
166 160 76
166 159 80
167 161 83
167 161 83
166 160 80
161 155 73
157 151 74
167 160 80
160 153 80
169 161 86
165 157 81
164 158 81
162 156 77
162 156 81
162 156 76
162 156 75
161 155 75
161 155 84
164 156 81
163 156 78
157 151 68
164 158 80
162 155 76
161 154 75
161 156 79
164 156 79
159 153 76
159 154 72
155 149 74
155 150 70
165 158 77
165 158 81
160 155 80
165 158 81
158 151 77
154 148 71
158 152 77
160 154 77
163 156 80
157 151 81
156 150 77
164 157 77
155 149 74
164 157 82
153 147 76
153 146 73
152 147 74
222 236 255
223 236 255
222 235 255
222 236 255
222 236 255
223 236 255
222 236 255
222 236 255
223 236 255
222 236 255
223 236 255
221 235 254
222 236 255
223 236 255
222 236 255
221 235 255
221 235 255
222 236 255
222 236 255
222 236 255
221 235 255
222 236 255
222 236 255
222 236 255
222 236 255
222 236 255
222 236 255
221 235 255
222 236 255
222 236 255
222 236 255
222 236 255
221 235 254
222 236 255
222 236 254
222 235 253
221 235 253
222 236 254
222 236 254
221 235 252
222 236 254
221 235 253
222 236 255
222 236 254
220 234 249
221 235 252
219 233 250
220 234 249
220 234 252
215 230 243
217 231 244
213 228 246
219 233 248
213 227 242
214 228 246
215 229 245
213 228 240
215 229 242
215 230 244
214 228 244
211 226 239
211 226 238
214 229 243
211 226 241
210 224 239
214 228 244
216 230 247
214 228 239
215 230 244
212 226 242
210 224 240
208 223 241
213 227 241
208 223 231
215 230 244
215 230 241
219 234 248
216 231 238
221 235 252
218 233 245
219 234 248
219 233 246
217 232 241
217 232 241
216 231 237
218 232 242
218 233 244
219 233 245
217 232 241
219 234 249
217 232 241
220 235 250
215 230 234
220 234 249
219 234 248
217 232 242
221 235 254
220 234 249
218 233 246
219 233 245
219 233 245
219 234 249
221 235 250
218 232 242
216 231 240
219 234 248
220 234 250
220 234 246
219 233 246
219 233 246
218 233 245
218 232 251
215 229 244
217 231 244
209 223 242
213 227 246
215 230 248
215 229 249
217 231 250
217 231 252
212 226 243
217 231 249
212 226 245
216 230 249
213 227 248
214 228 250
214 228 248
215 229 249
213 227 246
214 228 248
214 228 246
212 226 246
213 227 246
210 224 242
209 223 244
219 232 250
217 230 249
214 228 240
146 165 181
59 91 113
76 104 136
176 192 198
214 228 247
211 225 243
213 226 244
208 222 239
209 223 242
219 232 250
164 180 199
58 92 128
59 94 133
60 96 140
58 92 128
57 91 122
59 94 135
58 93 114
59 94 129
60 95 134
61 96 137
60 94 133
58 91 117
58 93 125
59 94 135
60 95 130
61 95 141
58 92 129
60 94 135
61 96 137
60 94 130
58 92 124
60 95 134
60 94 129
60 95 133
60 94 133
61 96 142
60 95 126
59 94 131
60 95 136
60 95 136
60 94 136
60 95 141
59 94 131
58 92 126
59 94 128
58 92 128
61 95 137
60 94 131
60 94 136
60 94 134
60 94 137
60 94 131
61 96 141
60 95 129
60 94 139
60 95 133
61 96 140
60 94 142
60 95 130
59 93 125
60 95 129
60 95 136
57 91 118
59 94 126
59 94 142
60 94 131
62 97 148
61 95 135
59 93 124
60 95 134
59 93 125
58 92 133
59 93 126
59 93 129
57 90 118
60 94 132
57 90 123
59 93 131
58 92 121
61 95 144
59 92 124
59 93 133
59 93 131
58 91 124
59 94 133
58 92 129
59 92 132
60 94 132
58 92 130
58 91 120
60 93 133
58 90 123
57 90 123
56 88 119
60 94 143
59 92 137
57 89 127
58 91 128
57 88 124
55 87 113
57 89 114
57 89 126
58 89 124
55 85 122
53 83 101
57 89 124
55 85 113
52 81 105
53 81 105
50 77 101
51 78 99
46 70 89
57 70 69
57 57 20
50 52 24
51 50 22
35 39 19
33 35 17
46 50 23
35 42 21
45 52 28
49 53 26
51 58 35
50 56 37
63 67 32
51 58 32
68 73 38
77 81 47
73 77 42
92 95 59
91 93 55
93 95 52
91 94 50
103 106 61
93 94 56
106 107 52
103 105 57
114 114 67
118 118 61
117 116 61
115 115 60
134 132 68
115 115 64
130 129 74
126 124 67
116 116 67
135 133 67
132 129 67
141 138 69
138 135 66
140 137 69
151 146 75
147 143 71
142 139 67
137 136 69
144 140 72
152 147 75
147 143 76
148 144 66
160 153 80
151 146 73
148 144 71
157 151 83
152 147 78
155 151 77
158 153 78
156 151 77
162 155 80
156 151 73
159 154 82
159 154 80
159 155 84
157 152 81
166 159 80
160 155 73
160 154 80
162 156 84
160 155 76
167 160 80
162 156 80
162 156 76
166 160 81
168 161 84
164 159 82
169 162 82
167 160 81
171 164 84
165 158 79
172 164 89
166 160 83
169 163 80
171 164 82
169 164 81
166 159 75
168 161 80
166 160 81
168 162 83
167 161 80
170 163 84
168 161 81
167 159 82
168 162 82
167 161 82
165 159 77
169 162 75
165 159 76
168 161 80
164 158 78
167 160 82
169 162 81
165 159 77
168 161 85
163 156 74
169 162 86
164 158 78
168 162 84
169 163 84
165 158 77
168 161 81
168 162 82
169 162 83
166 159 80
166 160 82
162 156 74
165 159 76
161 155 76
167 160 84
163 155 80
162 156 77
153 148 69
160 153 80
161 155 82
168 161 84
167 160 83
164 157 77
160 154 78
155 149 72
164 158 79
162 156 79
160 153 77
163 156 77
160 153 80
158 150 76
156 149 75
162 155 74
162 156 77
163 156 76
163 155 82
162 154 77
156 149 75
162 155 81
157 151 78
155 149 75
157 151 80
157 151 66
160 154 80
157 151 72
162 155 81
162 156 80
147 142 67
159 153 72
223 237 255
223 236 255
222 235 255
223 236 255
223 236 255
222 235 254
223 236 255
223 237 255
222 236 255
223 236 255
223 236 255
222 235 254
223 236 255
222 235 255
222 235 255
223 236 255
222 235 254
223 236 255
223 236 255
222 236 254
221 235 252
222 236 254
222 236 253
219 233 245
221 235 252
220 235 250
220 234 249
221 235 250
220 234 248
220 234 249
220 234 249
220 234 251
219 234 246
220 234 249
221 235 250
218 233 245
218 232 242
219 233 245
218 233 242
218 233 244
220 234 249
218 233 244
220 234 250
219 233 244
218 233 245
220 234 249
218 232 241
217 231 246
217 231 247
214 228 239
214 229 246
213 227 236
214 229 240
214 229 239
215 229 240
213 228 237
214 229 238
213 227 241
215 229 245
214 228 242
214 228 244
217 231 244
210 224 238
212 226 240
213 227 238
213 228 238
215 229 240
216 230 244
214 228 242
209 224 239
211 225 240
215 229 247
215 229 243
210 225 238
214 228 243
217 231 240
220 235 250
216 231 237
221 235 252
222 235 253
219 233 245
216 231 237
217 232 240
219 234 248
217 232 238
219 234 248
218 233 244
220 234 246
219 233 246
218 233 244
218 232 245
217 232 242
218 233 246
219 233 245
218 232 241
218 233 246
218 233 244
217 232 241
219 233 244
217 232 240
217 232 241
217 232 240
217 232 240
221 235 253
220 234 246
217 232 240
220 235 250
219 233 244
218 232 245
220 234 249
219 233 245
212 227 242
213 228 244
220 234 249
218 232 246
213 227 243
212 226 244
209 223 243
215 229 250
210 224 243
218 232 252
213 227 246
216 230 249
217 231 250
213 227 246
212 226 245
218 232 250
219 232 252
219 232 251
212 226 244
219 233 252
213 226 246
214 227 246
214 228 247
220 234 251
206 222 210
188 207 163
192 211 160
125 148 142
67 98 132
74 104 133
162 185 52
176 196 110
198 214 206
211 224 243
204 218 238
203 217 239
222 236 253
182 197 216
57 90 125
58 92 120
60 94 131
57 91 119
59 94 129
58 92 133
59 94 121
59 93 121
59 93 128
59 94 130
59 94 133
60 95 139
61 96 144
60 95 130
60 95 137
60 95 142
59 93 130
61 96 139
59 93 124
59 94 130
60 95 135
58 92 124
60 95 133
59 94 129
60 95 140
60 95 133
60 95 135
59 92 128
59 92 120
59 93 122
59 93 122
60 94 130
59 94 136
60 94 139
60 95 140
60 94 135
59 94 133
61 95 141
60 94 133
58 92 121
60 95 139
59 94 135
59 94 126
59 94 130
60 94 133
60 94 134
58 92 129
59 93 134
59 93 131
61 95 141
58 92 120
60 95 129
59 93 122
59 94 135
60 95 136
59 92 126
59 92 133
59 94 137
59 92 130
58 93 125
60 94 135
60 94 131
60 95 134
59 92 125
59 94 130
61 95 138
58 92 121
58 92 120
59 93 130
57 90 121
59 94 128
58 91 122
57 90 120
59 93 125
59 93 128
58 91 129
58 91 125
58 91 124
60 93 134
58 91 131
58 91 128
57 89 118
58 91 113
59 92 131
57 91 125
59 92 127
57 88 125
58 91 125
58 92 133
57 89 117
53 84 114
56 87 120
56 88 112
57 88 128
56 87 115
55 86 126
53 82 117
54 84 115
52 81 111
52 80 107
48 74 89
46 69 88
54 60 51
66 65 17
64 65 31
51 51 12
39 42 17
31 36 17
48 52 25
46 51 23
45 51 26
55 59 31
43 51 33
62 66 32
53 58 34
61 68 41
62 68 39
69 73 30
90 92 48
90 93 50
100 101 50
90 92 50
89 93 50
99 100 54
94 96 53
103 104 47
112 111 58
108 109 57
115 115 65
118 118 61
129 127 71
121 121 63
130 126 63
128 127 66
127 125 70
132 129 70
136 133 70
140 137 70
132 130 69
135 132 55
136 134 73
137 135 65
147 144 73
144 140 71
138 136 71
148 143 75
147 144 64
150 145 75
153 148 69
148 144 77
145 141 71
156 151 79
148 144 72
156 151 80
155 150 73
152 146 73
160 155 77
161 155 73
153 149 78
160 154 76
163 156 79
160 155 77
166 161 83
163 157 76
160 155 74
159 153 76
161 156 73
164 158 78
161 156 75
165 159 79
161 155 70
161 155 73
162 157 78
163 157 75
170 164 86
167 161 80
170 163 82
166 160 76
160 155 78
163 158 74
165 158 74
165 158 77
167 161 84
164 158 69
172 165 93
166 160 80
166 160 80
171 164 82
168 161 82
162 157 74
161 156 75
163 156 77
167 159 82
167 159 79
164 158 75
170 163 83
163 158 78
166 160 80
169 162 84
168 161 80
167 160 82
166 159 78
163 157 75
168 162 75
171 163 85
164 158 75
168 161 79
165 158 76
166 160 82
168 161 82
168 161 81
166 160 80
164 158 80
164 157 80
167 160 79
161 154 78
162 156 83
164 156 82
169 162 80
165 158 75
161 154 77
162 156 75
163 156 75
163 157 79
164 156 79
166 159 81
159 152 75
158 152 80
161 154 75
160 153 76
164 157 84
159 153 73
163 156 79
159 152 73
163 156 78
158 152 76
163 155 80
161 154 73
159 151 75
161 155 74
153 148 71
158 151 71
154 148 75
153 148 76
148 143 73
152 146 71
153 147 70
154 148 75
154 149 64
155 149 70
150 145 70
223 236 255
223 237 255
223 237 255
223 237 255
223 237 255
222 235 250
223 237 255
223 237 255
221 235 250
220 234 249
222 235 252
221 235 250
220 234 246
219 233 244
219 233 247
220 234 247
219 233 247
220 234 248
219 233 245
219 234 245
218 233 244
218 232 240
220 234 248
217 232 238
220 235 249
218 232 243
219 233 244
218 232 244
217 232 240
220 234 248
220 234 248
219 233 245
219 234 246
220 234 248
219 233 244
220 234 246
220 234 246
220 234 248
219 234 246
219 234 246
220 234 246
220 235 252
220 234 248
217 232 241
215 230 233
220 234 248
219 234 245
220 234 246
217 232 247
217 231 242
212 227 240
216 230 242
214 229 242
214 229 243
205 220 232
215 229 238
219 233 249
216 230 244
212 227 236
210 224 236
209 223 236
211 225 238
207 222 230
212 226 240
214 229 240
216 230 242
216 231 245
210 225 238
214 229 243
216 230 246
206 221 233
211 226 238
214 228 242
211 226 236
220 234 245
219 233 244
219 233 245
220 234 248
218 233 242
218 233 245
219 233 244
220 234 248
219 233 246
219 234 246
220 234 248
220 234 248
220 234 248
218 233 245
219 234 246
220 234 248
217 232 241
221 235 252
218 232 244
218 233 244
218 233 241
217 231 241
218 233 242
218 232 241
220 234 248
218 233 242
219 233 244
216 231 238
218 232 244
219 233 244
219 233 246
220 234 244
218 232 244
219 233 246
219 233 246
217 231 240
214 228 237
218 232 247
214 228 246
217 230 244
218 232 244
215 229 244
216 229 248
216 230 248
215 229 246
215 228 248
211 225 242
215 228 247
214 228 248
219 233 252
213 226 246
216 230 249
217 231 248
216 230 248
218 232 251
213 227 245
213 226 240
202 219 209
185 204 168
183 203 129
178 200 102
177 199 108
179 199 121
183 203 161
85 112 113
64 95 110
91 119 121
167 190 65
170 193 65
171 194 60
185 204 151
205 218 239
204 218 235
214 229 228
194 209 230
58 92 131
55 88 104
58 92 133
59 93 126
59 93 126
59 93 126
59 94 128
61 95 130
59 94 129
60 95 131
61 96 137
60 95 134
60 94 133
60 95 136
59 94 124
58 92 122
59 94 130
59 93 125
61 96 135
59 94 130
58 93 131
57 90 118
60 94 136
58 92 124
61 95 131
60 95 140
61 96 141
59 93 130
59 93 120
60 95 137
60 94 131
60 95 130
60 95 139
60 94 130
62 97 145
60 94 131
60 95 133
61 96 143
60 95 130
59 93 133
59 94 133
58 93 129
59 92 125
61 95 137
59 94 128
60 94 131
60 94 129
59 94 128
59 94 131
60 94 130
60 95 133
59 93 135
57 91 118
60 95 130
60 95 139
59 93 122
61 96 135
61 96 144
60 94 142
59 93 122
59 93 124
58 91 121
59 93 124
58 92 128
58 92 124
58 92 126
59 94 140
59 93 123
57 90 126
59 93 128
58 91 128
59 92 126
60 93 129
59 93 128
59 93 129
58 92 129
59 93 131
60 94 129
59 93 133
57 89 113
57 90 118
57 88 124
59 93 133
57 90 115
58 91 129
56 88 123
58 91 130
57 90 127
58 90 122
59 92 123
55 86 119
56 88 115
55 86 124
54 84 118
54 84 103
54 84 109
53 82 108
54 84 109
54 83 120
51 78 100
50 77 103
49 74 87
93 95 62
63 63 28
70 68 27
41 43 16
48 50 22
34 38 18
51 54 27
49 53 25
37 44 26
53 58 33
50 57 34
65 67 27
71 74 31
64 68 33
70 74 39
71 75 40
81 85 43
84 86 42
79 83 45
78 81 45
79 83 43
97 98 52
100 101 53
102 105 58
113 113 53
114 115 61
109 109 54
116 114 54
118 117 61
117 117 54
129 127 64
127 126 63
118 117 55
123 121 64
134 132 64
135 133 68
130 129 68
138 135 69
138 134 70
143 139 72
137 134 71
138 135 66
140 137 69
141 138 71
147 144 71
141 137 69
143 140 67
160 154 73
153 149 78
147 144 69
157 152 81
151 147 73
150 146 68
153 147 74
146 143 69
158 152 76
157 152 77
158 153 71
163 157 81
158 153 74
159 154 78
162 157 82
160 155 75
162 156 78
162 156 83
156 151 73
167 160 75
164 157 77
160 156 74
166 159 84
160 155 76
165 159 84
163 156 77
163 158 81
167 161 80
169 162 86
167 160 78
165 159 78
169 162 84
161 156 75
169 163 82
170 162 80
171 164 84
167 160 81
162 157 79
164 158 71
168 161 80
164 158 76
163 157 77
159 154 70
171 164 83
163 158 70
169 162 80
162 156 75
168 160 84
167 161 81
163 156 79
168 162 84
163 157 79
168 162 80
167 161 84
167 161 83
164 158 76
165 159 80
161 155 74
166 160 84
162 156 75
162 155 75
164 158 80
162 156 72
161 156 74
163 158 80
160 153 74
162 155 80
166 160 85
168 161 80
163 156 78
160 155 73
166 160 84
156 150 71
158 152 72
161 155 74
164 157 78
163 156 74
160 154 70
168 161 82
159 152 77
154 148 69
160 153 80
160 154 69
163 157 81
156 150 75
150 145 71
160 154 73
159 152 71
157 151 75
156 149 77
158 151 76
154 149 71
161 154 81
159 152 79
162 155 71
156 149 73
155 148 74
158 152 80
160 153 82
154 148 79
149 143 72
156 149 81
221 235 248
221 235 249
221 235 248
221 235 248
220 234 246
216 231 236
219 233 242
220 234 245
218 233 241
219 233 246
221 235 248
218 232 240
219 233 244
218 232 242
220 234 245
220 234 248
219 233 245
218 233 242
219 233 246
218 233 244
219 233 246
220 234 250
218 232 242
219 233 246
219 233 248
220 234 251
220 234 248
218 233 241
221 235 249
219 234 245
218 232 243
217 231 242
220 234 248
221 235 253
218 233 244
218 233 242
218 232 241
220 234 246
220 234 249
219 233 244
220 234 246
218 232 241
218 233 244
216 231 237
219 234 245
220 235 249
217 232 240
220 234 249
220 234 246
216 231 241
216 230 241
216 230 244
216 231 239
216 230 242
217 231 242
211 225 235
208 222 236
212 226 242
217 230 246
215 229 242
209 224 234
213 228 234
211 226 237
208 223 233
215 229 246
213 227 244
214 228 244
213 227 246
215 229 239
213 228 242
211 225 234
212 226 240
215 230 235
219 234 245
221 235 250
219 233 244
218 233 245
219 233 245
218 233 244
219 233 244
217 231 241
219 233 245
221 235 250
220 234 248
218 233 241
219 234 246
219 233 245
221 235 250
218 233 244
219 233 246
219 233 244
220 234 248
220 234 246
220 234 245
217 232 240
218 233 242
220 234 248
220 234 248
217 231 240
219 233 246
219 234 248
217 231 240
220 234 248
217 231 240
218 232 241
220 234 246
219 232 244
218 233 244
219 233 246
218 232 245
217 231 246
214 228 240
217 231 248
217 231 246
216 229 244
217 230 247
213 227 245
216 230 248
219 233 252
221 235 254
214 228 248
216 230 247
221 234 252
215 228 248
209 224 234
204 219 214
201 218 198
189 208 176
187 205 154
172 194 117
169 191 76
169 193 70
175 197 83
177 199 107
178 199 100
174 196 94
181 202 134
184 204 143
65 95 102
65 95 109
132 155 76
170 193 31
166 188 65
168 191 74
169 192 51
190 208 181
202 216 227
211 227 220
212 227 238
59 92 131
61 96 133
60 94 133
60 94 130
58 92 119
60 95 133
58 92 121
60 95 129
60 94 128
59 93 126
58 92 118
58 92 125
59 94 130
59 93 125
58 92 122
59 94 130
58 92 122
59 94 134
60 95 135
60 94 131
59 94 129
61 96 141
59 93 125
58 93 128
59 93 125
61 96 136
60 95 141
60 94 131
61 95 143
59 93 122
60 94 133
58 92 120
59 93 129
60 94 135
59 94 125
60 94 131
60 95 137
60 94 130
60 94 131
60 95 131
60 94 126
59 93 133
60 94 135
58 92 124
59 93 126
59 93 125
59 93 134
59 93 130
60 94 134
60 94 133
59 93 128
59 94 126
60 94 136
60 94 134
58 92 113
60 94 133
60 94 134
61 96 135
58 92 128
59 94 137
58 91 124
59 93 130
59 94 134
58 92 122
61 96 134
59 93 129
59 93 133
58 91 115
60 94 129
58 91 116
58 92 129
60 94 135
59 93 127
60 94 133
56 88 114
58 92 126
57 89 117
59 91 128
59 93 134
57 90 109
56 89 114
57 90 130
57 89 124
58 91 124
58 91 117
58 90 126
56 88 123
58 90 120
56 88 116
57 89 129
56 88 118
56 87 111
56 88 126
56 86 118
56 87 118
56 86 112
55 85 112
52 80 98
53 81 103
49 75 95
52 80 100
46 69 84
139 144 138
63 64 33
72 73 32
61 61 25
62 63 18
41 45 21
47 51 22
45 50 19
49 54 21
41 48 28
43 52 29
53 58 25
58 64 37
60 64 34
71 74 40
82 85 45
68 74 47
86 88 51
76 79 41
86 88 48
98 97 45
92 93 49
104 104 53
99 100 57
110 110 58
106 107 57
114 113 58
114 114 44
122 121 63
110 110 55
130 129 62
123 121 57
132 129 60
126 124 56
132 129 64
134 132 66
140 137 63
144 141 71
140 136 70
143 138 74
134 132 68
157 151 74
151 147 83
145 141 68
143 139 69
154 149 73
145 142 76
153 149 76
146 143 65
150 146 72
146 142 67
152 147 70
154 149 78
160 155 75
152 148 69
156 150 72
159 154 72
158 152 73
160 155 78
156 150 74
157 152 71
162 156 74
162 155 79
158 152 71
161 154 71
166 160 80
163 158 77
163 156 82
160 154 71
160 154 70
167 161 77
161 155 75
170 163 78
165 159 81
163 157 75
166 160 82
166 160 77
162 157 73
167 160 81
161 155 69
168 161 78
167 160 75
166 159 79
169 163 81
169 162 80
168 161 79
165 159 76
164 157 69
167 160 79
164 158 72
163 157 75
167 161 76
161 155 74
164 158 73
168 162 82
164 158 75
159 153 72
167 160 80
163 157 80
166 161 72
165 158 76
156 151 72
164 157 80
164 157 78
163 157 75
159 152 76
164 158 71
161 156 75
168 160 83
162 156 75
158 152 75
162 155 76
160 155 79
165 158 76
164 158 77
157 151 68
157 151 70
166 160 75
158 153 67
164 156 77
164 156 79
164 157 76
165 158 78
159 152 75
160 154 75
162 155 74
159 153 75
160 153 69
157 151 71
155 149 66
159 154 74
166 159 81
161 154 71
156 149 75
156 150 72
157 151 75
160 153 80
163 157 80
158 151 73
160 154 74
159 153 78
154 148 75
148 144 63
148 141 67
157 151 79
160 155 70
154 148 74
152 146 75
150 144 78
221 235 248
221 235 246
219 233 242
218 233 240
217 232 237
221 235 248
217 232 237
220 234 244
221 235 249
221 235 246
219 233 242
220 233 245
220 234 246
220 234 246
219 233 242
222 235 250
218 232 243
219 233 244
221 235 248
219 233 242
219 233 242
217 231 242
218 232 246
222 235 250
220 234 246
219 233 244
219 233 242
220 234 245
217 231 240
220 234 248
218 233 241
219 233 242
222 235 252
220 234 245
219 234 246
218 233 242
222 235 252
220 234 248
220 234 245
220 234 245
220 234 249
218 232 241
220 234 246
219 233 244
217 232 240
220 234 248
217 232 240
220 234 245
219 234 245
216 231 241
218 232 243
220 234 250
214 228 241
210 225 232
213 228 233
216 230 244
213 227 241
208 222 232
214 228 242
215 229 239
212 227 235
213 227 240
209 223 238
210 225 233
215 229 240
218 232 245
212 227 235
216 230 240
214 229 240
215 229 241
213 227 242
214 228 233
219 233 244
219 233 244
220 234 245
221 235 249
217 232 240
219 234 248
219 233 245
220 234 249
219 233 246
218 233 241
220 234 246
218 232 241
221 235 250
216 231 237
216 231 237
222 235 250
219 233 245
220 234 248
219 233 245
218 232 242
217 231 237
217 232 240
220 234 246
221 235 250
217 232 240
219 233 242
220 234 246
219 233 245
220 234 246
220 234 248
219 233 245
221 235 249
219 233 248
218 232 244
217 231 242
219 232 245
218 232 245
219 233 245
216 230 241
219 232 248
218 232 247
216 230 244
214 227 240
212 226 237
213 227 235
207 222 214
199 216 191
194 212 182
188 207 164
188 207 160
183 203 124
170 192 78
175 197 74
176 198 84
169 192 67
173 196 90
170 193 62
166 189 80
174 196 70
175 198 86
173 195 95
175 198 76
175 197 108
179 200 114
187 208 148
162 183 142
67 98 125
86 114 107
165 188 51
167 191 25
166 190 51
170 193 62
167 190 40
169 190 121
211 226 223
207 224 207
214 229 231
85 112 142
59 93 124
58 92 128
58 92 115
57 91 113
60 94 137
60 94 131
58 93 122
59 94 133
59 93 125
58 92 122
60 94 135
60 94 134
59 93 137
59 93 129
60 95 139
58 93 122
59 93 124
59 94 128
59 93 130
59 93 125
58 92 129
60 95 136
59 94 130
58 92 115
59 94 134
60 94 134
59 93 128
58 93 134
59 93 128
58 92 120
60 95 134
59 93 124
60 95 131
58 92 117
60 94 135
61 95 126
58 92 121
60 94 134
60 95 131
59 93 125
59 93 125
60 95 133
59 93 135
60 94 130
59 94 130
61 96 142
58 92 133
60 94 136
61 96 144
60 94 133
59 93 130
60 95 133
59 93 124
60 95 134
58 92 124
59 93 121
59 92 130
59 93 134
58 91 125
58 92 117
59 92 125
59 93 129
60 94 137
58 92 125
58 91 122
59 93 130
58 91 124
59 92 125
57 90 117
59 92 129
58 91 120
58 90 127
57 90 124
59 92 122
58 91 120
57 90 118
59 92 125
58 92 128
57 89 120
60 94 136
56 88 121
59 91 120
58 91 119
56 87 117
57 89 122
59 91 121
59 91 122
58 91 125
55 87 109
56 86 115
55 86 107
55 86 112
56 86 111
54 84 103
57 89 131
55 84 108
52 80 101
51 78 87
53 82 105
47 72 94
61 78 89
195 205 211
79 77 40
61 61 24
46 47 12
42 44 5
44 46 17
48 52 15
46 49 16
52 57 26
57 60 17
29 38 19
57 61 28
60 64 26
67 72 37
48 57 35
82 83 33
78 83 45
75 80 41
88 90 42
89 92 45
94 96 45
85 87 50
95 97 52
90 91 44
108 109 53
99 100 55
117 115 55
114 113 49
102 103 53
125 124 65
123 120 58
124 122 56
125 123 61
120 119 58
124 123 62
130 128 59
137 134 64
129 127 59
142 138 68
126 124 64
145 140 72
147 144 67
147 142 70
142 138 68
145 142 69
143 140 69
150 145 68
145 141 71
153 146 76
153 148 70
151 147 70
153 148 68
161 155 77
153 148 64
155 150 71
163 157 80
159 153 71
156 150 74
158 152 72
157 153 71
152 147 74
161 155 75
158 152 75
161 156 81
164 157 78
160 155 73
163 156 69
162 155 79
160 154 70
164 158 75
164 158 79
163 157 74
166 160 79
165 158 77
160 154 73
165 158 82
170 163 86
162 156 72
166 159 77
160 154 70
168 161 76
166 159 74
164 159 69
164 157 78
163 158 78
165 159 77
165 159 78
164 157 76
166 159 78
162 157 75
167 160 74
162 156 77
163 157 76
160 154 71
172 164 85
163 157 76
167 159 80
166 159 79
162 156 75
162 157 66
166 159 78
160 155 63
163 158 74
160 154 65
167 160 84
165 158 78
161 156 72
167 160 79
160 155 68
167 158 80
157 151 66
160 154 78
168 161 83
163 157 72
165 157 76
158 152 75
158 152 70
164 158 76
164 157 73
160 154 73
162 156 79
162 156 72
160 154 78
164 157 80
159 152 70
157 150 78
154 148 68
158 152 75
166 159 82
163 156 77
152 146 67
162 154 75
160 153 71
159 152 73
158 152 73
160 153 76
153 148 70
153 148 72
166 159 84
156 150 64
158 152 75
161 155 77
158 151 75
157 151 75
154 147 77
156 148 73
155 148 75
154 147 75
153 146 72
217 232 236
220 233 242
221 234 249
223 236 252
220 234 245
222 235 249
221 234 246
221 235 248
220 234 244
219 233 241
220 234 245
222 235 249
219 233 244
222 236 252
221 234 245
221 234 246
219 233 244
221 235 252
220 234 250
219 233 244
219 233 244
220 234 248
219 233 246
218 232 240
220 234 244
215 230 231
220 234 245
219 233 246
220 234 248
220 234 244
221 235 248
218 232 242
220 234 244
219 234 244
219 233 242
219 233 244
220 234 245
219 233 244
220 234 245
219 233 241
220 234 248
220 234 246
218 232 240
220 234 244
219 233 244
219 233 244
218 232 240
220 234 246
221 234 246
222 236 252
220 234 246
220 234 248
216 230 245
218 232 241
215 230 242
219 233 246
215 229 245
215 229 243
211 225 238
212 226 238
209 224 236
211 226 235
214 228 240
217 231 246
215 229 242
211 225 244
216 231 237
215 228 244
212 226 243
211 225 240
219 233 246
217 232 242
219 233 244
219 233 244
220 234 245
219 233 242
219 233 244
219 233 244
219 233 244
219 233 248
219 233 245
219 233 245
216 230 238
216 231 238
221 235 248
221 235 249
219 234 245
220 234 245
219 234 248
220 234 248
221 235 248
218 233 242
219 233 248
220 234 246
220 234 245
220 234 248
216 231 238
218 232 244
217 231 242
222 235 250
221 235 248
219 232 245
216 231 240
217 231 237
212 227 224
215 230 234
206 222 201
203 220 191
203 221 193
194 213 165
191 210 153
191 210 151
186 206 130
182 202 126
175 198 88
174 196 76
170 194 76
170 193 70
172 195 36
174 197 72
171 194 86
171 193 78
171 195 82
168 192 72
174 197 80
174 197 84
171 195 70
174 196 95
168 191 78
170 193 76
174 197 70
174 196 94
171 193 92
179 200 114
179 200 122
187 208 141
180 201 115
136 159 118
69 99 107
129 154 81
171 194 18
165 188 40
167 191 51
172 196 65
158 181 72
161 184 62
209 225 207
203 220 188
221 235 248
118 139 160
58 92 120
57 91 122
57 91 124
59 93 129
60 95 131
59 94 130
58 92 126
60 93 129
59 93 130
58 93 125
59 94 130
57 90 118
58 92 122
60 94 129
60 94 131
60 94 129
59 93 128
57 91 111
59 93 124
60 94 133
60 95 135
58 92 124
59 94 133
59 93 126
58 92 115
61 96 139
59 94 125
58 91 115
60 94 134
58 92 125
57 91 111
58 91 115
60 94 135
60 94 130
59 93 133
59 93 130
59 94 130
58 91 120
59 94 131
59 92 117
56 89 110
61 95 136
60 94 126
60 94 130
57 90 114
60 94 135
58 92 121
58 92 121
60 94 142
61 96 138
60 94 131
58 92 121
59 93 122
60 94 134
57 90 115
58 93 122
59 92 130
60 94 130
57 90 116
58 91 118
57 90 120
58 92 128
60 93 133
58 91 122
59 94 133
58 92 118
58 91 125
58 91 124
58 91 125
58 91 125
59 93 129
60 94 132
57 90 110
59 93 139
60 94 129
57 90 119
60 94 131
57 89 121
59 92 134
58 91 134
57 90 126
58 90 117
57 89 126
57 89 117
57 89 124
56 88 120
59 91 121
59 91 128
58 90 127
56 88 113
53 84 118
55 86 118
55 85 109
57 88 119
53 82 108
52 81 95
52 81 105
52 80 94
51 80 98
46 69 90
121 134 147
203 214 226
78 75 29
79 77 23
66 64 21
52 52 12
54 56 20
46 49 16
44 47 24
55 59 24
50 55 29
46 50 24
59 64 34
59 64 32
64 67 29
64 67 35
71 76 40
83 84 42
81 82 42
97 99 50
85 89 52
105 104 49
90 91 40
105 104 52
102 103 48
99 100 53
109 108 50
117 116 57
117 115 54
116 115 55
114 114 56
127 125 59
113 112 55
135 132 66
132 129 63
128 126 62
132 130 63
136 134 68
133 131 62
141 137 63
139 136 65
133 130 61
143 139 69
146 142 68
140 137 63
146 141 67
145 141 69
141 137 71
146 143 61
157 151 75
152 147 69
150 145 68
157 152 71
156 151 76
149 144 63
155 150 70
161 155 78
154 149 66
152 148 73
153 148 65
154 149 72
157 152 78
157 152 76
155 150 65
156 151 71
162 156 71
163 158 78
160 153 76
158 152 71
163 157 77
162 157 74
160 155 71
165 158 77
165 158 78
164 158 74
163 157 75
166 159 78
162 156 77
159 154 72
165 158 77
161 156 75
164 158 71
164 159 68
161 155 70
167 160 81
169 162 81
167 160 76
168 162 80
165 158 80
165 158 77
162 156 73
163 156 75
164 158 74
157 151 68
166 160 76
164 158 80
165 158 75
168 160 80
161 155 73
162 155 75
161 154 75
167 160 83
158 152 73
163 156 75
168 161 83
162 155 75
155 149 69
163 158 79
164 158 74
162 155 78
166 158 75
162 156 70
164 156 75
159 153 71
157 152 62
157 150 73
160 154 74
158 151 75
161 154 78
160 154 74
164 157 80
162 154 75
164 157 75
158 152 72
158 151 75
152 147 66
162 155 83
160 154 79
155 150 65
162 156 75
158 153 75
165 158 76
159 152 75
151 145 68
160 154 76
159 151 78
155 149 74
147 140 69
152 146 73
154 148 71
156 149 67
162 155 77
161 154 75
157 151 78
158 152 78
158 152 73
152 146 69
159 152 79
160 153 77
154 148 65
188 208 128
189 209 145
193 212 149
194 213 153
198 217 175
201 218 177
202 219 184
210 226 214
215 230 230
216 231 231
220 234 245
221 235 248
220 234 242
222 235 249
222 236 249
222 236 250
220 234 246
221 234 248
222 235 249
220 234 245
220 234 246
220 233 249
218 232 242
220 234 245
221 235 248
221 235 248
218 232 242
222 236 252
216 231 238
221 234 248
220 234 246
220 234 244
219 233 244
219 233 242
221 235 249
223 236 252
221 235 248
217 231 238
219 233 244
220 234 244
221 235 248
220 234 244
218 232 240
220 234 245
218 233 242
218 233 241
222 235 249
220 234 246
221 235 249
221 234 246
220 234 246
221 235 249
218 233 242
217 232 242
217 231 241
217 231 244
219 233 243
211 225 236
220 234 247
214 228 242
214 228 238
213 227 240
213 227 243
216 230 241
213 227 238
218 231 246
217 231 244
218 232 247
218 232 245
221 235 248
219 233 242
221 235 249
215 231 237
216 231 236
218 232 241
219 233 244
221 235 249
219 234 244
221 235 248
219 233 248
221 235 248
218 232 238
223 236 252
220 234 249
218 232 241
220 234 246
216 231 234
216 231 236
213 228 224
212 227 223
213 229 228
205 222 203
205 222 201
203 220 188
200 218 186
198 216 175
192 212 153
190 210 147
195 213 161
185 207 122
184 205 114
181 203 105
176 198 57
177 200 72
176 199 62
174 197 36
175 198 80
174 198 57
174 198 67
177 200 80
175 198 57
172 195 36
170 194 51
174 196 78
175 198 90
173 196 74
168 191 31
173 195 90
174 197 78
171 194 80
167 190 88
174 196 94
171 194 57
175 198 84
169 191 90
168 191 67
168 191 65
174 196 72
177 199 99
170 193 65
172 194 51
171 194 90
172 194 88
173 196 88
168 191 88
177 198 115
173 194 99
97 122 101
97 122 97
159 183 47
164 189 40
167 190 31
164 187 25
167 189 65
168 191 70
168 191 40
205 222 198
201 218 184
224 237 255
158 174 192
58 92 124
59 93 122
57 91 117
59 94 126
59 94 125
58 93 121
58 92 117
59 93 126
59 94 129
59 93 135
58 92 121
59 93 128
59 93 124
58 92 126
58 92 126
60 94 126
60 95 140
60 95 133
60 94 130
59 93 128
58 91 108
58 92 118
59 94 129
61 96 147
58 92 118
58 92 120
60 94 126
59 93 118
59 93 126
59 94 120
59 93 125
59 93 126
59 93 129
59 93 129
59 94 118
59 93 121
60 94 129
61 95 135
60 95 131
60 94 129
60 95 135
58 92 125
58 92 128
59 93 133
59 94 126
59 93 125
59 94 130
59 93 129
59 92 122
59 94 125
59 93 120
60 94 133
56 89 110
58 92 125
58 92 124
58 92 124
58 91 117
59 92 129
60 94 131
59 93 140
57 90 116
62 96 146
57 91 117
58 92 118
60 94 135
59 92 120
58 92 118
57 89 118
58 91 117
59 93 130
58 92 126
58 90 132
57 90 123
59 92 123
59 92 133
59 92 131
57 89 124
58 90 122
58 91 126
56 88 108
59 92 133
58 90 126
55 86 108
57 89 117
56 88 104
56 89 115
55 87 115
58 90 121
57 89 121
55 85 106
56 88 108
54 84 108
55 84 102
55 84 109
52 81 107
55 84 110
50 76 94
51 78 93
50 76 98
44 67 73
128 141 151
219 232 249
97 96 57
80 79 28
67 67 17
63 64 20
52 54 17
49 51 16
60 62 21
56 60 24
51 55 21
56 62 22
50 55 21
50 57 26
66 70 30
68 72 32
77 79 37
76 79 32
78 81 36
72 76 38
83 87 44
97 97 43
89 89 43
97 99 42
112 112 46
111 111 54
115 113 56
116 115 53
110 111 57
111 110 57
108 107 48
118 117 55
123 120 60
123 120 58
133 130 57
134 132 70
137 134 65
133 130 57
139 135 61
125 122 62
131 129 57
135 132 67
144 140 65
137 134 60
144 141 68
142 138 64
149 143 71
139 135 59
140 137 64
148 145 67
158 152 68
147 142 71
151 147 68
154 149 71
152 147 68
157 151 66
151 148 69
151 146 67
161 156 71
154 148 66
157 152 69
159 153 73
161 155 73
156 152 66
157 151 68
159 153 77
163 157 77
161 156 72
160 154 73
159 153 73
164 157 75
161 156 71
162 156 77
164 158 74
166 160 75
163 156 75
162 156 71
166 159 76
167 160 78
167 160 77
160 154 65
168 161 78
159 152 73
170 163 81
164 157 79
159 153 68
166 158 71
164 157 78
166 159 75
163 157 67
161 155 68
168 160 76
164 159 79
161 155 69
155 149 68
159 153 73
161 155 71
163 155 73
166 159 80
160 154 68
158 152 72
163 157 72
164 157 75
160 154 73
161 154 70
160 154 72
164 158 69
162 155 75
159 152 67
162 156 71
163 156 72
158 153 68
160 154 73
167 161 81
163 156 72
161 154 73
159 153 70
164 157 77
158 152 74
161 155 73
158 151 75
162 156 75
160 154 75
156 152 72
157 152 70
157 151 71
152 146 65
167 160 83
158 153 70
159 153 66
161 155 77
164 159 77
159 153 69
162 155 75
159 152 72
158 152 70
151 146 66
152 146 74
156 150 75
152 146 69
160 153 78
157 151 79
155 149 68
160 153 80
161 154 77
154 148 71
152 146 69
157 150 74
159 151 74
160 153 80
187 208 122
186 207 125
184 205 108
182 204 102
183 205 111
180 202 97
183 205 114
183 205 108
181 203 88
181 203 99
183 205 111
182 204 88
185 206 120
191 211 144
197 215 168
196 215 163
198 216 171
202 219 188
200 218 179
202 219 184
210 226 214
208 224 207
208 224 209
212 227 226
214 229 228
220 234 244
219 232 237
216 231 233
220 234 246
221 234 246
220 234 246
221 234 248
221 235 249
221 235 248
220 234 242
222 235 249
220 234 248
219 233 242
220 234 244
222 235 249
219 233 244
222 236 250
220 234 246
220 234 242
220 234 246
219 233 244
219 233 241
222 235 248
220 234 248
220 234 246
220 233 245
220 234 245
218 233 244
220 234 246
219 233 242
217 232 245
215 229 236
219 233 246
216 231 242
210 225 236
216 231 238
212 226 228
220 234 246
213 228 232
212 227 229
208 224 217
213 229 226
209 225 207
210 226 217
209 225 214
208 224 211
200 218 181
206 223 201
201 218 181
199 217 177
197 216 169
194 213 155
197 215 169
192 211 149
191 211 149
189 209 140
187 208 137
184 205 108
182 204 111
181 203 88
174 198 62
175 199 67
174 198 44
174 198 57
176 200 67
177 200 51
178 201 80
177 200 72
175 199 51
177 199 62
174 198 44
177 199 72
176 199 57
178 201 67
176 200 67
179 202 92
175 199 80
176 199 67
175 198 67
173 197 51
175 197 72
175 198 67
177 199 57
173 196 57
175 198 67
170 194 57
171 192 57
173 196 67
172 196 74
174 198 76
172 195 80
174 197 80
174 196 72
171 195 90
172 196 78
175 198 74
171 194 78
176 199 57
172 195 67
171 194 70
170 193 72
172 194 88
168 191 57
170 193 80
171 194 86
168 191 70
171 194 67
172 196 70
176 198 107
178 198 118
173 195 107
155 178 70
68 98 105
156 180 44
164 187 31
166 191 44
168 191 25
165 189 31
166 189 67
165 188 65
175 199 67
201 218 184
201 219 184
220 234 242
176 192 200
57 91 115
58 93 121
57 90 115
58 92 129
59 92 124
59 93 129
57 91 118
59 93 126
59 93 120
60 94 126
58 92 115
58 92 113
58 91 118
59 93 129
59 93 120
58 92 126
59 93 122
58 91 117
58 92 120
59 93 129
60 95 134
58 92 118
58 92 118
60 94 126
60 94 129
61 96 133
59 94 129
58 92 120
57 91 114
60 94 140
59 93 122
59 92 126
60 94 131
59 93 121
60 94 122
59 93 126
59 92 122
60 94 131
59 93 129
59 93 128
60 94 131
59 93 128
58 92 121
59 93 122
59 93 128
58 92 114
60 94 136
59 93 129
59 93 129
58 91 122
60 94 126
59 92 124
59 93 130
60 94 118
60 94 131
60 94 129
58 92 126
60 94 135
57 90 100
59 93 129
61 96 136
59 93 124
59 93 118
58 91 128
58 92 121
57 91 111
57 90 117
57 91 116
58 91 123
57 90 126
59 93 128
58 90 119
59 92 128
57 90 131
57 90 125
56 89 121
56 88 113
59 93 129
56 88 112
57 89 113
56 89 111
55 87 119
59 91 128
59 92 139
55 86 111
56 88 112
56 88 117
55 85 123
57 90 127
55 86 109
54 85 99
54 85 110
54 84 112
53 82 110
53 82 102
51 78 96
53 82 103
53 82 99
51 78 88
46 70 83
181 195 194
216 231 231
128 131 102
96 93 39
68 68 25
56 57 12
57 59 19
61 62 15
69 71 19
61 63 22
46 52 24
43 49 11
59 63 27
67 71 28
59 64 31
61 65 30
75 76 30
78 80 39
87 87 40
76 78 39
102 101 44
100 101 45
98 99 43
85 88 41
92 92 39
110 108 49
82 83 28
106 107 51
109 109 54
114 112 49
121 120 50
123 121 58
110 110 51
125 122 60
116 115 54
129 125 62
128 126 59
131 127 58
137 134 62
135 132 62
129 126 57
143 139 76
140 136 64
138 135 65
142 139 67
137 134 61
147 143 61
142 138 59
151 147 67
144 139 61
143 139 63
149 145 72
157 151 69
153 149 70
153 148 66
151 147 66
147 142 68
151 147 69
160 154 72
156 151 68
153 149 66
155 150 71
159 153 70
165 158 76
160 155 71
163 157 75
163 157 80
164 158 75
157 151 71
165 159 82
162 155 66
162 156 71
164 157 72
162 156 66
157 152 65
165 159 73
163 156 65
162 155 69
163 157 75
169 162 83
165 159 77
163 157 75
164 158 72
168 161 75
165 159 72
164 156 73
157 152 65
157 151 68
162 156 73
164 157 75
162 155 71
167 161 76
157 151 69
167 160 76
161 156 72
162 156 72
161 155 71
160 155 74
167 160 76
166 159 78
164 158 79
165 159 77
165 157 81
164 157 79
166 159 78
166 160 80
165 158 77
164 156 76
166 160 82
160 153 67
162 156 72
165 158 77
164 156 75
159 154 75
161 154 72
159 153 70
165 159 79
169 162 84
164 158 73
159 153 71
161 154 77
154 149 65
150 145 69
155 149 64
159 154 67
162 156 69
158 151 75
159 152 78
156 151 71
159 152 70
161 156 67
161 155 73
158 151 70
164 157 79
155 149 68
158 152 71
159 152 77
154 148 67
156 150 74
153 147 70
159 152 74
157 150 75
152 146 69
160 153 79
148 142 68
155 148 75
153 148 65
146 140 68
156 150 74
156 151 70
184 206 117
189 209 130
187 208 131
184 205 108
182 204 95
184 205 102
180 202 80
182 204 99
179 201 80
181 203 92
181 203 95
180 202 86
181 202 88
177 200 72
178 201 72
180 203 99
180 202 88
180 202 92
179 201 80
178 201 72
176 199 44
176 199 80
175 199 44
177 200 76
175 199 70
177 200 74
175 199 44
177 201 76
178 201 84
178 201 72
180 202 88
181 202 95
179 202 94
180 202 84
179 201 80
183 205 108
183 205 105
184 206 120
183 205 117
185 206 114
186 207 125
186 207 128
181 202 92
182 203 108
186 207 125
181 203 99
186 207 117
183 205 108
185 206 114
181 203 99
180 203 92
179 202 92
182 204 102
180 203 95
178 201 80
175 199 57
179 202 92
178 200 67
177 200 67
176 200 57
176 200 67
178 201 72
177 200 72
177 199 62
176 199 57
174 198 51
177 200 80
178 201 72
176 199 62
176 199 57
177 200 80
177 200 80
175 199 36
176 200 72
177 200 67
176 200 72
177 200 76
177 200 72
177 201 92
175 198 25
179 201 84
178 201 84
176 199 67
175 198 25
177 200 72
176 200 62
174 198 36
174 198 57
176 200 67
177 200 72
176 200 80
175 198 51
177 201 76
175 199 72
176 199 62
175 198 36
176 199 62
173 197 57
175 199 62
173 196 62
175 199 57
175 199 72
176 198 57
172 196 67
173 196 44
173 197 57
176 199 44
176 200 84
172 196 62
173 196 72
173 196 72
168 191 67
174 197 67
175 197 76
174 196 67
173 195 72
173 196 57
175 198 72
172 196 51
168 192 72
167 190 70
166 190 90
169 192 80
171 194 65
168 191 67
175 198 67
166 189 54
171 194 84
170 192 76
173 195 78
167 190 76
173 194 113
173 196 88
173 195 118
177 197 135
176 197 108
125 148 99
136 160 54
168 191 0
164 187 25
166 188 44
165 189 25
163 187 31
163 187 51
167 191 31
177 199 25
204 221 196
181 203 88
174 197 0
161 184 51
58 92 115
57 90 121
59 93 121
59 93 129
58 92 113
57 90 115
57 91 111
58 92 118
59 93 128
58 92 121
58 92 122
61 96 137
59 93 125
59 93 124
61 95 137
57 90 107
58 91 114
58 92 125
59 94 130
58 92 124
56 89 121
59 93 124
58 92 122
59 93 124
59 93 125
58 92 122
58 92 125
61 95 140
58 92 113
59 93 129
58 92 108
59 93 126
59 93 124
58 92 126
59 94 126
60 94 133
59 92 124
60 95 134
60 94 131
59 93 126
60 94 128
59 94 124
58 91 124
58 91 115
59 93 130
57 91 122
59 93 130
57 91 103
57 90 110
58 92 114
59 93 128
58 92 126
60 94 130
58 92 129
59 93 131
57 90 122
58 91 117
58 91 118
58 91 123
59 93 122
59 93 128
58 92 125
60 95 140
58 91 129
59 93 128
56 89 113
59 92 134
58 91 121
58 90 116
58 90 120
58 91 123
58 91 117
57 90 114
57 91 123
59 93 130
59 92 125
57 89 120
56 88 120
59 93 135
58 91 122
56 87 111
56 88 117
56 88 118
58 91 118
56 88 119
56 88 119
59 91 122
56 87 112
54 83 105
56 86 113
57 89 116
53 84 107
56 87 111
52 81 105
52 80 104
53 82 114
51 79 101
52 79 86
51 78 103
46 70 77
161 184 8
173 197 0
136 149 23
83 81 35
79 76 27
58 60 22
54 54 22
60 62 11
64 66 20
54 55 13
60 63 21
66 68 15
56 61 26
56 60 21
64 68 22
72 73 26
66 70 31
74 77 25
73 75 32
73 75 30
77 79 30
93 94 38
93 94 37
88 91 41
109 109 51
104 104 51
97 98 43
107 108 46
113 111 51
107 107 50
108 109 48
110 110 53
107 107 50
111 111 55
123 121 48
137 132 59
121 119 54
126 125 53
136 132 75
130 127 54
134 132 62
131 127 60
138 134 55
143 139 68
144 140 60
139 134 64
142 139 56
136 133 59
152 147 72
144 139 67
148 143 62
145 142 57
148 142 65
150 146 69
149 144 68
145 141 59
155 150 68
155 150 67
152 147 73
160 154 66
162 155 80
153 148 60
152 147 68
160 155 75
157 152 70
159 153 66
159 153 70
152 148 64
158 152 67
161 155 70
156 150 72
156 151 69
162 155 73
163 157 73
165 158 76
164 157 78
159 154 67
161 156 72
162 157 71
158 153 71
165 159 77
160 153 69
164 158 69
159 153 61
168 162 71
159 153 66
162 155 73
165 159 77
159 152 70
161 155 68
164 158 67
162 156 72
162 155 75
163 156 72
163 156 75
162 156 69
167 161 76
162 156 74
162 156 73
161 154 69
161 156 69
160 154 62
161 153 75
159 153 64
168 161 80
165 158 75
153 147 61
166 159 79
163 157 75
165 158 75
158 152 70
154 149 63
163 156 75
161 154 73
158 152 71
160 153 73
156 151 64
162 155 69
163 156 72
158 151 70
159 153 73
161 155 71
161 153 74
164 157 77
163 156 75
155 150 70
162 155 71
161 154 76
163 156 75
156 150 70
159 152 75
164 156 80
160 153 80
160 155 70
153 148 64
159 152 75
155 149 72
153 147 75
155 149 73
156 150 74
154 148 70
155 149 73
152 146 70
158 152 75
156 150 67
147 141 70
153 146 74
155 150 71
148 143 59
156 149 67
193 212 151
188 208 139
182 204 95
187 208 128
183 205 111
186 207 122
183 205 105
181 203 95
183 204 95
179 201 80
178 201 76
178 201 72
179 202 84
176 199 62
179 202 76
178 200 57
180 202 80
179 202 92
179 201 76
178 201 72
176 200 62
177 200 67
179 202 88
178 201 72
178 201 78
177 200 57
176 200 67
177 200 67
178 200 74
178 201 80
174 198 57
175 198 57
178 201 72
175 198 62
180 202 99
178 200 62
177 200 67
174 198 44
180 203 99
178 201 84
178 201 88
175 199 57
177 200 62
177 200 72
175 199 67
178 201 72
178 201 88
179 202 84
178 201 76
177 200 62
177 200 62
176 199 62
177 200 72
179 202 92
177 201 84
178 201 76
176 199 44
176 200 67
177 200 72
177 200 67
178 201 92
177 200 76
178 201 88
177 200 72
176 200 76
176 200 80
176 200 67
177 200 62
177 200 51
174 198 67
177 200 62
175 199 51
177 200 76
176 199 80
176 199 62
175 199 51
177 200 72
174 198 51
176 200 72
176 200 72
176 200 76
174 198 51
175 198 76
177 201 88
175 198 51
176 200 72
174 198 44
175 199 62
174 198 51
177 200 67
176 200 72
175 200 95
177 200 72
177 200 62
176 200 84
174 198 67
175 198 72
174 197 51
175 198 76
171 195 57
176 198 67
176 200 84
176 198 72
173 197 67
176 199 57
175 198 62
175 198 57
173 196 57
175 198 72
175 198 88
175 199 72
172 196 67
174 197 80
175 198 67
168 192 62
173 196 65
174 197 82
172 195 82
172 195 54
169 192 60
172 195 80
172 195 67
170 194 51
169 192 54
173 196 82
174 195 84
167 190 72
174 197 76
172 194 86
170 193 78
169 192 82
172 194 100
178 200 110
179 201 124
167 189 105
172 194 118
149 172 70
161 183 18
163 187 18
166 188 25
164 187 25
170 194 18
165 189 40
171 194 60
175 198 51
176 198 67
202 219 189
178 201 67
173 197 0
172 197 0
80 109 100
59 93 122
57 90 111
58 92 120
57 91 115
57 90 118
56 89 100
58 93 122
60 94 130
58 92 121
59 93 118
58 93 126
59 93 129
59 93 121
58 92 107
59 93 124
59 93 126
57 91 111
59 93 117
59 93 128
59 93 118
59 93 128
59 92 125
58 92 120
59 93 133
58 92 115
60 93 122
59 93 129
58 91 117
59 93 130
60 94 131
59 93 121
59 93 122
57 90 126
58 92 111
59 92 121
57 90 114
59 94 131
58 92 122
58 92 118
59 93 128
59 93 126
58 92 117
58 92 124
59 93 126
57 91 117
58 92 126
58 92 115
60 94 131
59 94 137
58 91 113
57 89 114
57 90 126
59 93 128
57 91 120
59 94 133
59 92 125
60 94 125
59 93 121
59 92 124
57 90 116
58 92 121
60 93 119
57 90 124
58 92 128
59 93 131
59 93 125
57 90 114
58 91 122
58 90 134
60 93 127
59 92 125
56 89 115
57 89 121
58 90 119
57 91 119
58 90 116
57 89 120
58 90 115
56 88 124
58 90 125
57 90 121
58 91 124
55 86 114
57 89 116
56 87 121
56 88 122
57 88 126
53 83 108
56 88 108
54 83 110
55 87 111
53 83 107
55 85 111
55 84 112
51 79 91
52 80 105
50 76 93
47 71 84
72 93 82
174 198 0
175 198 0
157 176 22
78 77 32
79 77 28
83 81 28
62 63 18
60 60 19
67 69 21
67 69 21
54 58 27
51 54 19
62 63 16
58 61 23
65 69 28
60 63 26
70 74 30
83 84 31
65 69 22
71 75 35
87 89 37
91 92 39
96 96 37
99 99 48
96 96 46
91 93 36
108 108 44
106 105 43
112 111 47
106 106 47
117 116 52
115 113 53
119 117 59
117 115 49
120 118 58
118 117 50
142 137 63
120 118 56
140 136 68
131 129 57
132 130 52
137 133 67
141 136 64
140 136 57
130 127 52
141 136 61
143 139 61
148 143 64
144 140 56
136 133 56
151 145 65
139 136 58
150 145 57
150 146 65
156 151 69
145 141 66
153 149 69
154 149 66
154 149 63
154 149 63
147 143 59
156 150 71
161 155 65
158 152 77
161 155 74
153 148 62
161 154 69
161 154 70
159 154 78
155 150 61
157 153 61
155 150 58
155 150 67
161 155 68
156 151 69
161 155 71
156 150 65
160 155 71
161 156 65
161 155 64
164 158 72
166 159 78
160 155 64
162 156 69
164 157 65
163 157 74
160 155 68
158 152 68
159 153 60
163 156 73
162 156 68
163 156 68
161 155 65
161 155 65
162 156 71
163 157 71
161 155 71
167 159 79
165 159 65
154 148 64
168 161 77
166 158 77
168 161 79
160 153 71
160 155 69
158 152 71
164 157 76
153 147 67
162 156 74
159 152 65
156 150 67
162 155 77
163 156 72
169 161 83
160 153 73
158 152 65
162 156 75
157 152 68
155 148 69
166 160 78
162 155 74
152 147 61
163 156 74
163 157 75
156 150 67
156 150 73
164 156 76
161 154 75
162 156 77
165 158 82
161 154 75
158 151 69
154 147 68
156 149 68
150 143 69
161 154 72
153 147 66
159 152 75
155 148 71
157 150 68
155 148 68
161 155 75
152 145 70
158 151 75
156 150 73
146 140 63
147 141 69
146 142 61
153 147 65
151 145 67
189 209 128
190 210 140
189 209 130
181 204 105
181 203 100
183 204 105
182 204 105
180 202 84
182 204 102
179 201 80
182 204 105
180 202 92
179 201 76
176 200 57
180 202 80
175 199 51
178 201 86
180 203 95
177 200 72
180 202 88
180 203 92
178 200 67
176 199 76
177 199 65
178 201 90
177 200 82
177 200 78
177 200 62
177 200 62
177 200 82
174 198 40
176 200 72
178 201 67
178 201 72
178 201 76
178 200 51
179 202 80
177 200 67
178 201 84
178 201 67
176 199 57
176 199 44
176 199 51
176 199 72
174 198 72
177 200 80
176 199 57
177 200 76
178 201 67
177 200 62
178 201 76
177 200 62
177 199 62
175 199 72
178 201 76
176 199 51
174 198 51
176 199 62
175 199 51
176 199 51
176 199 67
175 199 57
175 198 36
177 200 67
174 198 44
177 200 76
177 200 72
177 200 67
176 199 57
175 198 76
176 200 80
179 202 84
176 199 51
174 198 72
175 199 72
176 200 80
174 197 51
176 199 62
175 198 57
176 199 51
177 200 67
175 199 72
176 200 62
175 199 76
175 199 72
172 196 80
175 198 67
174 198 62
176 200 72
177 201 80
174 198 57
175 199 57
176 199 72
173 197 57
174 197 62
177 200 84
175 199 62
176 199 67
174 198 72
175 199 57
175 199 67
176 199 62
169 192 44
173 196 25
175 198 76
173 196 57
174 197 62
174 198 88
174 197 44
174 198 67
173 196 51
177 200 88
173 195 51
172 195 62
169 192 57
172 196 67
171 195 62
172 196 78
171 195 67
170 194 80
170 194 90
164 187 70
168 191 65
169 191 70
174 197 67
169 191 82
173 196 82
168 191 65
176 198 97
169 192 74
168 191 82
172 194 94
173 195 105
174 196 108
168 191 74
166 187 88
161 185 18
162 185 36
158 182 25
163 185 36
162 186 31
164 188 40
168 190 40
171 194 44
173 197 25
186 206 120
191 210 147
173 197 0
175 198 0
174 197 0
111 136 98
58 92 111
58 91 122
59 93 120
58 92 120
60 94 126
59 93 121
58 92 120
57 91 115
59 93 126
57 90 100
59 92 122
57 91 111
59 94 125
60 95 134
59 93 122
59 93 125
58 92 120
59 93 121
58 92 120
58 92 119
58 92 120
59 93 128
60 94 133
58 92 126
59 93 130
60 95 131
58 93 120
59 93 128
60 95 133
58 92 118
57 89 107
59 93 126
57 90 108
58 91 105
58 92 117
58 93 120
58 92 126
57 91 120
59 93 124
58 91 114
60 94 135
59 93 121
61 96 135
58 92 117
59 93 124
58 92 126
57 91 117
60 94 135
57 91 113
58 92 120
59 93 126
58 92 118
57 90 107
59 93 129
59 93 134
58 91 124
58 92 117
58 92 121
58 91 128
59 93 126
59 92 120
58 92 122
58 91 120
57 90 116
58 91 117
58 92 124
58 91 117
59 93 125
59 92 120
57 90 124
56 89 117
57 91 115
58 91 117
55 87 94
56 88 107
55 87 116
58 91 125
56 89 115
56 88 116
57 90 120
58 90 123
56 88 108
58 89 120
57 89 120
56 88 116
56 88 120
58 89 117
58 90 128
55 86 114
56 87 108
55 85 114
52 82 95
55 86 103
53 82 92
53 82 106
51 78 97
52 81 100
48 73 81
116 136 52
175 198 0
174 198 0
173 196 0
91 92 34
78 76 27
76 73 27
71 71 29
60 61 18
51 54 22
75 76 23
59 63 16
62 64 18
62 65 21
66 68 19
65 68 20
64 69 26
67 71 30
79 79 24
70 73 31
80 82 29
71 75 28
90 92 39
93 93 39
103 102 44
102 103 43
98 99 48
105 104 45
109 109 47
113 112 52
113 113 49
112 111 45
117 115 53
119 117 58
118 116 51
120 118 63
134 130 59
130 127 55
122 120 53
130 127 57
135 132 57
132 129 51
132 129 53
134 132 58
144 139 65
136 134 57
132 129 57
133 130 54
146 142 65
139 135 61
147 142 61
147 142 66
143 138 59
154 147 67
152 147 68
149 144 63
152 147 65
147 143 65
149 144 63
152 147 62
153 147 70
152 146 65
146 143 56
155 149 68
151 147 65
157 151 65
160 154 66
154 149 62
154 149 67
155 150 61
152 146 70
159 154 69
157 151 65
160 154 67
160 153 66
163 157 72
161 154 70
157 150 70
161 155 73
166 159 71
165 158 72
161 154 75
159 153 66
159 152 66
162 155 76
160 154 69
161 155 66
161 154 66
161 155 70
161 155 71
155 150 60
157 150 61
162 155 74
162 156 71
157 151 64
162 155 75
162 155 75
164 158 77
161 155 75
163 156 74
166 159 75
160 152 70
156 151 61
166 160 79
166 159 74
160 153 72
165 158 73
166 159 74
162 155 72
158 152 74
156 150 73
166 159 73
160 154 71
161 154 67
157 151 66
165 157 77
157 152 64
161 155 73
160 154 74
159 151 69
163 156 72
159 151 69
162 155 76
159 153 68
157 151 73
163 156 76
160 153 75
158 151 75
152 146 64
162 156 73
156 149 64
159 152 76
154 147 73
151 146 62
156 149 71
160 153 73
151 144 68
152 146 64
160 153 74
156 151 64
153 147 68
160 154 72
145 140 62
150 144 64
154 146 74
157 151 65
158 150 70
151 145 68
161 154 71
154 148 67
155 149 68
190 210 137
184 206 117
188 208 130
189 209 135
186 207 125
182 204 102
183 205 111
182 204 108
182 204 102
179 202 88
181 203 107
180 202 84
179 202 92
181 204 108
179 201 76
178 200 67
176 200 67
178 201 76
178 201 86
179 202 88
175 199 44
177 200 65
177 200 82
176 200 72
175 198 76
177 200 72
178 200 67
176 198 40
177 200 51
178 200 76
176 200 67
179 201 94
176 199 51
177 200 72
178 201 84
177 200 67
176 199 62
176 199 57
177 200 72
176 199 67
178 201 80
176 200 72
177 200 76
180 202 80
177 200 57
175 198 51
178 200 76
177 201 92
178 201 80
179 202 95
176 200 72
174 198 51
178 201 72
175 199 57
178 200 67
175 199 44
179 202 92
177 200 72
176 200 76
175 198 51
176 199 72
175 198 62
174 198 57
177 201 76
174 198 44
175 198 44
176 199 57
176 199 57
175 199 51
175 198 62
174 199 76
176 200 76
176 199 76
175 199 62
176 199 72
175 199 57
174 198 62
175 198 57
175 199 67
173 196 57
176 199 44
175 199 51
174 198 57
176 199 72
175 198 80
176 200 80
173 198 72
176 200 80
173 198 57
176 198 44
177 200 57
178 200 84
175 198 57
173 196 51
177 200 80
174 197 62
177 200 67
175 198 44
174 197 51
174 197 72
174 198 62
174 198 57
175 198 57
173 197 51
176 200 80
175 197 57
174 197 92
172 196 57
173 197 88
172 195 51
172 196 57
178 200 88
172 196 62
170 194 62
173 196 62
177 199 72
169 192 67
173 196 88
171 193 82
170 194 97
169 192 76
165 188 62
166 190 78
169 192 57
171 194 74
166 189 74
167 190 72
170 193 76
171 194 88
173 196 80
167 190 90
170 192 99
177 198 126
171 193 95
170 192 80
156 179 47
156 179 18
162 185 25
160 184 18
162 186 25
167 190 0
166 189 25
165 189 36
173 197 57
173 196 44
193 212 153
182 204 105
174 198 0
173 197 0
174 197 0
145 168 61
57 91 110
57 90 124
57 91 120
59 93 129
60 94 134
59 93 120
58 91 118
59 93 125
58 92 139
58 91 122
60 94 128
58 92 120
59 94 129
58 92 111
58 92 115
58 91 118
58 92 124
59 93 113
57 90 121
59 93 122
58 92 111
59 93 125
57 91 122
58 92 115
59 93 125
61 95 140
58 92 125
58 91 115
57 90 111
61 95 135
59 93 122
58 92 121
57 91 114
58 92 124
58 92 117
60 94 126
58 92 118
60 95 135
60 95 131
58 91 125
58 92 129
59 93 129
58 92 120
58 92 124
58 92 118
58 91 111
59 94 128
60 94 129
59 93 122
59 93 124
59 93 125
59 94 131
58 91 121
58 92 126
57 90 125
57 90 124
59 93 131
59 93 120
58 92 114
58 92 122
57 90 113
58 92 117
59 93 130
58 91 122
59 92 124
57 90 121
58 92 121
57 90 110
58 91 120
55 88 110
56 89 114
57 90 112
58 90 125
57 90 109
56 88 115
58 91 121
57 90 113
56 88 103
56 87 118
58 91 129
55 87 119
57 90 109
56 88 110
55 86 108
58 91 124
57 89 123
55 86 110
54 84 102
55 86 115
56 87 111
54 83 100
53 83 105
53 82 96
52 79 90
49 75 88
48 74 87
48 75 92
48 73 82
142 163 45
174 198 0
173 197 0
175 198 0
144 159 20
72 71 23
79 77 29
76 75 20
70 69 22
55 57 15
66 66 14
54 59 17
50 53 10
56 59 20
62 64 17
61 62 13
66 67 23
68 71 19
69 71 25
88 89 31
74 76 30
86 87 26
80 84 34
87 89 35
88 89 31
93 92 33
89 90 38
106 105 46
115 115 42
107 106 44
106 105 43
117 116 47
113 112 48
111 110 41
108 108 49
121 119 48
124 122 51
129 126 50
133 130 59
119 118 45
121 119 48
130 126 55
133 129 55
133 131 52
134 131 52
147 142 71
139 136 48
140 136 61
141 136 59
142 139 61
133 129 54
154 147 59
141 137 63
138 133 54
143 140 63
150 145 56
152 147 67
151 147 58
153 149 64
155 149 60
153 147 66
157 151 70
157 150 67
153 147 60
154 149 64
156 149 67
160 153 67
160 154 66
154 149 65
157 150 62
152 147 66
146 142 57
159 155 68
158 152 68
153 147 63
155 149 67
157 151 59
152 147 58
159 153 70
162 155 73
162 157 66
154 148 60
164 157 68
161 155 72
161 155 66
163 157 66
164 158 76
158 151 66
160 154 67
161 155 72
157 152 54
158 153 64
163 158 68
160 154 65
166 159 72
157 150 65
161 154 70
163 156 69
167 159 73
159 153 66
161 154 78
149 143 58
160 155 67
159 152 72
163 157 66
161 155 70
155 149 66
152 145 64
167 160 75
166 159 76
162 155 64
157 152 69
159 152 69
155 150 72
160 154 67
158 152 67
161 155 76
152 146 65
160 155 73
157 150 68
159 154 68
160 153 76
156 151 61
160 154 70
157 150 64
154 148 70
156 150 70
154 148 67
159 154 69
163 157 69
157 151 72
154 149 61
157 152 66
160 154 67
161 154 76
147 142 60
152 146 71
153 147 65
157 149 73
154 145 70
156 150 69
150 143 64
157 150 68
152 145 71
145 139 60
155 149 66
148 142 54
152 147 66
152 146 67
155 149 68
147 141 63
182 204 99
184 205 111
189 209 133
186 207 122
187 208 125
184 205 105
181 203 95
179 201 90
180 203 95
180 203 92
181 203 92
177 200 72
178 201 76
184 206 117
180 202 95
178 200 57
181 204 105
178 201 67
179 201 72
177 200 72
180 203 92
177 201 76
177 200 72
177 200 72
178 200 65
177 200 74
175 199 62
178 201 84
177 200 62
176 199 60
175 198 40
174 198 36
176 200 62
176 199 62
177 199 65
179 202 80
176 199 36
176 200 67
177 200 80
179 201 76
175 199 62
178 201 72
176 199 72
179 201 76
177 200 76
178 202 92
176 199 57
176 199 67
176 200 62
174 198 57
176 199 62
176 199 62
176 199 62
176 200 67
176 199 67
176 199 57
177 200 51
176 199 67
176 199 57
174 198 57
176 199 57
174 199 62
177 200 76
176 200 67
176 200 67
175 198 36
174 198 62
175 198 57
177 200 72
176 200 76
175 199 72
177 200 76
176 199 57
176 199 67
176 199 57
176 199 62
174 198 67
173 197 62
176 199 57
175 198 67
177 200 76
175 198 80
178 201 80
174 198 72
173 198 57
173 197 62
170 194 67
174 198 67
171 195 51
172 196 67
175 199 72
173 195 51
175 199 67
174 197 62
176 199 76
175 199 72
175 199 72
173 197 36
173 196 57
173 196 67
173 197 62
177 199 72
177 201 88
172 195 51
171 195 67
175 199 76
174 197 51
175 199 88
172 196 88
169 191 51
175 198 72
175 198 57
172 195 57
172 194 44
172 194 72
170 194 62
173 195 80
173 196 92
171 194 72
163 186 62
172 194 76
167 190 65
164 187 72
172 195 76
170 193 74
168 191 74
172 194 92
173 197 82
169 192 84
167 190 80
175 196 107
167 189 94
174 195 115
171 193 76
163 186 78
157 180 25
160 183 25
149 172 31
161 185 31
160 184 25
166 189 40
165 188 18
173 196 57
174 197 36
175 197 44
193 212 155
178 201 57
175 198 0
173 197 0
174 198 0
168 191 28
66 97 106
58 91 120
58 92 113
58 92 117
57 91 113
58 91 120
58 92 121
58 91 112
59 93 124
59 92 129
56 90 102
58 92 114
56 89 110
57 91 111
59 93 128
58 92 118
60 95 130
57 91 117
57 91 121
57 91 111
58 91 121
59 94 126
59 93 126
58 92 124
58 92 125
60 94 126
57 91 125
58 92 122
57 90 114
58 92 117
57 90 117
58 92 103
59 93 114
58 92 122
58 91 121
58 92 120
59 93 125
59 93 122
58 92 125
59 93 125
60 95 129
58 92 128
59 92 125
58 92 121
57 91 107
58 91 118
58 92 120
58 90 128
59 93 126
59 93 128
58 91 124
58 92 114
59 92 124
59 93 129
58 92 124
59 93 124
60 94 124
58 91 122
60 94 134
58 91 114
58 92 115
59 92 125
57 91 108
58 91 120
57 91 125
58 91 115
57 90 108
58 90 120
57 89 116
58 91 111
57 90 121
56 89 122
57 90 118
59 92 130
57 90 114
58 91 120
56 89 122
57 90 120
58 91 126
58 91 118
56 88 119
57 89 113
55 86 106
57 89 114
57 88 112
56 88 113
54 84 100
56 87 115
56 87 116
56 87 120
54 84 101
54 83 99
53 82 109
51 78 91
51 79 85
50 76 93
47 71 82
50 72 77
170 194 18
177 199 0
174 198 0
174 197 0
168 189 11
96 92 41
82 82 28
71 73 22
69 69 14
67 65 17
59 62 17
65 65 16
63 66 21
63 65 13
63 67 28
67 69 17
69 71 23
72 74 28
73 75 19
86 86 33
88 87 29
82 82 31
85 86 29
95 94 39
73 76 32
111 109 37
89 89 31
97 96 38
95 94 39
99 99 36
105 104 37
103 104 41
121 118 48
110 110 43
117 115 54
126 122 53
119 118 50
130 127 57
132 128 56
139 134 66
132 127 54
134 131 57
121 119 46
142 137 59
130 127 52
138 134 59
137 133 57
141 137 60
147 142 60
140 135 61
139 136 63
142 138 59
150 144 64
141 137 62
145 140 53
145 141 62
153 148 62
149 144 65
145 141 55
146 141 53
150 145 62
153 148 60
148 143 61
154 149 72
156 150 61
156 149 61
155 148 60
159 153 70
154 148 65
159 153 68
156 150 62
156 151 69
151 145 56
156 150 64
160 154 70
154 148 66
162 155 71
157 152 68
153 147 63
161 155 69
159 152 67
162 156 67
159 152 57
158 151 58
158 153 61
162 155 72
157 151 67
162 156 67
162 155 73
167 161 74
159 154 67
161 154 73
159 152 68
158 151 64
159 154 69
161 154 62
164 157 73
161 154 65
160 153 67
160 154 67
159 152 68
161 156 72
161 155 65
160 152 74
157 151 68
160 153 71
161 155 70
155 149 61
162 155 64
160 153 75
159 153 67
161 154 74
160 154 68
153 147 66
156 150 70
160 153 67
165 158 73
152 146 62
156 150 65
155 149 61
157 150 69
160 154 67
153 147 62
150 145 67
163 157 70
158 152 66
151 146 66
161 155 72
152 146 61
162 154 71
162 155 76
155 149 68
152 146 61
157 151 63
156 151 64
156 149 67
154 148 65
148 143 62
159 153 70
154 148 62
154 148 70
157 151 72
150 144 59
154 148 71
153 146 62
145 141 52
153 147 72
158 151 74
146 139 65
156 149 71
150 145 59
184 205 111
183 205 105
185 206 128
192 212 151
184 205 111
183 205 108
185 206 117
178 201 80
182 204 102
179 202 84
181 203 95
183 205 111
182 204 105
176 200 62
180 202 92
179 201 72
178 201 84
177 200 67
179 201 72
177 199 51
178 201 80
177 200 76
177 200 67
176 200 67
177 200 74
180 202 92
176 199 67
175 199 70
175 198 44
177 200 62
176 199 51
174 198 54
176 199 62
175 198 54
175 198 60
176 199 57
177 201 80
176 200 67
175 199 44
173 197 36
177 200 57
178 201 72
176 199 62
176 199 62
177 200 80
176 199 51
176 199 44
175 199 51
176 200 67
176 200 67
177 200 72
176 199 57
177 201 80
177 200 62
175 199 67
176 200 84
177 201 84
175 199 62
175 199 67
177 200 72
175 198 62
178 201 76
178 201 88
176 199 72
177 200 62
175 199 51
177 200 80
174 197 57
175 198 57
175 198 67
172 196 36
176 200 102
175 199 57
176 199 67
175 198 67
174 198 62
175 199 72
174 199 80
174 198 72
176 199 57
175 199 67
176 199 76
175 199 76
175 200 80
175 199 62
176 200 76
176 199 76
171 196 67
176 199 72
172 196 72
175 199 76
170 194 57
171 195 44
174 198 67
174 198 92
172 195 67
175 199 92
172 196 57
172 196 57
174 198 72
175 197 62
176 199 62
173 197 51
173 197 76
172 197 51
175 198 51
172 196 67
172 196 62
170 194 62
174 198 67
173 196 62
176 199 76
173 196 57
171 196 76
174 197 51
173 196 72
176 199 84
170 193 51
174 198 67
170 193 84
173 197 62
169 192 82
170 193 70
171 195 57
171 194 76
166 190 67
167 190 62
172 195 88
172 195 80
170 192 105
176 198 108
174 195 110
171 192 92
170 192 108
155 178 51
149 172 31
157 180 25
155 178 31
164 188 25
161 185 25
166 190 18
170 193 0
173 196 51
173 196 57
178 200 84
189 209 137
173 197 0
174 198 0
176 199 0
173 197 0
174 197 0
100 126 95
56 89 97
58 91 122
55 87 103
59 93 120
58 92 121
56 90 114
57 91 102
58 92 111
59 93 131
58 91 121
58 92 118
60 94 128
57 91 114
58 92 114
58 92 118
59 93 128
60 94 130
58 92 113
58 92 115
58 92 124
59 93 122
59 92 118
58 92 121
58 91 117
57 90 100
59 92 121
57 91 120
59 93 126
56 89 103
58 92 114
58 91 115
58 92 113
57 90 107
55 87 94
58 92 125
59 93 125
59 93 133
59 93 126
58 92 113
58 92 120
59 92 118
58 92 126
57 90 115
58 92 120
60 95 131
58 92 126
59 94 129
57 90 107
58 92 117
58 92 122
60 94 134
57 90 120
60 94 141
57 90 113
59 93 124
58 91 117
59 93 121
59 93 129
59 93 128
58 90 129
57 90 115
56 89 118
59 93 125
56 89 114
60 94 130
58 91 123
57 89 109
57 90 116
59 92 125
57 90 114
57 89 113
57 89 118
58 91 120
57 90 123
57 90 108
56 88 115
58 90 128
58 89 122
55 86 107
55 87 109
56 88 116
58 90 123
54 85 108
56 87 114
53 82 92
54 85 119
54 84 105
54 83 96
53 82 101
54 82 104
54 84 109
52 81 109
51 78 90
53 81 93
48 73 86
51 78 93
99 118 67
174 197 0
173 197 0
173 197 0
175 198 0
174 197 0
116 123 28
87 84 34
66 66 17
77 77 30
70 69 19
66 65 18
71 70 13
72 73 15
66 67 23
86 86 15
54 57 16
59 65 21
81 82 26
68 71 24
74 77 23
82 82 34
85 85 31
99 96 35
92 93 38
104 102 34
104 103 41
84 85 27
91 93 36
99 98 33
103 101 37
116 114 49
124 122 47
110 109 35
107 107 36
118 117 43
119 118 42
120 118 39
116 115 45
121 120 41
131 128 52
123 120 47
130 127 49
133 129 55
130 127 50
138 133 49
123 120 44
139 134 45
148 143 62
145 140 53
141 139 56
139 135 54
136 131 52
143 139 51
147 141 52
143 138 51
140 135 52
146 143 53
142 136 51
141 137 47
144 140 53
147 142 56
152 146 65
155 150 61
153 147 57
148 143 53
156 150 67
156 150 61
150 144 58
155 150 58
152 146 62
156 150 62
158 151 63
159 153 69
150 146 56
160 153 71
156 150 63
157 150 71
160 154 66
162 156 66
158 152 65
162 155 68
155 149 62
155 149 65
157 152 64
158 152 59
160 154 65
156 150 62
153 148 65
154 148 66
167 159 75
160 154 64
158 152 61
164 157 74
158 151 62
159 152 68
162 155 73
158 151 61
149 144 52
166 159 75
159 151 70
155 148 68
161 154 71
159 153 65
158 151 66
156 150 59
161 155 66
164 157 69
160 153 70
154 149 64
155 149 68
163 155 69
161 154 73
158 152 74
155 149 69
154 147 68
155 149 68
150 144 66
157 151 65
151 146 58
159 152 68
159 153 73
157 152 75
158 151 75
158 151 58
161 156 68
150 145 62
158 152 62
152 147 71
156 149 65
161 154 74
154 148 70
152 146 62
155 150 64
157 152 71
158 152 69
161 155 75
154 147 71
147 141 61
158 151 75
154 148 69
147 141 53
151 145 65
146 141 59
152 147 63
145 140 60
136 133 57
157 150 65
150 145 61
155 149 64
156 149 68
152 146 64
183 205 111
183 205 108
181 204 102
188 208 125
185 206 114
186 207 120
182 204 95
181 203 84
183 204 102
184 205 108
176 200 76
180 203 99
183 205 105
180 202 97
181 203 99
182 204 99
181 203 95
177 200 76
179 202 84
178 200 67
180 202 80
180 202 84
179 201 84
175 199 72
177 200 67
177 200 74
176 199 51
176 199 44
176 199 62
175 198 57
176 199 60
174 198 62
174 198 57
176 199 80
173 197 51
176 199 51
176 199 67
178 200 72
174 198 60
176 200 72
175 199 57
178 201 67
176 199 62
176 199 67
176 199 67
177 201 80
174 198 57
175 199 62
177 200 67
178 202 102
175 199 51
176 199 72
174 198 57
175 199 36
174 198 57
176 200 76
177 201 84
177 200 72
178 201 72
175 199 67
176 199 57
176 199 57
175 199 67
176 199 62
176 200 72
175 199 51
177 200 72
177 200 57
174 199 67
173 197 80
175 199 57
175 199 76
175 200 84
176 200 76
176 200 67
176 200 72
175 198 36
174 198 72
174 198 51
175 199 67
173 198 57
177 200 84
175 198 62
173 198 67
175 199 80
178 201 80
174 198 62
175 199 76
176 200 84
172 196 57
174 198 67
174 199 80
173 197 76
173 197 67
170 194 36
173 197 72
174 198 62
172 197 57
173 197 62
175 199 76
175 199 76
174 198 62
173 197 72
175 198 72
175 199 76
174 198 76
171 195 44
168 192 44
170 194 84
169 194 72
172 195 67
173 196 51
172 196 67
174 197 67
172 195 67
170 194 95
171 195 44
170 194 76
170 193 57
172 194 62
169 193 80
170 193 72
169 191 57
171 194 78
175 198 95
163 185 82
170 193 78
173 197 76
166 188 103
166 188 94
172 193 100
168 191 97
167 188 84
159 181 60
149 172 25
140 161 0
149 172 31
153 175 36
153 177 40
161 184 40
165 188 0
172 195 51
176 199 36
176 199 51
187 208 133
182 204 95
174 198 0
175 197 0
174 197 0
175 198 0
174 197 0
141 165 67
58 91 118
58 91 114
57 91 114
57 91 114
57 90 122
57 91 117
58 92 114
58 92 118
59 93 122
59 94 128
57 90 105
57 90 108
58 92 110
58 92 120
59 93 124
59 93 122
59 92 115
58 92 114
57 91 114
58 92 108
57 91 107
59 93 124
57 91 113
57 90 115
59 93 130
59 93 118
59 93 118
58 92 121
58 92 125
59 92 113
59 93 125
60 94 122
57 91 113
56 89 114
58 92 128
59 93 125
56 89 115
58 92 122
58 93 117
59 92 130
58 93 129
57 91 111
58 92 121
60 94 133
58 91 117
56 88 110
57 91 120
59 93 118
57 91 110
59 93 131
58 91 110
58 91 118
57 89 117
58 91 120
57 90 110
58 91 111
57 90 121
59 92 130
57 90 108
57 89 116
59 92 122
60 93 128
57 90 121
59 92 122
57 91 118
58 92 125
57 89 114
57 89 115
57 89 112
55 86 114
58 92 118
55 87 111
57 88 120
55 87 105
56 89 116
58 91 118
55 86 106
55 87 108
57 89 119
58 89 110
56 87 113
56 87 110
54 84 107
54 84 103
56 88 107
55 86 105
55 86 108
54 83 104
54 83 108
52 80 97
53 81 100
51 79 100
51 79 104
49 75 86
48 73 82
45 70 81
145 166 24
173 197 0
174 197 0
175 198 0
172 195 0
172 196 0
160 178 14
92 89 42
83 81 25
72 72 21
78 75 22
75 75 26
68 70 16
69 70 19
71 72 16
67 68 17
67 67 19
62 67 22
72 73 17
70 72 25
79 82 23
86 85 17
91 90 18
86 87 35
94 93 30
85 86 34
92 92 38
98 98 36
94 96 41
107 104 43
104 102 35
98 99 28
103 102 27
118 115 45
127 123 50
117 114 48
118 116 46
122 119 51
123 119 50
127 124 48
128 125 50
125 122 55
134 131 54
132 129 51
136 130 59
127 124 41
133 129 49
141 136 55
133 131 37
134 130 49
135 131 50
150 144 69
142 138 58
138 132 56
145 141 57
143 139 58
142 137 56
147 142 56
145 142 55
149 144 58
152 147 61
148 143 48
150 144 60
146 140 66
151 145 58
157 150 69
153 147 63
150 144 56
141 137 54
154 148 58
147 142 56
152 147 54
159 153 66
155 150 61
159 153 65
161 154 70
149 144 57
161 155 63
155 150 56
157 150 66
157 151 62
154 148 57
160 154 66
157 151 68
155 150 60
159 153 64
153 148 63
160 155 62
160 153 67
153 148 58
163 155 67
157 151 62
163 156 68
155 150 59
161 155 68
160 153 64
161 154 69
166 158 71
167 160 73
160 154 76
154 149 59
156 149 62
160 154 68
163 156 64
157 151 67
157 150 67
157 150 60
150 145 52
162 156 67
160 154 67
159 153 63
158 151 75
157 149 72
159 153 71
158 153 65
156 149 62
156 150 63
160 154 66
152 147 59
157 150 68
154 149 60
164 157 69
154 148 56
159 153 72
160 153 69
157 151 64
163 156 74
156 150 66
151 146 60
156 149 72
152 146 68
156 149 66
154 149 63
155 149 66
144 138 59
157 151 69
152 145 66
155 149 71
155 148 68
151 146 66
152 146 58
149 144 69
158 151 68
146 140 61
157 149 66
153 146 74
146 139 59
154 147 67
157 149 72
145 140 65
146 141 67
152 146 66
181 203 95
182 204 102
182 204 105
183 205 108
185 206 111
183 205 105
180 202 88
187 207 122
177 200 72
182 204 108
179 201 84
180 202 80
180 202 102
180 202 92
177 200 78
180 202 72
176 199 67
181 203 92
178 200 67
176 199 65
177 200 84
176 200 80
177 200 90
177 199 76
174 198 51
175 199 67
178 201 90
176 199 84
177 199 74
177 200 74
176 199 62
179 201 80
178 201 86
174 198 44
177 200 78
176 200 67
175 199 67
174 197 44
175 198 57
176 200 67
176 200 72
175 198 57
177 200 72
174 198 62
177 200 72
173 198 51
173 197 51
176 200 72
176 199 76
175 199 51
177 201 80
176 200 72
175 198 62
176 200 72
176 199 67
176 199 80
175 199 72
178 201 80
173 198 76
175 198 62
174 198 76
175 199 67
176 199 67
174 198 36
175 199 67
175 199 80
174 197 51
175 198 67
174 198 67
174 197 51
174 197 44
174 199 72
173 198 51
176 200 72
173 197 84
172 195 44
176 200 72
172 195 44
176 199 57
176 200 80
175 198 67
174 198 76
175 198 57
175 198 67
174 198 62
177 201 88
177 200 80
174 197 36
173 197 57
173 197 67
175 199 67
172 195 72
175 199 57
173 196 51
173 197 51
173 196 88
173 197 57
171 195 67
170 194 44
172 196 84
174 198 76
172 195 62
172 196 67
171 195 72
173 197 67
176 199 92
173 197 67
171 196 80
172 196 72
173 197 72
171 194 67
172 195 72
171 195 62
172 196 88
171 196 57
172 195 44
172 195 67
174 197 72
167 190 0
171 194 62
170 193 57
168 191 88
171 193 76
168 191 84
171 194 76
165 189 47
171 194 76
165 189 72
167 190 72
176 198 115
175 196 118
166 189 72
156 179 54
149 172 44
147 170 25
155 178 18
159 181 0
153 175 18
164 187 0
167 190 25
161 183 0
169 192 51
171 195 36
175 198 44
185 206 122
174 197 0
174 197 0
174 198 0
172 195 0
175 198 0
171 195 0
168 193 0
68 98 99
58 91 120
57 90 114
56 88 112
59 93 113
59 93 118
54 87 97
56 90 105
59 93 117
60 94 134
57 91 115
56 89 108
59 93 120
57 91 114
59 92 118
59 93 122
59 93 122
57 91 114
56 88 115
57 90 118
58 92 118
58 91 113
59 94 125
59 93 121
58 92 120
58 91 120
58 92 121
58 91 118
59 93 125
60 95 131
57 91 110
59 93 121
58 92 124
58 92 120
58 91 118
58 92 121
59 93 117
59 93 121
57 91 120
59 93 118
59 93 128
57 89 110
57 90 121
58 92 120
57 89 114
57 89 117
58 91 122
59 93 124
58 91 121
58 92 115
58 92 125
57 90 115
58 92 123
58 92 118
58 91 114
58 91 120
57 90 108
57 90 117
59 93 124
57 90 114
57 89 110
58 91 113
60 94 132
56 88 118
59 93 121
57 89 117
58 91 120
58 91 116
56 89 119
57 89 104
57 89 116
56 88 120
56 89 114
56 89 110
57 88 118
56 88 119
56 88 108
58 91 113
57 89 111
56 88 109
58 91 130
56 88 114
57 89 108
54 84 93
53 83 95
53 84 110
52 80 96
55 85 105
55 85 112
51 78 95
52 80 94
51 79 91
52 79 98
51 79 97
47 72 80
58 79 75
173 196 0
174 197 0
173 197 0
172 195 0
174 197 0
174 197 0
173 196 11
110 113 28
93 90 32
86 84 28
76 75 14
83 81 16
68 67 14
75 75 8
68 69 9
69 71 18
71 72 17
70 72 16
79 81 26
78 79 24
81 81 24
77 79 28
79 81 16
85 86 31
93 94 27
93 93 33
97 96 42
92 91 40
101 99 30
115 112 44
105 101 35
105 105 39
119 116 42
98 99 34
118 116 42
116 113 41
111 109 43
113 111 43
116 114 41
127 124 50
123 120 42
118 116 41
124 121 43
140 135 54
116 113 44
137 133 50
132 128 44
133 128 50
142 138 54
127 124 51
142 138 46
146 141 61
136 132 48
145 139 58
145 142 55
139 135 49
147 142 56
138 135 47
147 143 53
146 140 61
145 139 58
148 143 58
145 139 53
154 148 67
154 149 57
160 152 72
148 144 53
155 149 58
155 150 61
152 147 57
153 147 64
151 147 56
154 148 56
158 153 62
157 151 63
159 153 66
158 152 65
156 150 64
150 146 54
155 149 59
158 152 65
155 149 57
147 143 49
158 151 61
155 148 63
160 155 64
160 154 66
160 153 69
157 151 58
158 152 67
158 152 62
154 148 62
155 148 61
156 149 66
160 154 60
164 157 70
162 155 70
157 152 64
159 152 70
157 151 64
156 151 71
158 152 67
163 157 67
161 155 65
156 150 66
154 148 59
154 149 61
152 146 60
152 147 62
154 149 56
158 151 66
152 147 54
154 148 60
154 148 63
160 153 73
151 144 64
150 145 60
158 150 70
161 154 70
154 148 70
160 154 63
156 150 69
159 152 71
153 147 64
161 154 70
160 153 68
158 152 66
151 145 61
154 147 64
153 147 63
149 144 57
156 150 63
158 152 68
153 147 57
152 146 62
153 147 63
156 150 65
156 150 69
150 145 66
150 144 68
151 145 61
150 145 65
147 141 63
154 150 62
157 150 66
159 151 75
149 143 61
151 145 64
158 151 71
151 144 70
157 151 68
140 135 61
182 204 99
181 203 92
182 204 102
182 204 102
178 201 76
188 208 130
186 207 120
182 204 105
184 205 115
183 205 105
181 203 99
180 202 88
181 203 99
181 203 99
181 204 102
180 203 95
179 201 67
178 201 72
177 200 72
177 200 76
180 202 84
174 197 70
178 201 80
177 200 70
179 202 94
174 197 57
179 201 80
179 202 95
175 198 25
179 202 80
173 197 36
177 200 76
176 200 80
177 200 88
176 199 57
175 199 74
176 199 80
178 201 84
177 200 74
177 200 94
174 198 44
176 200 76
175 199 57
173 197 44
176 200 67
175 198 51
178 201 76
175 198 51
173 197 57
175 199 72
176 200 80
175 199 72
175 199 67
175 199 76
176 200 76
174 198 67
176 200 67
176 199 57
176 200 62
172 196 72
175 199 76
173 197 51
176 200 76
175 199 62
176 199 62
175 198 57
176 199 57
175 198 25
172 196 57
176 199 51
176 199 67
175 199 80
176 200 88
176 200 80
175 198 76
177 200 67
173 197 80
174 199 95
173 198 57
174 198 62
175 199 67
174 198 51
173 197 44
175 198 62
175 198 67
174 198 57
172 195 72
174 199 76
173 197 57
176 199 72
173 197 44
174 198 76
175 198 76
172 196 51
170 193 44
175 199 67
174 199 84
172 196 57
174 198 62
171 195 51
174 197 62
172 196 62
172 195 67
172 196 67
174 197 57
175 198 80
170 194 44
173 196 57
169 193 67
169 192 51
171 195 80
173 196 67
172 196 51
170 193 36
170 193 67
171 195 72
168 191 72
173 198 84
172 196 76
173 196 80
171 194 57
167 190 84
166 190 67
170 193 80
170 194 84
172 195 102
173 195 99
174 196 100
173 195 115
173 196 111
168 189 74
164 186 84
152 173 67
137 160 0
141 164 25
151 173 18
155 178 0
154 177 25
162 185 0
167 190 0
165 188 25
171 194 36
175 198 44
183 205 111
179 201 92
176 198 0
175 198 0
173 197 0
171 195 0
174 197 0
173 196 0
178 199 0
132 157 72
55 88 100
59 93 117
56 89 111
55 88 107
58 92 111
58 92 115
56 89 108
57 90 105
57 91 118
55 89 108
58 91 114
58 92 126
56 89 110
57 90 108
57 90 115
59 92 126
56 89 103
58 91 115
59 92 126
58 92 120
59 93 124
57 90 110
59 93 124
58 91 121
59 93 117
60 94 122
59 93 126
57 90 103
59 93 124
58 92 121
59 93 124
59 92 120
58 91 120
58 93 113
60 94 128
56 89 110
57 89 108
59 93 114
58 91 115
56 89 105
58 92 122
58 91 115
57 91 121
57 91 111
58 92 111
59 93 124
59 92 122
58 91 113
57 90 113
58 91 121
57 90 113
58 92 122
59 93 121
59 93 121
58 92 121
57 90 117
58 92 118
57 89 114
57 89 102
56 89 107
57 89 116
59 93 122
57 90 118
55 88 113
56 89 110
56 88 108
57 89 123
57 90 117
55 86 110
57 90 115
56 89 113
58 91 110
57 89 107
56 88 104
57 89 121
56 88 113
58 90 124
56 89 112
56 86 106
57 89 116
56 87 108
56 88 116
55 86 107
54 85 92
55 85 106
53 82 103
52 81 93
53 83 100
55 85 110
52 81 103
50 78 96
52 80 97
50 78 87
47 72 82
117 136 37
172 195 0
174 197 0
173 195 0
173 197 0
173 196 0
173 196 0
174 197 0
153 167 31
89 87 33
77 76 8
74 73 24
80 78 28
82 80 23
68 68 8
78 77 4
71 72 15
65 67 18
63 65 20
74 75 13
80 80 17
72 72 9
70 73 24
89 87 31
83 83 26
77 78 33
92 92 33
93 92 34
96 95 33
93 92 33
110 107 38
94 92 26
101 99 39
106 105 38
112 109 37
117 113 32
117 114 44
109 107 44
110 109 25
117 115 43
128 125 41
127 124 44
134 130 53
134 128 47
125 122 47
128 125 46
133 129 50
134 131 54
135 131 51
134 130 59
138 134 46
141 136 60
136 134 48
148 142 56
134 129 47
141 136 50
149 143 61
148 142 52
147 141 56
149 143 60
138 134 52
150 145 56
145 140 53
146 140 55
150 143 58
148 143 56
146 142 57
153 147 64
154 147 59
147 142 51
152 146 64
157 151 59
157 152 61
154 147 59
149 143 54
153 147 61
154 148 54
158 151 66
153 148 58
153 146 63
154 148 59
149 145 52
157 151 66
151 146 57
165 158 72
157 151 60
153 147 60
161 153 69
160 153 71
154 148 59
155 147 58
160 154 61
155 149 58
158 152 64
155 149 60
158 151 64
159 153 64
155 149 62
152 146 59
159 152 67
161 154 65
160 154 71
159 153 57
157 151 63
153 148 61
155 148 63
156 149 66
162 156 65
155 148 63
162 154 69
153 147 58
159 151 67
159 152 65
152 146 64
158 152 60
154 147 63
151 146 51
154 148 62
158 151 67
156 149 63
156 151 66
151 145 59
149 143 56
160 155 70
158 153 68
157 150 67
155 149 69
157 151 63
152 146 57
158 151 72
150 144 60
143 137 54
156 149 68
152 146 65
152 147 62
152 146 62
147 142 56
151 146 58
153 147 57
152 146 71
152 146 63
153 147 66
153 146 67
150 145 64
156 149 66
149 144 59
148 142 64
153 147 66
146 140 59
153 147 66
155 149 74
149 142 53
147 142 60
176 199 67
186 206 122
187 207 120
182 204 99
179 201 67
181 203 102
184 205 114
184 206 114
188 209 133
183 205 111
180 202 88
179 202 88
182 204 108
184 206 111
180 202 95
179 202 88
179 202 84
177 200 67
176 199 72
179 201 80
176 200 76
175 199 65
175 198 51
175 198 54
177 200 67
178 201 90
175 198 51
176 199 72
177 200 76
176 199 74
174 197 31
175 199 60
174 197 47
176 200 72
176 200 72
178 201 76
175 198 65
176 199 76
176 199 36
174 198 57
176 200 67
177 200 76
177 200 80
176 199 57
177 200 72
177 200 80
178 200 62
174 197 72
176 199 67
175 199 67
175 199 72
176 199 57
178 201 72
177 200 67
174 198 76
177 200 76
175 199 62
175 199 62
176 199 67
175 198 62
177 200 72
174 198 62
176 200 72
174 198 57
176 200 72
175 199 62
174 198 80
175 199 67
177 200 51
174 198 57
173 197 36
175 200 80
174 199 76
174 198 57
174 197 57
175 198 80
174 198 84
175 199 88
174 198 57
174 198 72
174 198 67
174 197 57
173 197 57
174 199 67
173 197 67
175 199 80
174 197 51
171 194 51
174 198 51
173 196 57
173 196 72
172 196 57
173 196 72
173 196 57
175 198 62
175 198 76
174 198 76
173 197 67
169 192 67
171 195 57
171 195 67
171 195 51
174 198 84
172 195 44
172 196 80
175 197 36
169 193 51
170 194 80
170 194 57
173 198 92
173 197 80
171 194 62
175 198 76
171 195 67
171 194 57
172 196 80
169 193 67
172 196 76
168 191 67
168 191 62
168 192 80
169 193 67
173 196 88
165 188 67
168 191 92
169 192 84
167 189 84
173 195 95
175 197 102
166 188 80
165 188 78
155 177 67
133 156 0
140 161 0
147 170 0
150 174 0
156 179 0
163 186 25
162 185 0
165 190 0
166 190 25
170 192 44
173 196 57
187 207 140
174 198 25
175 198 0
173 196 0
175 198 0
173 197 0
173 197 0
175 198 0
172 195 0
163 188 36
65 96 98
55 88 103
55 87 99
58 91 122
56 89 103
58 91 113
57 90 108
58 92 110
56 89 103
58 92 115
59 92 118
57 91 100
58 92 126
57 91 110
58 91 121
58 91 117
57 90 114
56 89 102
58 92 125
58 91 110
59 93 120
57 90 118
58 92 122
59 93 128
58 91 118
60 94 129
56 89 107
58 92 114
58 92 124
59 93 130
56 89 113
58 92 118
59 94 126
59 93 121
55 88 95
58 92 125
59 93 122
59 92 118
58 92 120
57 90 110
58 91 117
57 90 117
58 92 115
56 89 115
58 92 122
57 89 110
57 90 122
57 90 121
59 92 122
57 89 108
60 94 136
58 91 115
57 90 118
57 91 108
57 90 108
58 91 107
56 88 109
56 89 118
56 88 107
59 92 122
58 91 118
58 92 117
56 88 99
58 91 118
55 87 105
57 89 111
58 91 115
58 91 115
57 89 114
56 89 120
55 86 101
55 86 98
54 86 108
56 88 105
56 88 115
57 88 111
55 85 106
57 88 115
55 86 106
55 85 110
54 85 111
54 85 95
56 88 106
53 83 101
55 86 108
54 83 91
50 79 86
53 83 90
53 82 105
52 82 99
52 80 93
49 75 79
46 71 77
51 76 71
161 185 22
172 196 0
169 193 0
171 194 0
172 196 0
172 196 0
173 196 0
174 197 0
170 193 11
108 113 35
83 81 30
84 82 33
77 76 27
81 80 27
77 76 21
70 70 13
71 70 9
66 67 18
82 80 12
81 79 9
77 76 20
78 77 17
82 82 17
92 90 14
81 81 23
84 84 30
89 86 25
82 83 29
98 97 31
96 93 27
104 104 24
119 116 43
101 101 31
101 100 36
113 109 45
111 110 38
118 114 42
117 115 41
114 112 38
108 107 30
116 115 47
121 118 42
120 117 39
127 125 47
129 126 46
134 130 47
132 128 41
137 133 49
132 129 48
137 134 50
137 132 56
141 137 50
133 131 47
138 134 54
142 137 54
142 138 46
145 140 50
146 142 53
147 141 56
138 134 42
138 134 43
144 139 55
147 141 47
146 141 53
145 139 56
151 145 59
146 141 47
144 139 50
148 143 52
152 147 56
149 144 57
152 147 59
148 143 51
148 144 50
155 150 57
150 146 52
153 148 57
149 144 57
157 150 56
154 149 59
149 144 49
153 147 51
156 150 54
155 149 59
160 153 65
156 150 54
159 153 60
157 150 63
152 147 60
150 144 61
154 148 54
158 152 60
159 152 57
164 156 68
148 142 49
156 151 56
153 147 57
155 148 59
157 150 64
156 149 66
151 145 59
153 147 56
157 151 61
160 153 71
155 150 61
158 151 62
157 150 66
155 149 64
157 150 63
156 150 62
159 154 53
152 146 59
151 146 52
158 152 66
149 144 54
153 147 63
152 146 61
154 148 58
157 151 70
152 145 58
154 147 60
158 150 69
159 152 67
150 144 59
162 156 67
159 152 61
150 142 62
154 148 59
149 144 64
152 146 60
152 145 59
153 146 67
156 149 68
150 143 53
149 143 56
157 151 66
156 149 67
156 149 69
155 149 65
153 146 66
154 147 62
141 135 53
154 147 67
157 151 67
150 144 65
153 147 69
158 151 73
148 142 61
150 144 62
146 139 65
153 147 68
160 153 70
144 138 62
176 199 36
172 196 57
180 203 92
183 205 108
179 202 102
181 203 88
181 203 102
191 211 144
187 208 130
183 205 105
180 202 92
182 204 107
179 201 84
179 201 88
179 201 88
180 203 92
180 202 99
181 203 84
178 200 92
175 199 67
178 201 86
178 200 76
179 202 88
178 200 78
178 201 76
177 200 67
178 201 76
177 200 67
175 199 62
176 200 57
176 200 62
174 199 67
178 201 67
176 200 80
177 200 84
177 200 72
176 199 67
176 199 62
175 199 57
175 199 76
176 199 44
176 200 76
178 201 95
175 198 44
175 199 67
175 198 44
177 201 80
176 200 76
174 198 57
176 199 72
179 202 92
176 200 80
175 199 62
176 199 76
175 199 72
176 200 80
175 199 62
174 198 57
175 199 76
174 198 67
174 198 67
173 197 57
177 200 76
175 199 67
175 199 67
176 199 44
174 198 57
177 200 67
174 198 62
175 198 67
174 199 67
174 198 51
172 196 57
171 195 51
173 197 57
174 198 57
176 199 51
176 199 76
174 198 62
174 198 67
171 195 62
175 199 72
172 195 62
174 198 80
177 200 72
174 198 44
173 197 57
172 196 67
176 199 57
172 197 51
172 196 57
174 197 80
173 198 62
173 197 84
172 196 62
175 199 67
172 196 76
172 196 72
173 197 57
173 196 62
172 196 67
170 195 51
171 195 62
168 191 57
172 196 62
171 195 76
169 193 44
172 196 72
169 192 51
170 194 80
173 197 62
173 196 80
174 197 84
174 197 62
170 193 62
170 194 72
164 188 36
170 194 57
172 196 84
172 195 84
168 192 72
171 193 76
167 190 62
164 187 72
170 192 72
167 189 80
167 190 84
167 189 88
177 198 88
163 185 84
163 184 80
153 174 25
144 166 0
145 166 0
157 179 0
152 175 0
154 178 0
156 179 25
157 180 0
169 193 25
171 194 51
172 196 36
178 199 105
180 202 92
174 198 0
173 196 0
173 196 0
174 197 0
172 195 0
173 197 0
173 197 0
171 195 0
173 196 0
99 125 76
54 86 94
56 88 113
57 90 108
55 88 99
58 91 113
57 90 115
56 90 100
58 92 114
57 90 110
56 89 103
56 89 111
58 91 110
58 92 108
55 87 100
58 92 128
57 91 120
56 89 103
56 89 92
57 91 120
58 92 114
59 93 124
57 91 113
58 91 122
58 91 102
56 88 110
59 93 122
58 92 121
55 87 107
59 92 126
57 90 110
58 91 108
57 90 114
58 91 117
57 90 121
58 92 130
59 93 125
57 91 114
59 93 128
58 92 117
58 92 114
58 92 126
60 94 129
57 90 120
59 93 122
58 92 118
58 91 120
58 91 120
60 93 129
58 92 117
57 91 110
57 90 107
57 90 121
57 91 113
59 92 129
56 89 108
57 90 117
55 88 102
58 91 115
56 87 110
59 92 120
58 91 126
57 90 115
58 91 116
59 92 129
58 91 125
57 90 117
57 89 116
55 86 117
56 88 112
57 90 103
57 90 110
56 87 111
55 86 108
54 84 98
54 86 108
56 88 118
55 87 105
54 85 99
53 83 86
57 89 122
54 85 111
54 85 108
54 84 109
54 84 103
55 86 107
53 84 99
51 79 93
51 78 96
51 78 90
49 76 75
50 77 89
47 72 86
111 132 58
172 196 0
173 196 0
173 195 0
168 190 0
172 194 0
171 195 0
172 195 0
172 194 0
172 196 0
146 162 23
90 87 34
83 80 34
79 77 21
74 72 20
76 75 21
71 71 16
75 76 11
70 73 20
66 67 16
80 80 18
78 79 25
79 80 22
84 84 23
87 88 23
94 93 19
90 90 19
93 91 26
97 97 27
97 96 20
91 91 33
103 101 32
91 91 32
103 101 40
107 103 30
107 107 31
113 110 36
108 106 41
116 115 32
122 119 40
126 122 30
126 122 42
122 120 43
116 112 48
134 130 50
127 123 46
125 122 35
139 135 56
130 128 48
129 126 42
131 127 45
142 137 60
135 130 48
138 134 44
147 142 57
144 139 55
141 137 51
138 133 55
144 137 57
137 133 45
134 129 49
144 139 45
138 134 47
137 132 43
146 141 54
147 142 53
160 154 65
151 145 51
154 149 63
153 148 49
145 139 50
159 152 69
146 141 47
152 145 61
147 143 57
145 141 60
148 142 53
150 144 60
152 145 56
155 149 62
148 144 53
155 149 59
157 151 68
158 152 67
152 146 56
154 149 57
150 144 57
158 152 60
152 146 56
154 149 52
155 150 54
154 147 61
157 151 68
153 147 52
154 148 61
157 151 56
155 148 59
155 148 62
155 149 56
155 150 60
157 149 66
153 146 49
156 150 63
149 143 57
148 144 54
149 144 57
155 149 61
158 153 62
148 143 60
160 154 67
155 149 53
155 148 62
157 151 57
156 148 57
164 157 70
158 151 66
156 149 68
155 149 67
159 153 68
154 148 59
154 149 62
149 143 63
155 150 60
151 146 61
149 143 62
162 155 73
151 144 61
153 146 63
153 147 64
159 153 70
154 147 63
150 143 59
154 148 70
152 146 63
148 143 62
152 145 62
149 143 60
150 143 63
152 145 64
146 140 59
153 147 67
159 151 73
151 144 63
143 139 58
154 147 65
154 147 67
156 150 67
155 148 70
139 135 53
148 143 57
159 151 72
154 148 66
148 142 61
153 146 66
175 198 0
175 198 36
178 200 76
182 203 102
179 202 76
177 200 72
181 203 95
184 205 114
183 205 111
184 205 117
182 203 105
181 203 105
180 202 95
183 205 111
176 199 72
179 202 84
179 201 88
182 204 117
179 201 88
179 202 80
181 203 95
177 201 76
178 201 84
174 198 51
177 199 88
177 200 67
178 201 76
176 199 72
176 199 51
177 200 88
175 199 94
173 197 54
177 200 76
177 200 76
174 197 65
177 200 72
176 200 84
176 200 67
175 198 76
174 198 67
177 200 80
176 200 72
176 200 80
176 200 67
176 200 72
176 200 80
176 200 72
176 200 67
176 199 62
175 198 57
176 200 72
176 199 80
176 199 67
176 199 72
172 196 25
175 199 57
176 199 57
176 199 57
177 200 62
174 198 62
172 196 51
174 198 51
175 199 67
174 198 67
173 198 67
174 198 72
173 197 51
173 197 57
175 199 72
176 200 80
175 199 62
176 199 67
174 199 88
175 198 51
172 196 76
176 199 62
174 198 76
175 199 57
176 199 62
173 197 67
172 197 67
174 197 36
173 197 57
172 196 44
174 198 44
174 198 51
172 196 80
174 196 25
171 195 44
172 197 62
173 197 62
173 197 72
172 197 57
172 195 72
172 196 51
169 193 36
173 195 25
174 197 57
172 196 51
170 194 57
170 194 36
169 193 36
173 198 76
175 198 51
174 197 57
173 197 72
171 195 67
169 193 51
172 195 62
171 194 57
170 195 72
171 195 72
171 195 80
171 194 57
169 193 62
170 193 72
172 195 67
171 195 57
161 185 72
169 193 57
171 194 80
174 197 84
168 191 72
166 190 67
166 188 99
168 190 67
172 193 122
173 194 92
158 181 62
157 178 72
146 167 36
138 159 0
145 166 0
143 165 0
157 180 0
158 180 25
163 186 0
166 188 25
165 188 0
167 191 44
167 191 36
171 194 62
185 205 133
174 197 0
174 197 0
172 196 0
171 195 0
173 197 0
173 196 0
171 195 0
172 195 0
172 195 0
172 196 0
161 184 31
58 90 108
58 91 111
57 90 105
54 87 97
57 91 114
56 89 95
57 90 118
57 91 102
56 88 115
56 89 103
56 89 103
59 93 121
57 91 108
59 93 122
57 90 114
57 90 117
56 89 115
55 88 102
58 92 115
56 88 99
59 93 121
58 91 118
55 88 95
56 89 103
58 92 120
58 91 114
57 90 115
57 90 110
55 88 113
59 92 125
57 91 111
58 92 118
57 90 115
58 92 117
58 92 117
57 90 111
58 92 111
59 93 125
58 92 126
57 90 117
57 91 111
58 92 117
58 91 111
57 91 103
54 86 107
56 88 107
60 94 128
58 91 117
56 89 116
58 91 118
58 92 118
55 87 105
56 89 111
56 89 103
57 90 115
56 89 113
59 93 117
58 92 115
57 90 118
58 91 124
57 90 111
58 91 124
55 87 118
56 88 113
58 92 121
57 89 107
56 88 118
55 87 107
55 86 106
52 82 98
56 88 111
56 89 113
55 86 103
56 87 97
56 87 108
56 87 113
55 86 107
55 86 104
55 86 111
55 86 110
54 85 96
52 82 92
52 82 96
56 87 111
55 86 107
50 78 96
51 80 96
51 79 95
51 80 97
52 80 97
50 77 76
48 72 67
160 182 11
172 194 0
170 194 0
173 196 0
173 196 0
170 193 0
172 195 0
174 196 0
171 194 0
170 193 0
166 190 0
116 123 30
99 94 31
75 76 14
77 76 5
73 73 11
75 74 14
70 70 24
72 72 20
66 67 12
70 70 18
70 71 19
81 80 17
84 85 19
88 87 14
82 83 18
91 91 22
92 90 30
95 93 29
87 86 31
103 102 32
100 99 32
99 98 27
103 103 22
105 103 33
103 102 34
116 113 32
119 116 42
102 102 34
120 117 37
113 111 34
114 114 26
123 120 47
121 118 39
125 122 42
117 115 39
128 125 41
125 120 43
120 118 38
128 123 37
133 129 43
126 122 46
133 128 45
135 130 53
139 133 53
135 131 47
141 135 53
138 133 51
138 134 38
135 132 47
136 132 53
138 134 49
143 138 52
140 136 52
144 138 53
155 150 60
143 138 49
142 138 45
149 143 60
148 141 55
154 148 61
151 146 60
150 144 54
144 139 57
145 141 50
150 145 49
144 139 44
152 147 60
150 143 52
154 149 59
154 149 52
153 147 59
149 143 53
153 147 54
153 146 62
154 148 58
152 147 52
159 153 62
149 144 52
156 150 49
153 147 53
154 149 59
149 144 57
151 146 53
148 142 54
158 151 62
151 145 51
153 147 53
157 150 61
156 149 60
159 152 62
151 144 61
153 147 58
158 153 60
154 148 60
150 146 56
160 154 66
160 153 61
152 146 60
154 147 57
153 146 59
161 153 68
153 147 58
146 140 59
157 149 67
153 147 62
150 143 63
152 147 57
158 151 66
156 151 57
154 147 64
153 148 58
153 147 59
157 151 62
156 148 68
158 152 62
158 151 66
154 148 63
146 141 56
150 144 60
160 153 64
156 149 59
150 144 60
149 143 54
148 142 56
150 145 61
149 144 60
159 152 72
155 149 61
154 148 63
136 131 59
148 143 52
148 142 65
152 146 66
154 148 67
152 146 63
158 151 70
145 140 58
146 140 58
146 140 59
149 142 58
151 144 66
133 126 53
141 136 58
174 197 0
175 198 0
175 199 44
179 201 84
177 201 84
183 204 99
178 201 84
178 201 80
187 207 122
188 208 133
180 202 92
183 205 114
176 199 76
182 204 110
183 205 114
181 202 92
177 200 72
179 201 88
180 203 102
180 203 102
180 203 99
175 199 57
176 199 57
178 201 76
177 201 80
176 199 74
178 201 88
176 199 72
179 201 62
178 200 76
177 200 57
176 199 76
176 199 65
176 199 92
178 201 94
177 200 72
177 200 72
176 199 67
175 198 62
177 200 67
174 198 57
175 198 62
176 199 72
175 199 80
174 197 44
177 200 92
180 202 80
174 198 57
176 199 62
173 197 25
177 200 88
174 198 57
175 198 51
174 197 57
174 198 51
173 197 67
177 200 80
176 200 84
175 198 51
175 199 80
172 196 51
172 196 62
175 198 36
173 197 76
175 198 51
175 199 76
174 197 57
176 199 57
175 199 84
176 200 72
174 199 72
175 199 80
175 199 76
175 198 36
175 199 44
174 198 44
175 199 62
176 199 67
173 196 57
174 198 57
173 197 57
171 196 84
171 196 62
172 197 62
172 196 62
174 197 44
173 197 57
173 197 36
172 196 67
172 196 62
176 200 88
171 195 72
169 193 62
173 197 67
172 195 57
170 195 84
170 194 67
171 194 62
169 193 76
173 197 72
172 196 72
172 196 67
173 197 62
170 195 62
169 191 51
172 197 72
167 191 72
173 196 62
173 197 72
175 198 76
167 191 57
169 193 72
170 195 67
165 188 62
165 189 51
173 196 84
168 190 51
169 193 76
168 191 88
166 189 67
171 194 72
163 186 80
167 190 88
171 194 88
166 189 92
173 195 99
173 194 120
161 183 67
165 186 72
147 168 25
141 162 0
152 174 0
151 173 0
148 170 0
164 186 0
160 182 0
161 184 25
162 186 0
166 189 25
174 197 67
167 190 36
187 207 135
175 198 57
172 196 0
173 196 0
171 195 0
173 197 0
172 195 0
172 196 0
169 193 0
172 196 0
173 196 0
172 195 0
172 195 0
110 135 76
57 89 105
56 89 103
58 92 110
54 86 95
56 89 108
56 90 105
56 89 103
57 90 111
57 91 114
57 91 113
58 92 110
58 91 115
58 92 113
57 90 111
57 90 110
57 91 111
56 89 115
56 89 103
56 89 110
57 90 105
56 88 105
56 89 107
59 93 117
59 93 128
58 92 110
57 90 111
55 88 105
56 89 95
56 89 114
57 90 110
58 91 125
57 90 122
57 90 110
58 91 108
58 91 120
56 90 114
57 90 103
58 91 115
58 91 118
56 88 103
57 90 110
59 92 131
58 91 118
57 90 105
56 89 102
56 88 104
56 89 105
56 88 117
56 89 111
56 89 105
55 88 107
58 91 113
59 92 124
58 92 125
56 89 117
57 90 118
58 92 122
55 87 103
59 93 126
54 86 87
57 90 113
55 87 110
57 90 118
55 87 101
56 88 103
56 88 108
58 90 122
55 86 109
57 89 121
54 84 102
53 83 105
55 87 113
56 88 107
57 89 116
57 89 114
55 85 100
57 90 114
54 85 114
56 87 114
55 87 109
56 87 112
54 83 93
51 79 82
52 81 100
52 81 107
50 77 80
50 78 84
49 76 74
50 78 86
49 74 66
98 117 51
172 195 0
170 193 0
170 192 0
170 193 0
170 192 0
172 196 0
167 189 0
170 193 0
169 192 0
171 194 0
167 191 0
157 177 19
89 87 32
74 72 22
80 79 16
80 78 22
69 69 12
89 86 21
70 72 15
67 67 18
83 81 18
78 78 14
73 74 12
81 81 20
89 88 16
82 82 13
91 89 21
88 85 23
86 87 20
95 95 26
93 94 28
94 93 23
102 101 32
102 101 35
101 100 25
108 107 36
112 108 35
113 111 33
110 108 37
111 109 29
126 122 35
116 114 33
127 123 38
126 122 44
124 120 39
124 121 36
123 120 34
131 126 49
123 118 44
138 133 42
138 132 51
132 128 47
129 124 43
128 124 40
137 132 42
140 133 53
136 133 38
135 129 42
142 137 49
142 138 47
137 132 45
141 137 50
139 133 47
146 140 57
144 139 51
146 140 56
145 141 49
151 145 50
138 133 49
146 141 51
146 141 51
151 146 57
153 148 58
152 146 54
147 142 55
143 138 51
146 142 48
146 141 54
148 144 47
151 145 58
152 147 47
150 145 59
153 148 52
151 146 49
147 142 53
156 150 62
143 138 51
155 148 52
154 148 61
151 146 54
155 147 64
155 149 63
157 151 56
154 148 57
153 147 51
161 153 62
149 144 60
148 142 59
153 146 56
154 148 59
152 146 52
161 154 66
149 143 54
161 154 65
149 143 51
156 149 58
151 145 58
150 144 52
152 144 64
159 152 68
161 154 70
161 154 69
154 147 59
155 148 56
153 146 59
155 148 61
150 145 54
154 148 60
146 141 56
151 145 60
155 148 62
147 141 59
154 148 61
149 144 57
155 149 61
145 140 47
148 141 60
155 148 60
150 143 61
148 142 54
153 146 64
145 139 58
147 141 61
155 149 61
157 151 63
160 153 66
156 150 63
151 145 59
151 145 54
151 145 58
146 142 53
146 140 58
151 144 60
150 146 59
150 144 59
152 144 62
142 137 56
150 145 59
150 144 61
144 140 56
156 151 67
142 136 57
145 140 56
146 139 64
175 198 0
175 198 0
174 197 0
174 198 44
181 203 84
182 203 99
180 202 95
180 203 92
177 200 67
181 203 95
182 203 111
180 202 113
184 205 105
181 203 102
183 205 108
177 200 88
174 198 51
175 199 67
180 203 99
178 200 92
178 201 84
180 203 102
182 204 105
176 198 67
177 200 62
177 200 80
179 201 76
178 201 88
177 200 80
178 201 76
178 200 86
176 199 62
176 199 57
173 198 62
176 200 82
176 200 57
178 201 72
171 195 70
174 198 62
177 200 80
175 198 67
176 200 80
176 199 67
175 199 57
173 197 36
177 201 99
175 198 57
176 199 62
175 198 72
175 198 62
177 200 84
176 201 92
175 198 72
178 201 95
174 198 67
173 197 51
175 199 57
175 199 76
175 199 72
175 198 67
174 198 36
176 200 92
175 199 76
174 199 67
175 199 67
171 196 67
175 199 80
175 199 84
175 199 80
174 197 80
175 199 67
174 198 72
172 197 57
173 196 57
174 198 51
172 196 57
175 198 44
174 198 57
174 198 76
172 196 84
175 199 67
171 196 62
170 194 57
173 197 67
168 193 25
171 195 72
172 196 57
174 198 62
173 196 44
173 197 62
174 198 88
173 197 72
172 197 44
174 198 72
173 197 62
173 197 51
167 192 76
175 198 62
168 193 62
176 199 51
170 195 88
172 196 80
171 195 72
175 199 51
167 191 67
171 195 62
173 198 62
170 194 44
170 194 88
170 194 57
167 190 51
170 195 57
167 191 62
173 197 84
174 198 84
167 191 72
167 191 62
167 190 95
165 188 44
169 192 92
169 191 105
169 191 76
173 195 99
171 193 88
173 194 108
168 190 80
161 184 62
164 186 92
152 174 51
145 166 0
153 176 0
150 173 0
155 177 0
152 175 0
163 185 25
165 189 25
157 181 0
169 191 25
169 193 36
170 193 57
173 196 72
183 204 102
172 195 0
174 197 0
168 192 0
170 194 0
167 191 0
169 193 0
174 198 0
174 197 0
173 197 0
171 194 0
173 197 0
172 195 0
156 179 40
60 91 92
55 87 105
55 87 103
54 86 100
56 89 107
56 89 102
59 92 114
57 90 103
56 89 107
55 87 99
57 91 107
56 88 105
56 88 120
59 92 121
57 90 113
58 91 107
58 91 117
58 92 111
56 89 117
57 90 111
57 90 115
55 88 97
57 91 118
57 90 115
55 88 111
57 89 113
56 89 118
56 89 108
59 93 114
58 91 113
58 91 111
57 91 115
58 91 124
57 91 115
57 90 108
57 90 120
57 91 97
58 91 113
56 88 110
57 90 113
56 88 102
58 92 121
57 91 114
58 92 121
57 90 113
58 92 120
58 91 120
57 90 113
56 88 99
57 90 114
57 89 102
58 91 114
55 87 97
58 91 108
59 92 121
55 88 95
55 87 100
58 91 124
55 87 105
57 90 113
56 89 105
59 92 129
56 88 107
55 87 110
57 90 111
57 88 124
57 90 118
57 90 117
56 89 105
56 87 106
56 88 107
53 84 101
54 85 105
56 87 108
55 87 105
56 88 120
51 81 91
56 88 116
54 84 99
54 85 99
54 85 104
54 85 98
55 85 108
54 84 94
54 83 108
51 79 88
50 78 85
47 74 75
47 71 78
47 69 52
161 182 0
170 193 0
168 191 0
168 191 0
170 192 0
169 192 0
173 196 0
168 191 0
168 191 0
167 188 0
170 194 0
170 192 0
172 195 0
119 130 25
100 95 34
85 82 31
88 84 19
91 87 19
80 78 25
87 85 22
78 76 14
70 71 9
67 67 14
87 86 19
86 85 22
93 93 11
86 86 21
98 96 24
91 90 14
87 85 8
95 94 22
84 84 19
94 93 18
95 95 25
103 100 16
117 114 36
105 102 29
123 119 32
110 106 38
117 113 30
105 103 29
113 109 31
113 112 36
120 118 34
115 114 38
127 124 38
119 117 32
125 122 34
123 120 42
131 127 42
120 118 29
127 124 41
131 127 42
128 124 47
131 127 45
143 138 43
130 127 45
136 130 44
138 134 50
135 131 31
142 138 48
144 138 49
136 133 40
148 143 58
140 135 57
144 139 51
150 144 54
145 140 49
137 132 45
142 137 49
139 135 45
144 140 45
143 137 42
142 138 45
146 140 47
149 144 59
149 144 47
146 141 52
143 138 45
152 145 56
149 144 56
142 138 45
154 148 61
148 143 48
152 145 56
154 148 47
154 148 60
144 139 48
153 147 58
155 149 59
154 147 54
151 146 49
150 145 51
152 145 60
152 145 53
148 143 51
151 145 57
155 149 57
150 144 53
147 140 51
151 146 56
151 145 47
157 151 57
153 148 54
153 147 54
154 147 61
153 147 52
158 151 63
151 147 53
155 148 65
159 153 63
157 151 62
154 149 58
158 152 63
159 152 66
156 150 59
151 146 54
150 143 62
156 149 60
152 146 57
144 138 51
148 143 52
157 150 68
160 154 61
153 146 66
152 146 65
157 150 64
155 148 58
159 152 71
153 145 59
147 141 58
152 145 53
152 146 52
148 142 58
152 146 58
151 144 58
149 145 53
151 145 63
149 143 61
147 140 60
152 146 60
141 135 58
151 144 67
153 147 67
145 140 59
153 144 63
153 146 66
154 148 69
141 136 56
145 139 60
146 139 61
147 141 54
152 145 68
142 135 59
141 135 61
173 196 0
174 197 0
175 198 0
171 195 0
179 201 84
180 202 80
178 201 84
179 201 88
178 201 72
174 197 67
180 202 88
185 207 122
182 204 105
181 203 102
181 203 92
184 205 105
178 200 84
179 201 76
179 202 80
178 201 95
180 202 92
177 200 72
177 200 62
179 202 88
180 203 95
173 197 44
176 200 80
176 200 88
181 203 99
176 199 80
179 201 76
175 199 67
176 199 67
175 198 72
173 197 51
177 199 70
177 201 88
175 198 67
175 199 67
175 199 72
174 198 72
176 199 44
174 198 51
176 199 84
175 198 51
174 198 62
174 199 80
174 198 62
179 201 84
176 199 72
175 199 67
174 198 76
174 198 51
175 199 57
175 198 57
174 198 62
175 199 88
174 197 51
176 200 67
175 199 67
172 196 51
175 199 72
174 198 62
173 197 62
173 197 67
176 199 72
173 197 72
173 197 62
175 199 72
173 197 51
173 198 76
176 199 36
172 196 72
172 197 72
171 196 76
170 194 51
174 198 80
173 197 76
175 198 62
174 198 76
173 197 62
172 196 51
171 195 44
175 199 67
170 195 80
174 198 76
171 195 76
169 193 57
173 197 62
174 198 62
171 196 88
171 196 67
170 194 44
172 196 72
174 198 51
172 196 57
174 198 67
172 196 51
172 196 57
169 193 62
169 194 57
171 195 67
170 194 67
170 194 57
171 196 62
169 194 57
168 192 72
170 194 76
174 197 62
173 196 67
169 192 76
172 196 72
167 190 67
172 195 80
171 195 76
168 191 57
164 188 36
167 190 51
171 193 67
169 192 99
169 191 88
175 198 99
173 195 105
170 190 122
171 193 92
165 187 72
165 186 99
161 183 80
142 164 0
155 178 0
150 172 0
153 175 0
151 173 0
144 167 0
157 180 0
156 179 25
164 188 0
165 188 25
171 193 44
169 192 51
186 207 135
170 194 25
172 196 0
173 196 0
174 198 0
169 193 0
171 194 0
170 193 0
170 195 0
169 192 0
170 193 0
170 194 0
171 195 0
175 198 0
170 194 0
116 139 65
56 88 95
54 86 94
57 89 107
58 91 110
57 90 108
57 91 111
57 91 113
57 90 115
55 88 102
57 90 103
56 88 103
57 90 110
57 90 114
58 91 108
56 89 103
57 90 102
57 91 122
56 90 111
57 90 102
56 88 97
57 90 115
56 89 113
57 90 108
58 92 122
57 90 110
57 91 110
58 91 113
56 88 108
56 89 110
56 88 102
56 89 108
57 89 114
56 89 95
57 91 114
57 90 114
57 90 115
56 89 107
58 91 117
58 92 117
58 91 117
56 89 110
56 89 107
57 90 111
57 90 117
56 88 108
59 93 121
57 90 117
54 85 108
57 90 107
59 92 135
56 88 111
58 91 125
54 86 103
58 92 120
57 91 107
57 90 108
55 87 113
58 92 119
56 89 101
57 90 114
56 88 101
57 90 120
54 86 102
57 89 110
56 89 108
58 90 114
55 87 102
56 88 110
58 91 120
55 86 104
55 87 106
54 85 90
53 83 94
55 87 99
51 80 81
55 86 104
55 86 107
53 81 95
52 82 93
53 83 101
53 82 101
51 80 98
52 81 89
50 78 75
50 77 93
49 74 80
49 74 78
46 72 65
119 139 51
172 195 0
168 190 0
168 191 0
170 193 0
166 189 0
171 194 0
165 187 0
160 183 0
172 194 0
168 191 0
163 185 0
168 190 0
169 191 0
164 185 0
112 111 29
90 87 31
90 86 29
71 71 18
87 85 23
67 67 3
81 79 18
85 84 17
72 73 8
82 82 18
79 78 9
79 80 18
79 79 14
87 85 18
101 98 18
93 91 14
99 98 23
90 89 22
93 92 28
108 104 25
103 101 24
108 105 33
101 99 27
103 102 25
99 99 30
112 111 32
102 100 23
119 115 29
109 107 34
121 118 33
115 113 37
122 117 38
118 115 34
126 122 33
122 119 29
128 123 45
126 123 44
130 126 43
124 121 26
133 128 45
134 131 38
121 119 31
140 136 47
136 132 47
138 133 47
144 140 49
136 132 44
143 139 49
147 141 47
143 138 46
141 136 40
144 140 45
144 139 46
141 136 45
139 135 50
149 143 53
141 137 40
140 136 37
148 143 51
151 146 56
153 147 52
147 142 52
145 140 45
143 137 51
157 149 58
150 145 58
152 146 53
150 144 52
151 145 53
146 141 42
154 148 56
148 142 42
145 140 47
150 143 54
140 135 39
148 142 51
157 149 58
153 146 60
154 148 51
148 141 58
148 142 49
148 144 39
155 149 57
154 148 59
152 145 57
153 146 62
161 153 66
154 148 57
150 145 59
148 142 51
156 149 57
155 149 53
152 147 59
154 147 57
154 148 58
153 148 57
160 151 74
155 149 57
150 144 47
148 143 59
158 152 65
157 151 59
156 151 57
148 144 49
146 141 53
154 147 65
153 144 59
149 143 57
146 139 53
151 144 59
150 145 60
152 146 63
149 143 56
153 146 68
152 146 61
144 139 52
156 150 65
151 145 60
151 145 61
148 141 60
149 143 60
148 141 53
151 144 67
145 140 60
149 145 56
151 144 63
146 142 53
152 145 64
152 145 59
156 149 73
144 139 59
148 140 60
146 140 60
151 145 59
149 144 61
139 133 56
153 146 66
149 143 63
144 138 62
150 145 61
134 128 52
174 197 0
174 197 0
171 195 0
173 197 0
174 197 0
176 199 72
182 203 92
178 201 92
180 201 76
181 203 88
176 200 76
178 200 88
182 204 117
183 204 114
183 205 111
182 204 111
180 202 92
179 202 100
178 201 92
182 204 105
176 199 76
177 199 67
175 199 76
179 202 92
179 202 95
178 201 84
178 201 76
176 200 62
176 199 67
174 198 72
176 199 76
176 199 76
176 200 84
179 202 92
176 199 76
176 199 76
177 200 57
176 200 62
175 198 67
176 199 76
175 199 62
175 199 57
176 200 72
174 198 67
174 198 76
177 200 62
175 199 92
174 198 72
176 200 67
173 197 72
172 196 62
176 200 95
175 198 62
175 198 51
175 199 72
173 198 57
176 199 67
174 199 72
175 199 72
175 199 67
173 197 62
173 197 57
176 200 80
172 196 67
176 198 44
175 198 57
175 199 62
173 197 80
174 198 51
173 196 62
175 198 62
173 198 62
172 196 57
171 195 44
173 197 36
172 196 57
174 198 76
170 194 67
171 195 62
171 195 57
174 199 88
171 196 72
173 197 67
172 197 62
173 197 67
174 197 36
173 198 67
171 195 44
170 193 67
171 196 67
173 197 80
171 196 44
173 198 84
172 196 51
172 196 72
171 194 51
172 196 72
174 197 67
173 197 80
172 196 62
170 194 36
173 196 76
169 193 72
171 195 76
171 195 72
169 193 76
169 193 57
168 192 62
172 195 76
168 191 62
170 193 72
170 194 62
170 194 80
168 191 62
172 196 72
168 191 57
167 190 57
168 190 57
170 193 108
172 194 102
172 194 99
176 198 111
171 194 84
166 188 84
168 191 84
165 186 84
164 186 80
142 163 0
141 163 0
143 166 0
149 171 0
158 181 0
142 164 0
154 175 0
155 179 0
157 180 0
167 190 36
166 189 0
174 196 62
170 192 84
170 193 51
170 193 0
166 190 0
169 193 0
166 189 0
171 195 0
168 193 0
169 193 0
172 195 0
168 192 0
170 193 0
171 195 0
168 191 0
170 194 0
167 190 0
165 189 18
75 102 88
55 87 100
54 87 95
56 89 99
55 88 101
56 88 97
56 89 97
57 90 115
55 87 97
57 90 103
54 86 97
57 89 105
58 92 121
55 88 105
58 91 102
55 87 100
57 90 102
57 90 107
54 86 107
58 91 115
57 89 113
56 88 107
58 92 115
57 90 117
58 91 113
58 90 121
57 90 118
57 90 110
56 90 105
57 90 113
57 90 110
56 89 112
54 85 94
57 89 113
59 92 115
58 91 115
58 91 110
58 92 118
57 90 111
56 88 95
55 87 96
57 90 110
56 89 111
57 89 118
58 92 114
57 91 115
57 90 114
58 92 117
57 89 111
55 88 99
56 89 120
57 90 115
56 89 108
56 89 111
57 89 113
55 87 107
56 88 100
57 90 111
56 88 108
55 86 102
54 86 108
57 90 111
54 84 112
57 90 120
54 85 96
56 88 108
55 87 109
55 87 109
55 87 108
54 85 99
54 85 99
55 87 111
56 88 100
56 87 109
53 84 95
55 86 98
53 83 87
53 83 102
53 83 96
53 83 103
50 79 91
50 78 87
52 80 83
47 73 71
49 76 88
50 77 90
50 77 93
62 81 67
158 180 25
167 190 0
163 185 0
168 190 0
165 187 0
167 189 0
166 188 0
165 189 0
165 186 0
171 192 0
168 191 0
169 193 0
165 186 0
170 193 0
171 193 0
160 180 11
78 75 21
79 78 9
72 70 16
82 82 21
86 84 25
75 76 18
85 84 5
66 67 10
78 77 8
86 83 14
83 83 14
80 80 18
81 81 18
80 80 20
83 82 26
95 93 8
102 100 14
94 94 29
90 91 16
94 95 16
109 107 22
107 106 28
110 106 22
111 108 32
109 107 26
102 101 31
102 100 24
123 119 36
117 114 22
124 121 40
117 114 38
120 117 33
119 116 25
129 126 32
126 122 40
120 117 26
125 122 37
132 127 33
131 127 42
123 117 39
131 126 43
134 130 42
134 130 42
132 129 35
132 128 42
137 132 43
141 136 45
134 129 34
136 132 37
144 140 53
141 136 49
139 134 39
148 142 55
143 138 51
140 136 44
140 135 44
143 138 47
146 139 53
151 143 57
145 139 41
146 140 46
155 149 52
148 144 39
145 138 43
149 145 44
143 138 44
144 137 48
155 148 59
147 142 47
139 134 32
149 143 56
152 145 54
151 145 47
157 151 57
151 146 56
149 144 45
151 145 57
148 141 52
153 148 45
149 143 53
150 144 52
147 142 56
159 153 63
156 149 57
152 145 49
150 143 49
151 145 56
158 150 60
153 146 61
149 143 51
146 141 47
150 143 53
148 141 53
156 150 64
153 147 57
152 147 58
151 144 49
158 151 60
146 142 52
152 146 47
153 147 60
147 142 51
150 144 63
145 139 54
155 147 60
155 149 69
152 145 60
153 147 52
145 140 52
153 147 52
149 142 51
157 150 65
152 146 61
149 144 53
155 148 61
150 143 54
145 139 58
157 149 66
143 137 59
144 139 56
148 142 52
153 147 61
148 142 54
143 137 62
141 135 57
152 145 62
142 137 51
153 147 61
147 141 52
141 134 60
148 143 53
140 134 62
152 146 56
143 138 45
146 140 51
134 128 52
141 136 56
147 142 57
146 139 63
143 137 56
174 198 0
172 196 0
172 196 0
173 196 0
174 197 0
171 195 0
177 199 57
178 201 86
180 202 88
181 203 95
180 203 92
180 203 95
177 200 76
184 206 117
182 204 99
183 204 111
181 204 102
181 203 108
180 202 95
180 203 102
178 200 84
177 200 80
181 204 105
177 200 80
181 204 99
178 200 76
178 200 78
176 199 72
178 201 92
175 199 57
174 198 57
178 201 88
173 196 67
176 200 72
175 199 80
176 199 57
175 199 62
179 201 84
176 199 76
175 199 72
176 199 72
175 198 57
176 199 84
178 201 72
176 200 67
176 199 67
176 200 72
176 200 67
175 199 76
173 197 44
172 197 67
176 199 57
175 198 57
173 196 51
175 199 62
176 199 72
172 195 44
174 198 72
175 199 84
178 201 76
175 198 51
174 198 67
171 195 62
174 198 57
173 197 76
170 194 51
175 199 80
175 199 84
171 195 76
173 197 67
174 197 51
175 198 62
174 198 72
173 197 51
174 197 57
171 195 62
171 196 62
175 199 62
174 197 62
171 195 76
172 196 80
172 196 62
175 198 80
172 196 84
169 194 57
173 197 92
172 196 92
174 198 72
172 196 95
169 193 51
171 195 25
171 195 44
171 195 67
171 196 80
166 190 51
173 197 76
171 195 62
174 197 57
172 196 76
175 198 84
171 194 62
172 196 72
172 196 72
169 193 67
169 193 62
169 193 72
171 195 67
168 192 72
169 194 72
170 193 72
167 191 76
169 192 84
171 195 84
166 189 44
169 192 67
167 190 51
164 186 80
165 189 72
167 190 92
164 186 67
174 196 99
170 192 95
167 188 92
172 194 84
164 187 67
167 189 62
151 173 0
140 161 0
152 173 0
151 172 0
149 171 0
155 177 0
158 181 0
153 176 0
158 181 0
160 183 25
164 188 44
170 194 62
168 192 51
179 201 102
171 196 0
170 193 0
168 192 0
171 195 0
171 194 0
171 195 0
168 192 0
170 193 0
171 194 0
169 192 0
163 187 0
167 191 0
167 190 0
168 191 0
168 191 0
170 193 0
135 158 57
54 86 92
56 89 106
55 88 97
55 88 103
57 90 99
56 89 103
55 87 107
56 89 103
55 88 110
57 90 107
57 91 114
57 90 108
57 90 114
56 88 102
56 88 94
55 87 107
58 92 111
58 91 105
56 89 100
56 89 97
55 87 99
56 88 103
57 90 105
57 90 115
55 87 100
55 87 103
56 88 113
57 90 108
57 90 102
57 90 110
58 92 120
56 89 110
56 88 110
56 89 115
57 90 107
57 90 115
56 88 102
57 90 115
56 90 105
57 90 114
56 88 102
56 89 111
58 91 115
56 89 114
57 90 108
57 91 114
55 87 103
57 90 117
56 88 102
57 91 105
56 88 108
56 88 111
56 88 113
57 90 113
54 86 105
55 87 103
53 85 95
56 89 104
55 87 107
57 89 103
56 89 105
54 85 99
57 89 107
55 85 108
56 88 113
56 88 103
53 83 77
53 84 91
56 88 110
53 84 105
54 85 105
55 87 104
55 87 94
53 83 96
53 83 95
52 82 101
52 81 84
53 82 94
51 80 86
50 77 82
49 77 85
52 81 97
49 77 83
50 78 73
46 71 67
43 67 74
131 151 48
165 187 0
164 185 0
164 185 0
168 190 0
163 185 0
164 187 0
168 189 0
165 188 0
166 186 0
168 190 0
167 189 0
170 192 0
170 192 0
167 189 0
170 192 0
166 187 0
144 155 32
94 91 30
89 88 21
79 75 24
87 84 23
76 75 20
82 78 16
81 80 8
83 82 19
73 72 11
87 86 8
90 89 23
85 82 20
88 85 18
94 91 20
88 89 18
90 90 14
100 98 19
99 96 19
101 99 24
99 96 22
98 96 19
107 104 27
107 106 19
102 100 21
112 108 28
115 111 31
112 109 38
114 111 28
117 115 24
118 116 31
123 119 39
119 118 29
122 119 37
122 119 34
114 110 32
130 126 39
119 116 31
125 121 32
134 129 39
133 128 40
134 131 42
134 130 39
134 129 35
129 125 40
140 135 47
140 135 41
130 127 35
133 127 42
139 133 31
137 132 37
135 132 32
142 138 42
145 139 46
139 135 32
144 140 45
137 133 34
141 136 42
149 143 56
134 130 42
139 135 37
148 142 49
149 144 39
143 138 40
133 129 42
145 141 44
147 141 49
149 144 54
145 140 45
142 136 53
151 145 53
151 145 49
152 146 52
151 144 59
141 137 44
149 145 44
145 139 41
151 144 57
152 146 52
144 139 44
152 146 58
148 143 47
148 143 52
155 148 53
144 138 49
146 139 49
148 142 49
151 145 51
156 149 62
153 146 52
142 136 42
150 143 57
153 147 60
151 146 52
148 142 56
150 144 48
152 145 58
141 136 49
150 144 57
152 145 56
149 144 53
155 148 62
146 141 49
147 141 53
150 145 54
146 141 47
148 143 53
150 145 56
150 143 53
156 147 60
149 143 60
151 144 60
151 145 59
159 151 69
149 144 47
147 141 58
149 142 62
152 145 52
145 139 59
150 143 62
151 144 62
142 138 44
150 144 60
146 140 63
145 139 54
155 149 61
156 149 66
146 140 53
148 142 61
143 137 58
137 133 51
148 142 53
153 146 62
149 144 57
146 140 56
147 141 58
148 142 62
146 141 59
141 135 53
139 134 56
173 196 0
173 197 0
173 196 0
173 196 0
172 195 0
172 196 0
174 197 0
176 199 62
178 201 72
178 201 76
181 203 95
178 201 72
178 201 84
180 202 99
178 200 76
182 203 111
181 203 95
180 202 92
181 203 95
178 201 76
180 203 99
179 201 76
181 203 99
179 201 84
177 201 88
178 201 84
178 201 88
176 199 67
180 203 102
180 202 80
177 200 72
180 202 95
174 198 51
176 199 67
174 198 72
173 197 44
178 201 84
175 199 88
176 199 72
175 199 88
177 201 92
176 200 67
175 199 62
175 199 84
176 200 80
176 200 76
174 198 51
173 197 72
174 198 57
172 197 62
173 197 67
173 197 36
177 200 67
175 199 92
176 200 80
174 198 72
174 198 72
173 198 72
174 197 44
175 199 76
174 199 67
173 197 76
176 199 51
173 197 67
174 198 51
173 196 36
174 198 67
175 199 72
173 197 62
173 197 80
174 198 76
175 198 80
173 198 84
175 198 57
173 198 92
174 197 80
173 197 57
172 197 67
174 198 80
174 198 62
173 198 67
174 197 62
174 199 76
173 196 67
171 195 67
171 196 76
172 196 67
174 197 67
174 197 62
172 195 36
172 196 88
171 195 57
174 198 62
170 193 25
171 195 62
171 196 51
173 196 88
170 195 51
171 196 80
168 193 76
169 194 72
172 195 76
168 193 62
170 193 67
163 187 67
167 190 44
171 195 72
174 197 80
168 191 72
168 191 95
169 192 36
166 189 67
163 186 72
170 194 76
168 190 51
168 191 51
167 189 84
168 190 92
169 190 92
166 188 84
171 193 88
169 189 67
165 186 76
164 185 76
153 174 67
146 168 0
135 156 0
153 174 0
153 174 0
150 172 25
152 174 0
156 178 0
154 175 0
161 182 0
160 183 25
164 186 25
167 190 44
172 195 57
175 196 114
170 194 0
173 197 0
167 191 0
166 189 0
169 192 0
173 196 0
168 191 0
170 193 0
169 193 0
165 188 0
168 192 0
168 191 0
164 188 0
168 192 0
170 194 0
168 192 0
170 194 0
167 191 0
110 134 88
56 88 100
55 87 92
56 88 102
54 85 97
55 87 94
56 89 86
56 89 97
55 88 99
55 87 99
56 88 102
57 90 115
57 89 113
58 91 118
57 91 108
57 91 117
58 92 115
56 89 92
57 90 108
58 91 114
57 91 103
56 89 107
55 88 103
56 88 110
56 89 108
57 90 108
57 90 105
55 88 95
57 90 110
58 91 117
55 87 99
56 89 120
57 90 120
56 88 108
56 88 103
53 85 100
58 91 113
57 90 107
58 91 111
56 88 103
56 89 105
57 90 114
56 88 111
56 88 113
53 84 90
57 90 108
57 89 105
57 89 113
56 88 108
54 86 92
57 90 108
56 89 99
60 94 124
57 89 117
57 90 104
56 88 110
54 86 95
57 90 113
55 87 102
56 88 110
54 85 101
55 87 110
54 85 96
53 84 102
56 88 101
53 83 97
55 85 108
55 87 95
54 85 97
54 86 103
55 86 108
55 85 107
53 84 87
52 81 97
54 85 100
53 82 99
53 82 98
50 79 94
54 84 97
49 76 82
50 77 78
50 77 83
48 74 73
47 73 83
47 74 79
98 117 49
158 180 0
159 181 0
164 184 0
161 183 0
167 190 0
163 184 0
159 180 0
164 185 0
166 186 0
163 185 0
168 190 0
164 185 0
168 190 0
160 182 0
164 187 0
168 191 0
166 186 0
169 191 0
113 121 26
107 102 34
99 95 18
94 88 33
88 85 18
86 84 25
82 80 8
89 85 0
81 80 13
89 87 12
91 88 3
94 91 16
90 88 16
93 92 16
80 81 14
99 98 19
98 95 20
91 88 19
109 106 10
93 93 18
103 101 23
111 110 26
104 103 29
103 102 22
108 104 21
107 104 23
102 102 20
120 116 29
115 113 28
120 116 14
119 116 30
122 119 29
117 114 37
127 123 33
124 120 31
125 120 37
122 118 29
138 133 41
130 126 38
128 124 37
131 126 41
131 127 32
139 134 37
134 130 32
139 134 42
128 125 33
137 132 34
138 134 33
134 129 38
138 133 42
140 134 41
142 136 42
141 135 35
139 134 49
144 138 53
142 136 39
144 137 49
146 141 45
135 132 37
148 142 47
153 146 58
140 134 37
147 141 42
149 144 51
143 138 37
151 145 59
146 141 53
151 145 53
148 143 49
151 144 49
147 141 41
150 144 54
147 142 47
148 142 58
143 137 44
150 145 42
148 143 51
150 144 54
153 146 53
140 134 37
151 144 56
147 141 49
150 143 60
149 143 52
149 142 47
151 145 53
141 136 44
151 143 57
160 152 64
147 141 54
156 149 57
151 145 53
148 142 54
154 148 57
149 143 49
148 143 53
150 143 61
152 146 51
148 142 53
151 145 51
145 140 44
151 144 62
155 149 57
147 142 51
152 145 53
152 146 56
147 141 49
152 147 49
149 143 58
153 145 61
149 142 56
150 143 59
142 136 52
149 143 61
147 141 52
152 146 53
145 140 44
138 132 51
147 140 58
149 142 58
150 145 52
146 139 56
147 140 57
145 139 52
147 140 60
150 144 53
145 140 58
142 135 54
140 135 54
143 137 47
144 136 64
142 136 60
150 144 63
150 144 59
149 144 48
145 138 59
143 137 56
149 142 60
150 143 60
172 196 0
173 196 0
172 197 0
175 198 0
174 198 0
173 197 0
174 197 0
175 198 0
173 196 36
179 201 92
179 202 80
178 200 80
182 204 102
179 202 84
179 201 76
180 202 88
182 203 105
181 203 105
180 202 94
180 202 100
182 204 105
177 200 84
182 204 111
176 199 92
177 201 95
177 200 72
176 199 84
177 201 80
176 200 72
177 200 72
177 199 57
177 200 80
176 199 80
175 199 62
177 200 84
177 200 95
174 198 62
175 198 67
176 200 76
176 199 67
175 199 67
177 200 76
176 199 72
174 198 57
177 200 72
175 198 51
177 200 84
175 199 62
174 197 62
174 198 80
174 197 67
174 198 62
174 198 67
173 196 51
176 200 76
173 198 72
174 197 76
176 199 67
172 196 76
174 198 88
172 197 62
174 198 80
174 198 62
176 199 80
173 197 57
173 198 72
174 198 51
172 196 57
173 198 62
171 195 67
173 197 67
174 198 92
173 197 62
175 199 95
174 198 92
170 194 44
175 199 76
175 199 76
170 194 67
173 197 67
173 197 62
170 195 57
173 197 57
172 197 67
173 197 51
171 195 76
172 196 62
174 196 25
174 198 67
166 189 67
170 193 62
173 196 72
175 199 72
174 197 84
170 194 44
172 196 57
172 195 62
171 195 62
169 193 51
172 196 76
172 196 62
171 196 76
171 196 67
169 193 88
170 193 80
168 192 80
172 195 88
171 194 62
169 192 80
171 194 67
168 191 67
172 196 88
171 195 84
169 192 72
165 187 80
171 194 80
171 193 84
167 189 114
166 188 114
167 188 88
167 189 84
163 185 62
164 186 72
158 180 44
153 173 0
153 174 0
157 179 0
151 173 0
155 178 0
160 182 0
156 178 25
157 180 0
156 179 0
167 190 0
164 186 44
163 187 51
171 194 44
180 201 105
172 196 51
170 193 0
170 194 0
169 192 0
163 187 0
168 192 0
170 193 0
166 189 0
170 193 0
166 189 0
169 192 0
162 186 0
169 194 0
166 189 0
170 194 0
169 192 0
161 185 0
167 191 0
163 187 0
162 186 31
84 110 95
53 84 88
54 85 92
56 89 97
53 84 82
55 87 88
55 88 94
55 88 95
56 89 100
57 90 110
54 85 95
54 86 103
56 89 105
56 89 105
56 88 110
55 87 97
56 89 90
57 90 111
55 88 99
54 86 100
56 88 108
55 88 103
54 86 108
58 92 111
58 91 113
58 91 111
56 89 102
56 89 110
56 89 113
56 89 100
56 90 102
56 89 110
54 87 97
55 87 97
56 89 108
55 86 99
54 87 92
55 87 103
53 84 102
58 92 111
56 89 105
55 86 100
57 89 114
54 86 94
55 87 99
57 90 111
57 89 109
53 85 92
54 86 102
55 86 105
55 88 100
56 88 100
54 86 107
55 87 95
56 89 97
55 87 107
55 87 99
53 84 101
54 86 108
55 86 92
57 90 99
56 87 108
57 90 111
53 84 97
55 86 104
55 86 105
54 85 94
54 84 106
54 84 98
52 81 89
52 82 91
54 86 105
53 83 92
54 85 107
50 78 86
51 80 83
50 78 92
50 77 87
52 81 84
51 78 83
50 76 76
50 78 85
48 73 79
71 93 62
156 177 18
162 183 0
153 175 0
162 184 0
167 189 0
167 187 0
158 179 0
164 186 0
165 186 0
161 183 0
161 181 0
163 183 0
162 183 0
165 185 0
167 189 0
164 186 0
161 183 0
162 183 0
164 184 0
156 174 16
94 95 22
87 84 20
90 86 24
78 75 20
81 77 16
87 84 14
88 85 9
82 78 8
77 75 18
88 86 8
87 85 11
84 82 14
91 89 10
99 95 8
91 89 19
90 89 18
95 93 21
106 102 14
100 97 27
101 98 22
104 100 21
102 99 21
111 107 31
107 103 29
113 110 22
107 105 25
116 113 32
118 114 29
122 119 32
123 120 34
113 111 35
117 112 28
127 123 39
125 121 33
131 127 30
128 123 33
123 120 24
128 124 29
125 121 37
129 124 34
131 127 42
126 123 34
126 122 31
128 124 37
139 134 44
138 132 37
141 137 36
142 137 42
140 134 44
138 133 36
136 131 43
140 135 42
144 139 45
141 137 37
135 132 37
145 139 39
142 139 45
146 141 41
144 139 45
141 134 45
139 133 47
141 135 42
146 139 58
141 136 42
146 141 50
147 142 49
148 142 41
143 139 37
148 142 50
150 146 47
155 148 58
141 136 47
142 138 45
149 143 51
147 140 44
152 145 60
149 142 49
156 150 51
153 147 44
154 147 56
147 141 48
147 139 48
151 144 51
145 139 47
147 142 54
151 144 47
150 144 47
146 141 52
148 142 56
147 141 44
147 141 44
144 138 51
144 138 42
148 142 49
145 140 51
150 144 58
152 145 57
149 143 49
152 145 57
159 152 63
149 142 59
144 139 48
145 140 47
149 144 53
146 140 49
149 142 58
150 143 49
154 148 52
147 141 45
146 140 54
151 146 58
143 137 42
147 142 54
152 145 64
137 131 48
153 147 61
149 143 58
148 142 58
155 149 59
148 142 53
145 139 56
142 135 48
151 144 63
143 136 61
148 142 58
142 137 51
143 138 53
147 141 53
148 142 52
144 137 58
148 142 57
145 139 56
140 134 47
143 138 57
142 137 59
140 135 58
142 136 58
143 136 59
172 195 0
174 197 0
172 196 0
170 194 0
174 198 0
171 195 0
172 196 0
174 197 0
172 196 0
172 195 0
178 200 88
178 200 80
179 201 76
179 201 76
179 202 92
177 200 82
179 201 84
184 206 117
185 206 125
180 202 95
183 205 117
178 201 72
182 205 117
180 203 102
180 203 111
180 202 92
177 200 84
178 201 72
179 202 92
177 200 67
177 200 67
173 197 51
178 201 76
178 201 80
175 198 72
177 200 84
175 199 80
176 200 88
175 199 72
176 200 80
176 199 67
178 201 99
176 199 72
174 197 62
177 200 80
176 200 72
174 198 76
176 199 62
172 196 57
173 197 51
175 199 67
173 197 76
170 195 51
172 196 57
175 198 67
173 197 36
173 197 44
174 198 72
172 196 62
175 199 80
169 193 72
173 197 88
175 199 92
174 198 72
174 197 72
174 199 72
172 195 62
172 196 76
174 197 51
172 195 80
172 196 84
172 196 84
173 198 76
171 195 67
175 199 62
174 198 57
172 196 67
171 195 76
174 198 72
170 194 51
172 196 51
170 195 76
171 195 44
172 197 67
172 196 67
175 198 51
173 196 51
171 195 67
169 193 72
172 196 51
172 195 44
168 192 80
172 195 72
171 194 67
169 192 51
174 197 76
176 200 92
171 196 84
170 194 84
172 197 84
170 194 62
171 194 67
174 198 80
173 195 67
167 191 80
170 194 51
170 194 62
172 195 102
172 194 84
173 194 62
169 191 72
165 187 57
172 194 76
168 190 92
165 188 76
167 189 88
159 180 80
165 187 62
167 188 84
165 187 67
165 187 62
163 184 72
154 175 51
147 169 0
150 171 0
148 170 0
150 171 0
154 176 0
146 168 0
157 178 0
152 175 0
158 180 0
154 177 0
158 180 25
166 189 62
171 194 36
175 197 80
171 194 51
169 192 0
161 185 0
166 189 0
168 192 0
166 189 0
166 190 0
169 193 0
171 195 0
167 191 0
168 191 0
164 187 0
169 191 0
161 185 0
165 189 0
165 188 0
168 192 0
169 193 0
164 188 0
169 193 0
166 189 0
146 169 47
58 88 82
54 86 94
54 85 84
56 89 95
54 85 94
54 86 97
54 86 95
56 88 100
54 86 97
55 87 103
57 90 108
57 90 108
54 86 97
55 88 97
57 90 110
55 87 100
55 88 103
54 86 95
53 85 94
57 90 102
55 88 103
58 92 111
55 87 97
55 88 97
54 86 90
57 91 108
56 89 100
54 86 100
56 89 103
54 86 92
55 87 95
56 88 111
56 88 107
57 90 111
54 85 92
55 87 97
56 88 108
56 88 113
55 87 95
56 89 105
57 91 110
56 88 107
55 87 107
55 87 95
58 91 115
57 90 115
54 85 102
54 86 90
53 84 90
56 88 110
56 88 110
55 87 105
56 88 110
52 83 97
54 86 103
56 89 114
57 90 107
55 87 99
53 85 97
54 85 100
56 88 113
53 83 92
54 86 97
55 87 101
54 85 102
53 83 92
53 84 97
54 85 103
54 85 97
50 79 89
55 85 104
54 85 95
51 80 90
51 79 102
52 80 93
50 77 94
50 78 78
48 75 76
52 81 94
50 77 71
49 75 77
49 73 74
133 152 41
161 182 0
157 178 0
158 177 0
161 182 0
162 182 0
161 181 0
162 184 0
161 182 0
162 183 0
161 182 0
160 180 0
162 182 0
164 185 0
164 185 0
159 180 0
158 180 0
166 187 0
153 173 0
165 185 0
164 185 0
148 165 11
106 101 34
84 81 25
86 83 28
85 82 16
89 84 19
77 77 14
83 80 14
92 88 12
90 88 14
84 81 12
79 77 14
89 86 11
89 88 19
94 91 11
93 91 0
98 96 21
91 92 11
91 89 28
101 98 25
106 105 16
108 105 26
97 95 19
112 108 29
102 100 11
113 110 21
122 118 24
100 97 16
118 114 31
113 110 28
119 115 30
119 115 26
120 116 25
124 121 25
115 111 29
126 123 33
126 120 28
122 118 32
130 125 38
130 125 29
128 124 41
130 125 33
136 131 33
129 125 37
136 131 37
135 128 39
131 126 30
138 133 38
136 131 40
140 134 38
140 136 37
142 137 39
137 133 36
138 132 39
135 131 30
140 135 32
144 137 47
138 133 34
148 143 42
144 138 41
142 137 44
155 147 56
143 137 47
140 136 37
144 137 37
151 145 41
147 140 45
141 136 36
144 138 45
138 133 37
147 140 51
144 138 42
149 144 52
142 136 47
146 141 47
140 135 49
144 138 45
152 145 49
148 142 52
151 144 48
149 142 49
150 143 53
150 144 53
144 139 45
152 147 53
146 140 52
145 139 47
146 140 51
141 135 36
142 137 42
151 145 49
143 138 42
148 142 49
149 143 51
152 145 53
143 136 51
148 143 45
145 139 47
149 143 57
152 143 62
155 148 59
149 143 54
148 143 54
148 142 48
150 144 51
148 142 51
142 137 39
144 138 53
145 140 51
146 140 54
147 141 53
142 137 47
146 140 58
148 141 54
148 142 61
143 136 51
141 135 48
151 144 58
148 143 57
145 138 52
143 137 52
145 138 56
156 149 64
138 133 47
149 144 53
134 127 42
148 141 61
140 134 53
145 138 53
143 137 49
148 141 61
147 141 56
144 138 54
139 132 63
139 133 52
147 140 52
139 134 56
139 134 52
174 197 0
174 198 0
174 198 0
172 195 0
174 198 0
173 197 0
173 197 0
171 195 0
173 197 0
172 196 0
172 196 36
175 198 76
179 201 80
178 200 72
179 202 88
181 203 99
178 201 80
175 198 70
179 202 80
180 202 88
185 206 111
179 201 99
179 202 88
180 203 117
184 205 117
178 201 92
177 200 84
178 200 88
176 199 67
180 203 102
180 202 92
179 201 88
176 200 76
178 201 84
174 197 57
177 200 80
176 199 80
178 201 76
176 199 76
174 197 72
173 196 67
176 200 84
177 200 76
176 199 84
177 201 84
176 200 92
172 196 67
175 198 72
174 198 57
173 197 67
172 196 67
175 199 67
175 199 76
170 195 67
174 198 76
175 199 57
175 199 62
175 198 80
176 199 67
176 200 88
174 197 67
176 200 80
173 197 67
174 198 80
174 198 67
175 198 62
175 198 51
175 198 80
173 198 88
175 199 62
173 197 51
173 197 62
172 196 57
171 195 57
171 195 67
172 196 76
173 197 67
173 196 57
173 198 72
173 198 95
174 197 72
171 195 57
169 194 76
175 198 80
174 197 51
171 195 67
173 198 80
165 190 72
172 195 62
174 197 67
170 195 62
173 196 57
173 196 67
173 197 62
170 194 67
173 196 67
173 196 67
173 197 76
175 198 67
172 196 95
167 190 72
172 195 84
172 195 72
168 190 62
169 192 72
167 190 80
171 194 62
169 192 84
173 195 62
169 191 88
170 192 92
169 191 72
173 195 84
166 187 67
168 190 67
173 194 92
172 192 111
172 193 102
166 187 51
161 183 72
158 180 67
154 175 36
146 166 0
148 169 0
149 171 0
149 169 0
148 169 0
147 168 0
151 173 0
151 173 0
156 178 0
157 179 36
162 184 25
169 190 76
167 190 57
172 194 76
172 195 57
169 192 0
163 186 0
169 192 0
169 193 0
169 192 0
167 190 0
168 191 0
168 192 0
164 188 0
168 191 0
167 191 0
159 182 0
163 187 0
166 189 0
162 186 0
162 185 0
163 187 0
168 192 0
165 189 0
166 190 0
166 189 0
164 187 0
127 150 67
52 83 95
54 86 94
55 87 95
54 86 84
51 82 80
55 88 103
55 87 97
57 90 102
56 89 103
55 88 100
55 88 99
54 85 90
57 89 97
55 88 95
54 86 95
56 88 90
54 85 108
53 84 94
54 86 92
57 89 108
57 90 114
56 89 95
53 85 95
56 89 99
56 89 108
56 88 105
55 87 95
55 87 107
59 92 118
54 86 105
57 90 111
54 86 102
57 90 105
56 89 99
55 86 108
56 89 110
53 85 97
55 87 102
55 87 102
56 89 113
55 86 105
52 83 90
54 86 94
57 89 111
54 86 95
56 89 118
55 87 105
56 89 108
54 86 100
56 88 107
54 86 95
54 86 102
54 86 93
53 84 95
55 87 96
56 87 100
53 84 95
57 89 111
53 85 94
55 87 105
57 88 112
52 82 96
51 80 92
55 87 107
55 85 86
55 86 94
50 78 74
53 83 82
53 83 93
53 82 92
50 79 81
54 84 92
51 80 94
52 81 94
52 82 89
50 78 94
48 76 66
48 75 79
47 73 71
50 78 89
120 138 29
157 177 0
154 175 0
161 182 0
161 181 0
159 179 0
157 178 0
157 177 0
155 177 0
157 176 0
160 179 0
160 181 0
158 178 0
165 186 0
160 179 0
159 179 0
160 180 0
159 179 0
162 182 0
166 186 0
160 180 0
162 180 0
160 180 0
148 161 19
95 90 28
92 87 31
78 76 19
86 82 23
80 76 14
84 82 18
93 91 18
76 73 3
79 77 14
85 84 8
86 84 8
94 92 5
92 87 0
91 89 11
95 94 18
99 95 14
97 96 16
103 100 14
93 91 14
110 107 22
100 97 25
110 106 18
120 115 28
109 104 21
113 110 14
103 102 21
120 117 25
112 109 28
116 113 29
120 116 26
120 114 24
105 102 16
119 115 25
119 115 32
128 125 38
128 124 29
127 123 28
123 121 26
130 125 28
127 124 34
132 126 37
127 121 37
123 121 30
132 128 35
128 122 34
131 128 31
133 128 36
136 131 26
137 133 39
135 131 40
136 131 39
135 129 30
134 129 41
139 135 34
143 137 45
141 135 45
141 136 41
144 138 45
144 138 39
147 139 45
140 135 52
143 137 50
144 138 51
136 131 37
144 138 48
141 136 37
144 138 48
144 135 53
145 139 41
146 140 45
140 136 42
146 140 49
143 138 47
143 138 41
153 146 59
144 138 39
140 133 45
140 134 42
139 134 44
146 141 52
149 143 45
154 147 52
143 138 44
143 138 41
152 146 47
141 136 51
145 140 49
150 143 47
151 146 48
147 141 52
146 142 41
145 138 49
142 137 44
147 142 41
145 138 54
145 140 44
150 145 51
146 140 53
144 137 45
148 141 45
151 146 53
153 146 61
145 138 49
149 143 53
148 141 49
151 144 53
152 146 48
147 139 56
152 146 56
143 138 52
151 144 62
152 146 58
156 149 61
138 132 52
148 142 53
148 141 60
146 141 53
151 145 57
144 139 47
141 136 48
149 142 56
143 138 53
146 140 52
141 136 42
145 139 56
146 138 60
144 137 52
144 137 58
140 134 47
139 133 48
150 144 59
152 145 52
143 137 57
141 134 49
149 142 56
145 138 58
173 197 0
173 197 25
174 197 0
174 198 0
173 196 0
171 195 0
173 196 0
173 196 0
174 197 0
172 196 0
174 197 0
173 196 0
177 200 72
177 200 76
182 204 95
181 203 92
180 202 92
180 202 84
177 200 72
177 200 72
181 203 102
184 205 120
182 203 107
182 204 114
177 200 102
182 204 111
180 201 88
180 202 88
178 200 80
177 200 92
180 202 95
174 198 72
179 202 88
179 201 99
177 200 72
175 198 67
177 201 95
178 201 102
174 197 72
175 198 76
178 201 88
172 196 51
173 196 57
172 196 80
174 198 67
177 200 76
175 198 67
175 198 62
176 200 88
174 198 67
172 196 72
176 200 88
173 197 62
175 199 62
175 199 84
174 198 72
171 195 62
174 198 62
175 198 36
177 200 80
173 197 76
176 199 80
175 200 80
175 199 92
172 195 62
175 199 67
174 198 84
174 198 76
170 194 72
172 197 62
175 198 67
172 196 76
174 197 76
172 195 36
171 196 62
169 193 57
172 195 51
171 194 72
170 194 72
169 193 51
171 196 72
174 199 95
170 194 57
173 196 67
170 194 62
171 194 72
173 197 84
170 193 44
171 194 51
171 195 76
172 196 72
171 195 80
171 194 51
172 195 51
168 192 51
169 193 51
174 198 67
170 193 67
171 194 80
172 195 62
171 194 67
169 193 84
172 195 76
169 191 57
174 197 72
170 192 67
169 190 76
166 189 67
167 190 76
164 188 76
170 192 76
168 189 105
166 187 67
165 186 108
173 193 114
166 187 76
167 188 95
163 185 84
162 183 62
161 182 84
152 173 25
147 168 0
149 170 0
151 172 0
158 179 0
155 177 0
152 173 0
151 173 0
153 175 0
156 179 0
156 179 0
166 188 25
161 184 36
167 190 51
174 197 92
177 199 84
167 191 0
163 187 0
168 191 0
169 192 0
165 189 0
168 192 0
168 191 0
165 189 0
166 189 0
163 188 0
169 191 0
165 189 0
165 189 0
166 190 0
169 192 0
163 186 0
160 184 0
165 189 0
163 187 0
157 182 0
161 184 0
163 186 0
159 181 0
159 183 0
103 128 90
56 89 103
52 83 88
55 88 97
57 89 103
55 87 90
55 87 95
54 85 88
54 87 97
54 87 90
52 83 88
55 87 107
55 87 94
55 87 84
55 88 95
55 87 94
55 87 113
55 87 94
54 86 107
54 87 86
52 84 90
54 86 94
57 90 107
57 90 108
55 87 99
56 89 99
54 87 94
56 89 108
57 90 110
55 87 90
56 89 105
55 87 97
56 89 108
54 86 99
53 85 92
55 87 94
55 87 113
55 88 102
52 83 84
54 85 107
56 89 95
55 88 99
56 88 102
56 88 115
54 86 99
55 86 105
56 88 107
55 88 105
57 89 110
54 85 102
54 85 97
55 87 99
56 88 103
56 88 105
53 84 86
55 86 100
54 86 94
54 85 90
54 84 102
54 84 101
53 84 105
52 83 99
54 86 102
51 80 85
54 84 99
52 82 88
53 83 104
53 83 97
53 84 95
50 79 89
53 82 95
50 78 74
53 83 85
52 81 89
47 72 70
48 75 81
49 77 75
49 77 78
47 73 70
113 134 51
155 176 0
154 174 0
154 175 0
151 172 0
156 175 0
157 177 0
160 180 0
157 177 0
157 176 0
162 182 0
159 179 0
156 176 0
161 180 0
161 182 0
161 180 0
162 182 0
161 181 0
156 175 0
157 177 0
160 179 0
165 186 0
165 187 0
164 184 0
161 181 0
131 142 22
80 77 22
107 102 34
72 69 0
89 84 18
78 75 25
82 79 11
88 86 14
85 82 8
73 71 5
94 90 19
92 88 3
86 85 19
85 82 8
86 84 9
99 95 0
101 98 8
107 103 16
100 98 19
99 95 3
102 100 8
107 104 22
105 102 26
114 111 28
111 106 14
106 102 21
103 100 24
109 105 22
120 115 30
110 108 22
110 107 11
123 119 26
121 117 25
124 120 28
119 113 29
105 103 18
120 117 30
125 121 22
123 119 21
128 123 30
126 121 34
130 125 34
131 127 34
130 125 37
139 133 36
132 127 37
134 127 36
129 124 33
137 132 30
134 129 37
135 131 36
137 132 42
135 130 36
140 135 37
136 132 30
140 135 32
137 132 30
142 137 44
143 137 49
143 137 44
138 134 36
143 135 41
149 142 42
148 142 37
144 140 42
141 134 42
141 135 34
143 139 37
144 138 41
144 139 30
142 136 37
143 137 48
151 145 39
138 133 36
148 142 48
146 138 51
140 134 41
142 138 41
144 138 48
143 137 44
145 140 45
143 137 39
146 139 52
143 137 32
147 142 45
138 134 37
144 139 49
149 142 53
145 139 47
148 141 53
157 150 58
142 136 48
141 136 48
148 141 52
147 142 48
153 146 54
154 147 56
148 142 52
139 133 41
144 136 48
147 140 49
147 141 51
143 138 49
144 139 49
148 142 56
149 143 53
143 137 54
149 143 51
144 138 51
147 140 47
147 139 49
145 139 51
147 142 54
140 135 48
140 135 49
146 139 57
147 140 48
147 141 54
144 138 49
151 144 58
143 137 48
145 139 53
141 135 51
138 133 47
139 133 51
144 139 49
143 138 42
140 135 51
139 134 41
139 134 48
140 132 49
143 136 52
138 132 48
140 136 48
145 140 54
137 130 45
172 196 0
174 197 0
173 196 0
171 195 0
174 198 0
174 197 0
175 197 0
171 194 0
171 195 0
171 195 0
172 195 0
168 193 0
172 196 0
175 198 57
177 200 88
174 198 62
177 200 72
182 203 102
177 200 80
177 200 67
178 200 67
179 202 92
185 206 120
183 205 108
178 201 84
183 205 108
174 197 76
180 203 108
177 200 76
178 201 84
179 201 95
174 198 76
177 200 72
179 202 108
176 199 76
179 202 92
177 200 76
175 198 76
172 197 72
176 199 76
173 197 51
176 200 84
174 198 62
174 198 72
177 201 99
173 196 76
174 197 84
170 193 62
177 200 76
175 199 80
176 199 36
175 199 88
174 198 76
176 200 80
175 198 80
174 197 57
175 198 57
174 198 57
175 199 62
173 196 62
173 196 62
175 197 62
174 197 72
175 199 62
173 197 51
172 196 76
172 195 72
172 196 72
174 197 57
172 196 57
171 196 67
174 198 76
173 196 51
172 196 67
173 197 44
169 194 67
173 197 76
171 195 72
173 196 62
172 195 76
171 195 72
173 196 67
174 197 62
173 197 88
169 193 62
171 194 62
171 194 76
169 192 44
174 198 88
171 194 72
170 193 62
170 194 67
166 189 72
171 194 62
173 195 57
174 197 62
166 189 62
170 193 67
168 192 80
174 195 51
170 193 67
174 197 72
170 193 67
169 191 51
172 194 84
169 191 72
171 192 95
164 185 99
174 196 80
160 182 72
165 187 99
170 191 88
171 192 105
173 193 108
162 183 84
164 187 72
171 192 80
162 184 67
159 181 51
151 172 0
156 177 0
150 171 0
149 171 0
152 173 0
154 175 0
153 174 0
153 175 0
145 167 0
157 178 0
157 179 0
154 177 25
162 185 44
166 189 51
164 187 36
172 193 99
164 187 0
163 187 0
167 192 0
166 189 0
165 188 0
167 190 0
167 191 0
165 189 0
168 190 0
166 190 0
158 181 0
162 185 0
162 185 0
167 190 0
163 187 0
161 183 0
164 187 0
162 185 0
161 184 0
164 187 0
158 181 0
165 188 0
163 187 0
157 180 0
166 189 0
157 180 0
99 123 72
52 83 90
56 88 103
53 85 88
51 81 92
55 87 99
55 87 102
55 88 90
55 87 97
54 86 88
52 83 92
55 86 99
53 85 88
54 86 88
55 88 92
54 85 97
57 90 108
55 87 105
55 87 94
55 88 100
54 86 97
56 89 95
54 86 82
55 88 99
57 90 95
55 87 102
57 90 107
57 90 110
55 86 92
56 89 104
55 87 84
56 88 114
55 87 94
54 85 94
55 88 92
55 87 95
57 90 110
55 87 97
56 89 102
55 88 105
55 88 100
54 85 102
56 89 96
55 87 108
56 87 108
56 89 103
56 88 107
54 86 95
55 87 97
56 88 97
53 84 89
55 86 95
55 86 108
54 85 98
52 82 94
54 85 94
57 90 103
53 82 97
54 85 109
52 82 94
54 85 97
51 81 84
53 83 103
51 81 95
52 82 83
54 84 94
53 84 96
53 83 85
51 80 88
50 79 79
50 78 79
51 80 90
52 81 95
50 78 91
48 76 71
47 74 74
47 73 70
89 108 49
151 171 0
149 167 0
153 172 0
154 176 0
155 176 0
156 177 0
154 171 0
156 177 0
152 171 0
160 181 0
160 178 0
153 171 0
155 174 0
160 177 0
152 170 0
160 180 0
151 171 0
157 173 0
156 176 0
155 175 0
158 178 0
155 174 0
163 182 0
159 175 0
149 167 0
158 178 0
124 131 16
100 94 35
85 79 19
86 81 22
85 81 19
71 69 11
90 86 16
81 78 8
87 84 14
84 80 12
82 80 8
95 93 18
80 77 6
93 89 8
101 97 5
99 95 11
86 85 11
86 83 11
97 95 0
94 91 14
112 109 12
97 95 16
103 101 22
116 112 16
117 112 26
119 115 18
111 107 20
116 114 18
118 114 22
122 118 20
121 116 19
113 111 26
126 122 26
122 119 25
128 123 24
111 108 25
124 120 26
118 114 31
126 120 30
119 115 31
131 125 30
137 130 24
129 125 26
126 121 28
129 125 16
133 128 32
128 123 28
129 124 35
138 133 36
132 127 37
138 132 45
137 132 39
133 128 37
138 134 36
144 139 35
145 141 41
134 130 38
133 127 32
135 129 36
146 141 32
136 130 34
143 136 45
141 135 30
146 139 36
136 131 48
139 132 41
142 136 37
137 133 41
137 132 39
140 134 47
140 134 36
138 132 39
140 134 39
145 139 42
150 143 53
135 130 25
147 142 42
150 143 47
141 135 42
145 139 52
145 139 44
138 133 44
146 140 47
148 143 48
149 143 49
152 146 44
150 144 49
144 138 47
151 146 39
147 142 41
138 132 39
145 139 49
143 138 39
142 135 48
145 140 49
147 140 52
146 140 51
146 141 39
145 137 51
150 144 48
143 138 53
131 127 37
149 143 54
146 140 45
143 139 51
151 144 54
146 140 47
140 134 49
138 131 51
146 140 56
148 141 48
152 145 63
139 133 47
145 138 51
144 137 54
140 134 48
142 137 48
145 138 53
145 138 48
148 142 56
146 141 56
138 132 47
143 137 54
147 141 53
144 136 53
132 127 51
144 138 52
141 135 58
141 135 57
138 132 56
139 133 56
144 137 63
144 138 56
147 140 53
136 129 49
172 196 0
174 198 0
172 196 0
172 195 0
172 196 0
175 198 0
174 196 0
174 198 0
172 196 0
174 197 0
172 196 0
172 196 0
174 197 0
172 196 0
174 197 25
175 198 62
179 201 92
175 199 44
180 202 84
182 203 102
177 200 72
177 200 80
176 198 76
177 200 72
181 203 99
183 205 122
180 203 111
175 198 67
179 201 99
178 200 88
181 203 105
180 202 99
175 198 84
178 201 76
178 201 80
176 198 92
175 198 76
172 195 67
177 201 88
177 200 84
176 200 76
174 198 76
175 198 67
174 197 51
176 199 72
176 199 80
174 197 76
172 197 44
175 199 76
173 196 67
174 198 62
175 198 57
175 199 62
174 197 67
174 197 67
174 198 80
175 199 80
170 194 44
171 194 51
174 197 88
175 198 57
174 198 72
172 195 62
177 201 88
173 198 92
173 196 76
173 197 57
173 196 67
174 197 62
173 197 62
174 197 51
171 194 76
174 198 72
174 198 76
176 198 51
171 194 62
173 196 80
174 197 62
170 193 51
170 193 57
175 198 67
174 197 62
173 197 57
172 195 72
170 193 76
167 191 67
172 194 44
169 193 72
172 195 72
172 194 67
173 196 67
170 192 44
172 195 72
169 192 62
169 192 51
175 197 72
168 191 67
169 192 92
174 197 76
170 193 76
172 193 62
169 192 76
171 193 76
170 191 67
171 193 99
169 191 88
173 195 80
173 195 84
171 193 84
168 190 84
170 191 88
169 189 105
174 193 102
168 190 72
166 187 88
161 182 67
164 185 84
146 166 25
151 172 0
155 177 0
154 174 0
157 179 0
155 176 0
153 174 0
154 175 0
157 179 0
158 180 0
154 176 0
155 178 0
161 184 0
162 184 44
169 191 57
171 193 51
174 195 88
166 188 0
166 188 0
163 186 0
167 190 0
162 185 0
162 184 0
163 186 0
161 184 0
161 185 0
161 184 0
162 186 0
164 187 0
160 184 0
162 186 0
162 185 0
161 184 0
160 182 0
160 184 0
162 185 0
161 184 0
155 179 0
155 179 0
159 181 0
160 183 0
158 181 0
155 178 0
161 184 0
154 177 0
82 107 60
51 82 76
54 86 88
54 86 95
54 86 97
53 85 92
55 87 92
55 87 100
55 87 92
57 89 107
52 83 84
55 87 99
56 88 102
55 88 92
57 90 113
55 87 97
55 87 95
54 86 97
56 88 97
54 85 95
54 86 92
55 86 97
56 89 107
56 89 108
56 88 99
57 90 108
57 89 107
55 88 97
53 85 97
56 88 105
54 86 92
56 88 105
55 87 105
55 87 103
54 85 97
57 89 113
56 89 117
55 87 100
54 86 99
55 87 90
55 87 103
57 90 117
54 86 99
54 86 95
53 84 96
55 87 95
54 86 103
54 86 90
55 87 97
54 86 107
54 85 97
53 83 107
57 89 114
54 85 97
54 85 99
55 87 108
55 87 103
53 83 97
55 87 97
51 81 82
54 85 94
53 84 91
54 85 94
53 83 97
51 80 88
52 82 99
49 78 78
51 80 80
52 81 93
50 78 81
50 77 90
50 77 93
52 81 90
46 72 72
45 71 70
62 83 60
143 162 0
146 166 0
147 167 0
151 169 0
148 167 0
152 171 0
151 169 0
153 171 0
141 158 0
153 173 0
150 170 0
144 163 0
151 171 0
152 172 0
146 164 0
146 165 0
152 170 0
158 178 0
154 173 0
154 172 0
152 171 0
157 174 0
158 176 0
151 168 0
151 166 0
146 161 0
157 176 0
158 175 0
121 128 24
92 87 31
87 82 25
91 86 24
90 86 19
85 83 11
80 76 0
87 83 11
83 80 16
92 88 0
87 83 8
92 88 8
102 97 14
94 91 0
89 87 14
96 93 14
98 95 0
95 92 16
116 112 18
111 107 25
110 106 16
104 100 19
106 103 16
95 93 14
113 110 19
111 106 25
115 110 25
104 101 21
114 111 23
111 107 12
111 108 18
120 114 16
123 119 22
127 123 22
123 119 21
123 119 24
125 121 22
126 122 20
125 119 30
128 123 30
132 125 31
129 126 28
131 126 32
123 119 30
129 122 32
129 126 33
129 125 30
135 130 32
134 130 24
131 127 30
129 123 36
138 133 31
142 135 37
136 130 37
133 128 32
138 133 30
132 128 36
144 138 41
139 134 37
135 131 32
138 135 32
138 133 32
145 141 35
145 138 41
146 140 41
143 137 41
146 141 37
137 132 34
144 139 39
139 135 42
141 136 36
141 136 42
144 139 39
148 141 45
146 140 44
145 141 36
143 137 36
142 137 39
142 137 42
149 142 48
144 138 42
144 138 39
141 135 44
154 147 44
143 138 41
151 144 49
139 133 45
145 139 45
141 136 48
139 132 37
147 141 48
147 141 45
143 138 42
143 136 45
145 140 44
131 125 34
149 142 54
148 142 48
141 136 42
144 139 47
152 146 54
146 139 51
145 138 47
143 137 42
140 135 42
148 143 53
146 140 52
140 135 41
144 138 47
145 139 59
148 141 52
136 130 42
147 142 45
147 141 49
146 140 49
152 146 53
143 137 56
140 134 45
149 143 58
136 131 44
138 132 47
141 134 53
146 140 58
145 139 51
140 134 51
133 128 41
141 134 54
144 138 45
132 126 51
140 133 56
133 128 48
142 137 51
139 134 57
141 135 53
174 197 0
174 197 0
174 197 0
169 193 0
172 194 0
173 196 0
174 197 0
173 195 0
173 196 0
172 195 0
173 197 0
174 197 0
175 197 0
175 197 0
170 194 0
170 194 0
172 196 44
172 195 51
174 197 62
177 199 76
173 196 72
178 200 76
176 199 76
176 198 57
175 198 67
179 202 99
178 200 99
179 201 108
182 204 117
178 200 76
179 201 88
178 201 88
179 201 99
177 200 88
177 200 92
176 199 67
175 199 76
175 198 67
176 200 62
174 198 76
176 199 88
175 198 80
176 200 72
173 196 57
174 197 67
177 200 80
174 198 67
171 196 57
177 200 80
177 200 84
176 199 80
175 198 76
176 199 88
172 197 72
174 198 84
176 200 72
174 197 76
174 197 62
172 196 72
175 199 88
172 195 57
175 198 62
172 196 76
175 198 62
175 198 57
171 196 80
174 197 57
170 194 62
176 200 76
175 197 80
174 197 84
173 197 84
173 197 72
173 196 62
173 196 57
169 193 72
174 197 62
174 197 84
171 194 51
173 197 62
173 196 84
173 197 80
171 193 44
171 193 67
174 197 76
172 195 72
170 193 44
172 194 67
174 197 92
168 191 62
170 193 67
172 194 76
174 197 51
178 200 76
175 197 67
170 192 80
173 195 67
174 196 76
169 191 57
167 190 57
168 190 72
169 191 80
171 192 88
167 189 76
168 191 67
169 191 84
172 194 99
174 195 88
169 190 92
171 191 105
171 191 108
161 183 57
167 188 44
163 184 92
167 187 80
162 184 57
156 177 0
155 176 0
151 173 0
147 169 0
155 176 0
150 171 0
151 172 0
158 179 0
155 177 0
151 173 0
150 172 0
154 175 0
156 178 0
162 183 36
162 184 36
165 188 44
168 189 80
165 188 0
160 183 0
168 191 0
165 189 0
157 180 0
164 187 0
167 190 0
168 191 0
157 180 0
168 191 0
159 182 0
168 191 0
162 185 0
163 186 0
163 185 0
156 178 0
154 177 0
157 181 0
157 180 0
158 181 0
163 186 0
162 184 0
161 184 0
152 175 0
159 183 0
159 182 0
154 177 0
157 180 0
153 176 0
147 169 25
76 103 88
53 84 90
50 80 76
52 84 80
54 86 92
56 88 94
53 85 88
50 81 67
56 88 100
56 88 99
55 87 92
55 87 99
55 87 90
57 89 97
53 85 97
54 85 99
56 88 107
54 86 94
54 86 84
55 87 99
53 84 95
54 85 90
52 83 95
55 87 102
56 88 99
55 87 100
55 87 105
53 84 86
55 86 97
56 89 95
54 86 94
53 85 99
54 86 90
56 88 103
56 89 107
57 89 107
54 86 103
52 83 88
56 88 94
54 86 85
54 86 102
53 85 84
58 91 117
54 85 90
55 86 99
54 86 86
55 86 95
54 85 88
56 88 102
52 83 85
55 86 101
52 83 88
53 84 103
55 86 105
53 83 103
54 85 102
52 82 92
55 87 104
52 83 82
53 83 101
54 85 97
54 85 103
52 81 87
51 81 83
53 83 107
48 76 86
49 77 91
51 78 79
53 82 102
45 70 70
49 78 77
48 75 87
44 67 77
76 97 70
124 142 18
140 157 0
135 155 0
150 169 0
152 171 0
141 161 0
149 167 0
152 170 0
145 162 0
148 169 0
147 164 0
163 184 0
150 167 0
161 180 0
150 166 0
148 166 0
156 174 0
153 171 0
156 175 0
151 168 0
155 174 0
157 175 0
156 172 0
151 168 0
157 176 0
160 179 0
163 181 0
157 174 0
161 177 0
154 170 0
121 126 25
84 80 16
81 76 19
83 79 19
94 89 19
85 83 16
88 86 11
72 69 0
97 92 11
94 92 8
88 87 14
82 82 14
82 78 8
84 82 8
93 92 11
101 96 3
84 83 11
98 94 18
98 95 22
103 100 11
101 96 8
106 102 0
110 105 14
107 104 14
104 101 21
108 103 20
117 112 22
113 108 18
117 112 22
117 111 16
113 110 19
116 112 25
119 113 22
119 116 22
120 115 19
112 109 19
129 125 31
123 119 22
122 118 25
137 132 29
124 120 29
123 118 32
129 125 22
122 117 31
127 123 30
123 118 28
141 135 37
134 128 26
132 126 22
131 125 30
128 123 30
123 117 19
128 124 21
133 128 28
143 137 34
127 120 34
139 135 34
134 128 42
140 135 32
138 130 36
142 135 36
139 133 42
137 131 37
139 134 32
144 138 37
139 134 45
134 129 36
132 128 28
144 138 41
148 142 45
139 133 44
147 141 39
141 136 37
147 140 44
138 130 39
143 136 45
143 136 44
146 139 37
148 139 53
144 139 41
145 139 36
144 138 42
150 142 47
140 135 45
146 140 44
152 145 53
138 134 37
145 138 47
138 131 39
139 133 47
142 136 44
137 131 47
152 145 58
145 138 53
140 135 44
142 137 37
143 136 45
145 139 45
142 136 41
153 146 54
143 137 51
147 141 49
136 131 47
141 135 45
140 134 47
153 146 56
138 133 39
151 144 51
147 142 48
154 147 57
141 135 41
145 139 53
146 139 53
141 134 48
131 126 48
141 135 44
137 130 36
136 131 39
142 137 39
145 139 51
141 136 45
137 131 45
144 138 49
139 133 45
139 133 47
144 138 54
149 144 56
138 133 53
144 138 45
135 129 49
142 136 53
143 138 51
141 135 51
173 197 0
173 197 0
173 196 0
174 198 0
173 196 0
171 195 0
174 198 0
171 195 0
173 196 0
173 197 0
173 196 0
171 195 0
172 196 0
170 193 0
173 196 0
172 196 0
173 196 0
172 195 0
175 198 51
175 198 67
179 201 80
180 202 99
177 199 95
179 201 76
177 199 72
179 201 84
176 199 57
178 201 92
185 206 125
183 205 105
182 203 105
182 204 95
183 204 114
179 201 102
177 200 84
178 200 95
180 202 105
177 200 80
182 204 105
175 198 67
178 200 88
180 202 88
175 198 72
175 198 76
176 200 72
177 200 88
177 200 76
175 198 84
175 198 67
174 198 80
177 200 76
172 196 72
174 197 67
175 198 80
173 196 76
175 199 67
174 198 72
174 197 51
174 198 84
176 199 80
174 197 80
173 196 62
175 198 72
174 198 62
174 198 76
177 200 67
173 196 76
171 194 72
175 198 95
175 198 76
173 197 84
175 199 84
174 197 84
170 193 36
172 195 67
173 196 51
177 199 62
172 196 67
173 196 72
175 197 80
171 194 62
172 195 72
169 192 80
176 198 67
174 197 62
171 193 62
171 193 57
170 194 80
176 198 84
176 197 51
172 194 62
173 195 36
175 198 76
173 194 57
170 192 62
171 192 62
171 193 62
174 196 80
171 193 72
173 195 76
174 194 67
168 189 44
173 194 88
164 186 57
170 191 92
167 188 92
170 191 99
174 194 88
163 183 84
168 188 84
166 187 92
165 185 76
161 182 51
154 175 80
149 170 0
152 173 0
146 167 0
154 175 0
153 175 0
153 174 0
156 177 0
157 178 0
157 178 0
155 177 0
163 184 0
161 182 0
158 181 0
160 182 25
167 190 51
165 188 36
171 193 80
172 193 84
161 183 0
162 185 0
167 189 0
162 185 0
163 186 0
162 185 0
165 187 0
161 184 0
160 183 0
162 186 0
161 184 0
164 187 0
162 185 0
162 185 0
159 181 0
161 184 0
160 183 0
160 183 0
157 179 0
160 184 0
157 181 0
164 186 0
152 175 0
165 187 0
154 177 0
154 177 0
158 180 0
155 178 0
159 182 0
148 170 0
146 168 0
145 167 18
75 100 74
51 82 82
54 86 82
52 83 80
54 87 88
52 82 88
53 84 80
54 86 86
55 86 100
54 85 90
53 85 92
53 84 90
55 87 102
54 86 95
53 85 94
52 83 78
56 88 99
56 89 95
53 85 90
55 87 99
53 84 88
58 90 108
54 86 82
55 88 90
54 85 94
54 86 95
56 88 110
53 84 82
55 87 99
56 89 114
56 88 107
53 83 90
55 86 92
53 84 86
54 86 92
50 80 79
53 85 80
53 83 99
54 86 103
52 82 86
56 89 102
54 85 94
56 88 94
55 87 100
54 85 105
56 88 99
56 88 102
53 84 97
57 89 105
55 88 94
52 82 88
54 86 94
54 85 105
52 83 84
55 86 103
49 78 81
53 83 100
51 80 86
52 82 85
52 82 92
51 80 85
50 79 91
52 81 94
51 79 90
49 76 81
50 78 85
50 78 74
52 81 94
46 72 75
50 77 76
48 74 71
66 88 61
132 150 8
139 157 0
141 159 0
137 155 0
143 159 0
138 156 0
146 165 0
145 162 0
144 161 0
138 154 0
141 158 0
139 156 0
148 167 0
148 164 0
148 167 0
144 162 0
146 163 0
146 164 0
152 169 0
149 165 0
144 159 0
147 165 0
148 163 0
155 171 0
145 161 0
153 168 0
152 166 0
158 174 0
154 170 0
159 176 0
147 163 0
158 176 0
122 130 19
93 87 19
90 88 19
72 67 0
91 87 21
78 74 11
101 96 2
81 76 11
85 80 11
86 83 12
92 87 0
93 90 0
93 88 0
97 93 8
94 91 8
101 97 11
105 102 14
98 94 8
104 102 16
106 101 11
110 105 0
113 107 0
111 105 11
111 105 20
115 109 0
112 108 21
114 109 16
120 114 22
113 108 16
120 114 19
116 112 19
111 108 18
115 111 21
117 113 18
124 119 28
118 114 19
122 116 25
126 121 28
122 116 25
127 123 22
125 120 22
125 121 19
131 126 34
125 119 26
132 127 32
132 127 28
130 125 21
135 129 32
141 134 37
140 135 34
131 126 28
125 121 11
132 128 25
124 120 22
134 128 28
130 126 25
137 130 36
135 131 37
146 139 34
136 130 32
141 135 41
146 138 44
140 134 41
132 127 30
134 130 25
142 135 37
134 129 22
137 132 28
138 133 44
144 136 42
144 137 37
137 132 32
141 135 39
148 140 49
135 129 42
142 137 34
140 134 45
141 135 42
144 138 32
139 133 39
145 140 47
144 137 44
140 134 32
141 135 44
132 127 30
140 136 28
145 139 52
141 135 41
142 135 42
141 135 47
149 141 48
153 144 49
148 142 44
141 135 45
148 140 45
138 132 34
147 141 49
136 130 36
142 136 42
137 130 42
141 137 47
151 143 52
141 135 37
150 142 48
136 131 42
141 135 45
145 138 53
133 128 39
147 141 53
148 142 51
142 137 45
142 136 56
149 142 60
147 141 51
143 137 53
138 134 44
139 134 49
143 137 53
140 134 47
137 132 47
146 139 61
138 132 44
139 133 45
139 134 48
141 135 44
137 131 49
141 136 51
141 134 56
144 137 49
138 132 48
140 133 48
128 121 45
175 198 0
172 195 0
175 198 0
174 197 0
175 198 0
173 197 0
173 196 0
171 195 0
173 197 0
173 197 0
173 196 0
174 197 0
171 194 0
172 196 0
172 195 0
174 197 0
173 195 0
171 194 0
171 195 0
174 197 44
176 199 57
180 201 92
177 200 62
176 199 80
179 201 80
176 199 92
184 206 120
179 201 88
176 199 67
182 203 99
181 202 111
181 202 95
180 203 102
179 201 102
182 203 114
176 199 72
179 201 99
175 198 99
177 200 95
178 201 80
174 198 76
178 201 92
176 199 80
177 199 80
172 196 72
177 200 84
175 199 80
176 199 80
176 198 57
173 197 72
175 197 72
176 199 67
177 199 99
172 195 67
176 199 92
174 197 72
172 195 25
174 196 80
174 197 57
176 199 84
174 198 67
171 195 67
174 198 84
172 195 36
175 198 62
174 197 80
176 199 76
177 199 72
175 198 72
172 196 80
170 194 80
173 196 80
171 195 76
171 194 76
177 199 76
172 195 88
174 197 62
176 199 84
175 198 72
172 195 80
174 196 57
171 194 92
171 194 76
174 196 76
172 194 80
176 199 72
172 195 76
177 198 67
173 195 57
172 194 92
172 193 51
167 189 80
177 198 67
172 194 76
174 195 76
172 194 62
172 194 76
174 196 88
166 189 88
168 189 62
173 195 84
172 194 102
174 195 92
175 195 88
174 194 95
174 194 95
171 192 88
168 188 84
167 188 99
160 181 51
166 187 76
155 176 72
159 180 44
154 175 0
155 176 0
158 179 0
157 178 0
158 179 0
155 176 0
155 176 0
151 171 0
156 177 0
158 180 0
163 185 25
156 177 0
155 176 25
157 180 36
158 180 25
163 186 51
162 184 57
172 193 84
164 187 0
166 189 0
165 189 0
163 186 0
157 181 0
165 188 0
158 180 0
160 183 0
161 184 0
155 177 0
164 187 0
163 186 0
155 178 0
164 187 0
166 189 0
165 186 0
160 181 0
149 171 0
155 177 0
163 186 0
164 186 0
159 182 0
154 176 0
158 181 0
149 172 0
147 169 0
155 176 0
155 178 0
150 172 0
154 177 0
143 165 0
152 174 0
148 170 0
139 162 18
79 105 65
55 86 94
49 79 70
53 83 90
51 82 74
53 84 92
53 84 88
52 83 95
53 85 94
53 85 94
54 86 90
54 86 86
54 85 94
54 86 92
55 86 100
54 86 99
54 86 97
56 88 97
55 87 102
55 87 90
53 84 92
54 86 92
54 85 108
53 84 90
56 89 95
51 83 78
55 87 100
55 88 100
56 89 107
52 83 84
53 84 80
54 85 97
53 85 82
55 87 97
54 86 95
54 86 84
53 85 88
54 86 92
54 86 105
53 84 86
55 87 94
54 85 92
54 85 95
52 82 86
54 85 99
55 86 103
53 83 90
50 79 80
52 83 92
51 81 94
54 86 103
51 81 84
53 83 96
54 84 89
51 80 76
53 83 82
52 83 88
53 83 95
53 84 94
51 80 94
51 80 90
51 81 86
49 77 84
49 76 70
48 75 83
48 75 77
48 76 68
48 75 79
49 76 63
77 95 37
134 151 18
132 148 0
136 151 0
138 156 0
143 161 0
135 153 0
139 155 0
147 165 0
138 156 0
144 162 0
138 154 0
142 158 0
139 154 0
150 166 0
145 162 0
143 158 0
148 165 0
143 163 0
149 165 0
142 157 0
147 163 0
148 166 0
137 153 0
144 160 0
151 168 0
143 159 0
146 160 0
139 155 0
151 167 0
147 159 0
146 162 0
146 162 0
149 165 0
156 170 0
134 144 16
90 85 19
83 79 18
89 84 14
79 75 12
84 79 8
84 81 11
91 87 16
91 88 8
94 91 14
92 87 12
92 87 0
100 95 0
97 93 3
97 91 3
100 97 14
92 89 0
102 99 14
95 92 0
108 105 12
115 110 0
104 99 0
109 104 22
109 104 0
110 106 14
97 94 11
109 104 24
110 107 16
114 110 0
120 116 14
116 111 28
122 117 24
126 120 20
130 124 30
126 121 18
118 114 14
126 119 24
115 112 18
120 117 29
121 116 18
130 124 22
129 123 26
123 119 21
125 121 16
130 124 19
116 112 16
130 124 25
128 123 24
133 127 30
129 124 24
135 129 39
137 132 32
133 129 25
137 132 28
131 127 19
136 130 34
133 129 25
140 134 28
138 130 36
143 136 39
141 136 30
135 129 34
139 132 39
139 134 32
141 135 30
141 136 25
140 135 32
140 135 41
140 135 39
139 133 36
133 128 34
142 136 44
144 137 36
137 131 36
133 128 28
137 133 28
145 139 37
141 134 28
136 130 39
141 135 36
144 138 45
148 141 54
145 139 44
139 133 39
133 127 32
141 137 28
148 143 45
144 138 47
142 136 41
138 132 42
138 133 39
136 129 37
147 140 45
146 139 48
144 139 42
140 135 39
141 135 34
146 139 54
134 129 41
138 131 44
144 138 48
144 138 49
141 136 45
137 132 41
144 138 49
130 124 41
133 127 39
139 132 41
135 129 39
138 132 39
143 137 47
138 132 48
131 126 39
141 135 44
148 140 57
150 142 52
134 128 47
137 131 52
141 134 52
137 131 52
133 128 42
143 137 51
134 129 45
144 137 53
135 129 49
129 124 44
129 123 41
145 138 56
136 130 52
141 135 51
137 130 51
173 197 0
173 196 0
175 198 25
175 197 0
173 197 0
174 198 0
172 196 0
173 196 0
173 197 0
173 196 0
173 197 0
172 196 0
170 194 0
175 198 25
173 197 0
172 195 0
173 196 0
172 195 0
171 194 0
175 198 0
171 194 0
174 197 36
176 199 62
175 198 62
175 197 72
180 202 92
174 197 76
177 200 84
179 202 92
177 199 57
175 198 57
176 199 76
182 204 117
182 203 125
180 202 102
178 200 95
183 204 102
180 202 95
177 199 67
178 201 84
174 197 51
181 202 99
181 203 102
176 198 57
176 198 67
177 200 72
179 202 95
175 199 80
173 196 88
174 197 76
175 198 62
180 202 92
176 199 88
174 197 62
178 200 72
175 198 80
175 198 95
174 197 67
174 197 72
177 200 92
177 200 88
175 197 76
174 197 67
175 198 62
173 196 67
176 199 62
176 199 76
173 196 62
174 196 72
176 199 80
175 197 62
173 196 62
176 199 57
175 198 76
173 195 88
175 198 84
176 198 62
177 199 76
168 189 62
175 197 76
175 197 62
174 195 67
170 192 67
175 197 72
175 196 72
175 197 92
174 197 84
170 192 72
172 195 95
176 198 76
176 198 92
171 193 80
170 191 67
172 192 44
172 193 76
176 196 67
173 195 80
172 192 76
172 193 92
170 191 72
171 191 105
175 196 99
168 189 80
168 189 88
172 192 92
163 184 62
167 189 72
166 186 72
168 189 72
155 175 57
155 177 25
153 174 0
147 168 0
158 179 0
150 172 0
158 179 0
153 175 0
159 181 0
152 173 0
159 181 0
148 168 0
157 178 0
158 179 0
158 180 0
155 176 0
162 184 36
160 182 44
160 182 44
172 194 57
167 189 57
160 183 0
164 187 0
162 184 0
165 188 0
164 187 0
165 187 0
162 185 0
164 186 0
165 187 0
158 181 0
152 176 0
158 180 0
156 179 0
159 183 0
154 176 0
166 187 0
162 185 0
160 182 0
149 170 0
158 180 0
156 179 0
153 176 0
154 176 0
160 182 0
152 174 0
150 173 0
151 173 0
150 172 0
147 169 0
149 171 0
148 171 0
150 173 0
151 174 0
142 164 0
142 165 0
138 160 0
98 120 62
52 83 70
53 85 76
53 85 97
54 86 94
54 85 78
53 84 84
54 86 86
52 82 92
54 85 86
52 84 86
54 85 88
54 86 90
54 86 94
50 79 84
54 85 92
53 84 82
55 87 99
54 86 95
51 81 86
52 83 78
53 84 88
54 85 90
55 87 94
54 85 82
52 83 84
53 85 97
53 84 84
56 88 99
53 85 86
55 87 90
56 88 100
54 85 94
51 82 88
53 85 90
54 85 90
51 82 86
54 85 105
54 86 100
50 81 90
54 86 102
54 86 97
52 82 72
52 83 92
52 82 95
52 83 97
48 77 86
53 83 88
51 80 99
54 85 97
55 86 105
53 83 88
51 81 82
53 83 99
51 79 85
56 87 105
50 79 81
51 81 78
51 80 77
50 79 79
49 77 85
47 74 67
49 76 80
49 77 70
49 76 88
46 72 63
44 68 67
82 99 44
130 147 0
130 146 0
137 155 0
134 151 0
135 151 0
136 154 0
130 148 0
136 152 0
139 155 0
137 155 0
132 149 0
138 153 0
140 158 0
133 150 0
136 152 0
135 149 0
146 163 0
139 155 0
144 160 0
140 156 0
141 155 0
137 152 0
143 157 0
144 158 0
146 163 0
153 169 0
151 167 0
140 155 0
143 157 0
147 160 0
151 166 0
146 157 0
149 163 0
141 157 0
151 167 0
148 163 0
126 137 11
91 85 25
80 77 16
83 79 14
89 86 24
74 72 11
86 83 14
77 72 18
94 89 14
91 87 0
77 73 0
90 87 11
95 91 14
91 86 11
99 96 11
97 94 11
99 94 0
105 101 14
110 104 11
98 95 0
104 99 11
102 98 3
105 101 0
109 104 14
101 97 8
114 108 16
114 110 18
114 109 0
120 115 16
116 112 19
118 112 16
118 112 11
111 106 14
120 115 19
121 116 11
120 115 28
119 113 22
115 110 14
122 117 22
124 120 11
119 114 22
131 126 22
125 121 21
121 116 16
128 123 22
130 124 22
128 123 24
128 123 25
130 125 28
135 130 28
131 126 28
131 126 32
140 134 25
128 124 22
130 125 22
130 125 39
135 130 32
138 132 28
140 133 36
133 127 28
136 130 30
138 132 34
135 129 34
134 128 39
143 138 30
138 132 28
140 134 34
145 138 41
135 128 34
133 127 34
140 134 36
144 138 41
140 134 37
140 135 22
137 130 30
136 131 37
143 137 39
136 131 36
136 130 34
141 136 37
135 129 37
139 133 37
141 136 36
140 135 36
140 135 32
136 131 34
133 129 32
147 140 41
143 137 42
141 136 34
143 137 41
136 129 44
137 131 34
135 128 41
138 132 42
134 128 32
137 130 44
133 128 34
143 137 44
145 139 44
134 128 42
138 132 41
136 130 42
142 136 41
146 139 49
136 131 36
137 130 44
137 133 39
136 131 42
136 130 39
143 136 47
138 133 45
148 142 52
131 124 48
135 130 36
137 131 45
135 129 37
134 129 41
136 131 49
134 127 56
137 131 48
147 140 51
138 132 47
135 129 47
137 131 57
137 131 45
136 129 47
140 134 54
137 131 45
139 133 45
174 197 0
172 196 0
173 196 0
173 197 0
174 198 25
173 197 0
173 197 0
175 198 0
170 195 0
173 196 0
173 196 0
175 198 0
174 197 0
172 195 0
172 196 0
175 198 0
173 196 0
172 196 0
173 196 0
171 194 0
170 193 0
172 196 0
171 194 0
169 192 44
178 200 76
178 200 72
180 202 88
179 201 84
179 201 88
180 202 102
178 201 67
174 197 67
173 196 57
177 200 92
181 202 95
183 204 125
179 201 92
178 201 92
179 201 99
178 201 102
181 203 95
176 198 80
176 199 67
177 199 92
179 202 88
180 202 102
178 201 99
178 200 105
180 202 105
176 198 67
178 200 80
178 200 99
179 201 99
172 194 76
175 198 72
175 199 72
176 199 84
178 200 88
174 196 67
177 199 76
174 197 72
175 198 84
172 196 76
176 198 67
175 198 80
178 201 92
176 198 72
175 198 76
175 198 80
177 199 84
175 198 84
173 196 84
175 198 62
174 196 80
177 199 88
174 196 67
174 196 80
175 198 102
174 196 84
176 197 88
179 201 102
171 194 76
176 198 80
176 198 80
174 196 67
173 196 99
174 194 57
173 195 76
167 188 62
172 193 80
176 197 67
177 199 92
171 193 76
175 197 108
172 192 80
172 192 95
176 196 88
174 194 88
175 195 92
169 189 92
169 190 111
172 192 102
165 186 72
158 180 51
164 185 67
164 185 84
171 192 92
161 183 72
161 182 25
148 170 0
156 178 0
158 180 0
158 180 0
160 182 0
158 179 0
163 184 0
152 174 0
158 180 0
164 185 0
156 177 0
162 183 0
150 171 0
157 178 0
160 181 25
156 178 25
166 188 44
162 184 51
174 195 76
164 186 44
162 185 0
159 182 0
166 188 0
161 184 0
163 186 0
160 182 0
158 181 0
158 181 0
163 186 0
161 183 0
161 184 0
161 184 0
153 175 0
160 182 0
161 184 0
155 176 0
158 182 0
151 172 0
162 185 0
149 171 0
147 170 0
161 183 0
154 176 0
153 176 0
159 181 0
150 172 0
148 170 0
145 167 0
147 169 0
146 168 0
139 161 0
144 165 0
139 161 0
140 162 0
148 169 0
139 160 0
136 158 0
142 164 0
105 126 31
52 81 65
51 82 80
52 84 74
50 80 82
51 81 83
53 84 90
51 81 78
53 84 102
53 84 86
55 87 94
53 85 97
51 81 97
53 84 90
52 83 84
51 81 78
53 85 99
55 87 90
52 83 84
54 85 84
52 83 86
52 84 84
52 83 94
54 87 90
53 84 88
52 83 82
55 87 102
55 86 94
53 84 97
53 84 99
55 87 110
51 81 90
52 83 94
54 85 94
54 85 100
52 81 82
49 78 82
51 81 86
53 83 99
53 84 86
51 81 80
51 82 75
52 82 88
50 80 81
52 82 84
54 86 88
52 82 99
54 85 99
53 84 99
51 81 84
53 83 90
51 80 94
53 83 84
48 77 76
50 80 88
50 79 85
52 81 90
53 82 97
49 76 81
49 77 63
50 79 74
46 70 80
48 76 79
46 73 72
44 68 68
87 104 57
130 146 0
126 142 0
120 137 0
136 153 0
137 157 0
134 151 0
132 147 0
137 155 0
133 149 0
140 157 0
132 149 0
140 156 0
135 152 0
140 156 0
126 142 0
132 146 0
129 144 0
150 166 0
139 153 0
128 143 0
135 149 0
142 157 0
127 141 0
143 157 0
140 155 0
132 146 0
137 151 0
137 149 0
140 153 0
146 160 0
140 153 0
142 156 0
140 152 0
146 160 0
142 154 0
144 157 0
143 156 0
144 155 0
129 137 16
91 88 18
88 83 25
101 96 22
82 79 11
82 80 0
88 86 0
76 72 14
89 85 11
81 78 0
89 83 0
89 86 8
92 89 11
91 87 8
95 91 8
98 94 14
94 90 0
97 92 11
108 103 0
106 101 2
97 92 0
109 105 0
109 101 16
101 96 8
112 108 16
112 109 0
113 107 14
109 106 3
111 105 11
108 104 24
118 114 18
102 98 18
116 112 18
126 121 16
118 111 16
126 122 29
115 111 18
123 117 19
127 120 24
128 124 16
129 123 25
122 117 16
125 119 28
134 129 28
122 117 25
132 126 22
119 115 22
120 116 19
129 125 19
138 132 25
133 128 30
130 124 28
136 131 34
140 134 28
125 118 25
133 128 25
126 122 25
136 129 32
132 128 25
139 133 34
134 126 32
136 128 30
138 131 32
133 127 28
135 129 30
137 131 30
136 130 25
140 135 37
136 131 34
140 135 30
134 131 30
141 134 39
139 134 39
134 128 34
134 128 36
135 129 42
140 134 32
139 132 34
135 129 39
133 127 36
144 139 39
135 130 39
141 135 42
141 135 39
138 132 32
134 127 36
146 140 45
136 131 37
134 127 37
137 131 44
145 139 51
136 130 39
142 136 44
137 130 48
131 125 42
137 131 36
139 134 42
139 133 45
137 133 39
141 135 44
142 137 52
139 133 44
135 130 42
152 145 49
138 130 41
142 135 42
134 128 45
140 134 48
131 127 36
142 137 47
140 134 47
138 131 51
141 135 41
133 127 44
131 125 41
140 134 48
136 130 45
139 132 54
134 128 41
134 130 44
140 134 51
135 130 39
128 122 42
140 135 49
141 136 49
134 129 45
141 135 48
135 127 53
137 130 45
173 197 0
173 197 0
170 194 0
174 197 0
172 195 0
171 195 0
173 197 0
175 197 0
172 195 0
170 193 0
172 196 0
171 195 0
172 196 0
174 197 0
173 197 0
173 197 0
172 195 0
171 195 0
174 198 0
166 190 0
171 195 0
171 194 0
174 197 0
168 192 0
171 194 0
172 195 36
176 199 62
176 199 99
174 196 80
179 201 84
177 199 95
180 202 95
178 200 80
173 196 62
172 195 62
176 198 72
173 196 57
180 201 102
180 202 108
186 207 128
176 198 92
179 201 108
181 203 111
181 202 88
182 203 108
174 197 88
179 201 92
180 202 108
177 199 92
176 199 105
180 202 108
178 201 95
175 197 84
177 199 108
177 199 80
179 202 76
177 199 95
177 199 84
177 199 72
175 198 72
171 193 72
177 199 88
177 199 92
176 199 99
175 198 84
175 197 88
177 199 72
176 199 88
174 196 51
172 193 67
175 198 76
173 195 67
176 198 80
176 197 76
174 195 72
174 196 92
174 196 88
173 195 72
172 195 80
176 197 72
175 197 105
170 192 62
175 197 84
173 194 72
174 195 67
179 200 92
174 195 84
171 192 62
175 196 88
173 194 95
171 192 120
172 193 105
169 190 117
181 200 111
178 200 99
172 193 84
170 191 99
172 193 120
170 191 92
172 193 72
163 184 51
168 188 67
166 186 76
167 188 84
168 189 72
167 188 62
158 178 25
154 174 0
158 178 0
153 175 0
156 177 0
157 178 0
156 178 0
158 179 0
146 168 0
149 170 0
160 181 0
163 184 0
155 175 0
159 181 0
148 169 0
155 177 0
161 182 44
163 185 44
171 191 62
165 187 44
169 191 67
166 188 36
158 180 0
159 181 0
162 184 0
160 182 0
161 184 0
163 185 0
162 184 0
160 183 0
151 174 0
162 184 0
162 185 0
155 177 0
159 182 0
159 180 0
158 179 0
154 177 0
159 181 0
158 181 0
160 182 0
153 175 0
150 173 0
155 178 0
152 175 0
150 172 0
152 174 0
144 165 0
150 173 0
151 174 0
148 170 0
151 173 0
145 167 0
140 162 0
146 167 0
145 166 0
153 175 0
132 152 0
145 167 0
136 158 0
127 148 0
132 152 0
117 138 44
55 84 74
49 80 70
52 82 90
50 81 76
52 84 70
52 82 90
54 85 84
52 83 88
51 81 76
52 83 78
52 83 90
51 82 88
55 88 97
50 79 67
52 84 90
51 81 80
53 84 88
52 83 86
53 84 90
54 85 86
53 83 76
52 83 82
52 82 95
54 85 95
51 81 92
50 80 78
52 83 94
54 85 97
54 85 99
55 86 103
51 81 86
52 82 82
53 84 90
51 81 84
54 85 95
54 85 100
52 83 82
52 83 88
53 83 90
51 81 80
50 80 86
51 80 87
49 79 78
53 85 94
51 81 80
50 79 88
50 79 78
52 83 92
51 80 89
51 81 92
51 80 92
50 80 88
52 82 94
48 76 85
47 74 72
46 73 70
50 78 83
50 79 72
46 73 72
47 74 77
47 74 74
47 68 41
100 116 25
120 135 0
128 141 0
114 130 0
123 138 0
120 133 0
127 142 0
128 145 0
129 146 0
132 149 0
123 140 0
141 155 0
128 143 0
128 144 0
131 147 0
135 151 0
131 147 0
138 151 0
134 148 0
133 148 0
139 153 0
130 143 0
136 149 0
135 151 0
127 142 0
131 145 0
133 145 0
141 156 0
141 152 0
144 156 0
142 156 0
137 148 0
144 157 0
147 162 0
144 157 0
144 158 0
133 144 0
145 156 0
122 130 0
142 156 0
139 150 0
143 155 11
102 102 11
97 90 19
92 86 16
80 77 11
80 76 16
89 84 14
94 90 11
83 78 19
82 80 14
83 79 0
94 89 0
98 91 11
99 95 0
88 82 3
89 85 0
97 93 0
101 96 14
93 88 0
96 93 0
112 106 0
103 99 0
111 106 0
115 111 11
105 99 8
110 105 11
106 102 0
108 104 14
118 113 21
116 112 18
119 114 0
106 102 11
110 106 14
110 105 8
123 119 11
122 118 16
122 118 29
128 123 19
106 102 16
119 114 20
120 115 22
128 124 19
121 116 21
128 124 0
124 119 0
124 119 11
130 125 19
127 122 16
131 127 25
130 126 22
128 124 30
131 125 25
128 123 22
133 127 28
135 131 16
132 127 32
136 130 28
126 121 30
134 129 25
132 126 34
143 135 42
134 127 28
130 124 34
136 131 30
128 122 22
129 124 32
140 135 30
134 129 25
141 135 37
136 129 41
136 130 30
139 133 37
137 132 28
141 135 37
131 125 30
138 132 37
141 136 36
135 129 34
131 125 28
144 138 39
150 144 45
139 132 37
139 131 39
131 124 39
135 130 36
133 128 37
141 135 42
135 129 39
145 139 42
136 130 42
143 137 45
139 133 37
135 130 32
144 140 37
129 123 36
144 139 48
143 137 30
138 132 42
128 121 39
138 132 42
139 134 39
135 128 42
135 129 41
137 131 39
146 140 45
136 130 37
135 129 51
144 138 41
140 135 42
141 134 48
143 136 52
134 129 32
145 138 45
133 128 41
149 142 60
136 131 39
132 126 39
146 140 56
138 132 37
139 134 47
136 130 45
138 130 42
132 128 44
136 130 44
132 127 41
139 133 45
133 127 51
140 134 53
172 195 0
174 197 0
175 198 0
171 195 25
173 197 0
172 195 0
174 197 0
175 197 0
174 197 0
171 195 0
172 195 0
171 194 0
171 195 0
174 197 0
172 195 0
173 196 0
170 193 0
172 195 0
172 195 0
173 196 0
175 198 0
171 193 0
173 195 0
171 194 0
172 195 0
174 197 0
170 193 0
171 193 36
169 192 36
177 200 76
178 200 67
177 200 62
177 200 92
176 199 62
180 202 84
177 199 84
176 199 67
178 200 76
175 197 80
175 197 51
179 201 88
181 202 99
182 203 108
181 202 111
183 203 120
180 202 108
178 200 92
180 201 80
180 202 105
176 198 72
175 197 80
176 198 80
178 199 88
175 197 88
176 198 84
176 198 62
180 201 88
177 198 80
179 200 80
175 197 76
177 199 84
175 197 72
176 199 76
177 198 57
178 199 88
177 198 80
174 196 88
177 199 99
176 198 72
174 196 76
173 196 76
172 193 76
175 196 84
172 194 84
175 197 88
172 193 72
174 196 84
174 195 67
173 194 84
172 193 80
175 196 80
172 193 92
177 199 92
174 195 76
170 191 72
174 196 88
176 196 102
172 193 67
176 197 105
171 192 99
172 193 76
176 197 99
174 195 105
178 198 111
172 193 102
169 190 99
168 188 88
170 191 76
169 190 62
171 192 80
167 188 62
169 190 51
164 185 80
163 184 0
165 186 36
154 175 0
164 185 0
154 175 0
156 176 0
158 179 0
157 178 0
159 180 0
153 173 0
155 177 0
159 180 0
154 175 0
158 179 0
160 182 0
151 172 0
161 181 0
155 176 0
149 171 25
163 184 51
164 186 51
168 190 44
170 191 72
164 187 25
164 186 0
161 183 0
165 188 0
161 184 0
157 180 0
166 189 0
158 181 0
163 185 0
158 180 0
163 185 0
158 179 0
159 181 0
151 174 0
159 181 0
157 178 0
160 182 0
152 175 0
160 182 0
149 171 0
155 177 0
150 172 0
158 180 0
153 176 0
150 172 0
148 170 0
148 171 0
145 167 0
143 163 0
147 169 0
155 177 0
135 156 0
140 162 0
147 169 0
143 163 0
135 156 0
138 157 0
143 164 0
132 152 0
134 154 0
122 143 0
133 153 0
135 156 0
129 149 25
75 99 65
49 79 70
51 81 78
49 78 76
55 87 84
50 80 70
51 82 72
53 84 94
52 83 86
51 81 70
50 80 76
49 78 80
51 82 84
51 82 78
48 78 62
50 80 86
54 86 97
52 82 82
52 83 84
53 84 86
52 82 84
53 84 90
50 80 76
52 83 95
53 84 84
51 82 88
54 85 99
53 84 80
54 85 90
53 84 96
49 78 88
52 82 92
53 83 99
51 82 86
55 86 92
50 80 76
52 82 88
53 84 94
51 82 88
52 83 84
50 79 90
51 81 74
51 80 90
50 80 82
51 81 92
51 80 84
50 80 86
50 80 94
49 78 76
49 78 76
49 78 78
48 76 70
47 75 62
46 73 60
49 76 72
49 77 73
50 78 72
45 71 57
44 69 57
73 92 57
119 136 0
117 132 0
114 127 0
119 133 0
108 123 0
119 135 0
128 144 0
117 133 0
127 142 0
127 140 0
126 141 0
122 136 0
121 136 0
124 139 0
133 150 0
127 143 0
112 126 0
120 137 0
123 137 0
133 149 0
129 143 0
129 143 0
129 139 0
135 149 0
132 145 0
134 148 0
139 153 0
128 143 0
131 144 0
128 138 0
131 145 0
127 139 0
139 153 0
140 152 0
125 135 0
136 147 0
135 149 0
134 144 0
136 147 0
134 145 0
135 145 0
133 144 0
130 139 0
136 144 0
108 112 19
85 79 22
75 71 11
81 77 0
93 88 11
83 78 0
100 95 16
94 87 8
94 89 8
79 76 8
88 82 3
88 83 0
90 84 0
108 104 3
96 92 8
100 95 0
97 94 8
98 94 0
99 96 0
104 98 0
94 89 8
110 105 8
111 105 16
111 106 0
118 112 0
100 96 0
115 111 11
114 111 0
115 109 11
122 116 19
112 108 8
124 119 25
117 113 16
119 114 11
125 120 19
118 114 16
121 116 11
118 112 14
121 118 11
124 118 18
125 119 16
117 113 16
127 121 19
126 119 16
130 123 19
128 123 11
119 114 14
135 129 25
124 119 25
131 125 25
130 123 25
133 128 22
127 120 28
131 126 28
133 128 30
131 125 25
130 124 32
136 130 28
127 121 22
123 118 25
131 125 30
132 126 28
128 123 28
134 129 28
135 129 37
128 121 22
129 123 22
137 131 32
133 127 22
143 137 32
136 131 32
136 130 37
131 126 34
132 125 34
127 120 28
131 125 25
146 140 32
129 123 34
142 137 36
137 130 44
135 130 36
138 132 39
140 133 52
141 134 39
136 130 37
141 133 41
131 125 34
138 132 37
140 134 39
132 124 44
142 136 47
139 133 37
141 134 37
138 132 32
133 128 37
146 139 44
140 135 44
142 135 48
141 134 54
131 126 32
138 130 37
141 134 45
128 123 41
141 135 49
144 139 52
137 130 42
139 133 51
131 125 42
131 127 42
136 130 44
133 127 42
143 136 47
133 127 41
139 133 47
135 130 52
141 135 51
132 125 41
141 135 51
136 130 41
138 130 53
134 128 52
128 121 42
136 130 54
132 126 36
138 132 47
129 124 51
173 196 0
171 195 0
173 196 0
171 194 0
173 197 0
174 197 0
173 196 0
173 197 0
172 195 0
172 195 0
169 193 0
172 196 0
173 197 0
173 196 0
175 198 0
175 197 0
173 196 0
173 196 0
174 197 0
172 195 0
171 195 0
174 196 0
171 195 0
174 197 0
173 195 0
174 197 0
171 194 0
171 195 0
169 192 0
174 197 0
171 194 25
172 194 51
177 199 76
173 196 62
177 199 80
177 199 88
176 199 80
178 200 92
174 196 57
174 196 72
177 199 62
174 196 72
179 200 92
180 201 95
180 201 80
178 200 102
179 200 111
179 200 95
178 200 95
182 204 108
177 199 72
179 201 88
180 202 95
183 203 105
180 201 92
178 200 84
185 205 111
179 200 92
178 200 80
177 199 88
175 196 72
177 200 88
178 200 72
179 202 105
177 198 84
174 195 84
177 198 76
175 196 76
176 197 88
180 201 92
178 199 108
180 201 88
175 196 88
177 198 57
175 196 84
173 194 80
173 194 72
170 192 76
174 195 72
175 196 108
174 195 84
171 192 105
173 193 84
170 191 67
173 194 88
173 193 102
172 192 72
175 195 105
175 196 99
179 200 111
173 193 105
175 195 105
175 196 92
170 191 88
168 189 62
167 187 76
165 186 51
167 189 76
167 188 84
163 184 67
171 192 80
163 185 36
153 174 0
154 175 0
154 174 0
158 179 0
161 182 0
157 178 0
156 177 0
158 179 0
154 176 0
161 181 0
148 169 0
159 179 0
162 183 0
165 185 25
155 176 0
159 180 0
158 178 0
154 177 0
165 186 36
170 191 62
157 180 0
164 186 62
165 187 62
158 180 0
160 182 0
162 184 0
162 185 0
154 174 0
161 184 0
160 183 0
156 178 0
161 183 0
157 178 0
160 182 0
155 178 0
149 170 0
150 173 0
160 181 0
153 176 0
156 179 0
146 168 0
153 176 0
153 176 0
148 169 0
151 174 0
152 174 0
149 170 0
147 168 0
149 171 0
146 168 0
145 167 0
154 175 0
154 175 0
145 166 0
140 162 0
145 166 0
133 154 0
140 161 0
146 167 0
141 161 0
135 156 0
131 152 0
142 163 0
131 151 0
129 149 0
127 147 0
129 149 0
130 150 0
118 138 18
86 109 57
56 83 74
50 80 84
49 79 76
52 83 72
49 78 65
51 82 84
51 81 74
51 81 74
49 79 76
53 84 78
51 81 86
52 82 84
52 83 86
51 81 84
50 80 74
51 80 86
52 83 88
53 85 82
53 84 86
48 78 72
52 82 78
50 79 72
54 85 97
51 81 86
52 83 82
52 83 99
51 81 97
52 83 78
51 81 74
52 83 80
54 85 102
52 82 94
52 83 97
50 80 78
52 83 78
52 82 86
46 73 68
51 81 88
53 84 92
52 82 83
49 78 67
46 73 72
48 75 70
49 79 79
47 75 78
51 80 72
47 75 74
46 73 60
48 75 78
48 75 88
48 75 68
49 78 66
47 75 70
44 69 57
44 70 60
43 68 68
92 109 44
110 123 0
106 121 0
111 124 0
118 131 0
104 118 0
118 133 0
125 141 0
117 128 0
116 129 0
126 140 0
130 146 0
121 135 0
116 130 0
133 147 0
119 133 0
125 140 0
127 141 0
123 139 0
130 142 0
135 150 0
121 135 0
129 143 0
129 143 0
130 145 0
125 139 0
132 144 0
133 146 0
126 138 0
122 135 0
130 144 0
137 150 0
129 143 0
125 136 0
122 131 0
131 140 0
129 138 0
133 144 0
124 135 0
134 143 0
130 138 0
137 148 0
139 147 0
141 150 0
136 143 0
134 143 0
132 142 0
128 134 0
85 80 19
68 63 0
88 83 19
72 69 12
91 87 14
90 86 0
93 87 11
96 91 8
93 88 0
94 91 0
103 97 11
90 82 0
85 79 8
94 89 0
100 93 0
92 86 0
99 94 0
102 96 12
95 89 0
99 95 8
103 97 8
102 97 8
106 101 0
104 99 0
110 105 11
112 107 0
106 102 0
107 103 0
113 107 0
122 114 16
108 103 0
118 111 11
119 112 11
119 114 11
118 112 19
120 115 14
116 112 11
122 115 11
124 120 0
123 118 14
124 119 16
131 125 16
122 118 19
129 123 16
121 115 25
120 115 16
128 123 22
133 127 16
130 124 28
126 122 16
126 120 22
132 126 34
124 119 11
133 128 16
131 124 30
124 120 16
124 118 19
139 132 28
127 121 22
133 128 25
133 127 28
132 125 30
136 130 34
137 130 30
136 130 30
138 134 22
135 129 25
138 134 22
130 125 34
139 132 32
139 132 37
128 124 32
130 125 28
138 132 37
135 129 30
130 124 36
134 128 16
131 126 32
138 131 36
137 129 42
143 135 30
130 124 32
137 131 41
132 126 37
141 134 42
136 129 32
141 134 28
142 135 42
135 129 28
139 134 39
134 126 32
135 129 36
142 136 42
133 126 32
133 126 41
136 131 39
133 126 37
137 130 45
128 123 32
134 128 34
132 126 42
137 130 48
124 118 37
135 130 41
132 127 34
135 130 48
135 130 42
137 133 37
132 126 41
141 135 44
130 124 37
130 125 39
129 122 41
133 127 42
140 133 51
133 127 42
145 138 58
132 127 37
140 133 49
138 131 49
135 128 51
138 129 57
129 123 44
133 128 44
173 196 0
170 193 0
173 196 0
173 196 0
174 197 0
173 197 0
173 196 0
172 195 0
174 197 0
170 194 0
171 194 0
173 195 0
172 196 0
172 196 0
174 197 0
171 194 0
172 194 0
173 196 0
172 195 0
170 193 0
173 196 0
173 196 0
170 195 0
173 195 0
170 193 0
171 193 0
172 195 0
171 194 0
171 195 0
172 195 0
173 196 0
172 195 0
174 196 25
174 196 57
176 198 67
176 198 72
175 198 67
179 201 84
176 198 84
174 196 57
176 198 76
177 199 67
176 198 76
173 196 57
176 199 51
176 199 57
177 199 51
175 198 72
181 202 99
179 200 95
180 201 95
181 201 111
180 201 84
182 203 95
180 201 120
179 200 88
180 200 95
176 197 84
180 201 84
181 202 117
179 201 95
172 194 84
179 200 114
179 199 92
174 195 80
178 199 84
172 194 88
178 199 92
175 196 72
174 194 57
179 200 99
178 198 95
178 198 88
179 199 105
178 198 114
174 195 84
176 197 92
173 194 92
176 196 95
172 192 76
167 189 80
173 194 102
177 198 111
173 193 80
175 195 117
181 201 108
172 193 88
174 194 80
169 190 72
167 188 80
169 190 72
170 192 95
166 187 44
171 192 76
163 184 84
177 197 80
169 190 62
166 187 62
169 189 25
157 179 0
156 177 0
161 183 0
164 185 0
162 183 0
159 180 0
151 172 0
162 182 0
159 181 0
162 183 0
158 179 0
159 181 0
156 177 0
155 176 0
160 181 0
156 177 0
163 185 0
158 181 0
159 180 0
166 187 44
167 189 36
161 183 0
166 187 36
172 193 62
166 187 44
164 186 0
151 174 0
160 182 0
157 179 0
149 171 0
160 183 0
159 181 0
165 186 0
162 184 0
162 184 0
164 186 0
155 177 0
162 184 0
150 171 0
154 176 0
153 175 0
153 175 0
152 174 0
154 176 0
151 173 0
148 169 0
153 175 0
142 163 0
145 168 0
152 174 0
149 171 0
147 168 0
149 172 0
154 174 0
152 173 0
146 167 0
139 160 0
143 165 0
138 159 0
133 154 0
138 159 0
136 156 0
129 151 0
133 154 0
140 160 0
131 151 0
133 153 0
121 141 0
132 152 0
123 142 0
131 150 0
121 140 0
115 135 0
112 131 25
66 90 57
48 77 74
49 79 70
44 72 67
51 80 80
51 81 86
48 77 65
50 79 72
48 78 78
49 79 70
50 79 82
50 79 82
51 81 80
52 82 86
50 79 80
49 79 74
49 79 78
52 82 92
50 80 76
49 78 78
53 84 80
53 84 92
52 83 84
51 80 86
52 82 97
52 83 82
52 84 74
48 77 62
54 85 90
50 80 84
52 82 90
52 82 72
50 79 78
50 78 80
51 80 82
52 82 80
50 79 78
50 79 84
49 78 72
51 81 86
47 75 76
49 77 72
50 79 80
48 76 74
46 73 57
50 78 89
48 76 76
49 78 84
46 73 67
46 73 51
45 72 74
44 69 61
43 68 75
63 81 57
86 99 31
109 122 0
111 123 0
104 116 0
100 114 0
124 139 0
112 125 0
121 137 0
114 126 0
110 125 0
118 131 0
113 127 0
123 137 0
125 140 0
123 137 0
131 146 0
116 129 0
123 137 0
128 141 0
128 142 0
126 142 0
126 142 0
125 137 0
125 140 0
120 131 0
123 136 0
122 134 0
140 155 0
126 138 0
123 136 0
136 151 0
119 129 0
135 146 0
130 142 0
129 142 0
135 145 0
137 149 0
138 144 0
127 139 0
125 133 0
122 128 0
123 128 0
134 144 0
133 142 0
136 145 0
124 129 0
125 133 0
137 143 0
132 138 0
135 142 11
99 95 19
73 69 22
83 78 11
95 89 16
66 60 0
85 77 0
75 69 0
89 85 0
84 77 11
92 86 11
86 80 0
103 95 0
104 99 0
98 92 0
95 91 0
105 98 0
98 90 0
103 99 0
96 91 0
99 93 0
93 88 0
103 98 8
108 103 0
111 104 0
114 109 0
109 103 8
108 104 0
110 104 0
107 103 0
111 105 0
113 109 0
112 108 11
108 102 0
115 110 11
118 112 16
119 111 11
116 110 11
119 115 16
130 125 0
119 114 11
120 115 11
123 117 16
125 120 11
133 126 22
126 119 22
127 121 25
126 121 19
122 116 22
119 112 11
131 125 19
127 121 19
124 118 16
130 125 16
122 117 11
133 127 28
130 123 30
131 124 30
130 124 30
135 128 32
135 128 34
141 134 30
127 121 28
128 122 25
136 131 30
135 128 28
134 127 30
135 130 28
126 120 25
132 126 37
128 122 19
128 123 41
141 133 37
135 128 25
137 132 34
137 130 28
132 127 34
128 122 34
143 135 41
135 130 32
142 135 41
142 136 41
135 129 37
127 122 25
142 135 45
134 126 39
128 123 28
129 125 34
134 128 36
139 132 47
136 131 34
130 125 36
137 132 42
132 126 32
131 126 36
133 128 36
122 118 19
143 137 52
135 128 41
138 133 39
133 127 39
138 131 45
130 124 41
133 127 34
126 120 37
136 130 39
134 128 36
127 122 45
139 133 47
124 119 32
123 117 42
139 133 45
144 136 52
136 130 44
138 133 37
135 130 45
136 130 47
131 124 37
123 117 41
135 129 45
137 130 49
137 131 48
137 130 54
130 124 41
173 196 0
175 198 0
173 196 0
174 197 0
171 195 0
171 195 0
174 197 25
169 193 25
174 197 0
175 198 0
173 196 0
170 194 0
174 197 0
173 196 0
173 197 0
177 199 0
172 195 0
173 196 0
171 195 0
169 192 0
173 196 0
174 197 0
170 193 0
172 196 0
172 195 0
170 193 0
172 194 0
169 192 0
171 194 0
173 196 0
169 193 0
172 195 0
172 194 0
172 194 0
173 196 0
170 193 0
174 197 44
176 198 44
173 195 67
175 198 67
178 200 76
173 195 67
177 198 67
174 196 72
180 201 88
180 201 105
181 202 102
176 198 84
175 197 62
177 198 80
175 198 57
173 195 72
175 197 92
176 198 92
181 201 105
177 199 92
179 200 102
182 202 111
179 200 92
180 201 111
184 205 114
181 201 99
182 203 111
175 196 80
181 203 95
181 201 108
180 201 102
178 199 72
177 197 102
178 199 95
179 200 125
176 197 80
180 200 102
181 201 125
181 201 111
176 197 120
182 201 114
178 197 95
179 198 102
178 199 105
175 195 92
175 197 88
172 195 80
173 193 62
166 188 62
165 187 62
171 192 84
175 196 67
168 189 72
171 192 84
172 192 76
171 192 76
168 190 51
167 190 84
160 181 51
157 177 51
163 185 25
160 181 0
160 181 0
165 186 0
160 182 0
167 188 0
156 177 0
155 176 0
162 183 0
159 180 0
159 180 0
154 175 0
156 177 0
152 173 0
154 175 25
155 176 0
161 182 0
166 186 36
162 183 0
159 180 0
164 186 25
161 182 36
158 180 51
169 190 44
155 177 44
167 188 62
169 191 44
158 179 0
161 182 0
166 188 0
157 179 0
158 179 0
157 180 0
156 177 0
155 177 0
158 180 0
158 181 0
156 177 0
156 177 0
162 184 0
160 182 0
155 177 0
148 170 0
157 180 0
150 172 0
156 178 0
157 179 0
155 176 0
154 176 0
159 180 0
155 178 0
152 173 0
144 167 0
150 172 0
150 170 0
151 172 0
142 163 0
145 168 0
146 167 0
137 158 0
138 160 0
140 161 0
133 155 0
139 160 0
129 151 0
129 150 0
138 159 0
133 153 0
131 150 0
138 158 0
135 155 0
126 146 0
124 143 0
120 138 0
114 132 0
117 137 0
117 135 0
120 139 0
86 106 40
68 91 67
49 78 72
49 78 70
49 78 72
47 76 67
48 77 62
47 75 72
48 76 60
50 79 82
51 81 80
50 80 76
49 78 76
53 84 86
50 79 86
48 77 76
50 80 80
48 78 70
48 77 57
52 83 82
50 79 80
52 83 82
52 82 82
50 80 76
49 78 80
50 80 72
51 80 94
52 83 88
49 78 84
50 79 74
50 79 67
49 78 60
51 80 92
47 75 76
50 79 82
48 76 71
49 79 86
49 78 74
48 77 84
48 77 72
48 77 70
47 75 67
48 76 76
47 75 74
44 70 60
46 73 65
45 71 65
41 66 57
45 71 42
44 69 67
55 74 57
79 93 44
97 109 0
99 112 0
98 112 0
99 113 0
96 108 0
104 117 0
105 118 0
116 131 0
109 125 0
104 115 0
105 118 0
104 115 0
108 124 0
112 126 0
123 138 0
114 127 0
118 132 0
123 137 0
124 136 0
127 141 0
125 138 0
132 147 0
126 141 0
126 139 0
129 141 0
130 144 0
126 137 0
128 142 0
135 150 0
123 137 0
123 133 0
125 133 0
138 152 0
126 135 0
128 138 0
123 134 0
128 140 0
128 138 0
124 133 0
135 145 0
123 132 0
117 126 0
119 125 0
121 129 0
122 126 0
123 129 0
117 124 0
123 128 0
122 128 0
129 137 0
133 138 0
132 136 0
105 102 19
82 76 19
66 61 0
84 78 0
83 77 11
93 86 11
87 81 0
92 85 0
90 86 0
78 75 0
84 78 0
101 95 0
90 87 0
96 90 0
94 88 8
104 98 0
101 96 0
95 90 0
93 89 8
112 104 0
100 95 0
105 98 0
113 107 8
111 104 0
104 99 0
109 101 11
123 117 8
104 99 0
107 100 0
114 109 0
120 114 0
122 116 0
117 112 0
119 111 16
121 116 11
126 121 0
119 114 11
110 105 11
120 115 11
125 121 22
119 114 0
127 120 19
131 124 16
125 120 0
125 120 22
121 117 11
125 119 22
121 117 0
123 118 16
126 121 19
137 130 25
129 122 22
121 115 19
125 120 16
132 125 22
133 128 16
125 121 16
130 125 22
125 119 30
138 130 30
128 121 22
125 119 19
128 123 25
133 128 19
128 122 22
139 134 32
131 123 22
129 125 32
135 128 25
136 131 37
134 127 36
132 127 37
132 126 32
126 120 32
126 121 11
130 125 25
129 124 22
134 128 36
134 129 28
130 124 28
135 129 30
136 130 41
136 129 39
126 122 36
138 132 30
134 127 34
132 126 39
128 121 37
135 128 39
130 124 32
131 126 41
134 129 32
138 133 32
131 125 36
139 132 41
137 132 32
134 128 37
134 127 45
139 132 39
128 121 34
133 127 32
142 136 47
129 123 37
124 118 28
139 133 52
127 120 32
135 128 44
138 132 47
127 121 36
140 132 52
121 114 36
136 129 47
127 120 41
131 124 51
127 122 36
129 126 30
129 124 37
139 132 45
138 131 42
131 125 48
122 116 42
132 125 42
169 193 0
174 197 0
171 195 0
174 197 0
170 194 0
172 196 0
176 198 0
172 196 0
172 196 0
174 198 0
174 198 0
171 195 0
172 195 0
174 197 0
172 194 25
172 195 0
172 194 0
173 197 0
170 194 0
173 197 0
170 193 0
172 194 0
172 195 0
171 195 0
174 197 0
173 195 0
171 194 0
171 194 0
176 198 0
173 196 0
173 195 0
172 195 0
169 193 0
173 195 0
170 192 0
171 194 0
171 194 0
170 192 0
171 194 0
173 195 36
179 201 80
177 198 80
175 197 76
172 194 72
178 200 80
177 199 84
175 197 72
171 193 72
178 200 76
180 201 105
172 195 62
175 196 62
177 199 72
174 195 88
177 199 80
175 196 67
171 193 72
175 197 76
173 194 72
174 195 67
179 199 95
178 199 72
175 197 92
172 192 62
177 198 84
178 198 84
180 200 102
174 196 67
177 198 95
176 197 84
175 194 99
178 198 99
177 197 99
172 193 57
173 194 76
177 198 92
178 198 84
170 193 76
168 190 57
172 193 76
173 195 57
171 191 62
174 195 84
174 194 92
165 187 72
173 194 92
169 190 72
171 192 88
171 192 88
168 189 80
170 191 72
171 192 62
166 187 0
164 186 0
161 182 0
164 186 0
161 182 0
164 185 0
163 184 0
160 182 0
157 179 0
156 177 0
167 187 0
164 184 0
159 180 0
154 173 0
161 182 0
158 179 0
159 180 0
154 175 0
160 181 0
162 183 0
162 183 0
163 183 0
160 182 0
168 189 57
166 187 36
168 189 62
168 190 51
169 190 67
161 183 36
165 186 0
152 173 0
159 180 0
157 180 0
159 179 0
155 176 0
164 186 0
154 176 0
155 176 0
155 178 0
161 182 0
157 179 0
160 180 0
153 174 0
162 183 0
157 178 0
159 180 0
151 173 0
150 171 0
152 174 0
153 176 0
154 176 0
155 177 0
149 171 0
145 166 0
152 173 0
144 165 0
154 175 0
146 167 0
150 172 0
157 179 0
142 162 0
139 161 0
136 157 0
137 158 0
147 167 0
133 154 0
130 150 0
140 161 0
141 162 0
130 150 0
135 155 0
134 155 0
115 134 0
127 148 0
123 142 0
114 134 0
116 135 0
110 129 0
124 144 0
116 134 0
101 119 0
117 134 0
102 119 0
98 116 0
73 90 31
61 86 57
46 74 80
48 77 76
46 74 70
45 72 62
46 74 72
46 73 60
50 80 86
46 75 72
46 74 74
48 76 78
50 80 86
49 78 65
48 77 65
46 74 70
46 74 72
50 80 76
48 78 62
50 80 88
50 79 86
52 82 80
49 78 67
50 80 74
50 79 76
51 80 82
49 78 84
48 77 70
51 81 88
50 80 92
48 77 67
48 77 74
50 80 67
50 80 81
48 77 80
47 74 74
46 73 72
49 78 80
49 78 80
47 74 75
45 71 70
47 73 75
45 71 68
46 74 70
47 74 68
42 67 57
51 71 36
65 79 31
93 103 0
87 99 0
97 110 0
94 107 0
104 117 0
106 120 0
97 110 0
99 111 0
112 124 0
107 119 0
118 131 0
120 132 0
120 134 0
107 118 0
114 127 0
130 145 0
113 128 0
114 126 0
104 115 0
117 129 0
112 123 0
127 142 0
112 125 0
120 132 0
130 143 0
127 138 0
124 139 0
125 136 0
127 138 0
125 137 0
120 131 0
113 125 0
118 130 0
124 135 0
128 138 0
124 135 0
116 127 0
113 119 0
124 135 0
113 123 0
128 137 0
117 124 0
115 123 0
117 122 0
119 126 0
120 129 0
124 131 0
122 129 0
120 126 0
123 129 0
120 124 0
115 118 0
125 128 0
130 134 0
122 127 0
122 125 16
91 87 11
84 80 16
88 81 19
91 86 16
92 85 0
90 83 0
88 82 0
92 87 11
90 84 11
92 87 0
92 85 11
101 94 0
103 96 11
102 98 0
107 100 0
90 85 0
102 96 0
100 94 0
104 99 0
106 99 0
94 91 0
113 108 0
107 101 11
104 96 0
115 107 0
110 106 0
109 104 0
115 110 0
113 107 0
122 115 0
111 105 0
115 108 0
102 96 8
118 114 0
117 111 11
110 105 0
116 110 0
124 118 0
121 116 16
123 117 16
120 113 16
126 120 19
123 116 16
116 111 11
122 115 22
118 112 16
130 124 11
120 114 19
120 116 16
132 126 25
127 122 0
139 132 32
124 118 28
133 128 22
128 121 30
127 120 16
127 122 19
119 113 11
139 131 25
123 119 16
132 125 22
129 124 25
128 121 28
132 126 28
129 123 30
122 116 22
129 122 28
131 124 28
128 122 22
124 119 25
137 130 36
130 123 30
129 125 28
129 123 25
128 124 32
142 136 37
135 129 37
135 129 36
134 127 37
141 135 41
136 129 37
129 122 30
128 122 36
136 128 25
128 122 22
130 124 34
140 134 39
136 131 32
127 122 32
145 138 45
134 129 37
136 129 51
135 128 39
133 127 28
133 128 36
134 127 37
131 124 44
137 131 28
139 132 44
134 127 37
136 131 39
125 119 37
131 123 41
133 127 41
133 127 34
136 129 44
128 122 34
134 128 48
134 128 44
138 132 42
132 127 42
137 131 49
130 124 44
135 129 45
135 128 45
129 123 45
136 129 44
126 120 44
125 119 34
132 127 48
172 196 0
172 196 0
170 194 0
173 196 25
170 194 0
174 197 0
172 196 0
173 196 0
173 196 0
172 195 0
172 195 0
173 196 25
170 193 0
172 194 0
173 196 0
173 196 25
173 196 0
172 195 0
174 197 0
171 195 0
174 197 0
174 197 0
170 194 0
174 197 0
171 194 0
173 195 0
172 195 0
175 198 0
171 194 0
172 194 0
174 196 0
170 194 0
171 193 0
174 196 0
170 193 0
173 196 0
173 195 0
171 193 0
174 196 0
170 192 0
173 195 0
169 191 0
170 193 0
174 197 36
177 199 51
170 193 51
173 195 57
179 200 76
172 194 57
177 200 88
176 198 51
174 195 76
178 199 76
176 198 88
174 196 76
176 197 80
176 198 84
181 202 84
176 197 84
173 194 72
177 198 57
175 198 92
174 195 57
176 197 76
178 199 84
175 196 67
177 199 84
175 196 72
174 196 80
175 197 80
175 196 99
171 193 67
175 196 84
177 198 84
175 197 99
170 191 72
174 195 72
176 196 67
172 193 80
173 194 76
172 192 80
175 196 88
169 189 62
170 191 72
171 192 67
166 188 57
165 187 67
161 182 25
158 180 25
163 185 0
163 184 0
170 191 0
163 184 0
165 186 0
159 181 0
164 186 0
162 184 0
162 183 0
160 181 0
166 187 0
159 180 0
161 182 0
164 184 0
161 182 0
157 178 0
163 183 0
158 180 0
160 182 0
156 177 0
158 179 0
160 180 0
160 182 0
154 174 0
157 179 44
162 183 25
157 178 57
162 183 36
168 188 80
166 187 51
164 185 25
163 184 0
161 182 0
155 177 0
155 176 0
157 179 0
162 183 0
159 179 0
162 184 0
160 181 0
149 171 0
160 181 0
157 179 0
154 175 0
147 167 0
155 176 0
153 175 0
157 178 0
147 170 0
154 175 0
149 170 0
153 174 0
148 169 0
154 175 0
147 169 0
142 164 0
151 173 0
147 169 0
144 165 0
148 170 0
140 161 0
145 167 0
151 172 0
147 167 0
143 163 0
135 155 0
130 150 0
139 160 0
134 155 0
127 148 0
133 154 0
137 156 0
133 153 0
126 144 0
130 149 0
133 153 0
120 140 0
131 150 0
127 146 0
131 149 0
108 127 0
106 125 0
116 135 0
105 123 0
109 127 0
96 113 0
113 129 0
99 115 0
92 109 0
68 87 31
71 93 62
45 73 62
46 74 60
48 77 67
45 72 67
47 75 60
47 75 62
45 73 67
48 76 76
47 76 72
49 79 72
48 76 76
50 80 76
48 77 54
45 73 72
48 77 74
46 74 65
51 81 74
48 76 80
48 77 65
48 76 82
49 79 76
51 81 80
48 76 76
48 76 80
48 77 80
47 75 78
47 76 72
49 79 70
48 77 80
52 82 86
48 77 72
48 76 70
50 79 70
49 77 74
47 74 60
47 75 63
45 72 70
42 67 51
45 71 75
39 63 41
60 78 60
76 90 31
81 90 0
96 106 0
82 94 0
81 90 0
84 96 0
89 102 0
101 111 0
99 111 0
112 125 0
100 112 0
103 117 0
102 115 0
103 115 0
109 121 0
119 132 0
104 116 0
120 134 0
98 111 0
115 124 0
113 127 0
114 128 0
132 144 0
113 127 0
113 126 0
118 131 0
123 137 0
119 132 0
116 127 0
120 131 0
125 139 0
122 135 0
120 132 0
125 135 0
124 136 0
125 135 0
123 133 0
121 131 0
118 127 0
126 140 0
108 117 0
131 141 0
110 118 0
128 136 0
114 122 0
118 124 0
116 125 0
133 141 0
124 131 0
124 130 0
130 137 0
116 118 0
115 120 0
121 127 0
107 112 0
127 128 0
114 118 0
124 127 0
110 116 0
112 114 0
105 105 0
82 76 11
75 67 11
86 80 16
84 76 11
90 82 0
85 78 0
88 83 0
90 84 0
97 89 0
99 93 0
96 89 0
94 87 0
88 82 0
99 93 8
104 98 0
106 99 0
93 89 0
99 90 0
103 96 0
106 101 0
106 100 0
103 98 0
97 92 0
115 108 0
102 98 0
110 106 0
115 110 0
114 106 0
118 110 0
118 112 0
112 106 0
116 111 0
116 111 11
112 109 0
119 111 0
125 117 16
114 109 0
117 108 0
117 111 0
123 118 0
120 115 0
129 122 16
121 115 11
114 111 0
116 112 0
126 118 16
122 115 28
115 109 16
120 113 0
127 118 19
124 117 19
134 128 34
123 117 22
123 115 19
130 123 22
130 124 0
125 119 32
120 114 25
127 123 22
126 119 25
126 121 28
123 118 19
126 121 30
124 120 25
133 127 30
136 129 19
128 122 39
131 125 34
134 127 28
127 123 19
132 126 28
130 125 30
130 124 25
135 128 32
134 128 19
131 126 32
133 127 28
128 123 32
132 126 36
136 130 39
131 124 34
135 129 37
123 117 22
123 117 25
130 125 30
132 127 22
136 128 39
132 127 34
125 119 34
128 122 32
133 127 41
139 132 47
133 128 39
132 128 28
136 130 37
123 117 39
132 126 34
125 119 32
134 129 41
135 130 44
122 116 30
142 134 47
135 129 45
139 133 51
136 128 47
138 131 37
132 126 34
130 122 47
127 121 34
133 124 42
132 126 42
124 119 39
128 122 42
128 122 47
123 118 39
124 118 42
129 123 34
135 130 42
176 198 36
173 197 0
172 196 0
169 193 0
171 194 25
172 196 0
171 195 0
174 197 0
174 197 25
173 197 0
170 193 0
169 193 0
172 195 0
171 194 0
173 197 0
174 196 25
172 196 0
172 196 0
173 195 0
170 193 0
173 196 0
171 195 0
173 196 0
173 195 0
175 198 0
172 195 0
175 198 0
171 194 0
173 196 0
170 193 0
169 192 0
174 196 0
174 197 0
172 194 0
172 194 0
174 197 0
172 194 0
173 195 0
175 197 0
171 193 0
171 193 0
172 194 0
172 195 0
172 194 0
172 193 0
173 195 0
169 192 0
171 192 0
173 196 25
165 188 25
170 193 57
169 191 67
173 194 36
176 197 62
174 195 67
175 196 76
176 197 62
174 196 72
175 197 76
177 199 72
178 200 88
178 198 80
175 196 84
176 197 80
175 196 72
174 194 80
175 196 62
171 192 84
177 199 72
172 193 57
176 197 67
171 192 67
175 195 67
171 192 80
174 195 92
173 193 72
171 193 80
175 195 51
171 192 57
166 188 51
162 182 36
163 185 57
165 186 25
157 178 25
161 182 0
165 186 0
159 182 0
162 183 0
167 187 0
169 190 0
163 184 0
162 184 0
160 181 0
159 181 0
163 184 0
152 173 0
165 186 0
163 184 0
160 180 0
161 182 0
161 181 0
164 186 0
161 182 0
161 181 0
160 180 25
167 187 0
165 184 0
155 176 0
158 179 25
158 178 0
165 185 0
161 182 36
153 175 36
162 183 36
165 186 44
165 186 57
168 189 51
163 184 51
157 178 0
163 183 0
156 177 0
157 178 0
159 180 0
163 184 0
157 177 0
161 182 0
156 177 0
157 178 0
152 173 0
159 181 0
151 173 0
152 174 0
153 174 0
151 173 0
154 175 0
154 176 0
150 170 0
155 177 0
153 174 0
150 172 0
149 170 0
152 173 0
143 164 0
151 171 0
144 165 0
145 165 0
142 162 0
149 170 0
156 177 0
152 173 0
137 157 0
141 162 0
138 159 0
142 163 0
145 165 0
132 151 0
136 157 0
139 160 0
127 148 0
133 154 0
142 163 0
138 158 0
130 149 0
132 151 0
125 144 0
128 147 0
108 127 0
108 127 0
127 146 0
120 139 0
123 141 0
94 111 0
96 114 0
112 129 0
112 130 0
110 126 0
102 119 0
93 109 0
99 114 0
86 101 0
72 89 36
67 87 44
45 70 54
44 71 54
44 71 60
44 70 67
45 73 57
46 74 54
49 78 78
47 75 70
51 80 92
45 72 57
43 70 70
49 79 80
49 78 76
50 79 82
47 75 67
47 75 67
42 69 65
43 69 62
45 72 65
48 76 88
47 74 79
49 78 77
46 73 70
47 76 62
46 73 76
47 75 78
47 75 67
47 75 80
50 78 90
45 73 67
45 72 54
48 76 72
46 72 65
41 65 54
39 62 44
41 64 57
54 70 40
71 83 18
76 86 0
93 105 0
85 96 0
86 95 0
92 103 0
90 100 0
93 104 0
89 101 0
89 102 0
90 102 0
97 109 0
96 107 0
87 98 0
103 116 0
105 119 0
105 117 0
113 126 0
115 125 0
117 129 0
120 134 0
115 129 0
113 126 0
122 136 0
117 129 0
110 122 0
122 135 0
122 136 0
125 138 0
120 133 0
112 126 0
139 153 0
123 138 0
129 142 0
118 131 0
126 138 0
120 131 0
123 137 0
116 125 0
117 126 0
126 136 0
119 129 0
121 129 0
114 123 0
116 125 0
113 119 0
108 115 0
121 131 0
111 116 0
111 115 0
111 121 0
114 123 0
126 134 0
119 123 0
105 111 0
114 118 0
115 121 0
126 129 0
109 110 0
112 113 0
120 122 0
116 120 0
112 114 0
116 117 0
84 81 16
71 63 11
91 83 0
82 78 0
87 81 0
85 76 0
89 82 0
95 86 0
87 79 0
95 89 0
103 96 11
92 83 0
98 91 0
99 90 0
102 96 0
107 97 0
101 94 0
103 97 0
106 100 0
104 95 0
115 104 8
112 104 0
102 97 0
111 104 0
102 97 0
113 106 0
104 101 0
107 101 0
113 107 0
108 102 11
114 107 0
99 93 0
110 104 0
111 107 0
111 106 11
125 118 11
118 112 0
111 105 11
108 104 0
116 110 11
116 109 16
119 113 16
122 116 11
122 117 16
118 112 0
124 118 22
126 120 22
132 127 19
126 120 19
131 125 25
122 117 0
126 119 22
130 124 30
118 111 11
135 128 19
124 117 11
125 120 19
120 113 11
117 111 19
128 121 16
117 113 16
129 124 22
132 126 19
126 121 19
134 126 32
127 121 25
134 128 36
131 126 28
128 121 25
133 126 25
130 124 19
127 121 25
127 121 30
134 129 30
127 121 32
139 130 36
131 125 32
129 124 22
129 122 22
127 121 28
134 128 30
135 129 42
138 132 41
133 128 22
131 125 25
133 126 37
127 120 39
125 120 28
135 129 42
133 127 39
133 126 39
130 121 42
132 125 39
126 121 34
119 114 25
135 127 47
137 130 45
141 133 41
136 129 39
126 121 32
123 118 36
136 129 37
128 122 37
143 136 39
127 121 42
131 125 48
125 119 34
141 135 37
126 119 45
125 116 41
124 118 39
128 122 39
136 130 39
136 130 45
125 120 39
125 119 41
124 119 39
175 197 44
178 200 57
169 193 25
171 195 0
173 196 0
172 196 0
174 198 0
170 194 0
175 198 25
171 195 0
171 195 0
173 197 0
173 196 0
174 197 0
174 197 0
169 191 0
174 197 25
174 197 0
173 196 0
171 194 0
172 195 0
173 196 0
174 197 0
172 195 0
172 195 0
172 195 0
173 196 0
172 195 0
172 194 0
173 196 0
172 195 0
172 194 0
172 194 0
173 196 0
170 192 0
168 190 0
170 192 0
168 191 0
171 194 0
172 194 0
171 194 0
172 194 0
171 194 0
169 192 0
171 194 0
170 192 0
167 190 0
170 192 0
170 192 0
170 192 0
169 191 0
171 193 0
165 187 0
168 190 0
168 190 0
167 189 36
168 191 25
175 196 25
172 193 51
172 194 51
173 195 51
171 192 25
170 191 44
174 194 51
169 191 51
174 196 67
167 189 44
174 195 57
169 189 44
163 185 36
163 185 44
172 193 51
168 189 51
168 190 25
170 192 44
162 183 25
164 185 0
170 190 0
164 185 0
169 190 0
159 180 0
168 190 0
164 186 0
161 182 0
165 186 0
165 186 0
158 179 0
164 185 0
164 185 0
167 189 0
166 186 0
165 186 0
165 186 0
162 182 0
161 181 0
167 187 0
162 182 0
162 183 0
164 185 0
155 176 0
169 190 0
159 180 0
164 185 0
160 179 25
159 180 0
164 184 0
162 183 25
158 180 0
163 184 25
162 183 25
170 190 44
162 183 44
155 177 0
160 182 44
167 188 57
163 183 57
164 185 0
168 187 0
161 182 0
159 180 0
158 179 0
167 186 0
156 177 0
153 174 0
159 180 0
154 175 0
150 171 0
151 171 0
156 177 0
154 175 0
157 178 0
152 174 0
150 172 0
160 181 0
149 170 0
149 171 0
152 173 0
145 167 0
143 164 0
149 171 0
149 170 0
144 167 0
148 169 0
153 174 0
150 171 0
149 170 0
147 169 0
134 156 0
151 174 0
140 162 0
151 172 0
145 165 0
133 153 0
146 167 0
138 158 0
135 156 0
131 151 0
131 152 0
136 156 0
124 144 0
124 144 0
132 151 0
129 149 0
123 143 0
117 137 0
117 136 0
109 128 0
112 131 0
115 135 0
127 145 0
101 119 0
113 130 0
103 121 0
111 128 0
98 115 0
111 127 0
94 110 0
102 116 0
103 117 0
96 110 0
101 115 0
85 99 0
71 84 18
63 80 25
47 69 51
44 71 54
42 68 57
46 75 72
44 71 70
41 67 18
42 69 74
41 67 57
45 72 67
45 72 54
47 75 54
47 75 76
46 73 62
48 76 67
45 72 65
50 80 70
48 76 74
45 72 62
45 71 67
44 71 65
43 69 62
46 74 67
44 70 62
44 72 51
43 69 51
42 67 47
45 71 70
42 67 70
41 65 60
38 61 36
40 63 57
45 60 36
50 63 31
66 76 0
74 83 0
66 75 0
71 83 0
89 100 0
80 92 0
88 99 0
80 90 0
78 88 0
96 110 0
88 98 0
103 114 0
94 104 0
98 110 0
105 117 0
104 116 0
108 121 0
107 121 0
110 122 0
106 119 0
117 130 0
99 111 0
109 122 0
121 135 0
113 125 0
106 119 0
106 119 0
103 114 0
125 140 0
116 127 0
124 137 0
117 130 0
120 133 0
115 127 0
114 127 0
115 127 0
120 130 0
107 118 0
117 127 0
119 128 0
111 122 0
117 126 0
124 133 0
121 132 0
122 130 0
116 124 0
126 136 0
127 134 0
117 126 0
128 137 0
112 119 0
116 126 0
113 118 0
118 126 0
115 121 0
112 116 0
117 121 0
115 121 0
116 118 0
116 121 0
121 123 0
109 113 0
115 114 0
117 118 0
110 107 0
120 120 0
98 96 0
85 84 0
82 75 0
67 60 0
84 77 11
77 71 0
85 79 0
92 83 12
81 75 0
91 85 0
91 81 11
91 85 0
92 87 0
100 94 0
90 81 0
101 95 0
99 91 0
102 96 0
104 97 0
101 96 0
104 98 0
110 102 0
104 98 0
105 98 0
109 104 0
98 93 0
111 103 0
115 109 0
118 112 0
108 101 0
104 100 8
116 110 0
108 103 0
112 106 0
118 112 16
113 107 0
102 99 0
108 103 11
117 109 16
116 109 19
121 113 0
116 111 11
123 119 0
120 116 11
125 118 25
125 117 16
122 117 11
115 108 19
108 103 11
130 124 19
122 116 16
119 112 11
126 119 16
130 123 16
110 104 16
133 126 30
133 128 19
135 129 25
124 117 16
133 126 32
125 118 11
126 118 28
126 120 22
128 123 30
135 127 25
122 116 28
127 120 30
131 126 34
133 125 36
133 126 30
139 131 25
124 119 28
127 119 28
130 125 28
130 124 22
137 130 19
130 123 28
126 121 28
121 114 28
133 126 32
137 129 36
127 118 34
123 117 28
132 126 37
124 120 34
125 120 36
130 124 34
132 125 34
134 128 39
144 138 41
122 116 34
129 122 36
135 129 37
131 125 36
139 133 41
132 127 30
124 118 34
135 130 41
126 119 41
145 139 44
135 130 34
124 118 37
117 112 28
128 122 34
126 120 37
121 115 25
123 117 41
125 117 41
135 129 39
133 127 45
129 122 42
119 114 30
120 113 41
123 116 39
119 114 34
139 132 47
127 121 45
174 197 25
174 198 36
173 195 51
174 197 44
173 197 0
174 197 25
174 198 0
172 195 0
173 196 0
173 196 0
168 191 0
174 197 0
172 195 0
171 194 0
172 195 0
173 195 0
173 195 0
173 196 0
174 197 0
172 195 0
170 193 0
173 195 25
176 198 0
172 195 0
172 195 0
173 195 0
174 196 0
173 195 0
174 196 0
173 195 0
175 198 0
171 193 0
172 194 0
173 195 0
175 197 0
172 194 0
172 195 0
171 194 0
172 195 0
173 196 0
174 196 0
174 196 0
175 197 0
169 191 0
173 195 0
174 196 0
170 193 0
167 189 0
174 196 0
170 192 0
168 189 0
170 193 0
168 189 0
169 191 0
170 192 0
171 192 0
168 191 0
171 193 0
170 192 0
169 191 0
170 192 0
168 189 0
172 193 0
168 190 0
170 191 0
162 183 0
165 187 0
167 188 0
169 191 0
165 187 0
163 184 0
168 189 0
168 189 0
172 193 0
166 187 0
164 185 0
161 182 0
169 191 0
168 189 0
162 183 0
167 188 0
165 186 0
164 186 0
162 183 0
163 184 0
164 185 0
161 182 0
164 186 0
164 184 0
166 186 0
162 183 0
163 183 0
166 187 0
163 184 0
168 190 0
160 181 0
154 176 0
163 184 0
165 186 0
162 183 0
164 185 0
164 185 0
161 183 0
163 184 0
155 176 0
166 188 25
162 183 25
159 180 0
159 180 51
160 181 25
163 182 44
160 181 36
163 184 57
168 188 76
164 185 25
160 181 0
158 180 0
165 185 0
166 186 0
157 178 0
156 177 0
155 177 0
158 179 0
157 179 0
158 179 0
153 174 0
151 173 0
153 175 0
155 177 0
157 178 0
157 178 0
146 168 0
162 183 0
154 175 0
152 173 0
149 170 0
149 169 0
151 173 0
149 170 0
154 174 0
140 161 0
150 171 0
153 175 0
145 166 0
145 167 0
152 174 0
146 168 0
153 174 0
141 161 0
136 157 0
144 165 0
149 170 0
146 167 0
137 158 0
136 156 0
140 161 0
136 156 0
134 156 0
120 140 0
128 146 0
127 147 0
140 160 0
129 148 0
130 149 0
120 139 0
121 141 0
122 141 0
115 135 0
121 139 0
113 131 0
109 127 0
115 133 0
115 132 0
107 124 0
104 120 0
103 119 0
105 121 0
98 113 0
93 107 0
90 104 0
86 101 0
96 110 0
76 88 0
70 83 0
81 95 0
63 75 0
63 78 36
59 76 31
46 65 44
45 70 54
43 70 54
44 70 60
44 70 57
44 70 70
42 68 70
44 71 70
44 71 72
43 68 62
45 72 62
47 74 74
42 68 47
44 71 65
46 73 57
44 70 54
40 64 57
41 66 47
39 63 44
40 65 48
46 72 65
43 67 62
38 61 54
38 57 54
56 71 18
57 70 18
44 54 0
78 87 0
72 81 0
73 82 0
75 84 0
82 92 0
77 88 0
75 86 0
77 89 0
84 92 0
95 105 0
92 102 0
84 95 0
93 102 0
98 110 0
108 121 0
102 114 0
105 118 0
95 109 0
110 123 0
96 108 0
116 129 0
103 114 0
99 110 0
114 124 0
96 110 0
101 113 0
114 126 0
126 140 0
106 120 0
116 129 0
112 123 0
117 131 0
115 127 0
119 132 0
116 128 0
123 132 0
125 134 0
120 131 0
121 133 0
126 138 0
119 130 0
128 138 0
104 114 0
117 126 0
125 134 0
120 132 0
120 132 0
121 131 0
109 118 0
108 115 0
121 130 0
112 121 0
116 124 0
110 117 0
116 121 0
112 119 0
108 110 0
113 120 0
117 121 0
119 122 0
107 106 0
117 123 0
104 108 0
118 117 0
111 111 0
104 105 0
98 98 0
86 85 0
104 101 0
104 100 0
106 102 0
94 90 0
81 78 0
83 74 0
91 82 11
81 74 0
85 79 11
91 85 0
89 81 0
88 82 11
98 91 0
89 81 11
90 82 0
83 79 0
91 84 0
97 89 0
91 86 8
107 99 0
101 94 0
102 96 0
98 90 0
102 95 0
96 89 0
109 102 0
96 88 0
117 108 0
115 109 0
108 103 0
112 106 0
105 99 0
115 108 0
115 109 0
109 101 0
110 103 11
113 104 0
126 120 0
109 104 0
114 108 0
128 122 16
117 112 0
119 115 0
117 110 11
124 117 11
118 113 11
114 108 11
119 112 16
118 110 16
123 117 0
117 111 11
121 116 16
124 117 22
131 125 25
124 118 22
112 107 11
123 118 30
118 113 11
127 119 22
125 119 22
120 113 28
124 118 16
127 120 19
123 117 16
120 113 16
128 122 19
128 123 25
130 123 28
135 129 30
131 126 34
120 115 25
132 127 22
132 125 30
131 124 36
129 124 25
135 130 25
123 116 32
134 127 34
119 113 36
133 127 37
128 123 32
129 122 36
130 124 28
133 128 19
125 119 16
136 129 37
123 116 32
126 119 34
131 124 36
132 126 34
130 123 30
138 130 39
131 124 39
133 128 36
125 119 34
129 124 34
129 123 39
138 133 34
138 133 37
129 124 30
137 132 44
129 123 39
126 120 41
134 126 42
130 122 36
124 117 39
125 117 41
120 113 41
130 125 32
131 123 41
122 115 37
126 121 45
130 126 37
132 126 41
122 116 42
119 112 34
117 110 36
173 196 25
174 197 36
173 196 36
175 198 36
176 199 44
172 195 25
171 194 51
170 194 0
173 197 0
172 196 0
174 197 25
170 193 0
174 197 0
171 195 25
172 195 0
172 195 25
176 198 0
170 193 0
172 195 0
174 197 0
172 196 0
175 198 25
176 198 0
172 195 0
172 194 0
170 193 0
171 194 0
173 196 0
171 194 0
172 194 0
174 196 0
171 194 0
171 193 0
174 196 0
173 194 0
172 194 0
173 195 0
172 193 0
171 193 0
171 194 0
174 196 0
174 196 0
170 191 0
173 195 0
166 188 0
169 191 0
172 194 0
172 194 0
171 193 0
171 193 0
172 193 0
171 193 0
172 193 0
169 190 0
170 192 0
173 195 0
170 192 0
171 191 0
166 188 0
169 190 0
166 188 0
173 195 0
173 194 0
170 192 0
168 190 0
169 191 0
168 191 0
169 191 0
172 193 0
169 192 0
168 187 0
164 186 0
168 190 0
163 184 0
165 186 0
169 189 0
171 192 0
164 186 0
167 189 0
165 186 0
164 185 0
161 181 0
164 184 0
165 186 0
159 180 0
167 187 0
164 185 0
168 189 0
166 186 0
169 189 0
163 183 0
167 189 0
157 179 0
159 179 0
164 184 25
162 183 25
165 186 0
165 187 0
161 182 0
162 184 0
167 188 0
164 184 0
166 187 0
157 178 0
158 179 25
172 192 25
168 188 57
161 183 44
166 187 36
163 185 44
168 189 67
168 189 72
165 186 0
162 182 0
163 184 0
162 183 0
162 183 0
154 176 0
157 178 0
157 179 0
158 179 0
156 177 0
165 187 0
158 179 0
151 173 0
154 175 0
157 179 0
152 172 0
160 182 0
159 180 0
157 178 0
147 168 0
149 170 0
145 167 0
153 175 0
156 178 0
157 178 0
150 172 0
150 171 0
147 167 0
144 165 0
152 173 0
148 170 0
150 171 0
143 165 0
141 162 0
144 166 0
147 169 0
143 163 0
144 166 0
141 162 0
134 156 0
147 169 0
140 159 0
134 155 0
140 160 0
135 155 0
136 156 0
131 152 0
131 151 0
138 158 0
126 146 0
126 145 0
129 148 0
123 143 0
119 138 0
121 139 0
114 133 0
107 125 0
125 143 0
123 141 0
110 128 0
114 132 0
114 132 0
105 122 0
85 101 0
112 131 0
102 117 0
96 112 0
97 112 0
94 107 0
89 103 0
75 89 0
92 106 0
75 88 0
64 77 0
75 87 0
69 83 0
66 76 0
57 68 0
49 63 31
42 56 31
53 69 25
39 58 25
46 64 47
44 64 47
36 60 47
40 64 72
40 65 44
42 68 51
43 68 62
40 63 51
37 60 44
41 63 51
42 64 51
46 66 47
37 55 44
30 49 47
42 56 36
51 61 31
59 67 0
71 79 0
61 70 0
45 57 0
68 78 0
61 72 0
65 75 0
83 92 0
66 78 0
88 98 0
63 73 0
77 87 0
81 94 0
87 98 0
86 96 0
85 97 0
91 103 0
105 117 0
93 105 0
103 117 0
101 113 0
94 104 0
99 111 0
98 111 0
97 107 0
103 113 0
114 129 0
111 123 0
108 118 0
92 104 0
106 119 0
116 129 0
105 119 0
118 131 0
109 121 0
114 126 0
120 132 0
111 125 0
117 129 0
123 134 0
103 113 0
129 141 0
126 136 0
118 129 0
114 125 0
113 126 0
118 131 0
123 135 0
119 130 0
112 120 0
122 132 0
116 125 0
126 132 0
101 114 0
112 119 0
116 125 0
103 106 0
127 136 0
119 129 0
112 120 0
115 123 0
102 105 0
122 128 0
112 118 0
103 107 0
118 122 0
116 123 0
110 114 0
104 103 0
110 111 0
119 124 0
104 105 0
105 105 0
102 103 0
91 91 0
105 104 0
112 112 0
105 104 0
79 73 0
76 70 0
75 67 11
77 70 0
91 84 0
76 70 0
85 77 0
88 81 0
95 87 0
94 87 0
95 89 0
91 85 0
98 89 0
104 96 0
100 91 0
101 95 0
103 95 0
99 93 0
103 96 0
98 91 0
103 96 0
103 96 0
109 100 0
101 94 0
108 100 0
108 100 0
109 102 0
105 98 0
102 98 0
116 108 0
116 109 0
105 100 0
111 105 0
112 106 0
114 109 0
105 99 0
115 108 11
113 107 11
116 111 11
113 108 0
119 114 11
122 113 0
118 111 11
122 114 0
121 115 0
119 113 16
119 113 16
119 111 11
126 120 16
126 120 25
125 117 22
122 117 22
125 119 19
117 109 16
130 123 16
117 112 25
130 125 25
124 117 22
126 119 25
126 120 19
128 121 28
121 113 16
123 117 16
121 115 16
132 125 32
118 113 11
127 120 22
124 117 25
128 122 22
122 116 22
127 121 28
124 119 28
130 123 19
131 126 25
124 119 19
126 118 28
133 127 25
119 114 19
123 117 28
127 121 32
131 124 32
126 119 30
133 127 32
131 124 42
122 118 32
130 125 30
131 125 30
127 120 32
123 117 30
132 125 37
131 125 30
129 122 37
134 127 48
135 129 47
128 122 28
129 123 30
121 115 25
124 118 32
131 126 36
142 135 49
127 120 37
115 109 34
121 117 28
130 123 37
130 124 39
126 119 41
134 128 34
119 111 28
127 120 39
127 121 42
119 114 39
130 125 41
174 197 51
175 199 62
174 197 57
177 199 62
176 199 67
174 197 25
177 199 51
174 197 36
175 198 57
174 197 0
175 198 0
173 196 0
172 196 0
171 194 0
171 194 0
175 197 0
171 194 0
173 196 25
172 196 0
173 196 0
173 196 0
171 194 0
174 196 0
175 197 0
171 194 0
175 197 0
171 193 0
171 194 0
172 194 0
174 196 0
173 195 0
172 193 0
173 195 0
169 191 0
167 189 0
174 196 0
176 197 0
172 194 0
170 192 0
173 195 0
173 196 0
175 196 0
173 195 0
169 191 0
173 195 0
169 191 0
170 192 0
170 192 0
173 195 0
170 192 0
171 193 0
167 188 0
171 193 0
169 191 0
166 188 0
169 191 0
170 192 0
171 192 0
170 191 0
167 189 0
166 187 0
167 189 0
169 190 0
172 193 0
173 195 0
170 190 0
168 188 0
168 189 0
168 190 0
169 191 0
164 185 0
169 192 0
167 189 0
167 190 0
167 188 0
169 190 0
164 186 0
170 191 0
174 195 0
168 189 0
163 185 0
167 189 0
165 185 0
170 191 0
164 185 0
164 186 0
171 193 0
165 186 0
166 187 0
165 186 0
161 182 0
162 185 0
160 182 0
160 181 0
162 183 0
165 186 0
167 188 25
165 186 0
159 180 0
161 181 0
161 184 0
164 185 0
164 185 36
160 181 36
165 186 44
164 185 25
166 187 36
165 186 36
164 184 57
166 187 57
160 180 0
161 183 0
167 188 0
162 184 0
163 183 0
161 182 0
154 175 0
161 183 0
160 181 0
159 180 0
158 180 0
153 174 0
155 177 0
161 182 0
158 179 0
160 180 0
153 174 0
147 169 0
154 175 0
145 165 0
157 178 0
154 176 0
162 184 0
156 178 0
153 173 0
144 165 0
153 174 0
141 162 0
150 171 0
150 171 0
151 172 0
153 173 0
141 161 0
150 170 0
150 171 0
146 167 0
140 161 0
146 167 0
140 161 0
149 170 0
145 166 0
139 159 0
144 165 0
134 155 0
138 158 0
131 151 0
136 155 0
131 151 0
135 155 0
134 154 0
133 153 0
126 145 0
135 155 0
130 149 0
114 134 0
110 129 0
121 139 0
131 151 0
119 138 0
118 136 0
116 134 0
114 131 0
113 131 0
108 126 0
96 113 0
92 109 0
95 111 0
108 123 0
98 113 0
99 114 0
96 109 0
94 110 0
92 107 0
84 98 0
83 97 0
87 102 0
79 91 0
74 86 0
74 85 0
74 86 0
80 90 0
72 83 0
60 70 0
71 81 0
60 69 0
40 49 0
52 61 0
60 70 0
48 56 0
60 70 18
59 68 0
68 77 0
38 47 0
44 52 0
51 59 0
55 63 0
71 78 0
66 75 0
61 71 0
63 72 0
54 63 0
64 73 0
72 81 0
62 73 0
69 79 0
80 90 0
67 76 0
79 89 0
73 84 0
80 90 0
91 101 0
88 100 0
82 94 0
98 110 0
94 104 0
94 104 0
82 95 0
96 109 0
91 103 0
101 114 0
98 108 0
104 115 0
99 111 0
103 113 0
101 113 0
114 126 0
108 119 0
107 120 0
108 119 0
120 132 0
109 120 0
103 117 0
101 111 0
118 131 0
109 122 0
114 127 0
118 130 0
114 126 0
111 124 0
120 132 0
116 129 0
108 122 0
118 130 0
117 130 0
115 125 0
116 128 0
130 141 0
120 130 0
113 123 0
123 132 0
122 133 0
107 116 0
109 116 0
124 134 0
109 117 0
114 125 0
106 115 0
104 110 0
114 122 0
112 118 0
115 122 0
109 114 0
105 111 0
113 117 0
111 116 0
110 114 0
106 110 0
113 118 0
114 116 0
110 114 0
125 130 0
113 113 0
109 112 0
97 98 0
85 84 0
90 89 0
87 84 0
95 95 0
96 97 0
95 94 0
81 75 0
90 81 16
74 67 11
93 82 16
79 70 11
92 83 11
87 79 0
92 85 0
83 75 11
100 92 0
89 83 0
90 81 0
85 78 0
88 82 0
92 85 0
95 89 0
98 91 8
102 94 0
98 92 0
107 99 0
108 102 0
97 89 0
96 92 0
105 99 0
103 97 0
116 109 0
100 94 11
117 109 0
113 106 0
111 103 0
122 117 0
110 104 11
115 110 0
112 104 0
115 109 0
111 104 0
113 107 0
117 112 0
119 112 11
113 107 11
126 119 16
123 117 11
112 104 16
116 111 11
119 114 16
113 107 0
120 112 11
124 117 16
127 121 16
120 116 19
118 113 22
124 117 28
117 111 16
117 113 11
123 118 22
123 117 22
115 110 22
118 110 0
114 109 0
121 114 19
129 122 22
127 120 25
121 114 22
126 118 28
128 121 25
124 116 28
127 119 25
120 116 0
124 116 30
128 122 30
123 116 28
117 111 25
120 114 19
130 124 28
122 116 22
127 121 32
124 118 30
123 116 28
117 109 30
119 113 25
130 124 22
139 131 30
127 121 32
115 108 25
125 118 34
134 127 39
126 121 30
120 114 34
126 120 34
129 122 37
129 122 36
128 121 42
134 128 42
124 118 25
128 121 37
117 110 36
112 107 19
119 113 36
120 114 45
127 120 44
120 115 30
117 112 25
126 120 39
116 109 36
134 126 42
127 119 34
118 113 32
111 104 34
114 106 32
128 122 47
176 199 72
175 199 51
177 199 67
171 195 25
173 195 25
173 195 57
175 198 44
173 196 44
175 197 51
173 196 51
175 198 51
175 197 0
173 197 25
173 196 0
172 196 0
172 194 0
171 195 0
172 195 0
174 197 0
174 197 0
173 196 0
173 195 25
170 194 0
173 196 0
171 193 0
169 193 0
170 192 25
177 198 25
176 198 0
168 191 0
174 196 0
173 195 0
171 194 0
172 195 25
173 195 0
170 192 0
174 196 0
175 196 0
172 193 0
168 190 0
169 191 0
172 194 0
169 192 0
171 193 0
171 194 0
170 191 0
174 196 0
170 191 0
168 191 0
169 191 0
169 191 0
172 194 0
172 194 0
173 194 0
167 189 0
169 190 0
168 190 0
176 196 0
170 192 0
172 192 0
171 193 0
169 190 0
169 191 0
168 189 0
167 189 0
168 190 0
169 191 0
168 189 0
173 194 0
163 184 0
169 190 0
170 191 0
171 192 0
170 191 0
165 187 0
164 186 0
169 190 0
167 189 0
164 186 0
169 190 0
162 183 0
165 185 0
164 186 0
163 183 0
159 180 0
170 191 0
159 180 0
172 192 0
165 186 0
167 187 0
165 186 0
158 179 0
160 181 0
167 187 0
168 190 0
163 184 0
164 185 0
161 182 25
159 180 25
165 187 0
157 179 25
164 184 25
162 183 36
167 187 44
165 186 44
159 181 25
161 181 67
167 188 67
161 182 25
159 179 0
160 181 0
157 177 0
154 175 0
154 175 0
161 181 0
154 175 0
161 183 0
159 181 0
159 180 0
152 172 0
154 175 0
156 178 0
150 171 0
149 169 0
156 178 0
154 175 0
152 172 0
151 173 0
150 171 0
149 170 0
148 170 0
159 180 0
154 174 0
150 172 0
154 174 0
152 172 0
145 166 0
146 167 0
151 173 0
151 172 0
148 168 0
146 167 0
138 158 0
140 160 0
145 166 0
146 167 0
148 169 0
159 179 0
149 170 0
141 162 0
143 163 0
145 166 0
141 162 0
136 157 0
138 158 0
139 160 0
134 153 0
140 160 0
135 155 0
126 145 0
133 153 0
128 147 0
125 144 0
124 144 0
123 142 0
122 142 0
113 133 0
123 140 0
113 132 0
128 146 0
110 127 0
109 127 0
115 133 0
115 132 0
108 123 0
104 122 0
104 121 0
97 112 0
89 106 0
100 116 0
86 100 0
79 95 0
84 98 0
96 111 0
82 95 0
77 90 0
82 95 0
68 81 0
73 85 0
74 87 0
75 86 0
60 73 0
67 79 0
72 82 0
69 79 0
67 77 0
60 69 0
47 58 0
62 73 0
69 80 0
54 63 0
60 69 0
65 74 0
53 63 0
55 65 0
64 71 0
53 63 0
52 61 0
63 75 0
60 71 0
68 77 0
81 91 0
75 86 0
71 82 0
75 85 0
79 90 0
78 89 0
91 103 0
78 90 0
83 96 0
88 98 0
81 90 0
93 103 0
90 102 0
83 96 0
86 96 0
95 107 0
94 107 0
97 108 0
109 120 0
105 118 0
109 121 0
108 121 0
102 115 0
95 107 0
105 119 0
104 119 0
108 121 0
108 118 0
114 127 0
107 119 0
114 130 0
116 129 0
107 120 0
107 120 0
102 114 0
114 126 0
116 128 0
116 129 0
123 135 0
124 136 0
129 141 0
124 136 0
109 119 0
113 125 0
115 123 0
125 138 0
116 125 0
112 123 0
117 128 0
115 124 0
108 119 0
117 125 0
107 114 0
114 123 0
119 127 0
113 120 0
118 123 0
108 116 0
118 123 0
114 120 0
115 123 0
113 119 0
117 125 0
114 120 0
110 112 0
115 117 0
99 104 0
117 120 0
114 116 0
106 108 0
115 117 0
104 106 0
113 114 0
104 107 0
96 98 0
89 85 0
90 89 0
94 91 0
102 100 0
107 108 0
103 102 0
76 70 0
69 59 0
75 68 0
95 85 11
89 81 0
87 77 0
86 76 0
85 76 0
90 83 0
82 74 0
95 86 0
94 86 0
100 94 0
91 83 0
95 89 0
99 93 0
97 89 0
102 95 0
102 94 0
104 98 0
102 94 0
113 105 0
89 81 0
114 105 0
104 96 0
110 103 0
112 104 0
110 102 0
114 107 0
114 106 0
111 104 0
116 109 11
108 102 11
113 104 0
110 103 11
114 107 11
114 108 16
113 107 11
120 114 11
115 108 11
119 112 16
117 110 16
115 108 16
114 107 0
121 114 16
117 108 19
115 107 19
117 110 19
117 110 19
113 108 11
116 110 16
123 117 0
120 115 16
123 117 19
125 118 16
120 111 16
111 104 16
118 113 19
117 111 11
129 123 30
118 111 25
123 117 11
119 113 16
133 126 28
120 114 22
124 118 19
123 116 16
126 119 34
128 122 25
123 116 28
118 112 16
121 116 25
120 114 22
114 108 22
128 122 30
118 112 25
123 117 28
120 114 25
122 115 36
125 119 25
121 116 30
123 116 25
129 122 39
124 117 34
130 125 30
129 122 44
117 110 32
134 128 32
121 114 34
117 112 30
129 121 36
129 123 30
124 117 28
123 116 37
121 113 36
124 117 37
136 129 39
115 109 36
121 114 36
125 118 36
123 116 42
113 106 22
123 114 37
118 113 34
126 119 34
124 119 37
121 115 37
130 123 49
175 198 36
175 198 57
176 199 36
175 198 44
171 194 0
174 197 25
177 199 51
175 198 51
175 198 36
176 198 25
175 198 44
175 198 51
178 200 57
173 196 36
174 197 25
172 194 0
172 196 0
171 194 0
173 196 0
172 195 0
172 194 25
176 198 0
175 196 0
174 197 0
173 196 25
169 192 0
174 196 0
173 195 0
173 194 0
174 196 25
170 193 0
172 195 0
171 194 0
175 197 0
171 193 0
174 196 0
175 198 0
170 192 0
174 196 0
172 195 0
172 194 0
172 194 0
171 192 0
175 197 0
171 193 0
171 193 0
172 193 0
173 195 0
173 195 0
174 195 0
170 192 0
170 190 0
172 193 0
170 193 0
171 192 0
171 193 0
173 194 0
170 191 0
167 188 0
165 187 0
170 191 0
171 193 0
169 189 0
170 191 0
168 189 0
169 191 0
171 191 0
168 189 0
168 190 0
169 190 0
168 189 0
170 191 0
167 189 0
168 188 0
172 193 0
160 182 0
167 187 0
164 185 0
166 187 0
166 187 0
168 189 25
165 185 36
171 192 0
162 183 0
166 188 0
164 186 25
163 184 0
161 182 0
159 180 0
167 187 0
165 185 0
159 180 0
162 183 0
168 189 0
159 180 0
154 175 0
166 187 25
169 190 62
167 187 62
167 188 36
163 183 51
166 187 44
166 188 25
166 187 57
169 189 76
164 184 0
160 179 0
156 178 0
158 179 0
160 181 0
163 185 0
163 184 0
160 179 0
158 179 0
159 179 0
164 184 0
152 173 0
154 175 0
161 182 0
157 178 0
158 179 0
165 186 0
153 174 0
153 174 0
155 175 0
158 178 0
153 175 0
147 167 0
157 179 0
161 181 0
151 172 0
152 172 0
149 170 0
155 176 0
152 172 0
159 180 0
144 164 0
150 172 0
146 167 0
149 170 0
147 169 0
148 170 0
150 172 0
148 169 0
146 168 0
142 163 0
139 161 0
148 169 0
148 168 0
139 159 0
143 164 0
137 158 0
141 161 0
143 163 0
136 157 0
121 142 0
133 154 0
129 150 0
139 159 0
133 153 0
130 149 0
122 142 0
128 148 0
126 146 0
122 142 0
122 141 0
126 144 0
124 142 0
120 138 0
118 137 0
118 137 0
131 148 0
114 132 0
109 126 0
103 121 0
108 127 0
103 120 0
111 126 0
103 120 0
104 119 0
89 106 0
101 116 0
95 110 0
89 104 0
99 115 0
68 83 0
77 92 0
86 99 0
85 98 0
85 99 0
77 88 0
66 77 0
87 99 0
68 80 0
74 86 0
65 76 0
59 69 0
69 81 0
73 84 0
67 78 0
73 82 0
60 70 0
66 76 0
80 91 0
65 76 0
58 68 0
80 89 0
74 85 0
80 89 0
83 94 0
72 82 0
67 77 0
72 84 0
72 84 0
90 103 0
77 86 0
87 98 0
77 88 0
76 87 0
75 86 0
85 95 0
102 115 0
92 105 0
94 104 0
99 114 0
97 110 0
94 108 0
98 110 0
83 95 0
103 117 0
91 104 0
107 119 0
100 112 0
110 123 0
103 117 0
108 121 0
104 116 0
115 127 0
113 125 0
106 116 0
116 128 0
102 115 0
105 116 0
114 127 0
118 133 0
119 133 0
112 122 0
127 139 0
118 132 0
110 121 0
123 136 0
121 134 0
106 117 0
123 135 0
123 136 0
126 137 0
128 137 0
111 119 0
125 137 0
115 127 0
122 133 0
107 116 0
122 132 0
109 121 0
109 117 0
117 127 0
114 124 0
114 123 0
113 124 0
119 125 0
110 120 0
115 124 0
122 131 0
109 114 0
112 119 0
117 123 0
105 111 0
118 121 0
118 125 0
115 119 0
107 111 0
103 103 0
104 106 0
113 113 0
97 100 0
102 105 0
109 107 0
97 93 0
94 92 0
87 84 0
103 102 0
91 87 0
94 93 0
90 88 0
80 76 0
79 70 0
82 73 11
68 60 0
75 68 0
91 80 0
86 77 11
85 77 0
90 82 0
94 86 0
98 91 0
91 81 0
91 81 0
102 92 0
99 92 0
106 97 0
94 86 0
102 95 0
110 101 0
110 101 0
111 104 0
98 91 0
109 100 0
103 94 0
107 99 0
119 111 0
108 100 0
112 104 0
108 102 0
113 104 0
112 105 11
105 98 0
115 107 0
111 103 0
108 101 0
109 103 0
116 109 11
115 109 11
122 113 0
108 102 0
125 119 11
111 105 16
118 113 0
110 103 0
124 115 11
128 122 11
120 114 11
108 103 16
126 119 16
121 113 16
122 115 11
118 112 30
114 108 0
116 109 19
130 123 28
108 102 22
115 108 0
126 119 16
121 113 16
124 117 28
123 115 28
121 114 25
121 115 28
116 111 25
121 116 30
123 117 30
121 115 16
122 116 22
124 118 28
121 116 25
123 115 22
125 119 25
125 117 30
123 117 25
122 116 28
121 115 25
117 111 28
128 121 34
124 116 32
119 114 34
135 127 36
113 103 19
122 115 34
129 123 41
126 119 30
137 131 47
123 118 30
118 112 32
129 123 36
132 127 41
129 122 42
124 119 32
119 113 34
121 114 34
127 121 36
122 115 36
121 116 25
121 114 39
126 119 37
115 109 37
120 116 22
122 115 32
121 115 34
114 108 36
126 120 39
115 109 39
178 200 80
175 198 36
173 197 25
175 198 51
171 195 0
175 197 51
174 197 44
174 197 57
173 197 36
176 198 57
176 199 57
178 200 57
174 196 57
175 198 36
178 200 57
176 199 57
172 195 25
171 195 25
173 195 0
173 196 25
173 196 25
174 197 25
173 195 0
175 197 0
172 194 0
175 198 0
173 195 25
174 196 0
170 193 0
173 195 0
172 195 0
170 193 0
171 193 0
171 193 25
171 193 0
172 195 0
172 195 0
174 196 0
171 193 0
175 196 0
173 195 0
172 193 0
170 193 0
173 194 0
171 194 0
173 195 0
167 189 0
168 190 0
172 193 0
172 193 0
170 190 0
170 191 0
171 192 0
171 193 0
170 191 0
168 190 0
171 193 0
171 193 0
171 193 0
174 195 0
171 192 0
170 190 0
172 192 0
169 190 0
168 189 0
171 192 25
172 192 0
170 191 0
170 191 0
169 190 0
169 191 0
166 188 0
169 190 0
172 193 0
169 189 0
167 189 0
166 187 0
164 184 0
168 189 0
169 190 0
164 186 0
163 184 25
163 184 0
160 180 0
164 185 0
167 187 0
172 192 0
163 183 0
169 190 25
161 181 0
167 188 0
156 177 0
159 180 0
171 192 25
155 175 36
168 189 57
161 183 44
160 182 0
157 178 44
166 187 25
170 190 44
172 192 76
166 186 67
165 185 57
159 180 0
157 178 0
160 181 0
158 179 0
163 184 0
161 182 0
154 175 0
158 179 0
160 180 0
158 178 0
156 176 0
151 173 0
161 182 0
149 170 0
152 174 0
154 175 0
151 171 0
153 173 0
156 177 0
150 170 0
158 178 0
150 173 0
158 179 0
147 168 0
153 175 0
154 175 0
145 167 0
148 169 0
151 172 0
155 176 0
151 173 0
157 179 0
145 167 0
145 166 0
151 172 0
150 171 0
151 172 0
146 168 0
144 165 0
139 160 0
147 168 0
148 169 0
138 159 0
146 167 0
146 167 0
143 163 0
151 172 0
135 156 0
143 164 0
137 158 0
135 155 0
143 166 0
133 153 0
126 147 0
145 166 0
137 158 0
123 143 0
129 148 0
134 154 0
121 141 0
116 135 0
122 142 0
130 149 0
118 137 0
125 143 0
124 143 0
117 137 0
119 137 0
118 137 0
118 135 0
113 131 0
120 137 0
107 124 0
102 119 0
95 111 0
96 113 0
94 110 0
108 125 0
83 99 0
93 107 0
88 103 0
84 98 0
96 110 0
90 104 0
86 100 0
77 91 0
81 95 0
78 91 0
79 92 0
68 81 0
80 93 0
74 85 0
77 89 0
84 95 0
85 96 0
85 97 0
79 92 0
56 69 0
75 87 0
62 71 0
75 88 0
83 96 0
84 96 0
79 90 0
85 97 0
68 80 0
90 103 0
69 81 0
90 101 0
89 102 0
87 99 0
77 89 0
80 91 0
87 100 0
93 108 0
93 105 0
85 96 0
70 82 0
85 97 0
95 108 0
88 100 0
91 104 0
100 112 0
108 122 0
106 117 0
97 112 0
98 112 0
100 111 0
96 108 0
107 121 0
98 108 0
110 123 0
100 111 0
118 132 0
109 122 0
111 124 0
105 116 0
107 120 0
108 120 0
114 127 0
119 132 0
123 136 0
118 129 0
126 138 0
109 120 0
116 126 0
117 129 0
114 126 0
122 135 0
122 136 0
126 137 0
120 131 0
119 132 0
126 139 0
115 125 0
117 128 0
128 138 0
118 128 0
111 121 0
110 119 0
122 131 0
108 118 0
112 120 0
120 130 0
123 132 0
116 123 0
122 130 0
110 120 0
111 117 0
117 125 0
118 124 0
109 112 0
110 114 0
116 121 0
105 108 0
114 116 0
112 118 0
102 105 0
118 121 0
119 122 0
100 103 0
97 96 0
112 114 0
106 107 0
103 100 0
87 86 0
104 103 0
100 99 0
88 88 0
94 94 0
94 89 0
91 86 0
75 70 0
77 68 0
80 70 0
81 73 11
69 60 0
86 80 0
75 68 0
80 73 0
79 71 0
84 77 0
87 77 0
99 88 0
98 91 0
93 85 0
99 88 0
102 92 0
87 78 0
99 89 0
93 85 0
102 95 0
105 97 0
109 102 0
106 98 0
105 96 0
106 98 0
101 92 0
112 103 0
111 103 11
107 99 11
107 100 16
115 107 11
113 105 0
122 115 11
114 108 0
116 107 16
113 106 0
106 99 0
113 105 11
111 104 0
105 100 11
119 110 19
120 113 19
124 116 16
125 118 22
114 107 16
118 110 0
107 101 16
118 110 16
122 114 19
126 118 25
119 112 22
111 104 0
122 115 22
128 119 19
110 103 22
118 112 16
124 117 25
119 111 28
116 110 22
115 109 16
121 113 19
115 110 28
125 118 30
113 106 22
126 119 19
117 110 25
117 109 16
124 117 16
126 118 28
120 112 28
123 115 32
121 114 32
122 115 22
126 119 28
123 116 30
125 119 30
117 111 22
118 110 32
125 118 30
123 116 32
122 116 32
121 116 19
132 126 34
118 111 37
126 120 37
127 119 22
116 109 37
117 110 34
121 115 32
122 116 36
123 117 37
127 120 34
129 121 36
118 111 36
116 109 25
123 117 39
115 109 34
123 116 36
122 115 45
119 113 34
125 118 37
118 112 39
117 111 39
116 110 37
185 206 130
189 209 133
189 209 130
176 198 62
176 199 44
175 197 0
171 195 36
176 199 57
173 197 51
176 199 36
174 197 36
170 193 44
173 195 51
177 199 44
170 193 36
173 196 25
174 196 25
173 197 36
174 197 36
173 196 36
172 194 0
174 196 25
171 193 0
173 195 0
174 196 0
174 197 0
172 194 25
170 193 0
171 194 0
173 195 0
173 195 0
175 197 0
175 196 0
172 193 25
171 193 0
175 197 0
177 198 0
173 195 0
172 194 0
174 195 0
178 199 0
170 192 0
174 197 0
172 193 0
175 197 0
170 192 0
172 195 0
170 191 0
175 197 0
170 193 25
168 190 0
172 192 0
172 193 0
168 189 0
171 192 0
173 194 0
172 193 0
169 190 0
173 193 0
172 193 0
171 192 0
173 194 0
169 191 0
170 191 0
169 189 0
171 193 0
170 191 0
171 191 25
168 189 0
172 193 0
169 190 0
174 195 0
163 184 0
165 186 0
170 190 0
169 190 0
168 189 0
168 189 0
170 191 0
164 185 0
166 187 25
164 185 25
165 186 0
166 187 0
168 190 25
167 187 25
166 187 0
159 181 0
162 183 0
170 191 0
165 185 0
169 190 44
160 181 44
168 188 57
166 187 25
161 182 57
164 185 44
168 188 25
168 189 57
166 186 80
172 191 44
161 181 44
162 182 0
164 185 0
164 185 0
163 183 0
163 184 0
163 184 0
158 180 0
155 175 0
155 176 0
161 182 0
164 185 0
157 178 0
158 179 0
153 174 0
157 178 0
156 176 0
150 172 0
151 171 0
159 180 0
151 172 0
153 174 0
149 170 0
158 179 0
149 170 0
160 181 0
152 173 0
156 178 0
157 178 0
152 174 0
153 175 0
148 169 0
150 171 0
149 170 0
156 177 0
151 172 0
158 178 0
153 174 0
146 168 0
149 171 0
144 166 0
147 168 0
142 163 0
141 162 0
146 168 0
135 156 0
144 165 0
146 168 0
141 162 0
136 156 0
145 166 0
148 170 0
147 167 0
149 170 0
137 157 0
140 159 0
135 154 0
127 147 0
129 148 0
129 149 0
128 148 0
130 149 0
119 139 0
115 136 0
133 151 0
123 142 0
131 150 0
118 136 0
124 143 0
113 131 0
113 131 0
102 121 0
110 128 0
116 134 0
110 128 0
107 124 0
100 116 0
110 127 0
103 121 0
109 126 0
110 126 0
90 105 0
95 111 0
97 112 0
95 110 0
98 113 0
87 101 0
97 111 0
87 103 0
90 105 0
75 89 0
83 97 0
90 103 0
71 84 0
77 89 0
75 91 0
79 92 0
87 101 0
82 93 0
73 86 0
79 91 0
82 94 0
79 92 0
95 109 0
83 95 0
86 97 0
82 93 0
84 98 0
86 99 0
77 91 0
70 83 0
84 96 0
89 101 0
94 106 0
87 99 0
92 106 0
95 109 0
99 111 0
95 105 0
94 108 0
100 113 0
97 111 0
87 100 0
105 116 0
99 112 0
106 119 0
100 113 0
100 115 0
110 121 0
98 111 0
112 126 0
106 121 0
104 115 0
111 124 0
96 110 0
106 118 0
100 115 0
109 122 0
119 133 0
112 127 0
110 126 0
120 133 0
118 132 0
125 139 0
114 127 0
120 134 0
119 134 0
127 142 0
124 137 0
108 121 0
125 139 0
119 132 0
122 134 0
118 131 0
120 128 0
116 129 0
118 129 0
121 134 0
116 128 0
123 135 0
118 128 0
108 113 0
118 129 0
116 124 0
109 119 0
125 135 0
127 135 0
104 112 0
118 129 0
119 129 0
129 139 0
116 125 0
115 125 0
114 118 0
111 115 0
115 122 0
113 118 0
112 116 0
119 123 0
116 121 0
109 110 0
107 109 0
100 102 0
100 102 0
103 104 0
102 102 0
98 96 0
93 94 0
98 98 0
100 98 0
99 95 0
90 85 0
84 81 0
87 86 0
100 98 0
86 83 0
77 70 0
84 79 0
75 64 0
68 59 0
77 67 0
75 66 0
82 73 0
86 77 0
91 85 0
96 88 0
84 72 0
84 77 0
92 85 0
93 87 0
91 83 0
99 89 0
98 89 0
94 85 0
100 92 0
92 84 0
96 89 0
106 97 0
96 88 0
107 99 0
111 101 0
106 97 0
104 94 11
108 100 11
101 93 11
112 104 11
112 104 0
108 101 11
113 103 0
107 100 0
116 108 0
111 105 0
119 110 0
113 105 0
107 101 0
121 112 0
102 95 19
110 103 16
105 98 11
111 105 11
123 114 19
117 110 11
126 118 25
109 103 19
106 98 11
106 100 19
118 111 11
123 115 19
119 111 16
122 112 16
124 118 16
117 110 11
130 123 22
122 115 22
116 111 19
128 121 30
115 110 22
125 118 25
122 115 25
125 119 28
119 112 30
122 115 30
121 114 32
117 111 16
126 119 19
120 113 30
114 107 22
127 120 28
123 116 22
121 113 34
115 108 28
116 110 22
128 120 39
121 114 28
125 118 25
119 113 28
117 112 28
130 123 34
125 117 42
113 105 25
123 116 37
115 110 30
125 118 37
124 117 28
113 107 36
119 113 39
121 114 37
113 107 34
118 111 19
115 109 25
115 108 30
107 100 32
123 117 32
116 110 37
117 111 42
115 109 39
109 104 36
110 104 30
125 127 37
172 195 0
174 197 44
178 201 95
185 205 130
187 207 128
184 205 105
176 198 57
174 197 0
171 194 36
174 197 25
173 196 62
173 196 36
172 195 51
173 196 44
174 196 44
172 195 44
173 196 57
176 199 67
174 196 51
174 195 67
175 198 51
179 200 57
173 195 36
174 197 36
174 196 0
171 194 0
172 194 0
172 194 0
174 196 0
175 197 0
173 195 0
173 195 0
173 196 0
174 196 0
170 192 0
171 193 0
173 195 25
172 195 0
175 197 25
171 194 0
173 195 0
170 192 0
173 195 0
173 194 0
172 194 0
172 194 0
170 192 0
173 194 0
176 197 0
171 192 0
172 193 0
169 191 0
173 195 0
167 189 0
171 193 0
176 197 0
175 196 0
174 195 25
169 190 0
170 191 0
172 194 0
171 192 0
174 195 0
170 190 0
172 193 25
164 186 0
172 194 0
170 191 0
165 186 0
170 192 0
167 189 0
165 187 0
169 190 0
169 191 0
166 187 0
169 190 25
158 180 0
165 186 0
168 188 0
164 185 0
171 193 0
170 190 0
165 186 0
164 185 0
169 190 0
167 187 0
167 188 25
167 186 25
164 185 25
158 179 0
166 187 25
163 183 25
165 187 36
167 188 62
165 185 51
164 185 0
168 189 67
168 188 62
163 184 0
158 179 0
160 181 0
161 181 0
156 176 0
158 179 0
164 185 0
163 183 0
162 184 0
159 179 0
159 180 0
163 183 0
153 174 0
156 177 0
161 181 0
156 178 0
159 180 0
160 181 0
156 177 0
148 169 0
150 171 0
155 176 0
162 184 0
159 180 0
150 171 0
152 173 0
157 178 0
156 177 0
143 165 0
158 179 0
152 173 0
154 175 0
153 175 0
149 170 0
153 174 0
148 170 0
150 171 0
155 176 0
159 180 0
152 173 0
146 166 0
153 174 0
155 178 0
144 165 0
139 160 0
137 158 0
147 168 0
144 164 0
144 166 0
144 163 0
144 165 0
147 167 0
136 156 0
135 156 0
147 168 0
129 149 0
129 150 0
144 164 0
148 170 0
139 160 0
137 158 0
130 150 0
131 151 0
125 145 0
138 158 0
127 147 0
122 142 0
121 140 0
132 152 0
122 143 0
127 146 0
118 137 0
124 143 0
119 137 0
100 119 0
101 120 0
103 121 0
119 137 0
105 124 0
111 129 0
100 117 0
99 115 0
105 123 0
106 123 0
90 107 0
121 136 0
101 118 0
109 124 0
100 117 0
95 112 0
103 118 0
86 100 0
91 105 0
92 107 0
96 109 0
87 102 0
89 104 0
81 97 0
95 110 0
85 99 0
95 107 0
86 100 0
81 96 0
96 110 0
87 99 0
73 88 0
84 98 0
90 104 0
81 94 0
76 90 0
78 91 0
77 91 0
89 103 0
98 114 0
78 91 0
90 102 0
93 107 0
95 109 0
87 101 0
92 105 0
100 113 0
90 105 0
89 103 0
96 110 0
99 114 0
88 100 0
109 123 0
100 115 0
104 118 0
105 118 0
96 108 0
100 113 0
102 115 0
88 103 0
108 123 0
118 131 0
110 125 0
116 131 0
116 128 0
116 128 0
100 115 0
124 139 0
123 137 0
107 122 0
117 132 0
109 121 0
111 124 0
119 132 0
116 130 0
115 129 0
107 121 0
118 132 0
116 128 0
108 119 0
120 134 0
120 133 0
110 124 0
127 141 0
120 133 0
122 133 0
106 119 0
126 136 0
118 130 0
121 133 0
124 134 0
130 143 0
129 139 0
119 129 0
120 129 0
120 131 0
123 134 0
122 130 0
115 125 0
110 119 0
119 127 0
114 118 0
115 124 0
112 118 0
119 125 0
108 113 0
115 122 0
95 99 0
106 111 0
111 116 0
101 102 0
117 122 0
109 115 0
107 110 0
110 114 0
111 113 0
99 101 0
100 102 0
102 99 0
95 95 0
81 79 0
108 107 0
98 98 0
94 90 0
89 87 0
86 83 0
90 84 0
88 83 0
85 78 0
90 82 0
73 61 0
73 67 0
81 72 0
87 77 0
80 71 0
84 72 0
84 72 11
82 73 0
84 76 0
98 88 0
93 82 0
90 79 0
94 87 0
92 84 0
103 92 0
97 88 0
94 85 0
95 86 0
101 91 16
104 96 11
107 101 0
96 86 0
100 92 0
101 93 0
104 96 0
100 94 0
111 102 0
113 105 11
98 90 0
99 91 0
107 99 0
108 98 11
107 98 11
106 99 11
113 105 0
113 106 19
114 107 16
116 107 11
118 110 0
108 101 11
113 103 0
117 110 16
117 109 11
116 108 16
115 107 19
112 107 16
101 96 0
114 107 0
112 103 16
116 107 19
127 120 25
119 112 19
124 118 16
121 113 16
119 111 19
104 99 22
114 107 22
119 113 22
124 114 25
110 103 16
124 117 34
118 111 28
121 115 28
124 117 30
110 103 16
117 108 30
112 104 19
133 126 36
117 109 28
119 112 16
115 109 30
122 116 25
123 116 34
114 107 19
124 116 39
129 123 28
122 115 34
116 110 30
117 110 32
120 115 32
113 107 32
118 112 39
116 110 34
112 106 25
115 108 37
122 115 36
109 105 25
123 116 37
118 112 39
115 108 30
112 106 34
114 107 30
109 103 34
120 112 39
126 126 39
139 146 37
155 172 11
168 189 0
172 196 0
174 197 0
169 194 0
172 196 0
175 197 57
176 199 72
187 207 135
187 207 130
181 202 99
176 199 57
176 198 36
175 198 44
173 195 36
174 198 25
173 196 36
171 195 0
176 198 57
176 198 44
173 195 51
174 196 44
175 198 51
175 198 44
176 199 44
175 198 57
174 196 51
173 196 36
174 196 36
176 198 44
173 196 0
176 198 0
173 195 0
171 194 0
175 197 0
175 197 0
172 194 0
171 194 0
171 194 0
175 196 25
173 195 0
175 197 0
174 195 0
176 197 25
173 194 0
169 191 0
172 193 0
171 193 0
174 196 0
175 196 0
173 194 0
174 195 0
169 190 0
176 196 0
170 192 0
169 190 0
172 193 0
176 196 0
169 190 0
172 193 0
169 190 0
173 194 0
173 194 0
167 189 25
173 194 0
169 190 0
174 194 0
170 191 0
171 193 0
170 191 0
171 192 25
169 190 0
163 185 0
170 191 0
176 198 36
172 193 25
167 188 0
170 192 0
170 190 0
163 184 0
168 188 0
165 187 0
169 190 0
166 187 25
170 191 36
168 189 25
167 188 44
168 187 36
168 188 67
164 184 57
168 189 36
166 187 25
166 186 57
169 191 51
166 186 36
170 190 80
172 192 72
169 189 57
163 184 0
164 185 0
168 188 0
161 182 0
162 183 0
162 183 0
160 181 0
155 176 0
159 179 0
160 181 0
159 180 0
164 185 0
162 183 0
149 169 0
159 180 0
159 180 0
153 174 0
151 173 0
156 177 0
162 183 0
158 179 0
158 179 0
148 170 0
159 181 0
154 175 0
152 174 0
148 169 0
150 171 0
159 181 0
156 177 0
149 171 0
157 179 0
158 179 0
142 163 0
144 166 0
141 163 0
148 170 0
143 165 0
154 175 0
158 179 0
150 172 0
148 169 0
140 161 0
151 173 0
146 167 0
137 159 0
151 172 0
144 165 0
147 168 0
149 171 0
151 172 0
138 158 0
144 165 0
146 167 0
147 168 0
133 154 0
136 157 0
140 162 0
139 160 0
128 148 0
144 165 0
136 156 0
132 152 0
127 148 0
131 150 0
128 149 0
124 144 0
130 149 0
121 142 0
136 156 0
128 148 0
120 140 0
121 141 0
119 139 0
116 134 0
120 139 0
126 146 0
116 134 0
127 146 0
114 131 0
99 117 0
113 129 0
110 127 0
99 117 0
113 130 0
117 135 0
122 139 0
98 115 0
95 112 0
98 115 0
95 112 0
97 113 0
103 117 0
102 118 0
88 102 0
103 119 0
79 93 0
78 94 0
87 101 0
100 115 0
97 113 0
84 98 0
102 116 0
79 93 0
100 115 0
87 100 0
85 100 0
87 102 0
87 103 0
87 103 0
88 102 0
86 101 0
94 106 0
95 109 0
89 104 0
96 110 0
103 117 0
97 111 0
81 92 0
110 123 0
90 104 0
94 108 0
109 125 0
93 109 0
99 111 0
90 104 0
101 114 0
94 107 0
102 116 0
106 120 0
97 110 0
118 132 0
103 118 0
101 113 0
113 128 0
111 126 0
114 126 0
106 118 0
118 132 0
105 121 0
106 121 0
119 133 0
109 123 0
123 139 0
115 130 0
117 132 0
124 138 0
114 127 0
122 136 0
127 138 0
118 133 0
126 140 0
114 125 0
118 132 0
111 125 0
117 131 0
124 136 0
128 143 0
116 129 0
122 132 0
135 151 0
118 131 0
120 131 0
121 133 0
121 135 0
115 125 0
114 122 0
111 123 0
110 121 0
121 132 0
123 134 0
127 140 0
105 114 0
114 125 0
122 131 0
120 129 0
111 118 0
125 134 0
123 132 0
118 126 0
116 120 0
121 126 0
122 129 0
111 116 0
111 115 0
115 120 0
109 114 0
113 120 0
117 121 0
114 119 0
110 115 0
113 114 0
106 107 0
106 107 0
122 121 0
102 101 0
105 102 0
91 89 0
104 103 0
97 97 0
85 81 0
90 87 0
97 95 0
85 83 0
86 80 0
71 71 0
77 69 0
91 88 0
79 73 0
77 69 0
71 63 0
79 70 0
80 70 0
85 73 0
83 75 0
92 81 0
92 80 0
99 88 0
95 85 0
97 87 0
94 87 0
102 95 0
95 86 0
103 96 0
91 80 0
97 89 0
95 87 0
98 91 0
96 87 0
100 90 0
105 95 0
94 87 11
100 92 0
114 107 0
114 104 11
101 94 0
108 99 11
116 110 0
106 96 11
113 104 0
99 91 16
106 96 0
113 104 0
113 106 11
102 94 11
109 101 19
115 105 19
103 96 0
103 96 11
108 100 11
115 107 0
114 107 19
112 101 16
108 101 16
113 105 25
112 104 16
112 104 16
111 105 22
112 104 16
118 111 16
121 113 22
115 107 19
116 109 28
119 114 11
130 122 32
128 120 22
121 112 19
123 115 28
129 122 37
118 110 22
112 104 22
123 116 32
119 113 28
122 116 22
115 110 22
117 109 30
118 110 28
113 105 28
116 109 28
116 110 28
113 106 22
122 113 39
116 110 34
117 109 36
114 108 22
118 111 36
119 112 30
118 111 28
120 113 22
117 108 28
125 118 30
117 111 19
122 114 32
101 95 25
120 111 36
122 114 36
115 108 39
124 122 42
141 151 25
159 177 11
165 184 0
166 187 0
170 190 0
169 189 0
171 196 0
172 195 0
173 196 0
173 197 0
172 196 0
170 194 0
171 195 0
175 198 25
181 203 95
183 205 105
180 202 114
181 202 105
176 199 67
173 196 25
171 195 36
175 198 44
171 195 0
173 197 36
175 198 44
180 201 76
176 198 51
175 197 36
175 196 36
176 199 62
174 197 57
170 193 36
174 197 44
174 195 25
172 193 51
174 196 36
177 199 44
172 195 36
175 197 36
176 198 57
174 196 0
172 194 0
176 197 0
169 192 0
171 193 0
173 195 0
178 199 0
172 194 0
174 195 36
174 197 0
171 193 0
173 194 0
170 193 0
176 196 25
174 197 25
172 193 25
169 192 0
173 193 0
174 195 25
172 193 0
176 197 25
168 190 0
172 193 0
171 192 0
171 192 0
167 189 0
170 191 0
165 186 0
172 192 25
168 189 0
167 188 0
168 190 0
168 190 0
172 193 0
168 189 0
168 189 0
172 192 0
169 189 0
174 195 36
174 194 0
171 192 0
166 187 0
169 190 25
169 189 0
170 191 36
174 193 57
165 186 0
167 186 44
168 188 51
166 187 36
170 190 57
168 189 44
169 190 51
160 182 0
165 187 51
169 191 67
161 183 44
163 184 36
169 190 51
162 182 0
164 184 0
168 188 0
167 188 0
165 186 0
169 191 0
163 185 0
158 180 0
168 189 0
162 184 0
157 178 0
161 182 0
166 187 0
164 185 0
162 183 0
155 175 0
153 174 0
155 176 0
159 180 0
157 177 0
156 177 0
154 175 0
163 184 0
156 176 0
149 171 0
153 173 0
157 178 0
159 179 0
155 176 0
152 173 0
147 168 0
153 175 0
154 176 0
147 169 0
148 169 0
159 181 0
136 158 0
156 178 0
156 178 0
147 169 0
150 170 0
154 175 0
150 172 0
147 168 0
144 165 0
146 167 0
147 170 0
151 173 0
143 165 0
142 163 0
148 169 0
146 167 0
143 164 0
150 171 0
146 166 0
147 169 0
137 159 0
132 154 0
139 159 0
143 166 0
138 160 0
133 153 0
135 155 0
138 158 0
135 155 0
134 155 0
129 149 0
137 156 0
119 139 0
132 151 0
134 155 0
128 147 0
123 143 0
127 147 0
123 142 0
130 149 0
126 145 0
119 139 0
115 134 0
123 143 0
122 140 0
119 137 0
113 131 0
128 147 0
108 126 0
119 138 0
116 133 0
108 126 0
111 129 0
107 124 0
101 118 0
109 127 0
120 138 0
104 121 0
112 129 0
102 118 0
108 124 0
106 121 0
110 127 0
104 121 0
97 113 0
96 112 0
99 115 0
96 108 0
89 105 0
90 106 0
95 110 0
94 109 0
106 121 0
113 127 0
86 100 0
106 120 0
101 116 0
100 116 0
101 117 0
96 111 0
98 112 0
93 105 0
96 110 0
109 124 0
97 111 0
98 112 0
111 124 0
103 117 0
103 118 0
96 112 0
102 118 0
101 114 0
112 127 0
89 102 0
99 113 0
101 117 0
102 115 0
110 125 0
108 123 0
102 117 0
116 131 0
108 122 0
110 123 0
101 113 0
103 117 0
119 132 0
120 133 0
116 129 0
117 131 0
112 127 0
117 130 0
105 117 0
115 130 0
126 141 0
116 132 0
115 128 0
113 127 0
134 149 0
122 134 0
113 125 0
114 127 0
112 127 0
133 147 0
119 134 0
120 133 0
117 129 0
115 130 0
124 140 0
132 146 0
118 131 0
115 129 0
114 124 0
127 139 0
121 132 0
119 129 0
121 132 0
126 136 0
125 135 0
119 125 0
113 121 0
111 118 0
115 124 0
117 126 0
106 115 0
121 127 0
110 118 0
119 129 0
119 127 0
123 131 0
118 125 0
105 111 0
116 123 0
126 131 0
106 113 0
111 116 0
107 112 0
117 122 0
112 116 0
108 113 0
104 110 0
106 107 0
107 109 0
112 111 0
118 119 0
89 90 0
101 101 0
117 115 0
105 106 0
96 96 0
91 87 0
87 82 0
100 98 0
88 87 0
87 81 0
94 90 0
80 75 0
74 70 0
81 75 0
67 58 0
82 73 0
71 63 0
76 66 0
62 54 0
90 79 0
81 71 11
85 76 0
95 85 0
84 76 0
89 80 0
98 88 0
90 79 0
96 86 0
92 83 0
99 88 0
100 93 0
101 93 0
105 95 0
90 82 0
92 86 0
98 91 16
103 96 0
104 96 0
115 106 19
99 92 0
111 102 0
101 92 11
107 99 0
109 102 16
96 88 16
86 78 11
113 108 0
119 111 11
108 100 11
108 102 11
117 110 19
99 92 0
114 104 22
97 90 11
115 107 19
105 98 16
103 96 16
114 105 22
118 109 22
104 97 16
107 101 16
106 100 19
118 111 22
106 101 0
117 111 30
125 117 19
117 109 22
121 113 19
120 113 22
124 116 32
128 120 25
116 110 28
116 107 25
110 104 16
125 116 30
116 107 25
120 113 19
128 120 32
115 109 22
120 114 25
118 110 22
115 107 32
124 116 36
117 110 30
106 100 16
115 108 32
117 110 34
115 108 25
113 107 30
108 101 28
124 118 42
115 109 32
109 102 30
111 104 36
117 109 36
128 119 47
108 99 30
127 126 34
140 149 28
158 174 22
171 189 0
170 190 0
169 187 0
171 192 0
169 189 0
168 188 0
168 187 0
173 197 0
173 196 0
175 198 0
174 197 0
172 196 0
172 195 0
171 195 0
174 197 0
173 196 0
171 195 0
174 197 44
180 201 80
182 203 102
187 208 125
182 203 111
183 205 111
173 196 51
173 196 36
174 197 0
176 198 36
172 195 44
174 195 36
171 194 36
171 194 44
177 199 51
176 197 44
175 198 57
173 196 25
172 194 0
172 194 57
173 195 51
172 194 36
171 193 51
177 199 51
173 194 44
173 196 57
176 198 62
173 195 0
176 198 36
174 196 36
174 195 44
171 192 25
175 197 25
174 196 0
170 192 0
173 194 0
169 192 0
172 194 0
171 192 0
176 198 0
165 187 0
174 196 0
176 197 0
174 196 0
172 193 0
175 196 0
171 193 0
174 195 25
172 193 0
169 190 25
171 192 0
173 195 0
175 195 25
168 188 0
174 194 0
172 192 0
173 194 0
170 190 25
174 194 25
169 190 25
172 193 0
168 189 0
172 192 36
163 183 36
171 192 57
166 187 51
170 191 57
167 188 51
167 189 36
173 194 51
168 189 57
170 191 44
164 185 51
169 190 57
169 190 25
172 193 67
170 190 57
170 191 57
168 188 76
163 184 36
165 185 0
165 186 0
163 184 0
165 185 0
165 184 0
162 184 0
163 184 0
157 178 0
165 186 0
165 185 0
163 184 0
166 187 0
163 184 0
158 179 0
161 182 0
159 181 0
159 180 0
164 185 0
164 184 0
162 183 0
156 178 0
157 178 0
157 179 0
163 184 0
154 175 0
163 185 0
156 178 0
154 175 0
162 183 0
158 179 0
143 164 0
158 179 0
149 170 0
153 175 0
152 173 0
155 176 0
154 174 0
148 170 0
158 180 0
146 167 0
150 172 0
151 173 0
146 167 0
154 175 0
155 178 0
147 169 0
148 169 0
146 167 0
158 179 0
145 165 0
148 170 0
146 168 0
150 171 0
143 165 0
144 164 0
143 164 0
149 171 0
141 162 0
141 163 0
145 167 0
136 157 0
142 164 0
141 162 0
136 157 0
140 161 0
128 148 0
131 151 0
146 165 0
137 156 0
134 155 0
134 154 0
135 155 0
124 143 0
134 153 0
131 151 0
132 153 0
121 140 0
129 149 0
119 137 0
118 137 0
126 145 0
135 154 0
115 133 0
116 134 0
107 127 0
118 137 0
120 140 0
117 136 0
123 142 0
111 130 0
124 142 0
112 130 0
110 128 0
111 128 0
113 131 0
104 120 0
110 127 0
100 117 0
103 122 0
117 135 0
115 131 0
102 118 0
104 122 0
109 124 0
109 124 0
98 114 0
95 112 0
101 116 0
100 117 0
97 113 0
93 108 0
93 108 0
86 102 0
106 122 0
113 129 0
99 116 0
104 120 0
100 116 0
95 110 0
102 117 0
81 97 0
108 122 0
93 108 0
96 110 0
99 114 0
97 111 0
103 119 0
96 113 0
97 113 0
96 109 0
108 123 0
104 119 0
100 116 0
103 117 0
112 128 0
105 121 0
114 127 0
110 124 0
112 127 0
103 117 0
102 116 0
110 124 0
110 125 0
118 131 0
113 125 0
108 122 0
113 128 0
110 122 0
108 124 0
117 132 0
119 134 0
113 128 0
121 135 0
127 141 0
111 126 0
124 138 0
121 134 0
121 135 0
113 126 0
119 134 0
123 138 0
118 133 0
121 135 0
122 136 0
115 128 0
127 142 0
128 143 0
116 131 0
114 127 0
135 150 0
122 137 0
128 139 0
133 147 0
122 136 0
122 135 0
118 128 0
130 141 0
127 137 0
118 128 0
125 136 0
117 125 0
121 131 0
127 138 0
122 131 0
117 126 0
105 112 0
125 134 0
108 110 0
122 127 0
121 128 0
122 129 0
119 126 0
116 121 0
109 111 0
120 125 0
117 122 0
120 125 0
113 113 0
114 119 0
118 123 0
120 124 0
112 109 0
124 125 0
96 96 0
98 97 0
115 119 0
108 106 0
102 102 0
102 100 0
107 109 0
103 101 0
101 100 0
100 97 0
90 87 0
90 84 0
83 78 0
87 83 0
91 87 0
81 75 0
88 81 0
83 80 0
71 65 0
71 61 0
73 64 0
68 60 0
73 63 0
88 77 0
84 76 0
76 67 0
95 84 0
92 82 0
95 85 0
97 87 0
88 79 0
97 88 0
96 87 0
91 80 0
101 91 0
99 91 0
95 85 0
104 94 0
103 95 0
100 91 16
106 98 0
94 85 0
101 93 11
106 97 0
115 106 16
101 91 0
92 87 0
111 103 11
107 97 11
115 106 16
105 99 0
98 90 16
116 108 19
110 101 0
103 97 11
109 99 11
117 109 11
123 116 22
111 102 16
113 106 16
119 109 19
107 99 16
115 108 28
110 104 11
113 106 19
113 106 30
108 101 22
107 100 22
115 109 22
118 109 25
103 97 19
116 108 22
106 99 19
112 105 25
115 106 28
119 112 25
120 113 30
112 105 19
124 116 30
108 102 32
110 102 22
106 101 19
116 109 28
104 97 19
110 103 19
107 100 19
116 109 22
114 107 30
105 98 25
113 105 37
118 110 32
109 102 30
113 107 34
113 111 25
126 129 25
151 162 19
159 177 11
165 183 0
166 184 0
166 185 0
164 183 0
166 187 0
170 188 0
168 188 0
168 185 0
166 185 0
167 189 0
174 197 0
172 195 0
174 197 0
173 195 0
174 197 0
174 197 0
172 195 0
173 196 0
170 194 0
175 198 0
175 198 0
173 196 0
174 197 0
171 193 0
175 198 51
177 199 72
186 207 117
184 204 130
183 204 114
181 202 102
176 199 72
174 197 51
174 196 36
176 198 25
172 195 25
172 195 44
176 198 51
173 196 57
174 196 62
176 198 51
176 198 51
175 197 0
173 195 51
172 194 51
178 199 57
176 197 51
175 197 44
177 198 44
175 196 62
173 195 44
175 197 51
171 193 0
177 198 36
173 194 25
178 199 62
178 199 67
171 192 36
171 192 51
172 193 44
173 194 62
176 197 36
173 194 25
174 195 0
172 193 36
171 192 25
171 192 25
173 193 36
170 192 44
175 196 0
170 191 25
175 194 51
174 195 25
171 192 25
172 193 57
170 191 44
171 192 51
166 188 36
171 192 44
172 191 51
171 191 36
173 194 44
171 191 44
176 197 44
165 187 0
171 192 57
167 188 36
167 188 25
170 191 44
164 185 25
162 183 36
167 188 36
171 193 67
174 194 76
174 194 76
171 191 72
166 186 36
167 188 0
164 185 0
163 183 0
166 186 0
165 185 0
166 186 0
165 186 0
159 180 0
163 184 0
166 187 0
158 179 0
162 183 0
160 182 0
163 184 0
160 182 0
163 185 0
162 182 0
161 182 0
163 184 0
161 182 0
163 185 0
157 178 0
157 178 0
165 186 0
155 177 0
161 182 0
152 173 0
158 179 0
149 171 0
152 172 0
159 180 0
154 176 0
156 178 0
154 175 0
156 178 0
154 176 0
157 178 0
150 172 0
161 182 0
145 167 0
153 174 0
142 164 0
154 176 0
159 181 0
152 173 0
149 171 0
151 172 0
149 170 0
152 173 0
152 174 0
143 165 0
151 172 0
142 164 0
137 157 0
149 171 0
141 163 0
145 166 0
141 163 0
152 173 0
151 172 0
143 165 0
150 171 0
144 166 0
150 170 0
143 164 0
132 153 0
144 165 0
136 157 0
130 151 0
145 167 0
128 147 0
139 161 0
137 158 0
132 152 0
142 163 0
127 147 0
132 153 0
126 147 0
127 148 0
125 145 0
124 144 0
124 143 0
118 137 0
126 145 0
122 142 0
129 149 0
121 141 0
123 142 0
122 141 0
109 128 0
113 132 0
128 146 0
123 142 0
119 138 0
116 133 0
109 126 0
111 129 0
113 132 0
119 137 0
117 135 0
117 134 0
98 116 0
116 133 0
107 123 0
106 122 0
101 119 0
114 130 0
118 135 0
98 115 0
116 133 0
104 122 0
101 117 0
104 120 0
100 116 0
99 114 0
110 125 0
96 111 0
105 121 0
113 128 0
106 122 0
92 107 0
100 116 0
109 124 0
103 120 0
115 131 0
105 121 0
99 114 0
105 122 0
104 119 0
114 130 0
111 128 0
103 118 0
111 126 0
112 128 0
105 120 0
109 124 0
113 129 0
115 132 0
110 127 0
108 121 0
110 126 0
115 130 0
110 124 0
123 139 0
113 126 0
117 130 0
104 118 0
108 122 0
112 128 0
108 123 0
117 132 0
122 138 0
121 134 0
108 122 0
110 125 0
119 132 0
122 139 0
119 134 0
120 134 0
127 141 0
127 141 0
116 131 0
125 139 0
132 148 0
126 139 0
129 142 0
119 135 0
127 141 0
133 147 0
122 136 0
118 129 0
122 137 0
123 137 0
125 137 0
122 134 0
101 114 0
129 142 0
137 152 0
129 143 0
123 134 0
121 133 0
125 139 0
117 128 0
123 133 0
120 127 0
123 132 0
125 136 0
121 130 0
130 141 0
132 141 0
125 132 0
117 124 0
114 122 0
117 122 0
118 123 0
121 128 0
120 127 0
128 136 0
119 125 0
116 120 0
121 126 0
119 126 0
107 110 0
109 111 0
115 118 0
104 105 0
125 129 0
117 119 0
112 114 0
108 108 0
115 114 0
107 108 0
100 99 0
102 102 0
91 87 0
103 102 0
93 91 0
97 93 0
100 95 0
86 81 0
88 82 0
97 90 0
92 88 0
87 83 0
75 69 0
78 73 0
77 68 0
90 85 0
68 57 0
74 65 0
73 64 0
81 71 0
77 66 0
78 68 0
82 72 0
80 68 0
92 81 0
93 83 0
82 73 0
95 84 0
96 87 0
82 74 11
100 90 0
83 72 0
99 89 19
88 81 0
97 90 0
102 92 0
108 98 11
100 90 0
102 93 11
101 93 16
102 91 0
103 95 11
104 95 16
109 101 19
100 93 11
104 96 16
114 105 11
96 88 0
114 104 11
108 100 0
106 97 19
110 102 0
112 102 11
113 105 22
113 105 11
96 89 11
109 102 0
114 105 11
103 95 19
109 102 19
113 106 0
115 107 22
111 103 11
110 100 19
126 118 30
107 99 16
107 99 25
116 106 16
103 96 16
109 102 22
114 106 30
104 97 28
111 102 28
113 105 25
113 107 22
109 102 16
101 95 25
111 102 25
117 108 36
115 107 22
112 103 30
117 109 32
102 95 19
104 95 22
121 119 30
132 136 19
139 147 16
159 172 16
164 181 0
163 181 0
166 184 0
166 183 0
167 183 0
158 175 0
167 185 0
170 190 0
166 187 0
167 188 0
170 189 0
171 189 0
169 187 0
167 186 0
173 197 0
174 197 0
171 195 0
173 196 0
172 196 0
172 195 0
174 197 0
172 195 0
172 195 0
173 197 0
173 195 0
172 195 0
171 193 0
173 196 0
174 196 0
175 197 0
171 193 0
170 193 0
175 198 0
175 197 57
182 202 105
182 203 105
188 208 125
183 204 111
179 201 84
176 199 62
174 197 44
174 197 36
172 196 25
176 198 51
177 198 44
174 197 36
174 196 25
173 195 36
171 194 36
174 196 25
176 198 57
171 193 25
171 193 51
170 193 25
171 193 36
173 194 36
174 196 44
175 197 51
174 196 51
172 194 25
169 191 25
176 198 25
174 194 51
175 196 36
172 193 51
176 197 62
171 191 44
174 195 44
173 195 57
170 191 36
169 190 57
175 195 44
174 194 25
172 192 0
173 195 25
174 195 36
172 192 44
171 191 44
169 189 44
173 194 0
169 189 25
171 192 36
168 189 44
170 192 36
170 190 51
172 191 36
169 190 25
171 192 36
166 187 36
172 193 51
173 194 72
175 195 51
174 194 84
170 190 67
167 187 44
169 190 36
168 188 0
161 182 0
165 186 0
163 184 0
162 182 0
168 189 0
166 187 0
162 183 0
164 186 0
154 175 0
160 182 0
167 187 0
155 176 0
160 181 0
159 180 0
164 184 0
171 192 0
162 184 0
165 186 0
162 183 0
164 185 0
162 184 0
162 183 0
153 174 0
161 183 0
160 181 0
159 180 0
157 179 0
153 174 0
155 175 0
156 177 0
158 178 0
156 178 0
155 176 0
156 178 0
155 177 0
151 173 0
154 175 0
158 179 0
151 172 0
154 176 0
148 169 0
153 175 0
153 175 0
154 176 0
148 169 0
153 175 0
154 176 0
152 174 0
152 174 0
142 163 0
151 173 0
154 175 0
151 173 0
147 170 0
152 174 0
147 168 0
142 163 0
149 170 0
152 174 0
147 170 0
138 160 0
135 156 0
142 164 0
148 170 0
140 161 0
137 159 0
138 160 0
139 160 0
137 158 0
141 162 0
136 157 0
145 166 0
143 164 0
140 161 0
130 150 0
134 155 0
139 159 0
131 150 0
138 159 0
139 159 0
125 145 0
134 155 0
131 151 0
129 149 0
125 146 0
132 153 0
129 149 0
126 145 0
125 145 0
125 144 0
112 131 0
130 149 0
118 138 0
134 154 0
130 150 0
118 137 0
122 140 0
130 150 0
117 134 0
115 134 0
114 132 0
115 134 0
99 117 0
113 132 0
123 141 0
119 137 0
105 123 0
106 124 0
114 130 0
109 127 0
110 127 0
113 131 0
114 132 0
106 122 0
100 117 0
101 117 0
113 130 0
101 117 0
109 124 0
113 130 0
106 122 0
94 111 0
108 124 0
114 131 0
93 109 0
110 126 0
108 126 0
111 126 0
103 119 0
104 119 0
104 120 0
94 108 0
106 121 0
106 122 0
109 124 0
107 121 0
110 127 0
118 131 0
106 121 0
114 131 0
117 131 0
104 118 0
111 129 0
118 133 0
117 133 0
118 133 0
105 121 0
110 125 0
115 132 0
117 131 0
115 131 0
113 129 0
119 134 0
113 129 0
115 131 0
108 122 0
119 132 0
121 136 0
115 129 0
118 133 0
123 138 0
128 143 0
116 129 0
116 131 0
115 130 0
123 136 0
126 141 0
127 142 0
120 135 0
122 136 0
121 132 0
116 130 0
120 133 0
128 142 0
115 130 0
125 140 0
125 137 0
132 148 0
126 140 0
127 141 0
118 131 0
122 134 0
127 141 0
127 137 0
124 137 0
125 139 0
131 144 0
127 138 0
130 141 0
121 132 0
118 128 0
124 135 0
119 128 0
127 136 0
128 139 0
119 128 0
123 132 0
122 127 0
113 122 0
117 124 0
130 137 0
118 124 0
120 126 0
109 115 0
119 125 0
125 131 0
120 126 0
118 120 0
111 110 0
121 125 0
110 113 0
122 124 0
119 122 0
113 117 0
107 108 0
96 95 0
110 112 0
107 104 0
99 97 0
99 96 0
109 104 0
112 113 0
102 100 0
101 100 0
115 114 0
103 101 0
97 96 0
91 85 0
93 86 0
83 80 0
91 83 0
84 75 0
86 80 0
95 87 0
90 86 0
85 77 0
80 76 0
68 59 0
93 82 0
89 77 0
78 68 11
88 78 0
88 75 0
89 80 0
89 77 0
86 78 0
96 87 0
103 91 0
86 76 0
94 84 0
99 89 11
100 90 11
103 92 0
108 98 16
98 91 0
100 91 0
102 93 16
94 85 16
102 93 19
107 101 11
101 92 19
98 90 0
107 96 11
104 95 16
87 80 0
99 90 16
102 91 19
104 95 11
110 101 16
104 96 16
111 102 22
108 99 16
105 96 11
100 92 11
107 100 22
114 104 19
97 90 11
109 104 19
107 98 25
109 100 28
117 108 32
112 103 16
111 102 30
111 103 19
97 92 11
114 107 19
112 105 25
109 102 25
109 101 25
103 94 22
101 94 22
115 107 28
105 98 30
110 101 34
112 110 22
112 112 25
138 139 19
143 151 11
158 170 0
167 183 0
164 180 0
165 181 0
163 177 0
166 182 0
163 180 0
166 184 0
167 182 0
167 182 0
168 187 0
165 184 0
167 184 0
165 181 0
165 181 0
170 190 0
169 187 0
165 182 0
167 185 0
174 197 0
173 196 0
174 196 0
174 197 0
171 195 0
172 196 0
169 193 0
173 197 0
171 194 0
173 196 0
171 195 0
172 196 0
175 198 0
174 197 0
172 195 0
172 196 0
171 194 0
173 196 0
174 197 0
171 193 0
170 193 0
176 198 0
174 197 0
176 197 44
178 199 76
177 199 84
181 202 105
188 208 133
179 201 80
178 200 80
178 199 72
179 200 105
174 196 44
174 196 44
175 197 25
177 199 36
172 194 44
174 197 36
169 191 25
173 194 36
174 196 51
174 197 57
174 196 36
178 199 51
176 198 57
174 196 25
173 195 44
175 197 44
174 195 36
174 196 25
175 196 25
171 192 36
174 194 36
171 193 36
176 197 51
174 195 44
166 188 44
167 188 25
175 195 0
173 194 51
173 194 25
174 194 44
174 194 0
175 196 36
172 194 0
172 192 25
172 194 57
171 192 44
170 192 51
170 191 44
177 196 72
173 194 57
174 195 76
175 195 44
169 189 62
175 195 72
168 188 44
170 191 0
169 190 0
166 186 0
164 185 0
162 183 0
166 187 0
170 192 0
163 183 0
163 185 0
164 184 0
160 180 0
164 185 0
164 185 0
164 185 0
162 184 0
163 184 0
164 185 0
161 182 0
159 180 0
165 187 0
158 180 0
163 184 0
159 180 0
164 185 0
161 183 0
162 184 0
160 181 0
157 177 0
150 170 0
158 180 0
146 167 0
161 182 0
162 184 0
165 188 0
153 174 0
159 181 0
161 181 0
162 184 0
155 176 0
153 174 0
158 181 0
151 174 0
151 173 0
155 177 0
153 174 0
151 172 0
155 177 0
157 178 0
147 169 0
153 174 0
156 177 0
150 172 0
151 172 0
144 165 0
152 173 0
144 164 0
152 174 0
143 164 0
152 174 0
148 170 0
149 171 0
156 177 0
150 171 0
150 171 0
140 161 0
149 172 0
144 165 0
145 166 0
142 163 0
139 161 0
143 165 0
134 155 0
139 160 0
142 163 0
153 175 0
144 165 0
140 162 0
148 170 0
135 155 0
139 160 0
137 158 0
148 169 0
140 161 0
121 140 0
135 155 0
134 155 0
135 154 0
135 155 0
126 145 0
131 151 0
126 145 0
137 157 0
121 140 0
129 149 0
123 143 0
121 140 0
128 147 0
119 136 0
129 148 0
124 143 0
118 137 0
120 137 0
122 140 0
132 152 0
128 147 0
117 135 0
129 148 0
124 142 0
120 139 0
118 137 0
127 145 0
115 132 0
113 131 0
118 135 0
119 138 0
113 131 0
102 119 0
104 120 0
108 126 0
117 135 0
117 135 0
117 135 0
121 138 0
122 140 0
95 113 0
106 124 0
101 117 0
109 125 0
115 131 0
115 132 0
108 124 0
111 127 0
121 137 0
101 119 0
116 132 0
92 109 0
109 125 0
106 121 0
106 121 0
98 112 0
118 133 0
107 124 0
114 129 0
111 127 0
119 136 0
120 135 0
111 127 0
115 131 0
115 132 0
113 130 0
118 133 0
112 126 0
123 140 0
125 141 0
129 144 0
114 128 0
118 134 0
127 142 0
108 126 0
122 137 0
113 128 0
122 137 0
108 123 0
127 143 0
131 148 0
128 143 0
120 137 0
127 141 0
121 138 0
117 131 0
124 137 0
118 133 0
118 133 0
129 142 0
124 138 0
125 140 0
120 136 0
117 130 0
118 133 0
115 127 0
135 148 0
118 130 0
125 139 0
120 134 0
137 151 0
131 146 0
122 134 0
129 143 0
132 146 0
128 142 0
125 139 0
129 139 0
127 140 0
126 136 0
113 124 0
127 141 0
121 131 0
133 145 0
129 138 0
120 129 0
118 129 0
129 139 0
121 129 0
133 144 0
122 130 0
118 129 0
124 134 0
118 125 0
112 116 0
127 134 0
132 140 0
127 132 0
111 115 0
123 128 0
130 134 0
122 128 0
110 115 0
123 129 0
124 127 0
112 117 0
109 114 0
114 116 0
119 120 0
116 119 0
113 114 0
102 103 0
109 109 0
100 99 0
114 111 0
102 102 0
104 105 0
106 103 0
107 106 0
92 91 0
98 93 0
88 85 0
101 97 0
92 86 0
96 89 0
91 89 0
90 83 0
96 89 0
81 74 0
88 84 0
78 69 0
98 88 0
86 79 0
81 73 0
76 67 0
79 67 0
85 76 0
81 72 0
82 73 11
84 77 0
89 80 0
84 74 0
91 83 0
92 83 11
101 90 0
96 86 0
96 85 19
94 85 0
97 87 0
103 94 11
90 81 11
95 85 0
97 86 11
97 88 11
103 94 0
101 92 11
105 97 16
101 92 0
104 97 0
103 96 0
114 106 25
101 93 16
97 90 16
105 96 22
110 99 28
102 94 30
106 99 19
104 94 25
107 97 22
103 92 16
105 96 22
111 102 28
108 101 30
109 103 19
110 101 19
106 97 19
115 107 16
98 89 19
106 97 28
110 101 25
120 115 22
113 114 0
122 121 16
132 137 11
147 159 11
153 165 0
161 175 0
163 176 0
159 172 0
162 177 0
158 173 0
163 177 0
156 170 0
161 175 0
164 179 0
164 178 0
165 182 0
164 181 0
165 182 0
160 174 0
164 182 0
163 180 0
161 176 0
168 189 0
167 187 0
166 182 0
165 182 0
167 184 0
166 184 0
171 194 0
173 196 0
173 196 0
172 195 0
169 192 0
172 195 0
173 196 0
171 194 0
175 198 0
171 194 0
172 194 0
172 195 0
173 195 0
177 199 0
173 196 0
171 195 0
172 195 0
173 195 0
170 193 0
169 192 0
170 192 0
173 196 0
170 193 0
173 195 0
175 197 0
173 195 0
175 197 0
173 196 0
172 195 0
174 196 0
176 197 51
175 197 57
183 204 95
180 201 95
182 202 99
179 199 88
180 202 95
180 200 88
180 202 84
182 203 105
180 200 95
182 202 84
177 198 67
172 194 44
175 196 67
175 197 62
173 195 25
171 193 0
173 195 44
178 200 62
174 195 44
174 196 51
176 197 0
174 196 25
176 198 51
172 194 25
174 195 57
171 193 36
173 195 51
174 194 84
177 199 62
181 201 105
174 195 80
174 195 62
177 198 80
175 195 62
177 197 76
176 196 67
173 194 51
173 193 51
171 192 25
172 192 0
170 190 0
169 190 0
161 182 0
168 189 0
167 188 0
164 185 0
166 187 0
169 190 0
167 187 0
167 188 0
162 183 0
166 186 0
168 190 0
172 192 0
165 186 0
162 184 0
159 181 0
167 188 0
162 183 0
156 178 0
165 185 0
157 177 0
165 186 0
162 182 0
159 180 0
166 187 0
165 186 0
159 181 0
163 184 0
156 178 0
146 168 0
161 182 0
150 171 0
152 174 0
162 182 0
162 183 0
154 174 0
159 181 0
161 182 0
163 184 0
155 177 0
150 172 0
157 178 0
158 180 0
155 177 0
154 175 0
149 170 0
156 178 0
157 178 0
153 175 0
159 180 0
155 177 0
153 175 0
153 175 0
153 174 0
158 180 0
161 182 0
148 170 0
153 176 0
141 162 0
149 171 0
147 169 0
152 173 0
159 181 0
137 159 0
149 171 0
145 166 0
149 171 0
153 174 0
143 165 0
155 177 0
149 170 0
147 168 0
144 165 0
142 163 0
141 163 0
136 158 0
141 162 0
141 162 0
132 154 0
135 156 0
139 160 0
135 155 0
145 165 0
143 165 0
142 163 0
133 155 0
142 163 0
134 155 0
138 159 0
135 156 0
136 157 0
138 158 0
130 150 0
135 156 0
145 165 0
132 151 0
127 147 0
127 146 0
128 148 0
123 141 0
133 154 0
120 140 0
119 139 0
131 151 0
118 137 0
131 149 0
118 138 0
120 140 0
115 134 0
124 142 0
113 132 0
125 142 0
116 133 0
107 124 0
118 136 0
117 135 0
117 136 0
120 138 0
103 121 0
118 137 0
119 137 0
110 128 0
107 124 0
103 122 0
111 128 0
115 132 0
103 122 0
111 129 0
113 130 0
118 134 0
109 127 0
113 130 0
112 131 0
112 129 0
120 136 0
115 132 0
123 140 0
106 120 0
110 127 0
115 132 0
120 135 0
115 130 0
118 134 0
115 131 0
109 126 0
118 134 0
112 129 0
128 142 0
119 135 0
114 129 0
118 134 0
119 135 0
121 135 0
121 139 0
125 140 0
119 136 0
123 139 0
125 142 0
127 143 0
109 124 0
116 134 0
113 131 0
108 123 0
113 129 0
128 144 0
124 142 0
118 132 0
119 137 0
119 133 0
116 131 0
121 138 0
133 151 0
128 145 0
120 137 0
130 146 0
124 139 0
125 140 0
126 140 0
134 149 0
137 153 0
136 150 0
120 134 0
128 143 0
118 130 0
122 136 0
122 136 0
132 148 0
130 144 0
129 142 0
125 140 0
128 139 0
126 138 0
132 145 0
128 141 0
131 142 0
126 137 0
137 150 0
118 130 0
114 128 0
132 142 0
127 140 0
128 140 0
118 130 0
133 145 0
126 136 0
133 142 0
116 125 0
123 135 0
115 124 0
130 137 0
118 125 0
119 129 0
114 122 0
127 133 0
125 135 0
125 133 0
116 122 0
127 133 0
127 133 0
116 118 0
116 120 0
123 128 0
116 120 0
120 120 0
120 127 0
110 111 0
115 117 0
113 112 0
119 122 0
117 119 0
114 115 0
99 98 0
120 118 0
99 99 0
118 118 0
107 105 0
111 111 0
107 104 0
104 98 0
110 107 0
101 95 0
119 117 0
102 98 0
101 97 0
94 90 0
94 89 0
93 86 0
103 100 0
98 89 0
99 91 0
93 84 0
101 97 0
94 88 0
97 88 0
110 104 0
91 86 0
110 108 0
93 85 0
96 89 0
90 84 0
91 81 0
94 86 16
88 79 0
94 86 0
84 74 0
85 75 0
83 73 11
99 90 11
88 79 11
96 88 0
90 80 0
100 90 11
102 92 0
98 87 11
92 83 0
97 89 11
91 82 22
96 86 19
99 90 11
95 85 11
113 102 16
101 92 22
95 87 11
109 100 16
95 87 11
100 90 0
96 88 22
95 87 22
105 95 28
106 96 19
114 109 25
124 123 19
127 128 19
119 119 0
130 131 16
134 138 11
149 157 16
151 161 0
153 163 0
160 173 0
156 167 0
158 171 0
159 170 0
156 169 0
161 175 0
164 176 0
159 172 0
161 175 0
161 175 0
156 170 0
161 173 0
163 176 0
165 180 0
166 181 0
160 175 0
153 166 0
161 180 0
167 182 0
161 175 0
159 173 0
161 178 0
163 180 0
162 176 0
163 180 0
164 180 0
166 186 0
162 179 0
172 196 0
174 197 0
172 195 0
173 196 0
171 195 0
172 195 0
173 196 0
174 197 0
172 196 0
172 195 0
169 193 0
173 195 0
173 196 0
170 192 0
173 196 0
173 195 0
174 197 0
173 195 0
171 195 0
172 195 0
175 197 0
171 194 0
175 197 0
175 197 0
171 193 0
174 196 0
174 196 0
173 195 0
175 197 0
171 193 0
173 196 0
175 197 0
174 196 0
175 197 0
171 194 0
173 195 0
173 194 0
174 196 0
174 196 0
174 196 0
175 197 36
176 197 51
177 198 67
179 199 76
179 199 80
179 199 92
180 200 92
179 199 76
181 201 84
178 198 76
177 198 92
176 197 76
178 198 76
180 200 67
177 197 80
173 193 57
176 196 76
177 196 51
175 196 51
172 192 25
172 192 25
175 195 0
173 194 0
174 194 0
169 189 0
174 194 0
176 196 0
172 193 0
164 186 0
169 190 0
172 192 0
170 191 0
166 187 0
176 197 0
170 190 0
172 192 0
163 184 0
168 189 0
168 189 0
169 190 0
167 188 0
160 182 0
170 191 0
163 183 0
163 184 0
169 189 0
159 179 0
166 187 0
162 183 0
163 184 0
166 188 0
162 182 0
162 184 0
157 179 0
162 182 0
166 188 0
158 179 0
158 179 0
152 173 0
160 182 0
163 184 0
165 186 0
159 180 0
162 184 0
161 182 0
153 174 0
169 190 0
154 175 0
163 185 0
154 176 0
160 181 0
155 177 0
152 174 0
149 171 0
149 171 0
160 182 0
159 180 0
155 178 0
148 170 0
150 172 0
156 179 0
159 181 0
159 180 0
151 171 0
144 166 0
157 178 0
153 175 0
152 173 0
149 172 0
151 172 0
147 168 0
154 175 0
147 169 0
150 171 0
146 168 0
145 166 0
145 166 0
148 170 0
145 167 0
155 177 0
153 174 0
151 173 0
145 168 0
143 165 0
144 166 0
153 174 0
142 164 0
148 170 0
146 168 0
144 165 0
139 161 0
142 163 0
140 160 0
137 159 0
142 163 0
128 148 0
138 159 0
142 164 0
140 161 0
137 158 0
145 165 0
143 164 0
139 160 0
139 159 0
127 147 0
126 146 0
142 162 0
128 147 0
132 152 0
132 153 0
120 139 0
131 152 0
125 144 0
135 155 0
136 156 0
118 138 0
126 145 0
131 149 0
127 147 0
114 134 0
119 138 0
127 146 0
126 145 0
125 143 0
124 142 0
124 143 0
120 139 0
130 149 0
128 147 0
107 126 0
115 132 0
113 132 0
128 147 0
130 148 0
110 126 0
117 134 0
122 140 0
111 130 0
120 139 0
114 132 0
124 141 0
116 134 0
115 132 0
110 128 0
119 136 0
119 136 0
114 130 0
114 131 0
113 129 0
114 131 0
123 141 0
116 133 0
99 115 0
116 134 0
122 140 0
120 136 0
116 133 0
114 129 0
117 133 0
104 120 0
117 136 0
105 122 0
129 146 0
118 134 0
106 121 0
129 145 0
128 143 0
124 141 0
133 148 0
126 144 0
119 135 0
122 139 0
122 138 0
120 137 0
127 145 0
118 133 0
122 140 0
129 144 0
120 137 0
118 134 0
127 143 0
130 145 0
127 144 0
128 145 0
126 141 0
127 142 0
121 137 0
136 154 0
138 155 0
129 144 0
128 145 0
118 134 0
115 129 0
121 137 0
121 135 0
130 148 0
126 140 0
129 143 0
130 145 0
129 144 0
126 140 0
127 141 0
127 143 0
133 148 0
127 140 0
123 137 0
135 151 0
136 151 0
126 140 0
129 140 0
135 147 0
123 138 0
126 138 0
124 135 0
119 130 0
128 139 0
135 147 0
131 141 0
126 139 0
131 140 0
118 128 0
129 140 0
127 136 0
127 138 0
121 126 0
125 134 0
131 140 0
116 123 0
120 127 0
121 126 0
126 132 0
125 130 0
118 122 0
122 126 0
119 126 0
114 121 0
123 128 0
122 128 0
121 126 0
124 128 0
118 119 0
112 116 0
121 124 0
104 100 0
111 110 0
128 132 0
108 110 0
117 119 0
110 113 0
114 112 0
118 118 0
119 119 0
110 109 0
100 98 0
104 101 0
105 103 0
105 100 0
103 101 0
89 83 0
100 95 0
100 97 0
98 94 0
112 110 0
99 93 0
111 108 0
95 91 0
105 101 0
95 90 0
100 96 0
86 80 0
105 101 0
104 101 0
100 93 0
119 114 0
100 95 0
98 90 0
109 103 0
117 113 0
110 107 0
108 103 0
100 98 0
121 118 0
106 100 0
118 115 11
111 104 16
117 116 16
111 110 0
116 113 0
108 101 0
113 110 16
120 116 19
116 114 11
120 118 0
128 126 0
122 121 11
139 141 19
129 128 0
132 132 0
127 129 0
137 139 11
142 147 0
141 144 0
146 152 0
138 145 0
154 164 0
155 163 0
142 150 0
147 156 0
150 157 0
152 162 0
145 153 0
150 160 0
152 160 0
158 169 0
154 164 0
154 163 0
150 160 0
157 169 0
157 166 0
152 161 0
163 178 0
161 174 0
160 174 0
159 171 0
160 171 0
157 172 0
161 176 0
164 181 0
162 177 0
162 178 0
165 179 0
161 176 0
159 174 0
164 181 0
163 180 0
164 181 0
167 183 0
162 177 0
164 180 0
170 186 0
173 196 0
174 197 0
175 198 0
173 196 0
175 197 0
172 195 0
173 196 0
174 197 0
172 194 0
168 192 0
172 196 0
173 196 0
174 197 0
173 196 0
173 195 0
175 198 0
171 194 0
174 197 0
172 195 0
174 197 0
173 196 0
175 197 0
174 196 0
175 197 0
176 198 0
174 197 0
172 194 0
174 196 0
172 195 0
171 193 0
173 195 0
173 194 0
175 196 0
168 190 0
173 194 0
174 195 0
173 195 0
171 192 0
176 198 0
174 195 0
172 193 0
173 194 0
172 195 0
174 195 0
172 193 0
175 196 0
171 193 0
176 196 0
173 195 0
171 192 0
170 191 0
169 190 0
172 193 0
175 196 0
171 191 0
174 195 0
168 189 0
176 197 0
173 194 0
168 190 0
169 190 0
172 193 0
172 193 0
168 190 0
170 192 0
173 193 0
172 193 0
169 190 0
171 192 0
172 192 0
171 192 0
173 194 0
168 188 0
172 193 0
173 193 0
168 189 0
164 184 0
167 188 0
166 187 0
170 191 0
166 186 0
173 193 0
170 191 0
166 188 0
166 187 0
168 189 0
156 178 0
163 184 0
164 185 0
163 183 0
172 193 0
165 187 0
160 182 0
157 178 0
164 185 0
165 186 0
165 186 0
162 184 0
164 186 0
160 182 0
162 184 0
157 179 0
154 175 0
156 178 0
158 180 0
160 182 0
156 177 0
158 180 0
159 180 0
158 180 0
160 181 0
162 184 0
155 176 0
154 176 0
155 176 0
158 180 0
154 175 0
152 174 0
152 174 0
147 170 0
155 177 0
159 180 0
156 179 0
150 171 0
147 168 0
148 171 0
150 172 0
153 175 0
154 176 0
152 174 0
151 172 0
155 177 0
158 179 0
140 162 0
152 174 0
154 176 0
152 174 0
149 170 0
149 169 0
144 166 0
139 160 0
149 171 0
141 162 0
148 170 0
133 155 0
140 160 0
150 170 0
138 159 0
147 168 0
149 171 0
138 160 0
141 162 0
149 171 0
145 165 0
134 155 0
138 160 0
140 161 0
131 152 0
141 162 0
139 159 0
138 160 0
141 162 0
135 156 0
135 155 0
131 151 0
144 165 0
124 144 0
128 148 0
125 145 0
127 146 0
138 158 0
131 152 0
118 138 0
114 134 0
131 149 0
123 142 0
132 152 0
123 143 0
124 143 0
131 150 0
120 140 0
136 156 0
129 147 0
113 131 0
122 140 0
127 147 0
112 129 0
123 142 0
122 140 0
117 136 0
119 136 0
118 136 0
114 133 0
122 141 0
121 139 0
117 136 0
120 138 0
110 130 0
116 134 0
116 134 0
110 127 0
119 137 0
105 123 0
116 134 0
112 130 0
120 136 0
112 130 0
115 132 0
120 137 0
121 137 0
121 139 0
122 139 0
118 135 0
116 133 0
125 144 0
120 136 0
118 135 0
110 128 0
128 144 0
124 139 0
121 139 0
119 136 0
116 133 0
117 134 0
118 135 0
117 134 0
122 139 0
116 133 0
119 135 0
125 141 0
114 133 0
125 142 0
124 141 0
127 144 0
117 134 0
133 151 0
127 145 0
117 133 0
119 135 0
120 137 0
135 153 0
137 155 0
131 146 0
126 141 0
137 154 0
116 132 0
128 142 0
133 149 0
119 136 0
127 143 0
131 148 0
131 146 0
124 137 0
123 139 0
127 140 0
137 154 0
127 141 0
136 152 0
121 135 0
116 129 0
134 150 0
123 138 0
136 152 0
127 141 0
123 139 0
127 141 0
136 150 0
131 144 0
126 138 0
133 145 0
130 143 0
126 139 0
109 117 0
119 129 0
129 142 0
123 134 0
125 136 0
136 147 0
125 135 0
138 149 0
131 144 0
127 137 0
131 139 0
135 146 0
128 138 0
127 136 0
123 132 0
131 141 0
120 129 0
125 133 0
128 139 0
125 134 0
126 134 0
117 122 0
129 136 0
122 126 0
117 122 0
128 132 0
117 117 0
124 130 0
118 122 0
120 124 0
134 137 0
110 111 0
127 130 0
122 125 0
121 123 0
112 113 0
107 106 0
107 106 0
114 113 0
111 109 0
116 116 0
118 118 0
114 115 0
105 102 0
112 111 0
111 108 0
101 99 0
115 113 0
107 105 0
110 109 0
104 99 0
116 111 0
98 93 0
113 108 0
98 92 0
110 105 0
113 107 0
101 97 0
107 103 0
116 113 0
110 105 0
106 104 0
108 103 0
106 102 0
122 118 0
119 117 0
102 95 0
118 115 0
114 111 0
115 108 0
115 111 0
123 120 0
116 115 0
124 121 0
127 123 0
126 125 0
135 136 0
137 137 0
133 132 0
133 135 0
141 143 0
139 142 0
135 136 0
134 136 0
142 145 0
144 149 0
135 135 0
145 150 0
142 145 0
143 148 0
147 155 0
143 147 0
146 152 0
152 159 0
141 145 0
148 156 0
141 149 0
154 160 0
150 159 0
149 157 0
154 164 0
149 158 0
158 168 0
157 168 0
162 176 0
155 165 0
159 170 0
159 170 0
158 169 0
161 173 0
159 171 0
156 169 0
160 172 0
161 174 0
160 173 0
161 176 0
164 178 0
154 167 0
166 182 0
159 172 0
163 178 0
165 180 0
160 177 0
169 186 0
164 182 0
165 182 0
164 183 0
161 176 0
174 197 0
173 196 0
172 195 0
172 194 0
175 198 0
171 194 0
172 195 0
172 196 0
172 195 0
172 195 0
171 194 0
172 194 0
175 197 0
173 196 0
175 197 0
172 194 0
175 197 0
174 196 0
173 195 0
169 192 0
178 199 0
175 197 0
175 197 0
177 198 0
168 191 0
170 192 0
173 195 0
173 195 0
174 196 0
174 196 0
174 196 0
174 195 0
173 194 0
168 191 0
172 194 0
174 195 0
173 194 0
172 193 0
173 194 0
175 196 0
174 195 0
173 195 0
174 196 0
171 193 0
172 192 0
172 192 0
174 195 0
175 196 0
173 195 0
171 192 0
171 192 0
173 193 0
175 196 0
174 194 0
172 193 0
172 193 0
173 194 0
170 191 0
169 190 0
171 191 0
169 190 0
166 188 0
169 191 0
169 190 0
174 195 0
174 195 0
174 194 0
169 189 0
168 188 0
167 189 0
165 186 0
167 189 0
171 192 0
166 186 0
166 187 0
166 187 0
164 185 0
170 190 0
166 187 0
162 183 0
164 185 0
168 189 0
165 187 0
162 182 0
166 186 0
163 184 0
162 183 0
161 183 0
163 185 0
163 184 0
166 188 0
158 179 0
162 183 0
163 185 0
163 184 0
162 184 0
164 185 0
167 188 0
165 186 0
162 184 0
167 188 0
159 182 0
166 187 0
158 180 0
161 182 0
156 177 0
156 178 0
150 171 0
152 173 0
157 179 0
155 177 0
153 176 0
160 182 0
160 182 0
165 186 0
158 180 0
158 180 0
157 180 0
149 171 0
156 178 0
155 177 0
155 177 0
160 182 0
162 183 0
159 180 0
156 178 0
155 176 0
154 177 0
150 172 0
158 179 0
146 168 0
155 176 0
161 183 0
147 167 0
154 175 0
152 172 0
149 170 0
153 175 0
149 171 0
149 170 0
154 176 0
157 180 0
141 163 0
152 174 0
146 167 0
152 172 0
141 163 0
148 169 0
149 169 0
141 162 0
146 166 0
142 163 0
146 167 0
144 165 0
147 168 0
141 162 0
139 160 0
145 166 0
136 158 0
134 155 0
144 165 0
140 161 0
133 154 0
137 158 0
143 164 0
134 155 0
133 155 0
133 154 0
132 153 0
129 149 0
124 143 0
133 153 0
140 161 0
134 155 0
123 142 0
120 142 0
134 153 0
141 161 0
128 148 0
121 141 0
136 156 0
119 139 0
127 147 0
127 147 0
124 143 0
121 140 0
124 142 0
128 147 0
128 147 0
127 147 0
109 126 0
123 141 0
121 139 0
118 136 0
126 145 0
114 133 0
114 131 0
122 140 0
124 143 0
123 141 0
124 142 0
108 126 0
118 136 0
125 143 0
114 132 0
115 133 0
115 131 0
118 136 0
109 127 0
116 134 0
116 134 0
129 147 0
121 138 0
105 120 0
105 122 0
116 133 0
122 140 0
124 142 0
129 146 0
119 137 0
123 139 0
122 140 0
114 129 0
118 135 0
122 139 0
113 131 0
124 141 0
129 145 0
108 123 0
119 135 0
128 145 0
128 146 0
124 139 0
120 138 0
121 138 0
120 136 0
127 143 0
127 144 0
118 135 0
122 139 0
127 143 0
119 136 0
126 141 0
119 134 0
124 139 0
130 147 0
147 165 0
135 153 0
134 149 0
141 158 0
133 150 0
132 147 0
125 141 0
120 134 0
128 143 0
135 149 0
125 139 0
127 142 0
119 134 0
126 139 0
131 144 0
122 137 0
134 149 0
136 150 0
131 148 0
128 142 0
126 140 0
128 142 0
136 150 0
120 129 0
131 143 0
125 140 0
126 139 0
134 147 0
120 133 0
131 143 0
128 140 0
129 144 0
135 146 0
139 150 0
131 144 0
136 150 0
139 150 0
128 139 0
129 138 0
130 141 0
132 141 0
136 145 0
128 138 0
134 144 0
134 144 0
124 134 0
129 139 0
133 139 0
123 132 0
117 125 0
122 127 0
130 135 0
132 140 0
127 135 0
129 134 0
125 132 0
131 137 0
125 129 0
122 128 0
124 126 0
118 122 0
120 124 0
114 117 0
124 125 0
117 120 0
124 125 0
123 124 0
124 125 0
116 117 0
114 115 0
110 108 0
118 117 0
113 114 0
115 112 0
116 112 0
108 106 0
115 114 0
95 90 0
114 111 0
120 118 0
112 110 0
115 112 0
109 105 0
111 107 0
115 112 0
114 111 0
109 105 0
112 106 0
119 116 0
108 103 0
106 102 0
116 114 0
119 114 0
114 111 0
114 111 0
119 117 0
127 125 0
123 121 0
130 129 0
122 118 0
130 129 0
125 125 0
131 132 0
130 131 0
132 135 0
127 129 0
130 129 0
136 139 0
133 135 0
131 134 0
131 130 0
149 150 0
138 141 0
139 144 0
135 135 0
140 144 0
143 147 0
135 139 0
148 154 0
151 155 0
146 153 0
148 154 0
158 167 0
148 154 0
146 154 0
152 160 0
141 147 0
157 166 0
159 170 0
147 156 0
151 161 0
162 175 0
150 160 0
155 165 0
156 168 0
158 170 0
160 171 0
158 171 0
156 170 0
160 174 0
152 164 0
161 174 0
159 172 0
152 166 0
157 171 0
163 178 0
167 183 0
159 174 0
166 182 0
159 173 0
170 186 0
165 182 0
164 179 0
164 179 0
172 196 0
173 196 0
173 196 0
172 196 0
172 195 0
173 196 0
172 195 0
174 197 0
174 196 0
174 197 0
172 195 0
170 194 0
174 196 0
173 196 0
169 192 0
177 199 0
174 196 0
172 194 0
171 193 0
173 195 0
176 198 0
172 194 0
172 195 0
173 195 0
172 194 0
175 197 0
176 198 0
175 197 0
175 197 0
172 193 0
173 195 0
172 195 0
174 196 0
176 198 0
172 194 0
172 194 0
172 193 0
173 195 0
171 193 0
172 193 0
172 194 0
175 197 0
174 196 0
171 193 0
175 196 0
173 195 0
175 195 0
175 196 0
171 192 0
174 195 0
176 197 0
170 191 0
174 195 0
171 192 0
173 193 0
169 191 0
173 194 0
176 196 0
173 194 0
172 193 0
170 192 0
168 189 0
176 197 0
169 190 0
168 189 0
173 194 0
172 193 0
169 190 0
171 192 0
168 188 0
167 189 0
164 184 0
167 188 0
165 186 0
172 192 0
171 192 0
168 188 0
166 186 0
167 188 0
169 190 0
167 188 0
167 188 0
162 184 0
168 189 0
167 187 0
159 180 0
166 188 0
162 183 0
158 180 0
162 184 0
165 186 0
161 182 0
163 185 0
160 182 0
157 179 0
164 185 0
160 182 0
168 190 0
159 180 0
164 185 0
170 192 0
157 179 0
161 182 0
160 182 0
159 181 0
162 183 0
159 180 0
157 179 0
156 178 0
166 188 0
162 184 0
155 177 0
163 186 0
162 184 0
156 177 0
155 177 0
150 172 0
151 172 0
152 174 0
151 173 0
155 177 0
159 181 0
150 173 0
151 173 0
147 169 0
154 176 0
146 167 0
159 181 0
153 175 0
148 170 0
148 169 0
157 179 0
150 172 0
154 175 0
148 170 0
150 172 0
148 170 0
147 169 0
151 173 0
145 167 0
146 168 0
145 168 0
146 168 0
144 165 0
145 165 0
150 171 0
144 165 0
148 170 0
137 158 0
142 164 0
146 166 0
145 167 0
144 166 0
134 153 0
144 166 0
157 179 0
136 157 0
145 167 0
139 159 0
139 160 0
148 169 0
135 156 0
144 165 0
135 155 0
140 161 0
142 162 0
138 159 0
137 158 0
130 150 0
137 157 0
130 151 0
134 155 0
130 150 0
133 153 0
132 152 0
137 157 0
123 142 0
130 151 0
130 150 0
134 153 0
132 151 0
128 148 0
123 143 0
132 151 0
142 162 0
133 153 0
122 140 0
133 153 0
135 155 0
122 141 0
123 143 0
127 145 0
120 139 0
131 150 0
125 143 0
126 145 0
120 137 0
122 141 0
122 140 0
121 139 0
124 143 0
136 153 0
124 141 0
117 136 0
133 152 0
120 138 0
123 140 0
128 145 0
134 153 0
123 141 0
124 142 0
116 133 0
129 147 0
132 150 0
121 137 0
119 138 0
135 153 0
130 147 0
124 143 0
124 142 0
123 138 0
129 146 0
123 140 0
119 136 0
119 137 0
123 141 0
129 147 0
114 130 0
121 138 0
116 133 0
123 139 0
115 132 0
128 144 0
124 141 0
124 142 0
124 141 0
127 143 0
120 137 0
127 143 0
136 154 0
124 141 0
131 148 0
125 144 0
133 149 0
136 153 0
124 141 0
135 152 0
128 145 0
137 154 0
137 154 0
125 141 0
123 139 0
134 152 0
133 150 0
139 158 0
129 145 0
137 153 0
138 155 0
136 152 0
132 149 0
135 151 0
130 147 0
124 140 0
128 146 0
127 141 0
136 151 0
130 143 0
134 149 0
127 139 0
128 141 0
143 158 0
125 140 0
130 144 0
134 146 0
130 144 0
131 146 0
132 147 0
133 146 0
138 149 0
128 140 0
132 143 0
130 143 0
126 138 0
130 138 0
132 142 0
128 138 0
134 145 0
130 138 0
132 141 0
123 132 0
120 129 0
117 123 0
136 144 0
127 135 0
134 144 0
120 129 0
129 137 0
118 126 0
125 133 0
128 131 0
121 128 0
125 132 0
125 129 0
111 114 0
117 117 0
125 128 0
112 118 0
116 120 0
128 130 0
116 117 0
118 121 0
113 114 0
110 112 0
115 119 0
122 123 0
115 116 0
118 120 0
129 129 0
118 115 0
117 117 0
113 111 0
111 106 0
126 124 0
120 117 0
118 118 0
124 124 0
113 113 0
117 110 0
124 125 0
123 121 0
121 118 0
116 113 0
103 100 0
116 113 0
114 110 0
115 113 0
121 120 0
117 116 0
109 101 0
121 118 0
116 113 0
119 114 0
126 124 0
115 111 0
124 122 0
123 121 0
125 124 0
129 129 0
129 127 0
121 117 0
130 132 0
138 137 0
133 132 0
125 123 0
135 137 0
133 134 0
132 133 0
139 140 0
139 141 0
134 137 0
144 146 0
140 142 0
142 147 0
138 138 0
142 146 0
144 151 0
141 147 0
150 157 0
147 155 0
144 149 0
145 151 0
142 150 0
154 162 0
149 157 0
149 158 0
152 159 0
153 163 0
155 163 0
152 163 0
160 170 0
156 168 0
160 172 0
160 175 0
155 165 0
156 168 0
159 170 0
160 172 0
158 171 0
155 167 0
161 175 0
160 171 0
160 177 0
164 179 0
161 175 0
158 171 0
162 176 0
163 178 0
162 176 0
160 175 0
163 178 0
174 197 0
175 198 0
175 197 0
174 197 0
171 194 0
174 196 0
170 193 0
173 195 0
173 196 0
172 194 0
173 196 0
172 195 0
172 195 0
174 196 0
172 195 0
174 197 0
174 197 0
174 196 0
171 194 0
171 194 0
171 194 0
171 194 0
174 196 0
170 192 0
175 197 0
171 194 0
172 195 0
174 196 0
174 196 0
174 196 0
173 195 0
173 194 0
169 190 0
172 193 0
176 197 0
173 195 0
176 197 0
173 195 0
171 193 0
173 195 0
174 196 0
172 193 0
176 197 0
173 194 0
174 196 0
173 195 0
173 194 0
171 193 0
167 188 0
169 189 0
174 195 0
173 193 0
171 193 0
175 196 0
168 189 0
170 190 0
176 196 0
173 193 0
173 194 0
168 189 0
172 193 0
175 195 0
173 194 0
171 190 0
171 192 0
168 189 0
167 188 0
162 182 0
170 190 0
168 190 0
170 192 0
166 187 0
166 187 0
169 190 0
168 189 0
171 191 0
170 190 0
168 189 0
158 180 0
167 188 0
165 187 0
165 186 0
165 187 0
166 187 0
167 188 0
165 185 0
158 180 0
168 189 0
160 182 0
161 182 0
164 185 0
163 184 0
167 188 0
166 186 0
160 181 0
159 181 0
158 179 0
160 182 0
161 183 0
163 185 0
162 184 0
159 181 0
158 180 0
157 180 0
160 182 0
161 182 0
162 182 0
156 178 0
155 176 0
160 183 0
155 177 0
158 180 0
153 174 0
154 177 0
156 178 0
160 181 0
163 185 0
155 177 0
153 175 0
157 179 0
156 179 0
162 184 0
149 172 0
155 178 0
155 177 0
146 169 0
151 173 0
150 172 0
152 174 0
150 171 0
154 175 0
146 167 0
146 168 0
151 174 0
149 170 0
145 167 0
148 170 0
153 176 0
152 173 0
151 174 0
149 171 0
150 172 0
152 174 0
148 170 0
149 171 0
151 172 0
153 176 0
155 177 0
147 169 0
148 170 0
147 168 0
145 167 0
140 161 0
150 173 0
143 166 0
143 164 0
139 159 0
137 158 0
144 166 0
135 156 0
137 158 0
136 157 0
137 159 0
141 162 0
137 156 0
130 151 0
135 156 0
143 164 0
140 162 0
132 153 0
140 161 0
135 156 0
135 155 0
136 155 0
137 158 0
129 150 0
118 138 0
132 152 0
138 159 0
144 163 0
126 146 0
130 149 0
129 149 0
129 149 0
136 155 0
122 141 0
132 151 0
140 159 0
135 155 0
126 145 0
124 143 0
126 144 0
121 140 0
125 145 0
129 149 0
128 148 0
126 143 0
129 149 0
126 145 0
129 149 0
133 154 0
135 155 0
136 156 0
123 142 0
127 145 0
126 145 0
130 147 0
123 140 0
121 138 0
123 141 0
130 149 0
123 141 0
118 137 0
125 143 0
118 136 0
123 142 0
127 146 0
126 143 0
123 141 0
128 148 0
125 142 0
130 149 0
133 151 0
131 149 0
111 128 0
120 136 0
131 147 0
119 136 0
129 147 0
124 143 0
119 137 0
116 132 0
133 152 0
131 149 0
120 138 0
133 153 0
131 149 0
127 144 0
124 140 0
123 139 0
133 151 0
133 150 0
130 145 0
123 138 0
125 139 0
129 143 0
124 139 0
119 135 0
133 150 0
131 146 0
125 142 0
135 152 0
119 134 0
125 140 0
133 150 0
129 145 0
126 140 0
130 148 0
142 158 0
128 146 0
123 140 0
128 141 0
144 161 0
136 153 0
132 147 0
136 152 0
128 144 0
135 149 0
138 153 0
129 143 0
130 143 0
132 146 0
125 136 0
131 147 0
125 136 0
127 141 0
125 141 0
134 145 0
133 142 0
123 134 0
128 141 0
130 141 0
118 130 0
132 144 0
133 146 0
129 140 0
132 144 0
135 149 0
122 132 0
143 153 0
123 131 0
130 140 0
127 134 0
132 140 0
131 141 0
127 134 0
125 132 0
133 142 0
122 129 0
133 143 0
127 136 0
126 130 0
134 141 0
112 115 0
127 131 0
131 135 0
124 129 0
125 131 0
124 127 0
129 134 0
123 126 0
128 129 0
133 137 0
126 131 0
112 113 0
131 135 0
118 121 0
127 128 0
115 114 0
111 112 0
115 116 0
120 119 0
123 122 0
124 125 0
123 126 0
120 117 0
119 117 0
114 111 0
120 119 0
106 106 0
131 131 0
117 114 0
119 116 0
116 118 0
125 126 0
118 112 0
121 120 0
123 125 0
125 123 0
119 113 0
114 112 0
127 127 0
127 127 0
125 124 0
121 118 0
122 120 0
131 132 0
122 123 0
128 129 0
127 124 0
139 140 0
131 134 0
136 136 0
133 131 0
136 138 0
137 136 0
141 143 0
126 125 0
133 136 0
138 141 0
145 148 0
141 144 0
143 146 0
130 130 0
149 154 0
141 144 0
145 149 0
147 154 0
146 153 0
146 151 0
149 156 0
147 154 0
144 149 0
156 165 0
151 158 0
154 163 0
156 163 0
151 160 0
160 171 0
160 173 0
152 161 0
150 157 0
153 161 0
158 170 0
158 171 0
156 167 0
160 172 0
158 169 0
155 169 0
163 178 0
161 175 0
156 169 0
160 174 0
158 170 0
161 175 0
160 175 0
160 171 0
164 180 0
165 180 0
163 177 0
173 195 0
169 193 0
175 197 0
173 196 0
174 197 0
171 195 0
172 195 0
174 196 0
174 196 0
173 196 0
171 193 0
174 196 0
174 197 0
170 193 0
175 197 0
172 194 0
173 196 0
172 194 0
171 195 0
169 191 0
170 192 0
174 195 0
170 192 0
173 195 0
171 194 0
174 195 0
174 196 0
169 192 0
173 195 0
174 196 0
171 193 0
172 194 0
172 193 0
174 196 0
172 194 0
170 192 0
172 194 0
171 192 0
171 193 0
172 194 0
172 194 0
173 195 0
173 194 0
173 194 0
173 194 0
172 194 0
174 196 0
169 190 0
171 192 0
175 196 0
172 193 0
168 189 0
169 190 0
173 193 0
170 190 0
174 194 0
173 194 0
169 190 0
173 193 0
168 189 0
175 196 0
174 195 0
167 189 0
167 187 0
170 191 0
171 192 0
168 188 0
167 188 0
168 190 0
169 189 0
168 189 0
167 188 0
169 188 0
163 184 0
165 186 0
165 187 0
162 184 0
166 187 0
162 183 0
162 183 0
161 182 0
165 186 0
162 183 0
162 183 0
162 184 0
166 187 0
169 189 0
160 182 0
162 182 0
163 183 0
160 181 0
154 175 0
160 182 0
164 185 0
165 187 0
165 186 0
160 181 0
157 179 0
165 187 0
156 178 0
161 183 0
159 181 0
160 182 0
157 180 0
156 177 0
153 175 0
166 188 0
151 173 0
158 181 0
156 178 0
165 188 0
153 175 0
156 177 0
162 184 0
159 182 0
157 179 0
160 181 0
160 183 0
155 176 0
151 173 0
158 180 0
157 179 0
151 174 0
157 179 0
155 176 0
151 173 0
154 176 0
155 176 0
159 182 0
148 170 0
150 172 0
153 175 0
145 167 0
148 170 0
152 175 0
154 176 0
147 168 0
147 169 0
143 165 0
147 169 0
153 176 0
140 162 0
142 164 0
151 174 0
142 163 0
146 168 0
139 160 0
142 164 0
151 172 0
147 170 0
145 167 0
147 169 0
140 160 0
144 166 0
138 161 0
135 156 0
140 162 0
140 162 0
143 163 0
139 159 0
147 168 0
136 157 0
144 165 0
137 158 0
128 148 0
144 166 0
140 162 0
139 159 0
131 151 0
146 167 0
140 162 0
130 151 0
135 155 0
135 155 0
140 161 0
126 145 0
123 142 0
129 149 0
134 152 0
127 145 0
128 149 0
134 154 0
135 154 0
138 158 0
126 147 0
122 142 0
127 148 0
112 131 0
129 148 0
138 156 0
132 151 0
128 148 0
124 143 0
131 150 0
122 141 0
121 139 0
124 143 0
135 155 0
137 157 0
134 154 0
120 140 0
126 146 0
121 140 0
135 153 0
122 140 0
130 150 0
122 141 0
121 139 0
124 142 0
124 144 0
124 143 0
126 146 0
126 144 0
126 145 0
115 133 0
128 145 0
118 135 0
122 141 0
133 151 0
133 150 0
129 147 0
125 144 0
123 140 0
127 144 0
120 137 0
133 151 0
116 134 0
123 140 0
128 146 0
120 138 0
125 143 0
131 147 0
125 144 0
125 142 0
117 136 0
130 146 0
132 150 0
127 146 0
121 138 0
127 145 0
127 144 0
125 144 0
139 156 0
136 152 0
123 140 0
123 139 0
129 145 0
127 144 0
141 158 0
130 143 0
122 137 0
127 143 0
139 157 0
137 154 0
135 153 0
143 160 0
140 158 0
134 151 0
124 140 0
130 146 0
124 137 0
127 142 0
133 149 0
134 149 0
136 152 0
133 148 0
137 152 0
139 154 0
135 149 0
136 150 0
134 149 0
129 141 0
129 141 0
129 142 0
133 147 0
145 158 0
130 145 0
142 155 0
128 141 0
136 149 0
134 146 0
137 150 0
126 136 0
134 148 0
135 149 0
133 145 0
129 143 0
131 143 0
131 143 0
137 148 0
127 140 0
138 150 0
130 139 0
128 135 0
129 139 0
126 135 0
125 134 0
123 132 0
127 135 0
127 134 0
127 136 0
135 142 0
131 139 0
127 133 0
129 135 0
132 138 0
128 135 0
117 122 0
125 134 0
125 131 0
127 132 0
136 139 0
129 132 0
132 135 0
127 131 0
122 125 0
120 124 0
121 124 0
129 134 0
125 128 0
115 119 0
124 125 0
125 125 0
120 122 0
121 123 0
112 112 0
123 126 0
118 118 0
123 122 0
128 126 0
126 129 0
123 121 0
121 121 0
113 115 0
118 119 0
110 107 0
127 125 0
116 112 0
123 124 0
132 132 0
131 130 0
126 125 0
126 126 0
115 116 0
126 126 0
125 123 0
126 126 0
133 132 0
128 124 0
133 134 0
132 133 0
136 136 0
136 139 0
124 122 0
132 133 0
143 142 0
134 136 0
138 138 0
136 138 0
128 128 0
136 139 0
142 142 0
150 154 0
141 143 0
135 139 0
139 140 0
137 140 0
141 145 0
141 145 0
148 154 0
148 154 0
148 156 0
152 160 0
148 155 0
145 151 0
148 154 0
148 155 0
155 164 0
152 160 0
157 166 0
152 162 0
156 166 0
158 171 0
148 156 0
158 170 0
157 168 0
154 162 0
150 162 0
157 169 0
163 174 0
155 168 0
163 175 0
160 174 0
165 181 0
160 172 0
161 175 0
165 180 0
158 173 0
160 174 0
166 183 0
173 196 0
173 197 0
174 197 0
174 197 0
170 193 0
173 196 0
173 196 0
170 192 0
170 193 0
169 191 0
174 197 0
170 194 0
170 193 0
172 194 0
173 195 0
172 193 0
172 193 0
175 197 0
173 195 0
174 197 0
176 197 0
172 194 0
172 195 0
171 194 0
173 196 0
173 196 0
170 192 0
172 194 0
171 193 0
174 195 0
171 193 0
175 197 0
176 197 0
174 196 0
168 190 0
170 192 0
174 196 0
173 194 0
174 196 0
172 194 0
167 189 0
164 186 0
173 195 0
171 191 0
171 193 0
175 195 0
172 193 0
172 193 0
172 194 0
173 194 0
173 194 0
173 195 0
172 194 0
171 192 0
172 193 0
170 191 0
171 192 0
169 190 0
170 191 0
170 191 0
169 190 0
170 192 0
167 188 0
168 189 0
164 185 0
162 183 0
167 188 0
168 189 0
167 187 0
167 188 0
165 186 0
169 190 0
164 185 0
168 190 0
164 186 0
166 187 0
166 187 0
162 184 0
165 187 0
166 187 0
164 185 0
167 188 0
164 185 0
161 184 0
166 188 0
162 184 0
164 187 0
160 181 0
158 179 0
164 186 0
155 176 0
153 176 0
161 184 0
164 187 0
164 187 0
163 185 0
164 186 0
159 180 0
154 176 0
163 185 0
157 178 0
150 172 0
159 181 0
159 179 0
152 174 0
161 183 0
159 182 0
152 174 0
162 184 0
160 182 0
153 175 0
162 185 0
158 180 0
156 177 0
161 184 0
158 180 0
159 182 0
153 174 0
160 182 0
158 180 0
152 173 0
157 179 0
158 180 0
159 181 0
149 171 0
146 168 0
155 177 0
156 178 0
145 168 0
161 183 0
153 175 0
157 180 0
154 176 0
149 171 0
154 176 0
152 174 0
148 170 0
147 169 0
145 167 0
143 165 0
145 168 0
146 168 0
144 165 0
144 166 0
151 173 0
151 173 0
153 174 0
143 165 0
150 172 0
147 169 0
145 167 0
147 168 0
147 169 0
131 151 0
149 170 0
140 162 0
148 169 0
149 172 0
145 167 0
140 161 0
143 165 0
132 152 0
133 154 0
134 156 0
124 145 0
136 157 0
137 158 0
122 142 0
135 156 0
136 156 0
128 149 0
148 169 0
139 160 0
138 158 0
135 156 0
133 153 0
142 163 0
126 146 0
124 145 0
130 150 0
136 156 0
137 157 0
124 145 0
130 150 0
133 153 0
121 141 0
132 152 0
123 143 0
136 156 0
137 156 0
132 151 0
128 149 0
129 149 0
135 153 0
133 152 0
125 145 0
118 137 0
127 145 0
125 146 0
123 140 0
129 149 0
111 129 0
132 150 0
128 147 0
124 143 0
124 142 0
119 137 0
126 145 0
131 149 0
138 159 0
126 145 0
127 147 0
123 142 0
126 144 0
133 152 0
126 145 0
110 129 0
127 145 0
124 141 0
134 153 0
123 139 0
123 140 0
129 148 0
133 151 0
124 143 0
128 147 0
133 151 0
136 153 0
127 144 0
130 147 0
132 150 0
136 153 0
127 145 0
134 152 0
129 147 0
128 146 0
122 140 0
131 149 0
134 154 0
132 149 0
129 147 0
131 149 0
129 147 0
138 155 0
127 144 0
132 149 0
135 151 0
127 143 0
132 147 0
128 145 0
119 135 0
138 155 0
137 154 0
127 144 0
140 158 0
137 153 0
134 150 0
130 146 0
131 145 0
128 144 0
126 141 0
144 160 0
135 152 0
132 146 0
131 146 0
125 140 0
133 150 0
140 156 0
141 153 0
134 149 0
124 139 0
137 150 0
138 153 0
137 153 0
131 146 0
136 151 0
139 152 0
136 151 0
138 152 0
141 155 0
130 141 0
137 150 0
134 149 0
140 151 0
132 144 0
129 141 0
124 136 0
130 143 0
137 146 0
139 150 0
128 139 0
136 147 0
130 139 0
133 144 0
135 143 0
127 141 0
129 141 0
127 136 0
145 157 0
131 139 0
131 137 0
136 144 0
125 132 0
131 138 0
124 130 0
131 138 0
131 136 0
127 133 0
127 133 0
129 134 0
136 144 0
123 128 0
124 125 0
122 126 0
122 126 0
117 119 0
123 128 0
131 134 0
120 123 0
134 140 0
131 134 0
126 127 0
125 127 0
125 126 0
131 134 0
129 133 0
133 135 0
127 127 0
127 129 0
115 115 0
118 116 0
124 125 0
118 120 0
125 125 0
125 124 0
128 128 0
128 129 0
126 125 0
131 133 0
126 127 0
125 126 0
121 119 0
132 131 0
122 121 0
128 130 0
132 132 0
127 127 0
125 125 0
121 118 0
123 121 0
142 144 0
128 128 0
126 129 0
131 130 0
133 133 0
139 141 0
140 142 0
131 132 0
138 142 0
144 146 0
143 145 0
130 131 0
148 151 0
148 153 0
136 138 0
148 151 0
140 145 0
144 147 0
137 142 0
139 143 0
149 157 0
140 145 0
154 163 0
152 158 0
154 163 0
148 158 0
149 155 0
152 163 0
146 156 0
148 158 0
149 155 0
153 162 0
157 167 0
152 162 0
152 164 0
157 167 0
157 167 0
154 164 0
160 172 0
157 168 0
152 165 0
157 168 0
163 177 0
161 174 0
162 176 0
157 165 0
159 173 0
159 172 0
166 182 0
161 176 0
175 197 0
175 198 0
172 194 0
173 195 0
173 196 0
173 196 0
175 197 0
173 196 0
171 193 0
173 195 0
170 193 0
170 193 0
175 198 0
174 197 0
174 196 0
171 193 0
174 196 0
172 194 0
169 190 0
171 193 0
174 196 0
172 194 0
173 195 0
176 198 0
174 194 0
175 196 0
172 194 0
167 189 0
170 193 0
174 195 0
170 191 0
173 194 0
169 191 0
174 196 0
168 190 0
173 194 0
172 194 0
173 195 0
172 193 0
175 196 0
170 191 0
171 192 0
172 192 0
177 197 0
172 192 0
172 193 0
172 193 0
171 192 0
172 194 0
170 192 0
168 190 0
171 192 0
172 193 0
169 191 0
167 188 0
168 189 0
167 188 0
173 194 0
171 193 0
172 193 0
171 193 0
170 192 0
169 189 0
164 185 0
171 191 0
171 192 0
170 191 0
168 189 0
165 185 0
168 190 0
167 188 0
167 189 0
167 188 0
160 181 0
160 181 0
164 185 0
164 185 0
167 189 0
164 185 0
166 187 0
165 187 0
172 194 0
162 184 0
160 181 0
164 186 0
166 187 0
167 187 0
165 187 0
160 182 0
161 182 0
160 182 0
159 180 0
161 183 0
163 184 0
166 188 0
160 182 0
161 183 0
160 181 0
158 180 0
159 180 0
162 184 0
164 186 0
162 184 0
163 185 0
160 182 0
161 184 0
154 175 0
161 183 0
159 181 0
158 181 0
156 178 0
154 176 0
158 179 0
151 173 0
161 183 0
158 181 0
154 176 0
150 172 0
155 177 0
154 177 0
151 173 0
158 180 0
155 178 0
155 177 0
148 170 0
151 172 0
148 170 0
154 176 0
150 171 0
159 182 0
151 173 0
146 167 0
150 173 0
158 180 0
146 169 0
152 173 0
150 172 0
149 170 0
152 174 0
147 170 0
146 169 0
151 174 0
151 172 0
149 170 0
147 169 0
144 166 0
146 168 0
142 164 0
149 171 0
149 170 0
149 171 0
147 169 0
130 152 0
145 166 0
147 169 0
145 166 0
151 173 0
140 162 0
150 172 0
150 172 0
139 161 0
143 164 0
142 163 0
134 155 0
140 160 0
142 163 0
130 151 0
141 163 0
128 149 0
126 146 0
135 155 0
136 156 0
141 161 0
134 154 0
141 163 0
127 148 0
136 156 0
128 149 0
136 157 0
139 158 0
129 149 0
136 156 0
142 162 0
126 147 0
129 149 0
140 159 0
126 144 0
136 156 0
139 159 0
130 150 0
126 146 0
131 152 0
124 144 0
137 155 0
125 143 0
135 155 0
130 150 0
125 144 0
133 152 0
130 149 0
128 147 0
136 156 0
127 145 0
127 144 0
123 141 0
119 138 0
135 155 0
126 145 0
135 155 0
128 146 0
123 143 0
113 132 0
123 141 0
123 142 0
116 135 0
128 147 0
135 154 0
121 138 0
123 142 0
136 153 0
115 133 0
131 150 0
135 152 0
124 142 0
129 147 0
121 138 0
125 141 0
141 159 0
133 150 0
125 143 0
128 146 0
123 141 0
128 146 0
131 150 0
126 142 0
133 151 0
127 145 0
125 144 0
130 151 0
127 145 0
130 148 0
126 141 0
115 133 0
138 156 0
134 151 0
132 147 0
133 151 0
129 146 0
137 154 0
136 153 0
131 149 0
130 146 0
126 144 0
144 159 0
130 144 0
127 144 0
133 152 0
138 155 0
135 151 0
145 163 0
139 155 0
137 153 0
125 140 0
141 156 0
130 146 0
129 146 0
136 152 0
126 141 0
127 145 0
137 152 0
140 155 0
131 147 0
140 155 0
143 159 0
135 150 0
128 141 0
138 153 0
135 148 0
136 148 0
131 144 0
135 147 0
137 153 0
139 154 0
135 149 0
130 142 0
126 139 0
136 146 0
137 148 0
135 146 0
133 142 0
137 147 0
130 142 0
130 141 0
137 149 0
139 150 0
138 151 0
131 139 0
126 137 0
130 140 0
136 145 0
132 141 0
142 154 0
123 131 0
129 140 0
135 145 0
127 133 0
119 124 0
132 137 0
128 135 0
129 136 0
122 128 0
128 134 0
122 124 0
122 125 0
128 134 0
134 141 0
129 135 0
136 142 0
126 128 0
125 126 0
125 126 0
122 122 0
125 128 0
119 119 0
130 133 0
130 132 0
118 123 0
135 137 0
128 131 0
131 129 0
126 126 0
118 116 0
128 127 0
122 125 0
114 115 0
123 123 0
124 127 0
118 118 0
126 127 0
122 120 0
126 127 0
130 129 0
132 134 0
130 132 0
134 135 0
133 135 0
124 126 0
132 133 0
123 119 0
130 131 0
129 126 0
121 121 0
141 143 0
137 136 0
132 135 0
130 130 0
140 143 0
131 133 0
138 139 0
143 145 0
142 144 0
137 140 0
141 143 0
135 138 0
143 147 0
136 140 0
135 136 0
147 151 0
142 147 0
140 145 0
143 150 0
150 157 0
143 149 0
156 164 0
139 144 0
149 156 0
151 160 0
146 154 0
152 162 0
151 158 0
151 159 0
150 160 0
149 157 0
151 160 0
147 157 0
152 162 0
156 167 0
156 167 0
156 166 0
152 160 0
155 167 0
155 164 0
162 174 0
152 164 0
159 172 0
154 166 0
155 168 0
163 179 0
163 175 0
166 179 0
174 196 0
174 197 0
173 196 0
175 197 0
173 195 0
175 198 0
171 193 0
174 197 0
173 196 0
167 190 0
173 196 0
171 193 0
173 195 0
173 195 0
174 197 0
174 196 0
172 195 0
171 193 0
170 192 0
175 197 0
174 196 0
171 193 0
171 193 0
174 196 0
173 194 0
172 194 0
177 198 0
171 193 0
169 191 0
175 196 0
175 196 0
174 195 0
175 196 0
174 195 0
174 196 0
175 197 0
173 195 0
174 195 0
173 194 0
174 195 0
173 196 0
166 187 0
172 193 0
174 195 0
171 192 0
171 192 0
173 193 0
173 194 0
169 190 0
173 194 0
173 194 0
170 191 0
172 193 0
171 193 0
165 186 0
170 191 0
170 191 0
169 190 0
171 192 0
169 190 0
170 191 0
171 191 0
167 188 0
171 192 0
167 188 0
168 190 0
170 191 0
162 184 0
164 186 0
166 188 0
167 189 0
168 190 0
160 182 0
164 185 0
167 189 0
166 187 0
163 185 0
166 188 0
164 185 0
164 185 0
161 182 0
167 189 0
166 189 0
165 186 0
159 181 0
166 188 0
164 185 0
167 189 0
164 186 0
163 184 0
162 184 0
165 187 0
162 183 0
159 181 0
164 186 0
162 184 0
160 182 0
157 179 0
164 185 0
153 175 0
158 180 0
156 178 0
162 184 0
156 179 0
155 177 0
153 174 0
156 178 0
164 187 0
156 179 0
155 177 0
158 181 0
158 181 0
160 183 0
154 175 0
158 179 0
162 184 0
154 176 0
151 173 0
158 180 0
159 181 0
153 176 0
161 182 0
153 174 0
145 166 0
153 175 0
149 171 0
151 173 0
157 180 0
153 175 0
163 185 0
150 173 0
152 174 0
154 177 0
157 179 0
155 177 0
151 173 0
154 176 0
148 170 0
148 170 0
140 162 0
157 179 0
151 173 0
142 164 0
150 172 0
143 165 0
152 174 0
144 166 0
146 168 0
146 166 0
145 167 0
143 164 0
147 169 0
145 166 0
152 174 0
147 169 0
144 165 0
148 170 0
139 160 0
142 164 0
145 165 0
138 160 0
151 172 0
145 166 0
146 168 0
142 163 0
142 163 0
148 168 0
140 161 0
138 160 0
134 154 0
131 152 0
138 159 0
137 159 0
139 160 0
138 159 0
131 151 0
132 153 0
137 159 0
125 146 0
137 155 0
139 159 0
134 155 0
126 146 0
136 156 0
126 145 0
131 152 0
125 145 0
128 148 0
143 163 0
133 151 0
133 153 0
138 158 0
133 153 0
126 146 0
129 149 0
134 154 0
130 150 0
127 146 0
118 137 0
137 155 0
136 155 0
136 155 0
119 139 0
139 160 0
133 152 0
125 144 0
145 165 0
131 151 0
132 153 0
136 155 0
123 143 0
132 153 0
131 149 0
139 159 0
131 149 0
131 148 0
118 135 0
128 147 0
125 143 0
132 150 0
126 144 0
126 143 0
141 159 0
136 157 0
127 144 0
127 146 0
131 149 0
134 153 0
133 153 0
132 150 0
123 141 0
141 161 0
129 149 0
134 152 0
136 154 0
132 150 0
129 146 0
132 149 0
134 153 0
138 155 0
129 145 0
136 154 0
138 156 0
133 152 0
138 155 0
141 161 0
133 151 0
132 148 0
135 152 0
139 154 0
139 156 0
134 153 0
127 143 0
126 144 0
131 149 0
140 158 0
128 145 0
138 155 0
129 144 0
150 168 0
144 161 0
138 154 0
131 148 0
133 147 0
127 143 0
128 142 0
138 154 0
124 140 0
141 157 0
139 156 0
133 150 0
128 142 0
132 147 0
143 159 0
138 155 0
130 143 0
141 155 0
135 150 0
144 159 0
144 160 0
141 157 0
143 158 0
133 144 0
129 141 0
143 160 0
132 146 0
125 137 0
134 147 0
136 148 0
128 140 0
129 139 0
137 151 0
130 140 0
132 143 0
145 156 0
135 145 0
135 146 0
125 137 0
137 148 0
139 148 0
132 141 0
134 144 0
133 142 0
136 147 0
129 139 0
139 147 0
134 142 0
135 144 0
123 131 0
139 148 0
138 147 0
130 136 0
138 146 0
131 139 0
125 129 0
130 134 0
133 139 0
126 130 0
127 133 0
128 131 0
131 134 0
126 127 0
136 140 0
131 132 0
134 135 0
124 126 0
125 128 0
131 135 0
129 133 0
139 144 0
123 126 0
127 127 0
130 134 0
138 143 0
121 121 0
130 132 0
126 126 0
130 135 0
117 115 0
138 140 0
129 133 0
129 130 0
138 143 0
129 132 0
128 130 0
130 133 0
136 137 0
139 141 0
136 139 0
136 138 0
131 132 0
131 129 0
124 121 0
134 136 0
140 141 0
140 142 0
141 144 0
143 149 0
145 150 0
139 144 0
133 134 0
140 143 0
143 145 0
144 150 0
143 145 0
148 154 0
137 141 0
144 148 0
141 148 0
144 150 0
141 147 0
150 155 0
145 151 0
139 142 0
140 144 0
147 156 0
152 162 0
149 157 0
150 157 0
153 160 0
150 161 0
151 158 0
149 157 0
155 167 0
150 160 0
153 162 0
159 169 0
154 164 0
155 165 0
160 170 0
159 170 0
157 166 0
155 166 0
155 167 0
158 170 0
158 171 0
157 170 0
157 170 0
160 174 0
161 174 0
173 196 0
172 195 0
171 194 0
174 196 0
173 195 0
173 195 0
172 194 0
175 197 0
174 196 0
176 198 0
174 197 0
171 193 0
173 196 0
170 191 0
172 194 0
170 193 0
173 195 0
174 196 0
176 198 0
173 195 0
172 194 0
171 193 0
170 193 0
174 196 0
175 196 0
173 195 0
172 195 0
175 196 0
173 194 0
175 196 0
172 194 0
173 194 0
169 192 0
167 189 0
174 196 0
172 194 0
165 187 0
173 194 0
168 189 0
170 191 0
171 192 0
172 194 0
168 190 0
174 194 0
176 197 0
170 192 0
168 190 0
171 192 0
174 195 0
174 196 0
171 192 0
169 191 0
173 193 0
167 188 0
170 192 0
169 191 0
166 188 0
169 190 0
164 185 0
170 190 0
171 193 0
167 189 0
169 190 0
165 186 0
166 187 0
168 189 0
165 186 0
169 191 0
171 192 0
166 187 0
162 183 0
169 189 0
166 188 0
161 183 0
160 182 0
160 181 0
164 186 0
163 184 0
165 186 0
163 186 0
164 186 0
166 187 0
161 183 0
160 181 0
155 177 0
163 184 0
158 180 0
156 178 0
159 181 0
168 190 0
161 184 0
157 179 0
161 183 0
158 181 0
159 181 0
156 178 0
154 175 0
151 174 0
163 185 0
167 189 0
165 187 0
161 183 0
160 181 0
156 179 0
155 178 0
163 185 0
163 185 0
159 181 0
152 174 0
154 176 0
163 184 0
161 182 0
163 185 0
157 180 0
146 169 0
155 177 0
153 175 0
163 184 0
155 177 0
153 175 0
150 172 0
160 182 0
151 173 0
155 178 0
156 179 0
159 181 0
157 179 0
154 175 0
154 176 0
148 171 0
152 173 0
152 174 0
145 168 0
155 177 0
153 175 0
153 175 0
150 172 0
145 167 0
160 183 0
154 176 0
152 172 0
150 172 0
155 176 0
151 174 0
141 162 0
155 178 0
150 171 0
156 178 0
154 175 0
143 164 0
152 173 0
142 163 0
149 171 0
147 168 0
142 164 0
147 169 0
144 166 0
139 160 0
144 164 0
143 164 0
147 168 0
148 169 0
135 157 0
141 162 0
139 160 0
145 167 0
139 160 0
133 153 0
144 166 0
143 163 0
145 166 0
136 156 0
137 158 0
134 154 0
143 163 0
144 164 0
138 159 0
138 159 0
137 158 0
140 160 0
135 154 0
136 156 0
138 159 0
138 159 0
128 148 0
140 160 0
134 154 0
138 159 0
138 159 0
135 155 0
136 157 0
130 151 0
129 149 0
137 158 0
135 156 0
135 156 0
145 163 0
128 148 0
135 153 0
134 152 0
131 150 0
131 152 0
137 156 0
132 153 0
128 146 0
128 148 0
122 141 0
126 146 0
134 153 0
135 155 0
129 149 0
131 150 0
138 158 0
133 151 0
139 158 0
126 144 0
135 155 0
138 156 0
134 153 0
119 138 0
127 146 0
129 148 0
134 153 0
133 150 0
125 144 0
132 151 0
135 153 0
134 151 0
138 157 0
134 154 0
134 151 0
133 152 0
138 154 0
138 156 0
134 153 0
130 149 0
128 146 0
126 144 0
137 157 0
128 145 0
137 154 0
132 149 0
124 141 0
127 145 0
128 146 0
139 158 0
135 153 0
126 145 0
142 161 0
133 151 0
147 165 0
138 156 0
126 142 0
130 150 0
134 150 0
133 149 0
133 149 0
128 143 0
136 155 0
143 161 0
132 148 0
144 160 0
131 148 0
136 154 0
133 147 0
136 151 0
144 163 0
127 143 0
123 139 0
131 148 0
140 157 0
133 149 0
135 149 0
136 154 0
138 154 0
129 143 0
136 153 0
139 154 0
129 141 0
144 161 0
127 141 0
139 154 0
141 155 0
137 153 0
143 156 0
130 145 0
145 160 0
142 155 0
138 150 0
129 142 0
140 154 0
133 146 0
133 144 0
142 154 0
134 148 0
135 147 0
134 146 0
140 149 0
138 152 0
137 149 0
130 139 0
133 143 0
134 143 0
132 142 0
132 143 0
134 143 0
137 146 0
131 139 0
131 138 0
139 149 0
135 144 0
128 138 0
128 133 0
131 138 0
132 137 0
139 148 0
130 137 0
135 145 0
133 139 0
123 129 0
132 137 0
140 146 0
135 141 0
124 128 0
127 136 0
135 140 0
129 133 0
133 137 0
136 139 0
142 146 0
128 130 0
135 137 0
133 136 0
130 135 0
137 139 0
133 135 0
129 130 0
132 134 0
137 139 0
133 135 0
128 129 0
139 142 0
131 131 0
126 125 0
135 138 0
136 139 0
132 131 0
137 138 0
132 132 0
131 129 0
136 140 0
127 126 0
135 139 0
135 136 0
127 128 0
131 135 0
127 129 0
143 146 0
134 136 0
135 137 0
137 139 0
145 148 0
141 147 0
136 140 0
142 144 0
143 149 0
142 144 0
136 144 0
148 155 0
146 151 0
149 151 0
149 155 0
163 173 0
145 151 0
148 154 0
144 150 0
145 151 0
150 155 0
148 155 0
155 159 0
146 153 0
148 154 0
144 152 0
154 163 0
156 170 0
153 161 0
148 155 0
159 170 0
146 157 0
150 161 0
156 166 0
157 168 0
157 168 0
155 166 0
160 173 0
157 169 0
158 171 0
156 168 0
157 170 0
158 172 0
176 198 0
173 196 0
172 195 0
170 194 0
171 193 0
172 195 0
169 192 0
171 194 0
171 193 0
172 194 0
173 195 0
174 195 0
169 191 0
170 192 0
175 197 0
170 192 0
173 194 0
173 195 0
172 193 0
172 194 0
173 195 0
172 195 0
175 197 0
172 194 0
176 197 0
173 195 0
171 192 0
176 198 0
171 193 0
173 195 0
172 193 0
174 194 0
172 193 0
171 193 0
171 193 0
172 193 0
173 194 0
172 193 0
173 195 0
170 192 0
171 193 0
171 193 0
175 196 0
173 195 0
168 189 0
171 192 0
168 189 0
170 191 0
170 192 0
171 192 0
174 195 0
171 192 0
169 190 0
173 194 0
166 188 0
171 192 0
167 188 0
171 193 0
168 189 0
161 182 0
170 192 0
169 191 0
172 194 0
169 190 0
169 190 0
167 189 0
165 186 0
171 192 0
166 188 0
164 186 0
167 190 0
164 187 0
167 189 0
160 182 0
159 182 0
168 190 0
163 185 0
160 182 0
166 188 0
163 184 0
162 183 0
162 184 0
164 186 0
162 184 0
160 182 0
162 184 0
160 182 0
165 187 0
158 180 0
159 180 0
163 185 0
158 180 0
160 182 0
165 187 0
158 179 0
163 185 0
158 180 0
164 186 0
159 182 0
164 187 0
159 180 0
164 186 0
157 179 0
159 181 0
155 177 0
157 178 0
152 175 0
163 186 0
156 178 0
159 180 0
157 180 0
156 178 0
153 175 0
154 176 0
156 178 0
156 178 0
155 178 0
151 175 0
155 177 0
162 184 0
151 173 0
153 175 0
147 168 0
144 164 0
158 180 0
156 177 0
153 174 0
158 180 0
152 175 0
155 176 0
146 167 0
150 172 0
150 173 0
155 178 0
145 167 0
153 176 0
155 179 0
144 166 0
153 175 0
150 172 0
146 168 0
144 167 0
152 174 0
153 175 0
151 173 0
143 165 0
147 169 0
147 168 0
143 165 0
146 168 0
141 163 0
143 165 0
138 160 0
153 175 0
141 163 0
146 168 0
147 169 0
146 167 0
147 169 0
151 173 0
140 161 0
145 166 0
141 163 0
145 167 0
145 167 0
142 164 0
141 162 0
142 163 0
145 167 0
143 163 0
134 154 0
143 164 0
144 165 0
144 164 0
134 155 0
153 175 0
140 161 0
140 160 0
136 156 0
135 156 0
143 164 0
135 156 0
133 153 0
133 155 0
137 157 0
136 157 0
137 158 0
135 155 0
141 163 0
133 153 0
135 156 0
134 155 0
137 155 0
121 142 0
141 160 0
148 168 0
127 146 0
130 150 0
135 154 0
133 154 0
137 158 0
130 149 0
133 151 0
128 146 0
137 157 0
130 150 0
139 158 0
132 152 0
127 145 0
135 153 0
130 150 0
130 151 0
127 147 0
132 152 0
135 153 0
127 145 0
135 155 0
131 148 0
122 141 0
134 153 0
131 150 0
135 153 0
130 150 0
140 159 0
132 151 0
129 147 0
142 161 0
132 151 0
127 145 0
128 146 0
126 145 0
127 146 0
129 149 0
134 154 0
138 157 0
137 157 0
136 155 0
141 159 0
131 150 0
132 150 0
130 149 0
132 150 0
130 148 0
139 156 0
138 156 0
146 164 0
133 152 0
129 148 0
137 154 0
127 144 0
141 159 0
135 151 0
146 162 0
137 153 0
137 157 0
143 163 0
144 161 0
128 145 0
138 156 0
142 161 0
143 159 0
127 143 0
142 161 0
129 147 0
138 154 0
144 163 0
144 160 0
135 153 0
128 144 0
132 148 0
137 153 0
134 151 0
137 152 0
140 155 0
140 157 0
142 158 0
136 151 0
131 146 0
134 147 0
134 149 0
129 144 0
138 155 0
142 159 0
137 151 0
139 153 0
133 144 0
142 155 0
139 151 0
135 150 0
136 149 0
139 150 0
143 157 0
132 147 0
136 148 0
137 149 0
128 139 0
136 148 0
133 144 0
141 151 0
136 148 0
133 143 0
137 149 0
131 142 0
138 146 0
126 138 0
141 153 0
138 149 0
130 139 0
146 158 0
132 139 0
135 142 0
132 144 0
136 146 0
133 141 0
139 145 0
142 150 0
140 146 0
127 135 0
137 144 0
129 134 0
132 139 0
131 138 0
129 135 0
135 141 0
126 129 0
134 139 0
134 136 0
135 137 0
136 142 0
137 142 0
130 132 0
128 133 0
132 137 0
143 147 0
130 135 0
126 131 0
137 141 0
147 150 0
133 134 0
137 144 0
137 140 0
143 147 0
142 143 0
132 132 0
135 136 0
136 138 0
136 136 0
135 138 0
135 138 0
137 142 0
139 142 0
137 141 0
133 137 0
137 141 0
138 141 0
133 137 0
140 141 0
132 133 0
130 130 0
138 138 0
138 138 0
125 125 0
140 145 0
130 134 0
139 141 0
141 142 0
141 142 0
144 148 0
146 150 0
144 148 0
144 148 0
142 145 0
133 135 0
150 156 0
149 158 0
146 153 0
150 158 0
149 156 0
153 161 0
151 158 0
152 158 0
150 158 0
151 157 0
150 159 0
152 158 0
149 158 0
160 170 0
150 158 0
151 160 0
152 162 0
152 160 0
150 157 0
155 166 0
154 164 0
156 169 0
155 167 0
158 170 0
154 166 0
159 172 0
159 173 0
174 197 0
171 193 0
170 194 0
173 195 0
172 194 0
173 195 0
171 193 0
174 196 0
173 196 0
175 197 0
175 196 0
174 195 0
173 195 0
174 196 0
174 196 0
174 196 0
171 194 0
172 194 0
174 196 0
174 197 0
175 197 0
174 196 0
173 194 0
170 192 0
171 192 0
170 191 0
172 194 0
173 195 0
168 190 0
173 195 0
173 195 0
172 194 0
172 194 0
174 196 0
170 192 0
176 197 0
169 191 0
170 191 0
171 192 0
173 195 0
174 195 0
174 195 0
165 186 0
171 193 0
169 191 0
171 193 0
171 193 0
170 192 0
169 190 0
170 191 0
169 190 0
170 192 0
169 190 0
164 185 0
167 188 0
171 193 0
171 192 0
167 188 0
167 188 0
167 187 0
166 188 0
170 191 0
164 186 0
162 184 0
171 193 0
161 183 0
166 188 0
166 188 0
166 188 0
164 186 0
163 185 0
163 185 0
169 191 0
169 191 0
159 181 0
168 190 0
160 181 0
158 180 0
162 184 0
159 182 0
163 185 0
164 186 0
164 185 0
165 187 0
163 185 0
160 182 0
162 184 0
161 182 0
159 181 0
151 172 0
158 180 0
163 185 0
158 180 0
161 183 0
155 178 0
157 179 0
162 184 0
161 183 0
158 180 0
155 177 0
153 175 0
155 178 0
160 182 0
161 184 0
162 184 0
157 179 0
159 181 0
156 179 0
153 175 0
159 181 0
153 175 0
148 171 0
156 180 0
163 186 0
153 176 0
154 176 0
150 172 0
159 181 0
151 172 0
153 175 0
154 177 0
157 180 0
154 176 0
149 171 0
154 177 0
156 178 0
163 185 0
155 178 0
153 175 0
151 173 0
149 171 0
152 174 0
152 174 0
152 174 0
147 169 0
152 175 0
150 171 0
151 173 0
150 172 0
154 176 0
147 169 0
154 177 0
146 167 0
144 166 0
151 174 0
152 173 0
154 176 0
148 170 0
136 158 0
150 173 0
150 173 0
154 175 0
146 169 0
147 169 0
147 168 0
151 174 0
148 169 0
147 167 0
144 165 0
146 167 0
135 157 0
139 161 0
145 166 0
149 169 0
140 161 0
144 166 0
136 158 0
136 158 0
144 164 0
133 154 0
140 162 0
144 166 0
132 153 0
145 165 0
141 160 0
139 160 0
143 165 0
140 161 0
135 156 0
142 162 0
135 155 0
136 156 0
143 164 0
143 164 0
142 163 0
143 163 0
138 159 0
132 151 0
139 160 0
137 158 0
141 160 0
139 159 0
127 147 0
132 153 0
135 156 0
141 162 0
136 155 0
129 149 0
135 156 0
133 154 0
140 160 0
131 149 0
133 153 0
128 148 0
132 153 0
124 144 0
133 154 0
134 153 0
133 150 0
145 166 0
134 154 0
144 165 0
126 145 0
142 160 0
133 152 0
127 147 0
134 154 0
130 150 0
127 146 0
134 152 0
127 145 0
136 155 0
132 150 0
132 151 0
131 149 0
140 160 0
138 158 0
131 151 0
130 147 0
135 154 0
135 154 0
135 155 0
132 150 0
139 157 0
140 159 0
140 159 0
142 162 0
132 153 0
132 150 0
136 155 0
139 157 0
143 162 0
136 152 0
137 156 0
137 154 0
135 153 0
134 152 0
135 153 0
143 162 0
139 157 0
139 157 0
147 165 0
130 146 0
140 160 0
130 148 0
145 163 0
142 159 0
136 153 0
148 167 0
133 150 0
137 153 0
136 152 0
143 159 0
131 148 0
137 152 0
141 156 0
137 156 0
137 153 0
142 159 0
140 157 0
139 156 0
135 151 0
136 151 0
129 145 0
129 144 0
138 152 0
137 150 0
143 158 0
134 149 0
144 158 0
137 153 0
134 148 0
139 153 0
140 153 0
139 154 0
142 157 0
139 152 0
137 151 0
145 162 0
144 161 0
137 150 0
143 157 0
134 146 0
133 146 0
138 151 0
139 153 0
135 148 0
143 152 0
141 154 0
138 151 0
133 144 0
139 150 0
136 146 0
131 141 0
137 151 0
138 151 0
126 134 0
128 137 0
140 150 0
136 147 0
143 153 0
128 136 0
145 152 0
141 151 0
130 137 0
140 149 0
135 142 0
133 141 0
139 147 0
138 148 0
141 149 0
124 130 0
143 148 0
132 140 0
141 149 0
129 133 0
127 136 0
136 143 0
146 151 0
132 135 0
138 144 0
147 155 0
129 132 0
136 141 0
134 136 0
131 133 0
142 151 0
142 148 0
137 140 0
130 133 0
137 140 0
131 134 0
138 144 0
138 141 0
126 129 0
132 134 0
134 134 0
133 136 0
143 145 0
139 142 0
136 140 0
143 146 0
138 141 0
128 126 0
148 152 0
139 144 0
140 142 0
137 142 0
134 139 0
145 149 0
147 150 0
138 140 0
143 145 0
146 151 0
139 145 0
142 147 0
146 152 0
143 148 0
149 156 0
146 151 0
140 142 0
142 147 0
148 155 0
151 158 0
148 152 0
150 157 0
143 144 0
156 165 0
147 154 0
151 157 0
151 158 0
152 160 0
147 152 0
146 153 0
150 161 0
150 160 0
157 166 0
147 157 0
157 166 0
151 162 0
153 161 0
150 158 0
145 154 0
152 161 0
152 161 0
152 165 0
157 168 0
154 166 0
160 174 0
158 171 0
171 193 0
173 195 0
175 197 0
172 195 0
176 198 0
173 195 0
169 191 0
171 193 0
172 195 0
174 196 0
171 194 0
172 194 0
176 198 0
173 196 0
175 197 0
169 191 0
169 192 0
171 193 0
176 198 0
169 190 0
171 193 0
173 196 0
168 190 0
174 196 0
173 195 0
175 197 0
174 195 0
168 189 0
173 194 0
171 193 0
175 196 0
171 193 0
170 191 0
170 192 0
168 190 0
167 188 0
168 189 0
174 196 0
172 195 0
170 192 0
172 193 0
165 187 0
174 196 0
170 191 0
170 192 0
171 193 0
170 191 0
169 192 0
172 194 0
168 190 0
167 189 0
172 194 0
167 188 0
165 187 0
165 187 0
170 191 0
173 194 0
166 187 0
169 191 0
165 187 0
165 187 0
164 186 0
170 192 0
166 188 0
168 189 0
167 188 0
170 193 0
157 179 0
168 190 0
163 184 0
165 187 0
161 184 0
161 183 0
165 186 0
167 187 0
165 186 0
161 183 0
162 184 0
164 186 0
165 187 0
162 184 0
167 189 0
158 180 0
161 184 0
164 186 0
159 181 0
159 181 0
161 183 0
166 188 0
163 186 0
161 183 0
168 189 0
162 184 0
159 182 0
159 180 0
161 184 0
161 183 0
160 182 0
158 179 0
154 176 0
160 182 0
156 179 0
157 178 0
159 181 0
161 183 0
161 183 0
163 184 0
157 178 0
157 179 0
156 178 0
156 179 0
153 176 0
158 181 0
157 180 0
159 181 0
152 175 0
155 177 0
155 177 0
158 181 0
160 183 0
155 177 0
151 172 0
152 174 0
153 176 0
152 174 0
156 179 0
155 177 0
152 174 0
161 183 0
158 181 0
152 175 0
148 170 0
155 177 0
158 180 0
153 175 0
153 177 0
147 169 0
150 173 0
153 176 0
154 176 0
161 183 0
152 173 0
153 175 0
154 177 0
155 178 0
145 167 0
145 166 0
142 164 0
148 170 0
142 163 0
156 178 0
147 169 0
143 165 0
145 167 0
147 168 0
149 170 0
145 167 0
144 165 0
150 172 0
142 165 0
149 169 0
141 162 0
145 167 0
141 162 0
148 168 0
147 169 0
145 166 0
143 165 0
140 161 0
144 167 0
141 162 0
145 167 0
150 171 0
138 159 0
145 166 0
138 160 0
135 156 0
139 161 0
136 158 0
140 161 0
136 156 0
141 161 0
145 165 0
145 165 0
140 161 0
129 148 0
141 161 0
137 158 0
135 156 0
145 166 0
142 164 0
133 154 0
144 165 0
136 157 0
137 157 0
134 155 0
140 160 0
136 157 0
139 160 0
134 154 0
138 158 0
140 160 0
144 164 0
132 153 0
135 155 0
130 150 0
140 160 0
127 147 0
124 142 0
130 150 0
140 161 0
141 159 0
140 161 0
134 155 0
135 155 0
140 160 0
128 148 0
139 155 0
137 158 0
136 156 0
126 145 0
128 147 0
135 154 0
131 149 0
133 154 0
127 146 0
137 157 0
139 160 0
139 160 0
138 156 0
135 154 0
133 152 0
136 153 0
140 156 0
141 160 0
136 155 0
139 159 0
146 164 0
132 150 0
141 159 0
136 155 0
137 156 0
127 145 0
134 152 0
147 166 0
144 162 0
130 146 0
138 156 0
140 158 0
146 163 0
127 143 0
136 153 0
126 143 0
142 159 0
136 153 0
142 161 0
140 160 0
132 150 0
131 148 0
135 152 0
132 149 0
131 146 0
143 160 0
139 155 0
134 152 0
146 163 0
135 152 0
130 147 0
139 157 0
135 151 0
135 153 0
143 158 0
140 156 0
133 149 0
147 164 0
150 166 0
139 157 0
143 158 0
140 156 0
138 153 0
142 158 0
128 143 0
142 159 0
137 153 0
140 156 0
136 150 0
138 151 0
131 146 0
136 151 0
146 161 0
144 159 0
133 148 0
136 146 0
131 143 0
129 142 0
137 151 0
139 153 0
143 155 0
142 154 0
141 152 0
137 150 0
132 145 0
125 136 0
148 161 0
131 141 0
136 148 0
133 144 0
131 143 0
134 145 0
143 154 0
141 152 0
134 145 0
134 144 0
142 152 0
136 146 0
140 148 0
133 144 0
141 151 0
132 141 0
140 150 0
140 147 0
142 151 0
137 147 0
133 140 0
138 147 0
135 143 0
139 143 0
137 142 0
131 135 0
144 152 0
140 151 0
132 138 0
129 136 0
139 144 0
136 141 0
142 146 0
143 148 0
133 138 0
138 144 0
133 135 0
140 146 0
141 147 0
133 136 0
127 130 0
141 148 0
136 137 0
136 140 0
137 144 0
145 151 0
141 146 0
137 141 0
133 139 0
135 142 0
137 141 0
140 146 0
141 146 0
136 139 0
131 133 0
138 139 0
142 148 0
137 141 0
139 145 0
143 151 0
150 159 0
136 139 0
148 153 0
141 145 0
141 146 0
148 152 0
143 149 0
142 146 0
139 144 0
142 147 0
145 152 0
153 159 0
150 154 0
147 156 0
136 139 0
144 149 0
149 153 0
153 162 0
145 151 0
156 162 0
151 157 0
150 158 0
150 155 0
153 161 0
157 168 0
157 165 0
150 158 0
156 167 0
158 168 0
159 169 0
153 163 0
156 168 0
154 164 0
162 175 0
157 168 0
158 170 0
157 169 0
175 197 0
170 193 0
175 196 0
169 191 0
174 196 0
174 197 0
171 193 0
173 195 0
173 196 0
170 193 0
171 193 0
170 192 0
173 195 0
174 195 0
174 196 0
174 196 0
172 194 0
172 194 0
175 197 0
172 194 0
167 189 0
173 195 0
174 196 0
171 192 0
174 195 0
171 193 0
172 194 0
173 195 0
172 193 0
171 193 0
171 191 0
173 195 0
172 193 0
171 193 0
173 195 0
171 192 0
171 193 0
170 192 0
172 193 0
169 190 0
170 192 0
175 197 0
166 187 0
173 194 0
173 194 0
170 192 0
173 194 0
170 192 0
168 190 0
168 190 0
170 192 0
167 189 0
164 185 0
171 192 0
167 189 0
166 186 0
164 187 0
165 187 0
166 188 0
168 189 0
169 191 0
165 187 0
165 187 0
172 194 0
169 190 0
171 192 0
171 192 0
164 186 0
169 191 0
164 185 0
169 191 0
161 183 0
158 179 0
162 185 0
166 188 0
163 185 0
166 188 0
164 185 0
157 179 0
158 180 0
160 182 0
166 187 0
165 185 0
157 178 0
159 181 0
160 182 0
161 183 0
162 184 0
156 177 0
156 178 0
168 189 0
158 180 0
152 175 0
160 182 0
158 180 0
161 183 0
163 185 0
161 184 0
164 186 0
153 175 0
161 184 0
157 179 0
156 179 0
156 178 0
157 180 0
150 173 0
150 173 0
160 184 0
157 179 0
159 182 0
156 179 0
155 178 0
158 180 0
153 176 0
161 184 0
161 184 0
160 183 0
152 174 0
159 181 0
157 180 0
150 172 0
157 181 0
149 172 0
154 177 0
152 174 0
155 176 0
155 177 0
152 173 0
154 175 0
147 169 0
158 180 0
154 176 0
159 181 0
148 170 0
145 167 0
148 171 0
161 184 0
149 171 0
149 171 0
149 171 0
151 173 0
148 171 0
147 168 0
146 168 0
148 170 0
147 169 0
147 170 0
145 166 0
145 166 0
147 168 0
147 169 0
148 169 0
156 178 0
143 165 0
142 163 0
150 171 0
148 170 0
146 167 0
146 168 0
150 172 0
149 172 0
144 165 0
142 164 0
142 164 0
141 164 0
145 166 0
148 169 0
140 161 0
139 160 0
148 170 0
140 161 0
143 164 0
153 175 0
140 161 0
142 164 0
135 157 0
142 163 0
143 164 0
149 170 0
138 158 0
135 156 0
139 160 0
145 166 0
139 160 0
138 159 0
137 159 0
137 159 0
138 158 0
143 163 0
135 155 0
133 153 0
146 168 0
140 160 0
130 149 0
139 159 0
143 163 0
135 155 0
135 155 0
128 147 0
142 162 0
141 161 0
145 166 0
143 162 0
135 155 0
131 151 0
132 153 0
136 156 0
136 157 0
136 156 0
130 150 0
140 160 0
131 149 0
136 156 0
137 158 0
136 154 0
133 153 0
142 161 0
146 166 0
139 158 0
136 157 0
133 151 0
133 152 0
133 151 0
138 158 0
136 154 0
129 149 0
132 151 0
141 160 0
135 153 0
133 153 0
134 154 0
138 158 0
142 160 0
134 154 0
138 158 0
135 154 0
145 164 0
128 147 0
141 160 0
145 165 0
141 160 0
142 159 0
138 156 0
129 146 0
136 153 0
134 150 0
136 155 0
138 156 0
142 162 0
144 162 0
143 161 0
145 163 0
135 154 0
144 161 0
149 166 0
143 161 0
135 154 0
140 159 0
147 165 0
136 154 0
142 159 0
143 161 0
135 152 0
143 161 0
135 153 0
140 156 0
138 155 0
141 159 0
133 148 0
138 154 0
139 156 0
141 159 0
135 150 0
137 154 0
146 162 0
139 156 0
153 170 0
142 158 0
141 156 0
144 160 0
138 153 0
142 157 0
140 155 0
148 164 0
136 150 0
140 155 0
140 155 0
137 151 0
139 153 0
134 148 0
136 151 0
141 155 0
146 161 0
139 154 0
140 154 0
139 150 0
140 150 0
151 165 0
139 151 0
135 145 0
151 164 0
146 158 0
134 145 0
131 142 0
137 148 0
134 147 0
137 147 0
142 151 0
138 147 0
127 137 0
136 145 0
134 143 0
140 151 0
141 151 0
144 155 0
141 153 0
138 147 0
143 152 0
138 149 0
128 137 0
137 145 0
136 143 0
128 135 0
149 159 0
131 138 0
145 152 0
131 138 0
144 155 0
135 141 0
135 141 0
135 143 0
135 143 0
133 140 0
138 144 0
131 136 0
135 139 0
137 141 0
126 130 0
138 142 0
129 132 0
145 151 0
140 145 0
139 142 0
130 132 0
137 143 0
138 142 0
139 144 0
137 141 0
143 149 0
136 140 0
142 146 0
143 146 0
146 154 0
134 139 0
137 140 0
135 140 0
136 141 0
142 147 0
145 152 0
144 148 0
141 144 0
144 151 0
146 150 0
134 136 0
144 149 0
146 152 0
143 146 0
150 157 0
137 140 0
153 161 0
139 141 0
146 152 0
140 145 0
147 155 0
141 148 0
145 152 0
140 146 0
151 159 0
149 158 0
153 161 0
146 154 0
149 158 0
145 153 0
148 153 0
153 161 0
147 154 0
150 157 0
150 156 0
149 157 0
157 166 0
146 153 0
153 160 0
156 167 0
155 166 0
155 165 0
158 169 0
150 160 0
163 175 0
158 169 0
163 172 0
175 197 0
170 193 0
172 194 0
172 195 0
173 195 0
173 195 0
174 195 0
175 197 0
174 195 0
172 195 0
173 196 0
172 193 0
174 195 0
171 193 0
170 192 0
170 191 0
173 195 0
174 196 0
171 194 0
172 195 0
171 192 0
174 195 0
174 196 0
173 195 0
171 192 0
172 193 0
173 195 0
166 187 0
171 193 0
171 191 0
171 193 0
172 195 0
171 193 0
169 191 0
168 190 0
166 188 0
172 194 0
172 193 0
171 193 0
171 193 0
172 194 0
162 184 0
170 192 0
171 192 0
168 190 0
173 195 0
172 194 0
172 193 0
171 193 0
171 192 0
166 189 0
167 189 0
170 192 0
170 192 0
167 188 0
168 190 0
169 190 0
166 188 0
162 184 0
166 188 0
166 187 0
171 193 0
170 191 0
168 189 0
166 188 0
165 187 0
160 181 0
167 189 0
171 193 0
167 189 0
169 191 0
164 186 0
157 178 0
163 185 0
159 182 0
165 187 0
158 180 0
163 186 0
165 187 0
165 187 0
161 183 0
166 187 0
160 182 0
166 188 0
154 176 0
165 186 0
162 185 0
157 179 0
159 181 0
157 179 0
162 184 0
157 179 0
158 180 0
160 183 0
161 183 0
162 185 0
162 184 0
158 180 0
163 185 0
159 181 0
155 178 0
161 182 0
164 186 0
159 183 0
157 179 0
160 182 0
153 175 0
152 175 0
158 181 0
156 179 0
160 182 0
153 176 0
157 180 0
163 185 0
159 182 0
151 174 0
155 177 0
157 179 0
157 179 0
147 169 0
155 177 0
154 177 0
151 173 0
154 176 0
155 178 0
157 180 0
147 169 0
156 179 0
156 178 0
153 174 0
154 177 0
151 174 0
147 169 0
148 170 0
154 176 0
152 174 0
143 166 0
156 179 0
156 178 0
150 172 0
156 178 0
162 183 0
145 168 0
139 160 0
159 181 0
158 180 0
150 172 0
154 175 0
156 179 0
147 168 0
144 165 0
146 169 0
150 173 0
149 171 0
148 170 0
148 169 0
144 164 0
141 163 0
155 176 0
145 167 0
151 172 0
149 170 0
151 174 0
143 166 0
142 163 0
139 162 0
141 161 0
149 170 0
149 170 0
138 160 0
144 166 0
148 169 0
142 163 0
154 176 0
141 161 0
130 151 0
140 160 0
122 142 0
145 166 0
146 166 0
138 158 0
141 161 0
139 161 0
138 159 0
145 165 0
141 160 0
137 157 0
132 153 0
126 147 0
142 161 0
131 153 0
138 160 0
142 161 0
140 161 0
142 162 0
129 150 0
134 155 0
137 158 0
139 159 0
135 157 0
141 162 0
139 161 0
141 162 0
134 154 0
135 156 0
141 162 0
144 164 0
144 164 0
140 160 0
133 154 0
144 164 0
133 153 0
136 155 0
140 161 0
138 159 0
135 154 0
140 160 0
135 155 0
131 151 0
136 156 0
139 159 0
134 152 0
136 155 0
138 157 0
133 151 0
154 173 0
136 154 0
135 154 0
133 152 0
129 147 0
140 161 0
129 149 0
137 156 0
145 165 0
140 160 0
140 161 0
132 152 0
140 158 0
135 153 0
146 165 0
134 152 0
142 162 0
132 149 0
141 160 0
142 160 0
145 163 0
138 157 0
146 167 0
145 164 0
143 161 0
142 160 0
142 162 0
139 157 0
138 157 0
132 149 0
142 159 0
141 161 0
138 157 0
142 161 0
144 162 0
147 166 0
145 162 0
140 156 0
152 171 0
141 158 0
121 138 0
137 153 0
148 167 0
142 157 0
143 159 0
140 158 0
142 160 0
132 147 0
137 152 0
142 158 0
144 162 0
138 154 0
141 159 0
146 162 0
142 160 0
138 154 0
136 153 0
132 146 0
129 142 0
141 156 0
144 162 0
152 169 0
144 160 0
136 153 0
145 159 0
141 155 0
139 153 0
136 150 0
147 161 0
143 159 0
137 151 0
141 152 0
140 152 0
135 149 0
142 156 0
135 146 0
131 142 0
145 157 0
142 154 0
137 150 0
139 151 0
146 160 0
128 139 0
145 158 0
144 153 0
140 150 0
137 149 0
135 146 0
137 150 0
144 154 0
144 154 0
139 149 0
140 149 0
141 154 0
133 141 0
142 153 0
145 152 0
150 162 0
141 147 0
147 160 0
138 147 0
135 143 0
129 135 0
140 148 0
135 142 0
142 149 0
138 142 0
139 148 0
137 145 0
140 147 0
140 146 0
136 141 0
130 134 0
134 138 0
136 142 0
138 143 0
148 157 0
134 140 0
140 148 0
139 145 0
134 139 0
145 154 0
142 149 0
143 152 0
141 146 0
133 136 0
145 149 0
136 138 0
133 137 0
135 140 0
142 145 0
148 153 0
136 140 0
145 152 0
139 144 0
136 141 0
133 135 0
139 145 0
143 150 0
146 153 0
140 145 0
140 147 0
148 154 0
147 153 0
148 156 0
144 149 0
138 140 0
137 142 0
141 148 0
148 151 0
143 147 0
146 152 0
143 151 0
146 151 0
150 155 0
153 160 0
155 164 0
148 154 0
149 159 0
149 156 0
148 157 0
154 163 0
154 162 0
148 156 0
150 157 0
152 161 0
145 152 0
151 162 0
149 159 0
157 169 0
164 178 0
152 164 0
154 165 0
149 160 0
155 166 0
173 196 0
172 194 0
170 193 0
173 195 0
169 192 0
174 197 0
170 192 0
174 196 0
175 197 0
173 195 0
173 195 0
171 193 0
176 198 0
171 194 0
172 194 0
174 195 0
171 193 0
173 195 0
174 195 0
170 193 0
170 192 0
170 191 0
170 192 0
172 194 0
172 193 0
172 194 0
173 196 0
170 192 0
173 194 0
173 194 0
173 195 0
174 195 0
169 191 0
171 193 0
174 196 0
172 194 0
166 188 0
170 192 0
170 192 0
169 191 0
170 191 0
174 195 0
170 191 0
173 194 0
164 186 0
166 188 0
170 192 0
174 195 0
167 189 0
172 193 0
166 188 0
164 185 0
172 195 0
167 189 0
167 190 0
169 191 0
165 187 0
167 188 0
162 183 0
170 192 0
168 191 0
166 188 0
166 187 0
168 190 0
160 183 0
163 185 0
166 187 0
167 190 0
162 185 0
162 184 0
164 187 0
166 189 0
167 189 0
163 185 0
161 183 0
165 187 0
160 183 0
163 185 0
164 185 0
171 192 0
160 182 0
167 189 0
159 182 0
159 181 0
158 180 0
166 188 0
164 186 0
168 190 0
166 188 0
166 189 0
163 186 0
157 179 0
160 182 0
165 187 0
161 184 0
158 181 0
164 186 0
155 177 0
157 180 0
164 187 0
152 175 0
160 183 0
157 179 0
154 176 0
161 184 0
157 179 0
157 179 0
160 182 0
156 178 0
155 177 0
152 174 0
158 181 0
155 177 0
155 178 0
160 183 0
157 180 0
159 182 0
155 178 0
152 174 0
157 179 0
159 182 0
154 177 0
156 178 0
153 174 0
150 173 0
162 185 0
154 176 0
155 177 0
161 184 0
155 178 0
157 180 0
151 173 0
158 180 0
157 180 0
144 167 0
156 179 0
153 175 0
147 169 0
144 167 0
152 173 0
159 181 0
149 171 0
154 176 0
146 168 0
148 170 0
145 167 0
153 175 0
145 166 0
146 168 0
150 173 0
143 165 0
150 171 0
144 166 0
157 178 0
148 170 0
143 165 0
155 177 0
140 161 0
145 167 0
144 166 0
147 169 0
144 165 0
142 164 0
141 162 0
142 164 0
149 171 0
139 160 0
137 157 0
144 165 0
145 166 0
145 167 0
143 164 0
145 166 0
136 156 0
149 171 0
148 169 0
138 160 0
141 161 0
141 162 0
132 154 0
138 160 0
144 165 0
143 162 0
143 164 0
142 162 0
145 165 0
140 161 0
142 162 0
142 162 0
147 168 0
140 160 0
136 158 0
131 151 0
129 150 0
154 175 0
147 168 0
132 153 0
137 156 0
134 154 0
144 163 0
134 155 0
139 159 0
134 154 0
142 164 0
126 146 0
142 163 0
141 160 0
143 161 0
136 155 0
136 155 0
137 156 0
135 154 0
140 160 0
130 147 0
132 150 0
143 163 0
134 155 0
136 156 0
132 152 0
133 151 0
134 154 0
127 146 0
129 148 0
138 159 0
141 160 0
145 166 0
139 159 0
137 157 0
144 164 0
137 156 0
140 160 0
141 160 0
132 150 0
135 153 0
145 164 0
145 162 0
147 167 0
148 168 0
140 158 0
137 154 0
143 163 0
144 162 0
133 152 0
131 150 0
139 158 0
138 155 0
134 153 0
137 155 0
137 155 0
142 159 0
140 157 0
136 155 0
144 161 0
144 162 0
141 160 0
142 161 0
141 160 0
142 161 0
139 155 0
147 166 0
150 169 0
134 152 0
146 164 0
141 159 0
134 151 0
138 155 0
137 153 0
133 149 0
139 155 0
145 161 0
142 158 0
138 155 0
141 158 0
143 161 0
136 153 0
130 146 0
143 158 0
143 160 0
137 154 0
143 159 0
139 155 0
144 158 0
140 154 0
135 149 0
144 160 0
148 163 0
144 162 0
129 143 0
139 153 0
142 156 0
129 143 0
135 151 0
145 159 0
146 162 0
134 148 0
144 158 0
146 161 0
144 159 0
146 160 0
147 161 0
133 146 0
146 158 0
140 155 0
136 150 0
136 150 0
142 155 0
139 151 0
140 151 0
141 152 0
154 168 0
145 160 0
140 154 0
142 155 0
141 151 0
146 159 0
144 154 0
142 154 0
137 145 0
143 153 0
136 145 0
147 158 0
138 147 0
130 139 0
145 156 0
146 158 0
145 158 0
144 153 0
133 144 0
141 151 0
135 144 0
134 140 0
138 147 0
148 158 0
137 143 0
140 148 0
141 146 0
143 151 0
134 140 0
137 143 0
140 145 0
134 139 0
136 144 0
138 141 0
143 144 0
141 147 0
136 143 0
125 128 0
140 146 0
134 141 0
150 157 0
145 150 0
143 151 0
139 142 0
147 152 0
135 138 0
138 145 0
138 142 0
141 144 0
143 149 0
142 149 0
142 149 0
148 154 0
144 150 0
128 131 0
139 145 0
146 149 0
144 145 0
135 138 0
147 155 0
142 147 0
140 146 0
148 154 0
149 154 0
151 159 0
141 147 0
151 158 0
147 153 0
140 146 0
148 156 0
148 155 0
155 162 0
151 157 0
153 163 0
151 158 0
154 163 0
154 161 0
152 162 0
153 164 0
148 156 0
153 162 0
157 169 0
158 168 0
152 161 0
152 163 0
156 166 0
152 157 0
152 163 0
153 162 0
160 171 0
153 165 0
169 191 0
173 195 0
174 197 0
173 196 0
175 198 0
172 194 0
169 192 0
173 195 0
175 197 0
175 197 0
170 192 0
173 194 0
173 195 0
169 192 0
174 197 0
171 193 0
168 191 0
172 194 0
172 195 0
169 191 0
172 193 0
171 193 0
171 193 0
169 191 0
172 194 0
174 196 0
170 192 0
171 192 0
170 193 0
172 193 0
166 188 0
173 194 0
174 196 0
169 191 0
173 195 0
172 193 0
166 188 0
171 193 0
167 189 0
170 192 0
171 193 0
172 194 0
169 190 0
169 190 0
173 194 0
169 191 0
172 194 0
168 189 0
170 192 0
170 191 0
165 187 0
167 188 0
171 193 0
166 187 0
167 188 0
167 190 0
167 189 0
165 186 0
168 190 0
170 192 0
166 189 0
165 187 0
164 185 0
167 189 0
163 185 0
165 187 0
167 188 0
167 190 0
156 178 0
163 185 0
167 189 0
165 187 0
165 187 0
162 184 0
161 183 0
161 184 0
158 179 0
157 179 0
167 189 0
158 180 0
158 181 0
165 187 0
163 186 0
164 186 0
163 185 0
159 181 0
158 181 0
159 180 0
156 178 0
159 181 0
155 177 0
151 174 0
162 184 0
162 184 0
158 180 0
159 181 0
162 184 0
161 183 0
160 181 0
156 178 0
155 178 0
155 178 0
152 175 0
160 182 0
162 185 0
160 182 0
155 178 0
162 186 0
157 180 0
155 176 0
160 182 0
150 173 0
158 181 0
149 172 0
165 188 0
158 182 0
161 184 0
156 179 0
157 180 0
163 186 0
155 179 0
157 180 0
160 183 0
160 181 0
149 171 0
154 176 0
157 179 0
154 175 0
152 175 0
158 180 0
155 178 0
154 176 0
152 174 0
151 172 0
153 175 0
156 177 0
157 180 0
154 177 0
150 172 0
157 179 0
153 176 0
150 173 0
154 177 0
153 175 0
151 175 0
147 169 0
155 177 0
144 166 0
152 174 0
144 167 0
150 171 0
145 168 0
148 170 0
150 171 0
149 171 0
146 169 0
152 175 0
151 173 0
145 166 0
147 167 0
149 171 0
147 169 0
148 170 0
148 170 0
149 171 0
146 167 0
143 164 0
142 163 0
142 164 0
143 164 0
143 164 0
146 168 0
144 164 0
148 169 0
144 166 0
147 169 0
147 169 0
131 152 0
139 160 0
131 151 0
150 171 0
139 159 0
150 172 0
137 159 0
136 157 0
151 172 0
145 165 0
135 156 0
139 161 0
140 162 0
135 156 0
140 162 0
148 168 0
134 155 0
134 154 0
146 167 0
141 162 0
136 157 0
134 154 0
128 149 0
142 163 0
134 154 0
136 155 0
135 154 0
139 158 0
143 162 0
131 151 0
141 162 0
148 168 0
142 162 0
139 159 0
138 159 0
133 153 0
145 165 0
134 155 0
144 164 0
144 162 0
137 156 0
138 157 0
141 162 0
126 145 0
137 155 0
140 160 0
140 161 0
139 159 0
140 158 0
135 154 0
144 164 0
147 166 0
131 150 0
149 167 0
145 165 0
133 153 0
140 156 0
137 156 0
140 159 0
136 157 0
130 148 0
139 158 0
147 166 0
142 163 0
141 161 0
132 150 0
139 159 0
143 164 0
137 155 0
147 165 0
142 159 0
135 154 0
139 157 0
139 157 0
136 154 0
138 156 0
141 161 0
142 160 0
139 157 0
143 161 0
133 148 0
140 158 0
142 161 0
151 171 0
140 157 0
137 154 0
139 155 0
145 165 0
139 158 0
142 160 0
145 162 0
144 163 0
139 158 0
139 155 0
138 156 0
138 154 0
145 164 0
145 163 0
138 156 0
144 161 0
149 167 0
138 155 0
135 152 0
141 155 0
142 159 0
143 162 0
145 162 0
148 166 0
142 158 0
147 162 0
135 149 0
145 162 0
140 156 0
144 159 0
145 159 0
141 155 0
133 148 0
145 162 0
139 154 0
143 159 0
142 155 0
130 144 0
140 155 0
145 158 0
147 162 0
144 159 0
144 157 0
149 164 0
130 141 0
142 158 0
153 166 0
137 148 0
143 156 0
139 152 0
140 151 0
142 154 0
141 151 0
148 159 0
146 157 0
144 157 0
143 152 0
143 157 0
135 146 0
139 152 0
131 141 0
135 145 0
135 144 0
141 151 0
144 153 0
144 153 0
140 150 0
144 154 0
145 156 0
128 134 0
131 141 0
135 145 0
139 147 0
133 141 0
141 151 0
143 150 0
144 153 0
141 150 0
140 146 0
135 142 0
138 144 0
146 155 0
137 143 0
139 145 0
148 156 0
130 134 0
138 144 0
146 155 0
143 149 0
143 148 0
139 144 0
147 155 0
145 151 0
140 147 0
144 151 0
148 155 0
142 150 0
146 153 0
141 144 0
139 144 0
151 160 0
146 150 0
137 142 0
144 150 0
144 148 0
146 152 0
140 145 0
143 147 0
144 151 0
144 150 0
142 148 0
143 148 0
147 156 0
141 147 0
146 153 0
143 150 0
149 155 0
154 160 0
147 154 0
149 157 0
150 161 0
150 156 0
145 150 0
155 166 0
147 153 0
151 161 0
150 158 0
151 161 0
157 168 0
143 152 0
154 164 0
147 154 0
149 157 0
160 171 0
153 164 0
155 166 0
156 164 0
161 171 0
152 163 0
173 195 0
174 197 0
172 195 0
168 191 0
170 192 0
173 195 0
169 192 0
171 193 0
172 194 0
173 196 0
173 195 0
174 196 0
170 192 0
171 193 0
170 192 0
171 193 0
174 195 0
172 194 0
172 193 0
172 193 0
175 198 0
170 192 0
171 192 0
174 196 0
169 191 0
171 193 0
169 190 0
170 192 0
172 194 0
173 194 0
172 193 0
169 191 0
172 193 0
172 193 0
170 192 0
171 192 0
170 191 0
172 193 0
167 189 0
172 194 0
173 195 0
170 192 0
167 189 0
173 194 0
170 193 0
168 190 0
175 197 0
167 188 0
161 183 0
167 188 0
166 188 0
166 187 0
167 190 0
165 187 0
168 190 0
163 185 0
169 190 0
165 187 0
168 190 0
162 185 0
171 193 0
163 185 0
165 187 0
168 189 0
165 187 0
169 191 0
166 187 0
165 187 0
166 188 0
157 179 0
163 184 0
163 185 0
162 183 0
162 185 0
162 185 0
169 192 0
159 182 0
163 185 0
166 189 0
164 186 0
158 180 0
164 186 0
164 186 0
167 189 0
156 179 0
164 186 0
159 181 0
166 188 0
165 187 0
161 185 0
153 175 0
160 182 0
160 182 0
159 180 0
161 183 0
158 181 0
159 181 0
164 186 0
160 182 0
160 183 0
152 176 0
163 185 0
158 180 0
154 177 0
160 182 0
156 178 0
166 189 0
161 184 0
156 178 0
161 184 0
156 178 0
159 181 0
159 181 0
150 173 0
159 181 0
160 182 0
156 178 0
156 178 0
154 176 0
154 177 0
158 182 0
154 175 0
154 177 0
154 176 0
157 181 0
156 179 0
153 176 0
155 178 0
155 177 0
151 173 0
158 181 0
150 173 0
150 172 0
152 174 0
150 172 0
150 173 0
147 169 0
154 176 0
155 178 0
155 178 0
153 175 0
149 173 0
143 164 0
151 174 0
153 175 0
151 173 0
150 172 0
142 164 0
146 168 0
148 171 0
148 171 0
147 168 0
149 171 0
152 173 0
138 160 0
151 173 0
149 170 0
147 169 0
148 170 0
149 172 0
148 170 0
148 171 0
145 166 0
149 171 0
145 166 0
143 165 0
152 173 0
143 165 0
145 166 0
153 175 0
143 162 0
136 158 0
139 160 0
141 162 0
145 167 0
139 161 0
145 167 0
138 159 0
143 165 0
141 163 0
144 166 0
142 162 0
148 169 0
142 164 0
145 166 0
148 168 0
143 165 0
139 158 0
137 158 0
147 168 0
140 161 0
139 159 0
133 151 0
135 156 0
148 169 0
137 158 0
143 162 0
144 164 0
138 158 0
142 163 0
135 156 0
147 168 0
146 166 0
144 165 0
139 160 0
129 149 0
142 164 0
135 155 0
139 159 0
145 166 0
145 166 0
140 160 0
141 160 0
133 154 0
146 168 0
144 164 0
139 157 0
147 168 0
140 161 0
137 157 0
141 161 0
133 153 0
135 154 0
139 159 0
138 159 0
138 158 0
136 157 0
144 163 0
144 165 0
134 152 0
135 157 0
130 149 0
141 160 0
143 162 0
136 155 0
136 156 0
137 156 0
136 157 0
140 160 0
151 171 0
136 153 0
146 167 0
142 161 0
146 165 0
141 160 0
139 159 0
136 155 0
140 158 0
141 161 0
143 163 0
136 154 0
141 158 0
144 162 0
140 159 0
147 166 0
145 163 0
136 154 0
151 169 0
144 162 0
139 159 0
139 157 0
150 169 0
137 155 0
141 158 0
147 164 0
136 155 0
140 158 0
145 162 0
134 151 0
131 148 0
153 170 0
137 153 0
140 157 0
144 160 0
142 160 0
139 157 0
142 159 0
139 157 0
148 167 0
135 150 0
137 156 0
139 156 0
145 161 0
140 158 0
140 156 0
136 151 0
138 155 0
145 161 0
141 156 0
142 156 0
140 152 0
143 156 0
150 165 0
139 152 0
144 160 0
139 154 0
136 150 0
138 153 0
139 151 0
142 155 0
147 162 0
153 169 0
149 162 0
145 159 0
139 153 0
146 158 0
135 147 0
149 165 0
132 143 0
141 154 0
139 152 0
142 155 0
143 156 0
143 154 0
151 165 0
139 151 0
140 148 0
133 145 0
139 151 0
141 153 0
143 155 0
139 149 0
147 157 0
143 153 0
141 153 0
144 153 0
134 143 0
143 153 0
144 155 0
143 150 0
142 151 0
145 156 0
138 147 0
142 153 0
140 150 0
139 149 0
141 150 0
141 148 0
145 154 0
137 146 0
138 143 0
138 146 0
138 146 0
143 150 0
143 149 0
139 147 0
142 150 0
142 151 0
142 149 0
143 151 0
146 156 0
147 155 0
143 150 0
142 146 0
149 156 0
145 153 0
146 152 0
137 143 0
142 150 0
142 146 0
141 147 0
139 144 0
137 142 0
145 149 0
142 149 0
143 151 0
147 153 0
154 161 0
143 148 0
143 150 0
142 149 0
141 148 0
137 142 0
150 156 0
145 151 0
152 162 0
153 161 0
156 165 0
150 158 0
144 151 0
150 158 0
147 151 0
145 153 0
152 162 0
148 156 0
147 155 0
156 167 0
148 155 0
150 157 0
146 154 0
155 164 0
157 168 0
153 162 0
152 159 0
155 166 0
147 154 0
154 163 0
158 169 0
150 158 0
158 168 0
175 196 0
173 195 0
174 196 0
174 195 0
170 194 0
169 192 0
171 194 0
172 194 0
174 195 0
171 193 0
169 192 0
172 194 0
171 193 0
171 194 0
174 196 0
172 194 0
172 195 0
175 198 0
169 191 0
172 194 0
173 195 0
174 195 0
172 194 0
170 192 0
171 192 0
169 192 0
174 195 0
170 192 0
171 193 0
172 194 0
174 195 0
169 191 0
169 191 0
167 188 0
172 194 0
170 192 0
170 191 0
173 194 0
170 192 0
171 193 0
166 189 0
172 194 0
172 193 0
167 189 0
168 191 0
170 192 0
167 188 0
171 193 0
171 192 0
164 186 0
171 193 0
164 185 0
163 185 0
168 190 0
164 186 0
164 186 0
160 181 0
168 190 0
162 185 0
162 185 0
167 189 0
168 190 0
161 184 0
166 188 0
167 190 0
160 183 0
161 182 0
166 188 0
165 187 0
161 184 0
159 183 0
167 188 0
163 185 0
163 185 0
165 187 0
165 187 0
163 185 0
162 184 0
163 186 0
168 190 0
167 189 0
158 180 0
161 183 0
165 186 0
159 181 0
160 182 0
157 179 0
160 183 0
166 188 0
164 186 0
161 183 0
159 182 0
161 183 0
158 180 0
158 180 0
159 181 0
161 183 0
163 186 0
155 177 0
165 187 0
163 184 0
157 179 0
160 182 0
153 176 0
160 183 0
163 185 0
163 185 0
158 182 0
159 181 0
159 182 0
153 177 0
157 179 0
160 182 0
155 177 0
151 173 0
164 185 0
158 180 0
161 183 0
152 175 0
152 174 0
150 172 0
152 173 0
160 183 0
158 181 0
149 172 0
149 171 0
154 177 0
154 177 0
152 174 0
159 181 0
150 172 0
153 176 0
156 178 0
148 171 0
155 178 0
152 173 0
148 170 0
154 175 0
149 172 0
158 181 0
153 176 0
151 173 0
149 172 0
152 175 0
151 173 0
150 172 0
149 171 0
150 171 0
155 178 0
154 176 0
148 171 0
148 171 0
145 167 0
154 176 0
148 170 0
143 166 0
147 171 0
144 166 0
143 166 0
152 173 0
147 169 0
145 168 0
155 176 0
142 163 0
146 167 0
146 168 0
151 172 0
145 167 0
144 166 0
153 174 0
153 174 0
149 170 0
149 170 0
146 168 0
147 168 0
148 169 0
154 176 0
154 175 0
136 158 0
138 159 0
141 162 0
139 161 0
145 166 0
143 163 0
139 161 0
145 166 0
143 164 0
138 159 0
141 162 0
139 158 0
142 164 0
141 162 0
148 169 0
135 154 0
147 167 0
146 168 0
143 162 0
148 170 0
140 161 0
136 157 0
141 161 0
132 152 0
126 143 0
132 152 0
136 156 0
140 161 0
137 158 0
142 163 0
133 154 0
139 159 0
132 152 0
131 151 0
140 161 0
135 156 0
147 168 0
143 162 0
144 165 0
143 164 0
144 165 0
144 165 0
133 154 0
138 159 0
140 160 0
137 155 0
139 160 0
137 159 0
146 166 0
138 156 0
145 165 0
142 161 0
147 168 0
146 166 0
139 157 0
142 162 0
143 162 0
134 155 0
137 157 0
139 159 0
141 161 0
136 155 0
142 162 0
139 159 0
140 159 0
153 172 0
136 156 0
142 158 0
143 163 0
139 159 0
139 157 0
138 157 0
149 166 0
150 169 0
137 156 0
144 164 0
132 149 0
145 162 0
141 161 0
130 150 0
145 163 0
147 167 0
143 162 0
148 169 0
136 156 0
145 164 0
142 158 0
140 158 0
139 156 0
139 158 0
142 158 0
150 168 0
139 158 0
146 163 0
144 160 0
142 159 0
135 152 0
128 145 0
142 157 0
136 152 0
145 161 0
144 160 0
137 153 0
143 162 0
134 151 0
148 164 0
140 157 0
148 167 0
130 145 0
143 156 0
147 164 0
142 158 0
143 158 0
148 164 0
141 157 0
150 167 0
150 166 0
143 157 0
145 161 0
144 160 0
148 163 0
142 159 0
139 152 0
143 159 0
147 162 0
137 149 0
135 148 0
143 158 0
134 148 0
146 159 0
138 152 0
136 151 0
151 164 0
139 149 0
143 156 0
142 153 0
144 156 0
142 155 0
137 148 0
145 155 0
138 149 0
138 148 0
147 157 0
142 152 0
141 151 0
139 148 0
146 157 0
139 151 0
154 165 0
145 156 0
146 155 0
142 153 0
148 158 0
143 152 0
141 151 0
148 159 0
147 155 0
138 149 0
150 160 0
146 155 0
139 147 0
147 156 0
138 146 0
136 142 0
147 158 0
148 158 0
134 141 0
137 142 0
137 143 0
138 146 0
141 150 0
139 143 0
143 150 0
148 158 0
146 154 0
147 153 0
142 147 0
145 151 0
141 146 0
147 154 0
147 151 0
142 148 0
146 154 0
136 143 0
146 153 0
142 149 0
144 153 0
135 141 0
139 145 0
147 155 0
146 149 0
142 148 0
144 152 0
148 153 0
146 153 0
142 148 0
141 147 0
151 157 0
147 156 0
147 155 0
148 154 0
147 152 0
147 155 0
149 157 0
146 152 0
142 149 0
152 159 0
146 153 0
138 145 0
154 163 0
149 152 0
153 164 0
150 157 0
154 164 0
142 148 0
149 158 0
149 161 0
151 162 0
156 167 0
149 159 0
156 168 0
150 162 0
170 191 0
174 196 0
172 193 0
171 194 0
171 193 0
172 194 0
171 193 0
170 192 0
175 196 0
173 196 0
168 191 0
169 192 0
170 193 0
174 197 0
173 196 0
169 192 0
169 192 0
172 194 0
171 194 0
172 194 0
172 194 0
171 193 0
172 194 0
170 192 0
172 194 0
171 193 0
169 191 0
171 193 0
167 190 0
174 195 0
170 193 0
170 191 0
169 191 0
173 195 0
171 193 0
166 188 0
165 187 0
169 190 0
169 191 0
169 191 0
169 190 0
168 190 0
165 187 0
171 192 0
172 194 0
168 190 0
165 188 0
169 191 0
168 190 0
164 186 0
165 187 0
168 190 0
166 187 0
169 190 0
170 192 0
171 193 0
167 189 0
167 189 0
164 186 0
168 190 0
160 181 0
170 193 0
160 182 0
167 188 0
166 187 0
167 190 0
163 185 0
160 182 0
163 185 0
165 187 0
164 186 0
166 187 0
159 181 0
164 187 0
168 190 0
161 183 0
159 181 0
161 184 0
159 181 0
164 187 0
160 182 0
161 184 0
162 185 0
161 183 0
162 185 0
166 188 0
152 175 0
161 183 0
158 180 0
151 173 0
155 178 0
157 181 0
162 184 0
158 180 0
161 184 0
160 182 0
157 180 0
154 175 0
156 179 0
153 175 0
163 185 0
161 184 0
162 185 0
158 180 0
153 176 0
157 180 0
161 183 0
151 173 0
155 177 0
163 185 0
156 178 0
160 183 0
153 174 0
153 175 0
155 178 0
155 177 0
161 184 0
154 177 0
153 175 0
157 179 0
152 175 0
157 180 0
154 176 0
154 177 0
153 175 0
154 177 0
155 176 0
149 172 0
158 181 0
151 173 0
154 177 0
148 171 0
149 172 0
156 179 0
147 168 0
153 175 0
158 181 0
156 179 0
151 173 0
150 173 0
147 168 0
155 178 0
149 171 0
157 179 0
148 171 0
156 178 0
153 176 0
140 162 0
151 173 0
154 177 0
144 165 0
151 173 0
152 174 0
148 171 0
148 170 0
146 169 0
149 171 0
149 171 0
152 173 0
143 165 0
142 164 0
152 175 0
144 167 0
144 166 0
147 169 0
144 166 0
140 160 0
149 171 0
153 175 0
146 168 0
137 160 0
140 161 0
147 170 0
146 168 0
143 165 0
150 172 0
145 167 0
139 160 0
152 173 0
136 156 0
143 165 0
150 172 0
145 166 0
147 169 0
151 173 0
139 161 0
148 169 0
138 159 0
143 163 0
130 151 0
136 157 0
145 166 0
150 171 0
148 169 0
143 163 0
143 163 0
142 163 0
145 166 0
135 156 0
139 160 0
150 172 0
148 169 0
134 153 0
146 168 0
148 170 0
135 155 0
138 159 0
140 161 0
137 158 0
142 163 0
144 163 0
138 158 0
141 161 0
134 154 0
140 162 0
140 160 0
152 173 0
133 151 0
142 162 0
147 167 0
143 165 0
143 164 0
144 164 0
139 161 0
138 158 0
137 157 0
138 157 0
144 164 0
148 168 0
141 160 0
137 157 0
134 156 0
147 167 0
140 157 0
133 154 0
145 164 0
139 157 0
132 151 0
141 161 0
141 161 0
148 169 0
145 163 0
140 160 0
142 162 0
149 168 0
141 161 0
139 157 0
146 165 0
143 163 0
134 153 0
141 160 0
142 160 0
143 160 0
143 161 0
150 169 0
143 162 0
140 157 0
144 161 0
137 155 0
153 172 0
151 169 0
141 159 0
145 161 0
152 171 0
137 155 0
140 158 0
151 169 0
145 162 0
141 158 0
146 163 0
142 159 0
140 157 0
144 163 0
143 160 0
142 158 0
139 155 0
145 162 0
142 157 0
141 158 0
145 163 0
140 156 0
145 160 0
142 159 0
148 164 0
144 162 0
140 156 0
138 155 0
145 164 0
135 150 0
143 158 0
144 159 0
148 163 0
156 174 0
147 162 0
148 163 0
147 162 0
145 160 0
145 159 0
141 156 0
142 159 0
135 149 0
135 150 0
146 161 0
140 153 0
145 156 0
148 164 0
140 154 0
130 142 0
144 156 0
147 163 0
140 152 0
142 155 0
147 163 0
141 152 0
150 163 0
149 163 0
142 154 0
141 153 0
143 155 0
135 146 0
138 147 0
147 159 0
146 158 0
137 146 0
137 147 0
140 153 0
143 157 0
140 153 0
150 161 0
149 160 0
141 149 0
136 147 0
145 154 0
144 156 0
139 149 0
147 157 0
138 146 0
147 156 0
142 150 0
142 149 0
144 153 0
141 149 0
151 160 0
148 157 0
145 153 0
132 140 0
148 158 0
146 157 0
153 163 0
137 143 0
142 151 0
140 148 0
142 152 0
150 159 0
145 153 0
149 157 0
154 162 0
139 147 0
146 151 0
145 152 0
141 146 0
136 139 0
142 150 0
147 157 0
140 145 0
144 149 0
145 151 0
148 156 0
149 155 0
141 146 0
144 151 0
152 162 0
142 151 0
151 158 0
147 154 0
145 151 0
146 154 0
144 150 0
143 153 0
150 158 0
152 161 0
143 150 0
156 163 0
150 158 0
151 158 0
151 160 0
148 153 0
160 172 0
153 163 0
146 152 0
149 157 0
154 164 0
159 170 0
160 170 0
156 167 0
156 169 0
147 155 0
158 168 0
147 155 0
150 163 0
168 190 0
173 195 0
175 197 0
175 197 0
170 193 0
173 195 0
169 192 0
169 191 0
169 191 0
172 194 0
170 192 0
175 197 0
173 195 0
171 193 0
169 191 0
170 191 0
173 195 0
169 191 0
168 190 0
169 191 0
173 195 0
167 190 0
171 192 0
168 189 0
173 195 0
167 189 0
172 194 0
171 193 0
167 189 0
172 195 0
172 193 0
170 192 0
174 196 0
166 188 0
172 193 0
168 189 0
168 190 0
168 190 0
169 191 0
169 191 0
168 191 0
170 192 0
172 192 0
168 190 0
164 186 0
170 192 0
170 192 0
170 191 0
166 188 0
167 190 0
166 188 0
167 189 0
163 185 0
166 188 0
168 190 0
167 189 0
163 185 0
163 185 0
163 185 0
166 189 0
165 188 0
159 181 0
166 188 0
168 189 0
160 183 0
159 181 0
162 185 0
165 188 0
164 185 0
164 186 0
168 190 0
165 188 0
156 178 0
160 182 0
166 188 0
164 187 0
165 188 0
165 187 0
163 185 0
164 186 0
165 188 0
166 189 0
157 180 0
165 188 0
162 185 0
159 181 0
156 179 0
160 182 0
160 184 0
163 185 0
163 185 0
164 187 0
162 185 0
161 184 0
162 184 0
162 185 0
158 181 0
155 176 0
155 177 0
165 187 0
159 182 0
158 180 0
160 183 0
157 180 0
155 178 0
156 179 0
162 185 0
162 185 0
156 179 0
153 176 0
157 179 0
162 184 0
155 178 0
156 179 0
161 183 0
162 185 0
151 173 0
155 176 0
150 172 0
157 180 0
159 181 0
160 182 0
153 176 0
148 169 0
157 180 0
161 183 0
153 175 0
154 177 0
155 178 0
153 176 0
150 173 0
153 175 0
156 178 0
147 170 0
155 177 0
151 172 0
158 182 0
152 174 0
157 179 0
143 164 0
155 177 0
155 177 0
152 174 0
156 179 0
150 173 0
152 175 0
151 173 0
153 175 0
155 177 0
151 173 0
150 173 0
148 170 0
155 178 0
148 170 0
142 165 0
136 158 0
157 178 0
152 174 0
143 165 0
158 179 0
145 167 0
138 160 0
140 162 0
154 176 0
145 167 0
146 168 0
142 164 0
147 169 0
143 164 0
143 165 0
145 167 0
150 171 0
153 175 0
147 169 0
150 171 0
153 175 0
142 163 0
149 171 0
136 158 0
135 157 0
146 169 0
144 165 0
147 169 0
137 159 0
134 155 0
150 171 0
151 173 0
141 161 0
145 167 0
151 171 0
138 158 0
148 168 0
146 167 0
143 164 0
146 167 0
140 160 0
137 160 0
143 164 0
143 163 0
145 168 0
153 173 0
132 153 0
146 166 0
142 162 0
145 165 0
144 165 0
133 154 0
145 167 0
139 159 0
147 169 0
133 152 0
141 161 0
137 159 0
149 169 0
132 152 0
147 166 0
125 146 0
137 157 0
139 160 0
143 163 0
138 159 0
146 167 0
149 169 0
128 148 0
134 153 0
149 169 0
140 160 0
145 165 0
150 170 0
145 166 0
140 161 0
147 167 0
153 175 0
138 159 0
144 163 0
143 164 0
146 167 0
147 169 0
141 160 0
140 157 0
146 165 0
135 155 0
143 163 0
141 160 0
148 166 0
139 156 0
140 158 0
146 165 0
144 162 0
143 163 0
135 151 0
144 163 0
143 164 0
147 166 0
138 155 0
140 160 0
148 167 0
142 161 0
137 157 0
146 164 0
137 155 0
149 168 0
140 159 0
153 171 0
147 165 0
151 171 0
146 166 0
137 153 0
144 163 0
148 166 0
142 161 0
144 159 0
147 163 0
142 159 0
145 164 0
142 159 0
152 170 0
142 159 0
144 161 0
144 162 0
142 159 0
143 159 0
142 158 0
146 162 0
137 151 0
141 159 0
145 162 0
149 164 0
143 159 0
141 158 0
137 150 0
145 160 0
140 154 0
129 144 0
139 153 0
141 159 0
148 164 0
146 162 0
149 164 0
137 153 0
136 151 0
155 170 0
143 160 0
143 157 0
147 165 0
147 163 0
142 157 0
134 149 0
140 154 0
138 152 0
146 159 0
145 160 0
148 160 0
152 166 0
142 155 0
139 154 0
143 155 0
141 156 0
140 155 0
141 154 0
148 161 0
142 155 0
148 161 0
154 169 0
147 158 0
142 154 0
143 156 0
146 158 0
143 152 0
153 166 0
145 158 0
138 149 0
144 155 0
149 162 0
139 152 0
148 158 0
138 149 0
140 148 0
144 154 0
147 157 0
140 147 0
149 158 0
152 161 0
148 157 0
147 159 0
138 144 0
146 152 0
148 158 0
142 151 0
141 150 0
148 157 0
145 154 0
146 156 0
148 157 0
144 154 0
140 149 0
141 148 0
153 164 0
134 141 0
145 151 0
145 153 0
144 152 0
152 159 0
152 159 0
144 152 0
147 154 0
142 149 0
151 160 0
148 157 0
140 147 0
143 149 0
149 155 0
147 152 0
145 154 0
154 166 0
140 144 0
145 155 0
145 150 0
154 164 0
155 166 0
149 156 0
144 151 0
147 154 0
148 156 0
149 156 0
153 161 0
147 152 0
154 160 0
155 166 0
153 163 0
149 159 0
145 153 0
142 148 0
151 161 0
155 166 0
148 157 0
152 162 0
154 163 0
155 166 0
155 165 0
172 195 0
170 193 0
170 192 0
168 190 0
170 193 0
173 194 0
175 196 0
171 193 0
172 195 0
171 193 0
168 190 0
172 195 0
175 197 0
169 192 0
171 193 0
169 192 0
167 189 0
170 193 0
171 193 0
170 192 0
172 194 0
173 195 0
169 191 0
168 190 0
171 194 0
175 197 0
173 194 0
172 193 0
173 196 0
166 188 0
168 191 0
170 191 0
167 189 0
171 193 0
167 188 0
169 192 0
172 195 0
169 190 0
169 191 0
169 192 0
172 193 0
166 188 0
168 190 0
169 190 0
166 189 0
169 190 0
170 192 0
166 188 0
170 192 0
167 189 0
165 188 0
159 182 0
162 184 0
165 187 0
163 185 0
163 186 0
165 187 0
168 190 0
171 192 0
166 188 0
166 188 0
162 184 0
158 180 0
173 194 0
159 182 0
158 180 0
165 187 0
166 189 0
168 191 0
160 182 0
168 190 0
163 187 0
165 187 0
164 187 0
169 191 0
160 182 0
165 188 0
163 186 0
160 182 0
157 180 0
164 186 0
159 181 0
162 186 0
164 186 0
156 180 0
159 181 0
160 182 0
160 182 0
157 180 0
161 185 0
162 184 0
161 184 0
151 173 0
166 188 0
153 176 0
159 182 0
158 181 0
160 183 0
157 180 0
162 185 0
159 182 0
160 184 0
151 173 0
160 183 0
160 182 0
157 178 0
158 181 0
157 179 0
157 180 0
164 186 0
158 181 0
157 179 0
161 184 0
161 184 0
150 172 0
162 185 0
163 186 0
160 183 0
162 184 0
158 180 0
154 178 0
151 174 0
149 171 0
156 178 0
157 180 0
155 177 0
154 177 0
158 181 0
150 172 0
151 173 0
155 178 0
156 179 0
158 180 0
153 175 0
155 178 0
152 176 0
158 180 0
157 178 0
148 170 0
151 173 0
152 174 0
159 181 0
153 173 0
144 166 0
155 176 0
152 175 0
157 180 0
146 169 0
151 172 0
154 176 0
152 174 0
145 167 0
145 168 0
151 173 0
152 174 0
143 165 0
157 179 0
158 180 0
152 174 0
155 178 0
148 170 0
146 168 0
139 160 0
146 168 0
146 169 0
144 165 0
147 170 0
146 169 0
151 174 0
142 163 0
145 167 0
144 165 0
144 164 0
148 168 0
152 173 0
148 169 0
140 161 0
142 163 0
149 170 0
150 171 0
151 173 0
139 160 0
153 173 0
147 168 0
142 164 0
138 159 0
147 168 0
144 165 0
150 170 0
129 151 0
143 164 0
154 175 0
151 173 0
136 156 0
137 158 0
153 174 0
152 173 0
141 163 0
144 165 0
146 167 0
145 165 0
143 164 0
146 167 0
144 164 0
144 166 0
137 157 0
146 166 0
144 166 0
141 162 0
149 169 0
142 163 0
138 157 0
144 166 0
144 165 0
144 163 0
143 164 0
144 165 0
132 152 0
143 164 0
151 172 0
138 158 0
146 168 0
136 157 0
139 160 0
145 165 0
142 164 0
143 162 0
144 163 0
147 168 0
150 170 0
144 166 0
128 148 0
135 155 0
141 159 0
141 161 0
136 156 0
135 155 0
133 152 0
146 165 0
146 166 0
140 158 0
137 155 0
145 165 0
147 168 0
141 160 0
135 153 0
136 156 0
152 172 0
144 160 0
142 162 0
142 162 0
143 164 0
147 167 0
139 158 0
138 157 0
136 156 0
138 156 0
142 161 0
148 166 0
145 165 0
142 161 0
142 162 0
150 170 0
145 165 0
143 162 0
149 168 0
146 164 0
150 170 0
138 158 0
149 168 0
139 157 0
141 158 0
147 164 0
138 156 0
140 157 0
149 171 0
141 159 0
135 153 0
141 160 0
151 169 0
143 160 0
142 157 0
151 169 0
141 157 0
149 167 0
137 154 0
149 166 0
151 168 0
150 166 0
146 162 0
145 159 0
148 166 0
147 164 0
142 156 0
146 161 0
146 162 0
139 154 0
141 157 0
145 160 0
147 163 0
145 160 0
141 156 0
143 156 0
149 164 0
144 158 0
145 160 0
148 164 0
149 162 0
143 157 0
158 174 0
149 162 0
146 161 0
146 157 0
139 152 0
144 157 0
143 156 0
143 157 0
148 160 0
136 149 0
140 154 0
153 166 0
144 156 0
148 162 0
150 164 0
150 161 0
144 158 0
140 153 0
144 156 0
144 155 0
142 153 0
145 156 0
149 160 0
145 158 0
143 153 0
145 155 0
145 158 0
150 161 0
140 150 0
146 159 0
139 148 0
148 160 0
142 154 0
143 150 0
145 154 0
153 165 0
149 160 0
146 157 0
148 159 0
142 149 0
146 153 0
139 146 0
148 158 0
146 155 0
142 149 0
155 164 0
150 160 0
144 154 0
142 152 0
147 154 0
138 145 0
147 159 0
148 155 0
146 155 0
147 156 0
148 159 0
146 157 0
144 150 0
149 157 0
140 147 0
151 159 0
142 150 0
147 155 0
148 158 0
147 156 0
156 167 0
159 165 0
146 155 0
150 156 0
151 159 0
152 163 0
150 158 0
138 144 0
146 153 0
154 161 0
151 159 0
139 145 0
148 156 0
156 167 0
148 154 0
156 163 0
148 158 0
155 165 0
146 153 0
147 156 0
158 169 0
154 162 0
151 160 0
149 159 0
150 162 0
151 163 0
172 194 0
173 196 0
170 193 0
171 194 0
170 192 0
173 195 0
174 196 0
170 192 0
170 193 0
173 195 0
166 190 0
172 194 0
169 191 0
170 192 0
174 195 0
171 193 0
168 191 0
170 192 0
171 193 0
169 191 0
168 189 0
167 189 0
169 192 0
169 190 0
167 189 0
173 195 0
169 191 0
167 189 0
171 192 0
167 189 0
172 195 0
169 191 0
167 189 0
168 190 0
170 193 0
166 188 0
169 191 0
166 189 0
167 189 0
173 195 0
168 191 0
169 191 0
170 192 0
163 186 0
166 189 0
167 189 0
162 184 0
170 191 0
172 194 0
169 191 0
168 190 0
163 186 0
167 189 0
169 191 0
162 183 0
166 188 0
162 185 0
161 183 0
165 187 0
164 187 0
164 186 0
158 181 0
166 188 0
160 182 0
163 184 0
159 180 0
162 184 0
165 188 0
160 183 0
161 184 0
161 183 0
159 182 0
164 185 0
163 185 0
163 186 0
169 191 0
167 188 0
160 182 0
164 186 0
155 177 0
165 187 0
163 185 0
161 184 0
164 186 0
163 185 0
163 186 0
167 189 0
161 184 0
157 180 0
157 181 0
162 185 0
161 183 0
160 183 0
163 186 0
159 180 0
162 185 0
159 182 0
161 184 0
159 182 0
162 184 0
163 186 0
155 178 0
162 185 0
161 184 0
157 179 0
164 186 0
156 179 0
159 181 0
164 186 0
156 179 0
155 177 0
162 185 0
159 181 0
159 181 0
158 181 0
152 175 0
156 179 0
152 174 0
148 170 0
158 181 0
147 169 0
160 183 0
158 182 0
156 177 0
154 176 0
155 177 0
157 181 0
154 177 0
153 174 0
153 174 0
157 180 0
154 176 0
158 180 0
154 178 0
153 176 0
154 176 0
155 178 0
157 179 0
151 174 0
159 181 0
157 179 0
153 176 0
155 177 0
155 177 0
147 169 0
152 175 0
153 177 0
147 168 0
152 175 0
151 172 0
147 169 0
150 172 0
148 170 0
152 174 0
154 176 0
149 171 0
151 173 0
152 174 0
147 171 0
157 178 0
147 169 0
138 158 0
152 175 0
148 171 0
153 174 0
151 172 0
143 164 0
148 169 0
144 166 0
142 162 0
142 164 0
146 168 0
148 170 0
151 173 0
149 171 0
146 169 0
152 173 0
136 158 0
146 168 0
145 167 0
145 167 0
142 165 0
142 163 0
141 162 0
145 167 0
141 161 0
147 166 0
137 158 0
148 169 0
148 169 0
151 172 0
144 165 0
149 170 0
144 165 0
147 169 0
146 169 0
143 163 0
150 171 0
149 171 0
148 170 0
141 162 0
145 166 0
157 178 0
149 169 0
138 158 0
138 159 0
140 159 0
144 166 0
145 167 0
143 164 0
147 168 0
141 163 0
152 172 0
150 171 0
139 159 0
138 157 0
142 161 0
146 166 0
141 162 0
147 167 0
147 167 0
140 161 0
143 164 0
133 152 0
139 159 0
153 172 0
141 161 0
140 160 0
143 162 0
147 168 0
142 161 0
148 169 0
145 165 0
132 152 0
143 163 0
148 169 0
142 163 0
149 170 0
146 166 0
144 165 0
140 160 0
146 166 0
145 164 0
146 164 0
145 166 0
146 165 0
140 160 0
143 162 0
141 161 0
147 166 0
141 160 0
141 159 0
146 164 0
146 165 0
148 168 0
141 160 0
145 164 0
153 171 0
139 156 0
142 159 0
140 158 0
144 161 0
148 168 0
148 167 0
138 155 0
145 166 0
144 162 0
140 159 0
147 166 0
144 162 0
152 171 0
140 160 0
139 157 0
145 164 0
150 170 0
148 167 0
141 158 0
150 170 0
147 164 0
149 169 0
143 160 0
146 163 0
142 159 0
152 170 0
145 160 0
148 164 0
147 164 0
146 164 0
143 160 0
145 160 0
151 166 0
143 160 0
149 167 0
148 166 0
142 157 0
145 162 0
149 165 0
141 157 0
147 164 0
151 168 0
143 161 0
130 143 0
138 153 0
141 157 0
146 162 0
149 163 0
149 162 0
144 157 0
139 152 0
144 156 0
142 157 0
147 162 0
142 156 0
152 166 0
144 160 0
141 152 0
142 158 0
144 157 0
142 156 0
143 156 0
147 160 0
153 166 0
143 157 0
132 145 0
143 156 0
153 167 0
145 156 0
155 167 0
149 162 0
146 158 0
140 150 0
136 144 0
146 158 0
144 154 0
153 165 0
151 164 0
146 157 0
146 159 0
150 162 0
147 156 0
148 160 0
147 156 0
145 156 0
151 163 0
143 155 0
146 154 0
142 151 0
152 162 0
153 162 0
144 152 0
140 150 0
141 152 0
148 160 0
149 156 0
141 149 0
153 162 0
150 159 0
156 166 0
146 153 0
144 151 0
143 149 0
145 155 0
148 158 0
145 154 0
148 155 0
146 155 0
149 159 0
150 161 0
149 156 0
147 157 0
145 153 0
153 160 0
153 160 0
156 166 0
149 154 0
150 157 0
154 160 0
145 155 0
146 154 0
152 162 0
148 159 0
148 156 0
157 166 0
150 159 0
148 159 0
149 157 0
142 151 0
152 160 0
157 169 0
157 167 0
157 168 0
143 152 0
157 168 0
156 165 0
154 164 0
153 162 0
159 170 0
159 170 0
153 164 0
154 163 0
171 194 0
171 193 0
172 194 0
174 197 0
171 193 0
173 196 0
173 195 0
168 190 0
171 194 0
168 190 0
175 197 0
169 192 0
168 190 0
172 195 0
167 190 0
169 191 0
173 195 0
172 194 0
171 193 0
171 194 0
171 193 0
170 193 0
168 191 0
169 192 0
171 193 0
172 193 0
170 192 0
172 194 0
168 189 0
171 193 0
165 187 0
168 190 0
164 187 0
168 190 0
167 189 0
166 189 0
168 190 0
171 193 0
168 191 0
170 192 0
167 189 0
166 188 0
168 190 0
168 192 0
170 192 0
169 191 0
169 191 0
170 192 0
161 184 0
165 188 0
166 189 0
166 188 0
170 192 0
164 187 0
167 190 0
171 193 0
169 191 0
166 190 0
161 183 0
165 188 0
165 187 0
165 187 0
155 178 0
164 187 0
167 189 0
164 187 0
162 185 0
167 189 0
165 187 0
163 185 0
164 187 0
165 188 0
158 181 0
167 189 0
164 188 0
164 187 0
162 184 0
157 180 0
161 183 0
159 181 0
162 183 0
164 187 0
158 180 0
154 175 0
162 186 0
159 181 0
159 181 0
161 185 0
154 177 0
163 185 0
155 176 0
159 183 0
162 184 0
161 183 0
162 185 0
154 177 0
162 184 0
160 182 0
161 183 0
159 182 0
159 181 0
158 179 0
156 179 0
163 187 0
161 184 0
161 184 0
160 184 0
157 179 0
154 176 0
155 179 0
158 179 0
155 178 0
155 177 0
157 180 0
165 187 0
156 178 0
157 180 0
157 180 0
155 177 0
155 178 0
165 188 0
153 176 0
152 175 0
159 181 0
156 179 0
146 169 0
156 178 0
154 176 0
160 182 0
161 184 0
160 183 0
155 178 0
161 184 0
157 179 0
154 177 0
154 176 0
146 170 0
151 174 0
157 180 0
155 177 0
149 170 0
158 181 0
153 175 0
152 174 0
154 177 0
148 170 0
154 177 0
159 181 0
155 178 0
143 165 0
147 169 0
150 172 0
142 165 0
159 181 0
162 183 0
150 171 0
150 172 0
147 168 0
153 175 0
153 176 0
151 173 0
145 167 0
154 175 0
142 164 0
155 179 0
149 170 0
149 171 0
152 175 0
142 164 0
149 170 0
155 178 0
137 159 0
155 177 0
145 165 0
153 174 0
147 169 0
144 166 0
147 168 0
144 166 0
151 172 0
156 178 0
141 164 0
144 164 0
151 173 0
150 171 0
144 165 0
147 168 0
142 163 0
150 169 0
149 171 0
144 166 0
152 174 0
136 158 0
149 170 0
149 169 0
144 166 0
151 172 0
144 164 0
152 174 0
147 169 0
149 170 0
146 166 0
151 172 0
146 168 0
142 164 0
145 166 0
139 159 0
148 169 0
149 171 0
137 158 0
134 156 0
149 171 0
139 160 0
145 164 0
145 166 0
139 159 0
143 164 0
130 149 0
149 170 0
151 172 0
145 168 0
144 164 0
150 169 0
153 173 0
146 166 0
150 171 0
142 162 0
136 155 0
148 169 0
143 162 0
142 162 0
141 162 0
147 168 0
136 154 0
144 164 0
142 161 0
144 164 0
143 164 0
144 164 0
133 152 0
145 167 0
142 162 0
150 169 0
144 164 0
138 156 0
136 155 0
149 169 0
142 162 0
139 160 0
143 163 0
149 168 0
140 158 0
146 167 0
139 160 0
144 164 0
143 162 0
152 173 0
145 162 0
148 168 0
143 163 0
154 173 0
142 162 0
142 160 0
148 167 0
142 160 0
137 156 0
148 166 0
143 161 0
142 160 0
138 155 0
147 167 0
143 161 0
147 164 0
151 170 0
143 162 0
147 167 0
140 159 0
139 159 0
151 171 0
142 159 0
146 164 0
149 168 0
151 168 0
150 169 0
151 169 0
143 159 0
148 167 0
139 155 0
152 169 0
146 163 0
149 166 0
147 164 0
142 159 0
138 154 0
143 160 0
154 171 0
151 169 0
142 160 0
147 163 0
136 151 0
141 156 0
147 162 0
142 157 0
142 158 0
149 166 0
140 156 0
146 162 0
139 154 0
148 164 0
144 158 0
154 169 0
144 156 0
145 158 0
142 157 0
146 163 0
141 157 0
149 164 0
145 161 0
139 154 0
153 167 0
149 161 0
140 153 0
137 150 0
146 161 0
144 157 0
148 161 0
148 160 0
147 161 0
150 165 0
147 159 0
151 163 0
151 163 0
138 149 0
143 154 0
149 163 0
136 141 0
139 150 0
144 156 0
138 149 0
144 156 0
139 149 0
153 164 0
146 159 0
140 151 0
151 161 0
146 158 0
138 148 0
148 160 0
142 149 0
145 157 0
138 149 0
142 153 0
150 160 0
140 148 0
147 159 0
146 157 0
148 156 0
140 152 0
147 156 0
151 163 0
150 159 0
144 154 0
146 155 0
151 159 0
148 158 0
153 163 0
151 160 0
157 166 0
149 158 0
145 151 0
143 149 0
148 157 0
143 152 0
145 155 0
144 153 0
149 159 0
143 150 0
151 161 0
140 148 0
146 153 0
148 154 0
150 159 0
151 160 0
155 164 0
143 152 0
153 162 0
152 163 0
150 158 0
154 164 0
151 160 0
146 153 0
152 162 0
154 165 0
157 169 0
157 169 0
147 159 0
160 168 0
149 159 0
154 165 0
156 166 0
173 196 0
169 192 0
173 195 0
171 193 0
171 193 0
168 191 0
174 197 0
170 192 0
173 196 0
170 192 0
174 196 0
168 189 0
170 192 0
171 194 0
165 187 0
169 192 0
172 194 0
170 193 0
172 194 0
169 192 0
168 190 0
171 193 0
165 188 0
168 189 0
167 190 0
169 190 0
166 188 0
167 190 0
165 187 0
170 192 0
168 191 0
174 196 0
168 189 0
167 190 0
170 192 0
169 191 0
171 193 0
166 188 0
167 190 0
169 192 0
171 192 0
168 190 0
169 191 0
167 190 0
166 189 0
165 188 0
167 190 0
170 192 0
164 186 0
164 187 0
163 185 0
164 186 0
167 189 0
164 187 0
166 188 0
164 187 0
167 189 0
166 189 0
161 184 0
163 185 0
163 184 0
165 187 0
160 183 0
167 190 0
167 189 0
163 185 0
161 183 0
166 188 0
161 184 0
162 186 0
162 185 0
162 185 0
158 180 0
163 185 0
162 185 0
164 187 0
155 177 0
164 186 0
166 189 0
165 188 0
156 179 0
162 185 0
162 185 0
161 185 0
164 186 0
158 180 0
161 184 0
161 184 0
158 179 0
160 182 0
164 187 0
163 186 0
156 179 0
158 180 0
160 182 0
162 184 0
159 181 0
149 171 0
164 186 0
160 183 0
162 185 0
161 183 0
159 181 0
159 183 0
155 178 0
155 177 0
162 185 0
156 178 0
160 182 0
162 184 0
160 184 0
158 181 0
160 183 0
154 177 0
152 175 0
160 181 0
164 186 0
159 182 0
142 165 0
162 184 0
161 185 0
157 180 0
152 175 0
154 176 0
159 182 0
158 180 0
153 176 0
153 176 0
152 175 0
151 173 0
151 173 0
157 179 0
156 179 0
155 178 0
152 176 0
152 175 0
163 186 0
150 173 0
155 177 0
151 174 0
156 179 0
153 177 0
157 180 0
153 175 0
153 175 0
148 171 0
151 174 0
152 175 0
146 169 0
150 172 0
156 178 0
156 178 0
153 175 0
149 171 0
145 168 0
155 177 0
151 174 0
147 169 0
150 172 0
148 170 0
146 168 0
146 168 0
147 167 0
156 177 0
151 175 0
147 170 0
155 176 0
152 174 0
155 177 0
153 176 0
152 175 0
148 170 0
151 173 0
148 170 0
144 166 0
148 170 0
144 165 0
137 158 0
150 171 0
148 170 0
149 171 0
146 168 0
150 173 0
143 164 0
149 171 0
146 168 0
148 169 0
145 165 0
148 169 0
152 173 0
143 164 0
147 168 0
142 164 0
139 159 0
151 174 0
142 161 0
144 164 0
143 163 0
138 159 0
148 168 0
148 170 0
144 165 0
141 161 0
138 160 0
154 174 0
144 165 0
148 170 0
144 165 0
151 171 0
138 158 0
140 160 0
143 165 0
143 163 0
139 160 0
148 168 0
139 160 0
144 165 0
144 165 0
147 167 0
135 155 0
140 161 0
146 166 0
142 161 0
140 161 0
144 165 0
142 162 0
136 156 0
140 160 0
140 160 0
140 161 0
150 173 0
142 162 0
139 159 0
152 172 0
150 170 0
141 161 0
137 158 0
145 164 0
150 170 0
135 152 0
142 163 0
144 165 0
148 168 0
134 153 0
143 163 0
144 164 0
145 165 0
153 173 0
148 168 0
150 170 0
149 169 0
146 164 0
138 157 0
144 163 0
146 165 0
149 168 0
150 168 0
139 157 0
140 160 0
149 169 0
154 173 0
150 170 0
143 163 0
135 152 0
153 172 0
149 167 0
138 158 0
146 165 0
147 165 0
146 163 0
144 163 0
142 158 0
138 157 0
141 155 0
150 168 0
147 164 0
149 164 0
143 161 0
149 168 0
142 160 0
149 165 0
144 162 0
151 169 0
147 165 0
144 163 0
145 164 0
147 166 0
142 159 0
152 169 0
139 155 0
151 168 0
152 170 0
154 172 0
152 168 0
151 168 0
145 161 0
146 164 0
150 166 0
150 169 0
149 164 0
149 167 0
150 166 0
152 169 0
147 163 0
149 163 0
142 156 0
148 165 0
143 155 0
146 161 0
148 162 0
149 163 0
142 157 0
147 162 0
142 157 0
143 156 0
147 162 0
151 167 0
147 161 0
143 155 0
145 159 0
137 148 0
146 158 0
143 155 0
145 159 0
143 154 0
146 160 0
152 167 0
146 158 0
142 153 0
143 154 0
145 159 0
144 157 0
140 152 0
148 161 0
139 152 0
148 158 0
145 157 0
144 157 0
149 160 0
149 160 0
150 163 0
145 156 0
145 158 0
147 159 0
145 157 0
148 160 0
147 158 0
145 156 0
144 153 0
150 162 0
153 166 0
144 155 0
147 157 0
151 161 0
145 156 0
151 162 0
154 166 0
155 166 0
136 145 0
150 160 0
152 159 0
145 154 0
144 154 0
151 159 0
148 158 0
156 165 0
147 156 0
144 153 0
145 156 0
147 154 0
150 162 0
148 155 0
149 160 0
140 149 0
150 160 0
146 154 0
150 158 0
149 158 0
147 155 0
156 166 0
153 162 0
145 152 0
151 163 0
151 161 0
150 159 0
150 160 0
152 161 0
152 162 0
144 152 0
152 162 0
155 168 0
153 162 0
154 166 0
150 160 0
149 160 0
153 162 0
158 170 0
154 163 0
157 166 0
153 166 0
171 193 0
171 194 0
173 196 0
169 191 0
172 193 0
171 194 0
171 194 0
170 193 0
173 195 0
168 191 0
171 193 0
172 195 0
171 193 0
167 189 0
174 196 0
170 193 0
169 191 0
170 193 0
168 190 0
169 192 0
171 193 0
168 191 0
170 192 0
170 192 0
166 188 0
167 189 0
163 185 0
171 193 0
167 189 0
164 187 0
166 189 0
165 188 0
169 192 0
169 191 0
169 191 0
172 193 0
168 191 0
163 185 0
167 189 0
167 189 0
172 194 0
166 189 0
166 188 0
168 190 0
168 190 0
166 189 0
166 188 0
166 188 0
168 189 0
170 193 0
164 187 0
167 189 0
164 187 0
162 185 0
169 191 0
168 192 0
162 185 0
165 188 0
166 188 0
168 190 0
168 191 0
166 188 0
157 180 0
160 182 0
165 189 0
162 183 0
163 187 0
163 185 0
162 184 0
166 189 0
162 184 0
154 176 0
159 182 0
165 188 0
161 184 0
170 193 0
167 189 0
162 185 0
160 184 0
173 195 0
164 188 0
158 181 0
162 184 0
160 182 0
158 181 0
167 190 0
156 178 0
163 186 0
163 186 0
163 186 0
163 185 0
162 184 0
160 182 0
164 186 0
156 179 0
158 181 0
153 176 0
154 177 0
155 178 0
163 185 0
155 178 0
162 185 0
161 184 0
154 177 0
159 181 0
155 179 0
157 179 0
157 180 0
159 181 0
157 180 0
166 188 0
159 181 0
156 179 0
165 187 0
152 174 0
154 177 0
161 184 0
158 181 0
157 178 0
154 176 0
153 175 0
159 181 0
154 176 0
156 178 0
152 175 0
154 176 0
155 177 0
159 182 0
154 177 0
153 175 0
154 176 0
159 182 0
153 176 0
155 178 0
151 173 0
151 175 0
154 177 0
147 170 0
148 169 0
151 173 0
151 173 0
154 176 0
148 169 0
164 186 0
154 177 0
152 174 0
158 181 0
159 182 0
151 173 0
146 168 0
150 172 0
153 176 0
154 177 0
155 177 0
152 174 0
148 170 0
152 174 0
155 177 0
144 165 0
149 171 0
151 174 0
149 172 0
156 178 0
143 165 0
146 168 0
142 164 0
151 174 0
150 172 0
151 173 0
150 173 0
152 173 0
156 178 0
144 165 0
156 179 0
141 161 0
148 169 0
138 161 0
144 165 0
145 166 0
144 167 0
143 165 0
149 169 0
158 180 0
138 159 0
148 170 0
150 172 0
147 167 0
151 173 0
150 172 0
144 166 0
141 162 0
148 170 0
153 174 0
147 170 0
142 165 0
138 159 0
147 169 0
136 158 0
140 162 0
148 170 0
144 164 0
142 162 0
152 173 0
149 172 0
146 167 0
142 163 0
140 161 0
147 168 0
144 166 0
149 169 0
145 167 0
140 160 0
147 168 0
139 162 0
140 161 0
146 167 0
141 161 0
150 171 0
149 168 0
139 160 0
147 169 0
140 161 0
138 158 0
145 165 0
146 166 0
143 164 0
146 165 0
144 165 0
148 167 0
144 165 0
149 171 0
145 166 0
139 160 0
153 173 0
146 166 0
143 164 0
148 169 0
143 162 0
142 161 0
140 161 0
141 161 0
150 171 0
135 155 0
136 155 0
139 160 0
150 170 0
145 164 0
144 164 0
149 168 0
145 165 0
146 166 0
144 163 0
139 160 0
149 169 0
141 160 0
149 169 0
146 166 0
140 160 0
152 171 0
148 168 0
138 156 0
148 169 0
140 159 0
150 168 0
145 165 0
145 162 0
154 174 0
136 153 0
143 164 0
148 165 0
145 166 0
140 157 0
145 164 0
148 165 0
143 162 0
147 166 0
144 163 0
142 161 0
149 167 0
149 167 0
152 171 0
143 160 0
147 166 0
148 169 0
141 159 0
136 155 0
144 160 0
152 169 0
146 162 0
151 171 0
141 160 0
141 158 0
137 154 0
139 155 0
154 172 0
155 172 0
142 158 0
151 169 0
149 164 0
154 172 0
145 161 0
140 157 0
150 167 0
142 157 0
146 159 0
149 165 0
148 163 0
142 157 0
143 161 0
146 160 0
143 158 0
145 159 0
149 163 0
142 156 0
144 158 0
155 172 0
147 161 0
141 154 0
149 162 0
151 167 0
147 161 0
147 161 0
142 157 0
146 159 0
147 163 0
149 164 0
158 174 0
148 161 0
151 166 0
152 166 0
143 156 0
150 165 0
150 165 0
153 166 0
138 152 0
149 163 0
142 153 0
153 165 0
149 162 0
150 163 0
147 161 0
147 158 0
141 153 0
151 164 0
138 149 0
148 160 0
143 151 0
152 163 0
145 153 0
144 154 0
146 157 0
147 159 0
151 161 0
148 157 0
145 153 0
159 171 0
151 160 0
153 166 0
152 162 0
146 158 0
148 159 0
149 160 0
146 157 0
147 158 0
146 155 0
151 164 0
151 161 0
150 161 0
151 161 0
143 152 0
151 160 0
147 157 0
149 157 0
152 162 0
148 158 0
147 159 0
148 157 0
145 155 0
149 160 0
151 159 0
154 161 0
160 170 0
155 163 0
152 163 0
152 162 0
148 157 0
148 157 0
148 157 0
150 158 0
149 157 0
152 162 0
150 157 0
149 160 0
156 168 0
150 159 0
157 167 0
156 169 0
153 165 0
157 168 0
157 167 0
172 196 0
172 194 0
170 192 0
167 189 0
172 194 0
173 195 0
169 191 0
172 194 0
170 193 0
170 193 0
170 193 0
164 187 0
173 195 0
169 192 0
169 191 0
166 187 0
169 191 0
170 192 0
167 189 0
170 192 0
168 190 0
169 190 0
170 193 0
169 191 0
168 190 0
168 190 0
167 189 0
166 188 0
166 188 0
165 187 0
171 192 0
164 186 0
166 189 0
166 187 0
162 184 0
164 187 0
166 188 0
168 190 0
163 185 0
160 182 0
165 188 0
172 194 0
163 185 0
166 188 0
164 187 0
166 189 0
164 187 0
173 196 0
163 186 0
164 187 0
169 192 0
163 185 0
165 187 0
163 185 0
167 190 0
162 184 0
163 185 0
167 190 0
156 180 0
165 187 0
161 184 0
167 188 0
163 186 0
161 184 0
165 187 0
159 180 0
168 191 0
163 186 0
163 186 0
164 187 0
159 181 0
164 187 0
160 182 0
161 183 0
158 180 0
167 189 0
163 185 0
166 188 0
155 178 0
161 184 0
157 180 0
155 178 0
164 187 0
167 190 0
160 183 0
160 183 0
164 187 0
161 184 0
166 188 0
153 176 0
151 174 0
161 184 0
163 185 0
164 186 0
155 178 0
163 185 0
160 183 0
157 181 0
160 183 0
156 179 0
160 182 0
163 186 0
156 179 0
154 177 0
156 179 0
160 183 0
161 184 0
159 182 0
156 179 0
166 188 0
160 182 0
161 183 0
155 178 0
161 183 0
155 176 0
156 177 0
158 180 0
153 176 0
157 179 0
160 183 0
155 178 0
145 168 0
156 179 0
152 175 0
161 184 0
155 177 0
157 180 0
153 176 0
152 173 0
162 185 0
165 187 0
152 174 0
157 180 0
153 175 0
155 178 0
151 173 0
165 188 0
151 174 0
152 176 0
153 175 0
159 181 0
154 177 0
157 180 0
155 178 0
156 178 0
147 169 0
153 175 0
149 171 0
152 175 0
150 172 0
156 179 0
156 178 0
151 174 0
148 171 0
149 171 0
156 178 0
146 168 0
143 165 0
150 173 0
147 169 0
156 178 0
151 173 0
148 170 0
146 167 0
150 170 0
141 163 0
149 171 0
158 180 0
148 171 0
156 178 0
148 170 0
138 159 0
148 168 0
155 177 0
154 177 0
149 170 0
152 173 0
148 169 0
145 165 0
147 168 0
148 169 0
144 164 0
142 164 0
152 174 0
150 172 0
140 161 0
150 171 0
143 165 0
134 156 0
143 164 0
147 168 0
143 164 0
149 171 0
145 166 0
142 163 0
145 166 0
141 162 0
139 160 0
145 165 0
145 166 0
153 174 0
144 165 0
150 170 0
138 159 0
149 169 0
147 167 0
143 165 0
136 158 0
144 165 0
153 173 0
145 166 0
150 172 0
143 164 0
155 176 0
148 169 0
142 163 0
144 164 0
130 151 0
151 174 0
144 166 0
154 176 0
142 162 0
143 163 0
145 164 0
149 168 0
141 162 0
138 159 0
143 162 0
144 163 0
147 167 0
144 163 0
147 167 0
146 167 0
148 169 0
146 168 0
144 165 0
151 170 0
141 160 0
150 171 0
142 163 0
135 153 0
150 169 0
149 169 0
145 165 0
136 156 0
142 162 0
145 165 0
146 167 0
133 152 0
150 169 0
157 178 0
147 165 0
154 175 0
141 161 0
143 161 0
140 158 0
141 160 0
152 172 0
150 169 0
141 160 0
151 172 0
139 158 0
142 161 0
148 169 0
143 163 0
145 165 0
152 169 0
144 164 0
148 167 0
151 172 0
145 165 0
145 161 0
149 169 0
153 172 0
154 175 0
145 163 0
145 164 0
142 159 0
138 156 0
144 161 0
140 158 0
146 163 0
145 164 0
151 171 0
151 169 0
144 161 0
151 172 0
153 171 0
148 166 0
150 168 0
143 160 0
147 163 0
143 162 0
144 162 0
143 159 0
146 163 0
148 165 0
144 161 0
147 165 0
146 163 0
146 163 0
152 167 0
147 163 0
143 160 0
153 169 0
149 164 0
149 165 0
143 159 0
150 168 0
142 158 0
140 155 0
147 163 0
148 161 0
143 160 0
148 165 0
139 155 0
146 160 0
151 164 0
146 162 0
148 161 0
140 154 0
145 160 0
144 158 0
141 155 0
146 161 0
146 160 0
150 165 0
148 162 0
146 159 0
147 160 0
147 161 0
150 164 0
152 167 0
150 165 0
148 160 0
145 159 0
151 166 0
149 160 0
145 154 0
143 154 0
143 156 0
143 156 0
157 171 0
146 159 0
147 158 0
140 151 0
149 161 0
145 155 0
142 154 0
147 159 0
147 156 0
149 162 0
151 164 0
149 161 0
148 161 0
143 153 0
153 164 0
149 161 0
150 161 0
149 159 0
149 161 0
145 152 0
149 159 0
142 152 0
139 145 0
137 145 0
146 154 0
149 161 0
146 155 0
151 161 0
145 157 0
145 156 0
144 155 0
150 162 0
148 158 0
157 168 0
149 161 0
149 159 0
157 168 0
153 163 0
154 166 0
151 160 0
154 165 0
153 161 0
146 156 0
153 160 0
159 172 0
150 160 0
142 149 0
149 157 0
140 149 0
144 155 0
150 162 0
148 160 0
153 165 0
158 168 0
149 158 0
152 163 0
158 171 0
157 167 0
171 194 0
169 191 0
171 194 0
168 191 0
172 194 0
170 193 0
171 194 0
167 190 0
168 191 0
165 188 0
173 196 0
170 191 0
170 192 0
172 194 0
170 192 0
168 190 0
171 193 0
172 194 0
171 192 0
171 194 0
170 192 0
166 188 0
169 192 0
171 194 0
168 191 0
171 194 0
168 191 0
167 189 0
172 194 0
169 191 0
168 190 0
167 189 0
167 189 0
167 190 0
165 187 0
168 190 0
167 190 0
162 185 0
169 191 0
168 190 0
167 189 0
161 184 0
171 193 0
167 190 0
169 192 0
166 189 0
166 188 0
165 187 0
167 189 0
165 188 0
171 194 0
162 183 0
168 191 0
169 191 0
162 185 0
168 191 0
166 189 0
163 186 0
164 188 0
165 187 0
168 191 0
163 185 0
169 192 0
161 184 0
166 188 0
160 182 0
166 189 0
165 188 0
160 182 0
154 177 0
160 182 0
158 180 0
164 187 0
163 186 0
158 180 0
157 180 0
161 185 0
165 189 0
165 188 0
166 188 0
162 184 0
158 180 0
159 182 0
165 187 0
161 183 0
161 184 0
160 183 0
159 183 0
158 182 0
161 184 0
160 183 0
160 182 0
158 180 0
164 187 0
162 185 0
163 185 0
161 184 0
165 187 0
159 181 0
160 182 0
159 183 0
158 180 0
157 180 0
158 180 0
157 179 0
157 180 0
162 185 0
158 181 0
158 181 0
161 183 0
157 180 0
160 184 0
161 184 0
160 183 0
162 185 0
155 177 0
154 176 0
155 178 0
162 185 0
163 187 0
162 184 0
160 182 0
156 179 0
152 173 0
153 177 0
161 184 0
151 174 0
157 179 0
160 183 0
156 177 0
153 175 0
148 170 0
150 173 0
156 177 0
147 170 0
151 174 0
157 179 0
157 179 0
150 172 0
156 179 0
156 179 0
148 170 0
154 177 0
156 178 0
156 178 0
142 163 0
152 175 0
155 177 0
150 172 0
158 180 0
145 167 0
154 177 0
155 178 0
156 177 0
148 172 0
146 168 0
149 171 0
149 172 0
146 168 0
154 176 0
156 178 0
154 177 0
154 176 0
147 168 0
147 169 0
136 157 0
144 165 0
152 174 0
147 169 0
150 172 0
143 165 0
146 169 0
150 172 0
152 174 0
144 166 0
154 175 0
147 168 0
149 172 0
140 161 0
154 176 0
145 168 0
145 167 0
160 182 0
154 175 0
150 172 0
149 170 0
147 168 0
144 166 0
150 171 0
147 168 0
144 165 0
155 176 0
146 168 0
142 163 0
156 178 0
142 164 0
148 169 0
141 163 0
137 158 0
152 174 0
153 174 0
143 164 0
145 166 0
139 161 0
147 166 0
147 167 0
143 165 0
144 165 0
144 164 0
143 164 0
147 167 0
154 176 0
135 155 0
144 165 0
140 162 0
152 173 0
151 173 0
151 172 0
146 167 0
144 165 0
143 165 0
148 170 0
148 167 0
146 166 0
145 165 0
147 166 0
139 159 0
150 169 0
150 171 0
143 165 0
146 166 0
148 169 0
143 163 0
138 160 0
140 161 0
150 170 0
150 170 0
143 164 0
148 169 0
138 160 0
145 164 0
150 171 0
148 169 0
151 171 0
151 171 0
154 175 0
149 169 0
147 167 0
143 164 0
136 156 0
149 168 0
145 164 0
148 168 0
147 167 0
149 169 0
143 162 0
143 163 0
150 169 0
150 169 0
144 163 0
154 173 0
144 164 0
147 167 0
143 162 0
153 173 0
150 168 0
145 166 0
149 169 0
145 161 0
139 158 0
147 167 0
148 167 0
146 166 0
151 170 0
149 168 0
149 168 0
146 166 0
141 158 0
142 161 0
146 166 0
141 158 0
152 171 0
148 167 0
143 161 0
149 168 0
151 170 0
144 164 0
149 166 0
151 170 0
149 167 0
146 161 0
146 166 0
142 160 0
149 165 0
140 154 0
148 167 0
150 169 0
153 170 0
141 156 0
151 169 0
145 161 0
148 164 0
154 174 0
152 170 0
141 156 0
145 164 0
152 168 0
148 165 0
144 160 0
156 172 0
148 162 0
146 162 0
153 171 0
150 167 0
148 162 0
152 168 0
139 155 0
146 160 0
153 167 0
144 159 0
145 159 0
140 152 0
146 160 0
150 168 0
149 163 0
139 153 0
144 156 0
149 162 0
140 153 0
141 154 0
148 162 0
152 168 0
149 164 0
148 161 0
145 158 0
150 165 0
152 167 0
149 162 0
150 163 0
143 157 0
154 167 0
152 166 0
148 159 0
147 157 0
145 156 0
149 162 0
145 158 0
144 153 0
148 159 0
147 159 0
152 166 0
143 157 0
148 160 0
148 160 0
142 155 0
148 158 0
149 160 0
152 162 0
145 157 0
144 155 0
152 162 0
157 169 0
148 159 0
146 157 0
153 165 0
160 171 0
150 161 0
145 154 0
152 162 0
152 161 0
155 168 0
151 161 0
147 157 0
145 155 0
150 159 0
153 162 0
148 158 0
144 153 0
153 163 0
154 164 0
148 157 0
144 153 0
151 162 0
149 159 0
157 170 0
154 164 0
152 164 0
153 164 0
151 161 0
146 156 0
151 161 0
156 167 0
155 167 0
153 163 0
148 158 0
147 155 0
153 165 0
157 170 0
154 164 0
152 163 0
172 195 0
168 190 0
170 192 0
176 197 0
174 196 0
172 194 0
168 191 0
171 194 0
170 193 0
172 194 0
171 193 0
170 192 0
165 187 0
173 196 0
173 195 0
171 194 0
167 189 0
169 191 0
173 195 0
169 191 0
168 190 0
169 192 0
168 190 0
171 194 0
168 191 0
167 189 0
171 194 0
170 191 0
169 191 0
168 191 0
169 191 0
161 183 0
167 190 0
164 185 0
172 193 0
162 184 0
164 187 0
168 191 0
165 187 0
166 188 0
165 187 0
169 191 0
165 187 0
162 184 0
169 191 0
167 189 0
169 190 0
169 192 0
165 187 0
165 188 0
164 187 0
165 187 0
165 187 0
168 190 0
168 190 0
160 182 0
157 179 0
162 184 0
166 189 0
159 183 0
159 183 0
166 188 0
159 181 0
160 182 0
166 190 0
159 181 0
167 190 0
168 190 0
162 185 0
162 185 0
161 183 0
155 178 0
158 181 0
161 184 0
160 182 0
162 185 0
163 186 0
162 184 0
166 189 0
161 183 0
162 185 0
162 185 0
164 186 0
163 186 0
161 183 0
162 185 0
163 185 0
158 181 0
162 185 0
161 183 0
162 184 0
160 183 0
158 180 0
155 179 0
159 182 0
154 177 0
159 182 0
155 178 0
155 178 0
163 186 0
152 174 0
155 178 0
167 190 0
159 181 0
160 183 0
158 181 0
162 185 0
160 183 0
160 184 0
160 182 0
161 184 0
154 176 0
160 182 0
160 183 0
158 181 0
153 175 0
160 183 0
157 180 0
161 183 0
156 178 0
160 183 0
154 177 0
160 183 0
152 176 0
157 181 0
160 183 0
157 180 0
155 178 0
162 185 0
159 182 0
158 181 0
151 174 0
154 175 0
154 177 0
154 175 0
160 183 0
160 183 0
154 176 0
161 184 0
156 180 0
157 179 0
153 175 0
155 177 0
152 174 0
153 175 0
155 177 0
151 173 0
157 180 0
156 178 0
160 182 0
150 171 0
153 174 0
153 176 0
144 165 0
143 166 0
150 172 0
155 176 0
162 183 0
154 175 0
156 178 0
145 167 0
155 177 0
153 175 0
143 165 0
152 174 0
151 171 0
150 173 0
145 167 0
152 172 0
147 169 0
149 171 0
152 174 0
148 169 0
147 167 0
146 167 0
149 170 0
144 165 0
155 176 0
156 179 0
145 166 0
155 178 0
151 173 0
154 175 0
153 175 0
148 169 0
149 170 0
143 164 0
153 175 0
145 166 0
150 172 0
148 169 0
146 167 0
144 166 0
153 175 0
154 175 0
150 173 0
152 173 0
150 170 0
142 161 0
141 162 0
150 171 0
142 163 0
144 164 0
145 166 0
147 167 0
145 167 0
147 168 0
149 170 0
155 175 0
149 170 0
151 174 0
145 165 0
151 173 0
142 161 0
138 159 0
144 165 0
144 166 0
145 166 0
142 161 0
148 169 0
145 167 0
144 164 0
144 165 0
136 156 0
149 170 0
143 163 0
143 165 0
142 162 0
148 169 0
145 167 0
141 161 0
145 166 0
144 164 0
148 169 0
140 161 0
143 164 0
147 167 0
152 172 0
150 170 0
143 163 0
145 165 0
147 167 0
147 168 0
143 164 0
143 160 0
139 159 0
153 173 0
148 166 0
146 167 0
147 167 0
142 160 0
142 163 0
151 170 0
144 164 0
142 162 0
149 168 0
147 168 0
142 160 0
150 170 0
147 166 0
137 158 0
140 160 0
143 162 0
145 163 0
142 161 0
147 167 0
143 161 0
150 170 0
141 159 0
152 172 0
150 169 0
147 163 0
142 158 0
144 163 0
148 166 0
159 179 0
150 166 0
153 172 0
152 171 0
149 168 0
146 164 0
144 162 0
142 160 0
147 164 0
137 156 0
143 162 0
151 172 0
145 165 0
147 165 0
145 162 0
146 165 0
152 171 0
138 154 0
143 161 0
145 164 0
144 160 0
151 167 0
140 156 0
152 169 0
150 167 0
149 166 0
151 168 0
147 165 0
137 150 0
143 159 0
139 154 0
152 167 0
145 161 0
145 162 0
148 165 0
153 169 0
150 167 0
155 170 0
149 166 0
146 163 0
144 159 0
150 167 0
143 156 0
142 158 0
149 164 0
150 168 0
152 168 0
148 166 0
148 164 0
148 162 0
143 159 0
148 163 0
144 157 0
144 157 0
151 166 0
154 170 0
146 160 0
145 158 0
151 165 0
151 168 0
150 164 0
151 165 0
153 167 0
146 160 0
149 162 0
148 164 0
157 171 0
145 159 0
151 163 0
150 162 0
149 162 0
146 158 0
147 161 0
152 164 0
152 164 0
149 163 0
148 158 0
147 159 0
148 163 0
142 152 0
148 158 0
146 158 0
146 157 0
147 158 0
146 157 0
146 155 0
145 154 0
147 156 0
153 164 0
148 159 0
149 157 0
153 167 0
146 157 0
153 164 0
145 155 0
145 154 0
149 161 0
146 155 0
158 170 0
151 159 0
150 161 0
151 162 0
154 161 0
149 157 0
149 157 0
151 160 0
151 158 0
153 165 0
146 157 0
155 165 0
155 163 0
156 167 0
160 171 0
155 167 0
158 168 0
150 161 0
152 163 0
150 160 0
153 163 0
150 160 0
145 153 0
155 166 0
153 164 0
156 168 0
151 162 0
170 192 0
168 190 0
172 195 0
167 189 0
171 193 0
168 190 0
173 195 0
169 191 0
172 194 0
173 196 0
171 194 0
170 192 0
168 190 0
167 190 0
171 193 0
171 192 0
171 192 0
169 192 0
167 189 0
169 191 0
164 185 0
165 187 0
169 192 0
163 185 0
171 194 0
170 192 0
170 193 0
168 190 0
168 190 0
166 188 0
167 190 0
167 189 0
168 191 0
169 191 0
165 188 0
161 184 0
167 190 0
168 191 0
168 190 0
170 191 0
165 188 0
163 185 0
169 191 0
169 192 0
165 188 0
167 188 0
166 189 0
164 186 0
166 189 0
165 188 0
163 185 0
166 189 0
161 184 0
157 180 0
161 184 0
162 184 0
165 187 0
164 187 0
161 184 0
165 187 0
165 188 0
159 181 0
164 186 0
163 185 0
161 184 0
159 182 0
167 188 0
164 186 0
163 186 0
161 184 0
158 182 0
163 184 0
165 188 0
160 183 0
159 182 0
162 185 0
167 190 0
159 182 0
163 186 0
160 184 0
158 180 0
163 186 0
159 182 0
159 182 0
163 185 0
162 185 0
160 184 0
161 184 0
165 186 0
165 188 0
164 187 0
156 179 0
164 186 0
158 181 0
157 180 0
160 183 0
163 186 0
158 180 0
164 187 0
159 182 0
156 180 0
165 188 0
161 184 0
161 185 0
153 176 0
158 180 0
155 177 0
161 182 0
158 182 0
160 183 0
152 174 0
157 180 0
152 175 0
159 182 0
148 171 0
160 183 0
160 182 0
156 178 0
147 169 0
156 180 0
156 177 0
155 178 0
158 181 0
160 182 0
163 185 0
156 178 0
151 173 0
156 179 0
159 181 0
157 180 0
163 186 0
157 181 0
147 170 0
146 168 0
158 180 0
156 180 0
150 173 0
153 175 0
153 175 0
161 184 0
149 171 0
161 183 0
154 177 0
160 182 0
157 179 0
157 178 0
156 177 0
152 174 0
147 170 0
155 177 0
158 180 0
158 180 0
151 173 0
152 175 0
136 158 0
151 173 0
157 180 0
155 178 0
149 171 0
152 174 0
152 174 0
154 176 0
146 168 0
151 172 0
150 171 0
155 176 0
146 168 0
153 174 0
145 167 0
152 174 0
159 182 0
147 169 0
144 167 0
146 167 0
146 167 0
155 178 0
151 172 0
151 172 0
149 172 0
157 180 0
150 171 0
160 182 0
155 177 0
144 166 0
154 175 0
154 176 0
144 165 0
144 163 0
146 166 0
149 170 0
148 169 0
147 169 0
144 167 0
151 172 0
150 173 0
146 167 0
150 170 0
147 169 0
150 173 0
147 168 0
154 173 0
157 177 0
143 163 0
144 166 0
152 173 0
154 175 0
146 166 0
146 169 0
144 164 0
146 167 0
147 169 0
145 166 0
153 174 0
142 164 0
140 160 0
146 168 0
148 169 0
149 170 0
146 167 0
151 172 0
143 165 0
151 173 0
148 169 0
144 164 0
144 164 0
140 159 0
141 163 0
147 169 0
141 160 0
146 167 0
144 163 0
149 170 0
148 169 0
152 173 0
156 177 0
146 165 0
147 166 0
141 162 0
138 160 0
145 166 0
151 172 0
152 171 0
143 164 0
150 170 0
147 165 0
147 168 0
147 169 0
156 178 0
143 163 0
151 171 0
147 169 0
151 171 0
138 157 0
144 164 0
139 159 0
148 167 0
151 170 0
139 156 0
152 173 0
148 169 0
150 169 0
146 165 0
149 169 0
148 168 0
152 171 0
141 160 0
153 172 0
147 164 0
147 167 0
142 160 0
145 164 0
148 168 0
141 161 0
142 162 0
150 169 0
143 162 0
145 164 0
151 170 0
146 165 0
148 166 0
148 168 0
143 161 0
149 169 0
146 164 0
148 166 0
145 165 0
150 169 0
144 162 0
148 166 0
149 168 0
156 175 0
145 162 0
152 171 0
140 156 0
146 163 0
154 172 0
151 169 0
146 164 0
146 162 0
150 168 0
147 165 0
149 167 0
151 169 0
150 168 0
155 172 0
148 164 0
153 169 0
142 159 0
146 163 0
148 164 0
148 163 0
151 165 0
150 167 0
152 169 0
153 171 0
146 163 0
147 162 0
149 164 0
151 166 0
149 163 0
150 163 0
150 167 0
145 161 0
152 168 0
138 151 0
149 164 0
146 163 0
143 158 0
147 164 0
149 163 0
152 166 0
153 166 0
145 160 0
143 158 0
146 162 0
148 161 0
148 161 0
142 153 0
149 163 0
150 165 0
146 159 0
155 170 0
148 160 0
151 164 0
144 155 0
157 172 0
144 156 0
149 160 0
153 164 0
148 163 0
148 160 0
153 164 0
145 157 0
148 160 0
150 162 0
144 154 0
149 161 0
150 162 0
147 161 0
142 154 0
147 158 0
155 167 0
142 152 0
150 162 0
144 154 0
150 162 0
147 157 0
154 167 0
152 163 0
150 161 0
149 158 0
145 157 0
156 168 0
161 173 0
147 160 0
148 159 0
149 159 0
149 161 0
155 164 0
155 166 0
150 159 0
154 167 0
151 161 0
155 165 0
154 165 0
154 165 0
150 159 0
156 168 0
156 166 0
152 163 0
151 160 0
153 163 0
154 166 0
155 168 0
156 166 0
155 165 0
149 158 0
154 165 0
149 162 0
149 160 0
167 191 0
170 191 0
167 189 0
172 194 0
172 194 0
165 187 0
173 196 0
169 191 0
168 190 0
169 190 0
171 194 0
169 191 0
168 190 0
169 191 0
170 193 0
170 193 0
169 191 0
166 189 0
166 188 0
166 187 0
164 186 0
165 188 0
166 190 0
171 194 0
168 190 0
165 188 0
163 185 0
166 189 0
167 189 0
169 191 0
167 190 0
172 194 0
164 187 0
168 192 0
169 191 0
166 189 0
164 187 0
169 191 0
171 193 0
161 182 0
166 189 0
168 190 0
160 183 0
171 193 0
166 188 0
165 189 0
168 191 0
166 188 0
162 185 0
166 189 0
170 192 0
164 186 0
159 182 0
167 189 0
165 188 0
161 184 0
162 185 0
160 183 0
169 191 0
161 184 0
167 189 0
168 191 0
158 180 0
164 187 0
164 187 0
167 190 0
168 190 0
163 185 0
160 183 0
163 186 0
159 181 0
160 183 0
163 186 0
167 189 0
158 182 0
165 188 0
164 187 0
161 183 0
160 182 0
159 182 0
160 183 0
165 187 0
156 179 0
159 182 0
162 185 0
160 182 0
163 185 0
158 180 0
164 186 0
160 183 0
150 172 0
158 180 0
162 185 0
158 182 0
161 183 0
154 177 0
163 186 0
160 183 0
162 185 0
157 181 0
160 183 0
161 184 0
161 184 0
159 181 0
154 177 0
159 182 0
158 181 0
157 179 0
161 184 0
161 184 0
158 181 0
157 181 0
156 178 0
161 184 0
155 178 0
163 185 0
161 184 0
153 176 0
159 182 0
160 183 0
157 178 0
158 181 0
157 179 0
158 181 0
154 176 0
150 172 0
161 184 0
157 180 0
155 177 0
160 183 0
158 180 0
160 183 0
154 177 0
158 181 0
158 179 0
161 183 0
156 180 0
150 174 0
157 178 0
162 184 0
157 179 0
152 175 0
160 181 0
157 180 0
155 177 0
155 178 0
161 183 0
148 170 0
159 181 0
145 167 0
149 171 0
150 173 0
158 180 0
156 178 0
159 182 0
159 181 0
152 174 0
148 171 0
153 175 0
151 174 0
155 178 0
152 174 0
150 171 0
160 182 0
143 165 0
148 170 0
145 167 0
142 163 0
155 177 0
155 176 0
147 169 0
150 171 0
150 172 0
156 177 0
145 168 0
147 168 0
150 173 0
141 163 0
152 174 0
147 168 0
151 173 0
158 179 0
151 173 0
138 158 0
147 168 0
151 174 0
149 171 0
148 171 0
140 160 0
142 163 0
142 164 0
154 174 0
143 166 0
146 168 0
152 174 0
150 172 0
153 175 0
150 171 0
149 171 0
152 173 0
138 160 0
144 165 0
150 173 0
145 164 0
146 169 0
155 178 0
145 167 0
148 169 0
150 172 0
140 161 0
145 168 0
153 175 0
138 159 0
144 165 0
148 169 0
155 177 0
150 170 0
142 163 0
144 165 0
150 171 0
151 173 0
144 165 0
155 176 0
147 166 0
146 167 0
143 165 0
147 169 0
145 164 0
145 166 0
142 164 0
147 167 0
150 172 0
145 166 0
146 166 0
151 171 0
149 170 0
147 167 0
138 158 0
154 175 0
146 168 0
143 164 0
145 167 0
150 170 0
148 167 0
144 165 0
147 168 0
152 174 0
146 168 0
147 168 0
149 169 0
148 168 0
141 160 0
153 174 0
149 169 0
146 166 0
147 167 0
149 169 0
142 162 0
145 167 0
141 162 0
144 163 0
150 171 0
147 167 0
149 168 0
158 179 0
145 164 0
146 165 0
150 169 0
149 168 0
150 169 0
149 168 0
148 168 0
147 167 0
141 159 0
156 174 0
147 166 0
152 170 0
149 167 0
150 169 0
152 171 0
147 166 0
149 168 0
155 174 0
144 164 0
149 169 0
148 166 0
146 166 0
144 162 0
149 169 0
147 166 0
138 155 0
147 166 0
147 166 0
153 173 0
140 157 0
141 159 0
143 161 0
152 169 0
143 162 0
147 164 0
150 169 0
151 170 0
150 169 0
151 169 0
160 179 0
150 165 0
143 160 0
144 162 0
152 169 0
151 167 0
145 162 0
147 165 0
148 165 0
154 171 0
151 166 0
146 160 0
148 162 0
142 155 0
147 162 0
149 167 0
146 163 0
147 163 0
144 159 0
150 167 0
147 162 0
148 164 0
139 154 0
147 163 0
150 166 0
148 162 0
156 172 0
153 167 0
148 164 0
152 168 0
147 164 0
144 157 0
156 172 0
157 172 0
154 167 0
144 158 0
148 161 0
137 150 0
155 167 0
152 164 0
143 154 0
149 163 0
142 155 0
147 161 0
153 166 0
145 156 0
144 154 0
156 169 0
153 166 0
148 161 0
151 163 0
154 165 0
149 162 0
148 162 0
149 161 0
145 157 0
151 163 0
144 156 0
154 166 0
144 156 0
148 159 0
157 171 0
145 157 0
149 160 0
151 166 0
157 167 0
152 162 0
154 165 0
147 160 0
148 158 0
149 161 0
154 166 0
152 162 0
156 167 0
151 164 0
151 162 0
151 163 0
146 156 0
150 160 0
151 161 0
150 162 0
152 162 0
150 163 0
155 165 0
159 170 0
148 157 0
144 153 0
151 161 0
153 165 0
145 152 0
149 160 0
158 171 0
157 168 0
146 155 0
158 171 0
153 162 0
169 191 0
166 189 0
173 195 0
170 193 0
168 189 0
167 190 0
171 193 0
168 190 0
170 192 0
172 194 0
169 192 0
171 193 0
168 191 0
169 192 0
165 187 0
169 191 0
169 191 0
165 188 0
166 189 0
166 189 0
174 195 0
164 187 0
162 185 0
170 192 0
169 191 0
168 191 0
166 188 0
168 190 0
168 191 0
166 189 0
165 187 0
163 185 0
169 192 0
164 186 0
163 186 0
168 190 0
168 190 0
166 188 0
171 193 0
166 188 0
168 189 0
164 188 0
165 188 0
169 191 0
169 192 0
167 190 0
165 188 0
164 188 0
164 187 0
167 191 0
165 188 0
168 191 0
168 191 0
161 184 0
161 184 0
165 188 0
166 188 0
161 183 0
163 185 0
159 181 0
163 186 0
166 188 0
158 181 0
155 178 0
161 183 0
166 189 0
166 189 0
167 190 0
164 187 0
163 186 0
168 190 0
165 188 0
158 182 0
158 181 0
160 184 0
164 187 0
151 173 0
167 191 0
160 183 0
163 186 0
165 189 0
158 181 0
162 184 0
161 184 0
161 183 0
158 181 0
166 188 0
165 187 0
163 184 0
162 185 0
160 182 0
160 183 0
156 178 0
162 184 0
152 175 0
158 181 0
160 183 0
159 182 0
163 186 0
157 180 0
164 186 0
161 184 0
159 182 0
162 184 0
156 179 0
158 181 0
163 187 0
157 180 0
155 177 0
153 176 0
157 179 0
156 179 0
156 179 0
156 178 0
157 180 0
154 177 0
164 186 0
159 182 0
150 173 0
156 179 0
155 178 0
158 180 0
156 177 0
154 176 0
154 176 0
160 183 0
160 183 0
161 183 0
157 179 0
154 176 0
147 170 0
158 180 0
151 174 0
153 175 0
153 176 0
162 184 0
155 177 0
153 176 0
157 179 0
151 175 0
148 170 0
152 175 0
147 169 0
160 183 0
156 179 0
157 180 0
158 182 0
154 176 0
153 175 0
151 174 0
165 188 0
155 177 0
151 172 0
149 171 0
154 178 0
152 174 0
152 174 0
150 172 0
148 171 0
138 160 0
155 176 0
156 179 0
157 179 0
154 176 0
158 180 0
144 165 0
155 178 0
156 179 0
149 171 0
151 174 0
150 173 0
146 168 0
149 170 0
153 176 0
146 168 0
147 169 0
148 170 0
156 177 0
151 173 0
143 164 0
155 174 0
140 162 0
150 170 0
152 173 0
147 168 0
147 169 0
147 169 0
150 170 0
150 171 0
144 165 0
144 166 0
146 166 0
151 173 0
147 169 0
158 179 0
147 168 0
146 167 0
148 169 0
149 170 0
154 175 0
155 177 0
151 173 0
151 172 0
139 160 0
147 168 0
149 170 0
151 172 0
155 177 0
142 162 0
137 157 0
150 172 0
151 171 0
153 174 0
149 170 0
145 167 0
148 169 0
154 175 0
141 162 0
145 166 0
148 169 0
150 172 0
145 165 0
149 171 0
151 172 0
147 168 0
146 167 0
149 170 0
137 156 0
150 172 0
151 173 0
151 171 0
149 170 0
134 154 0
151 171 0
151 172 0
145 165 0
153 173 0
150 171 0
155 176 0
150 171 0
147 168 0
149 170 0
147 166 0
146 165 0
154 176 0
144 166 0
149 169 0
152 171 0
146 168 0
146 167 0
148 169 0
144 163 0
155 175 0
148 168 0
152 173 0
148 167 0
146 166 0
151 170 0
149 170 0
147 168 0
146 166 0
151 170 0
149 169 0
144 164 0
150 169 0
150 170 0
152 172 0
149 169 0
150 170 0
149 168 0
148 169 0
149 170 0
148 167 0
151 171 0
143 163 0
155 174 0
139 156 0
146 166 0
148 166 0
143 162 0
154 173 0
142 162 0
141 160 0
146 164 0
144 161 0
148 166 0
148 166 0
144 162 0
147 165 0
150 168 0
149 168 0
145 164 0
147 166 0
151 168 0
160 179 0
147 163 0
154 172 0
147 164 0
147 164 0
147 162 0
157 177 0
153 170 0
145 160 0
149 166 0
149 165 0
155 171 0
153 171 0
149 166 0
140 155 0
150 168 0
155 172 0
143 161 0
147 163 0
157 175 0
146 161 0
151 167 0
149 165 0
137 153 0
151 165 0
150 167 0
156 171 0
150 166 0
154 172 0
144 162 0
147 162 0
154 171 0
147 163 0
150 166 0
153 169 0
154 171 0
148 165 0
150 167 0
144 157 0
152 167 0
153 168 0
153 170 0
146 160 0
153 168 0
147 159 0
147 161 0
139 153 0
155 168 0
148 161 0
154 170 0
152 166 0
141 154 0
146 160 0
151 166 0
145 157 0
155 169 0
154 165 0
149 162 0
149 164 0
144 156 0
149 162 0
152 165 0
153 166 0
157 171 0
149 163 0
149 164 0
158 170 0
152 165 0
144 156 0
153 166 0
145 158 0
149 162 0
154 167 0
146 157 0
153 166 0
148 159 0
154 166 0
152 164 0
154 164 0
153 165 0
150 162 0
147 156 0
155 167 0
154 163 0
147 157 0
156 169 0
156 170 0
146 156 0
148 161 0
157 166 0
154 164 0
150 162 0
156 168 0
156 168 0
160 175 0
154 167 0
152 162 0
157 168 0
150 163 0
148 159 0
153 164 0
147 154 0
154 165 0
155 166 0
150 164 0
150 163 0
171 194 0
170 192 0
165 187 0
170 192 0
174 197 0
173 196 0
170 192 0
169 191 0
168 191 0
171 193 0
167 190 0
170 192 0
167 190 0
170 193 0
169 192 0
166 189 0
169 192 0
168 190 0
170 193 0
170 192 0
168 190 0
164 187 0
170 193 0
168 191 0
166 189 0
169 191 0
167 190 0
166 189 0
166 189 0
167 190 0
166 187 0
167 190 0
165 188 0
166 189 0
163 186 0
167 191 0
165 187 0
164 188 0
162 185 0
165 188 0
166 189 0
164 187 0
166 187 0
162 185 0
164 188 0
167 189 0
165 186 0
167 190 0
165 187 0
167 190 0
167 190 0
160 182 0
165 187 0
164 187 0
167 190 0
162 185 0
160 183 0
158 182 0
157 180 0
162 185 0
163 185 0
160 183 0
165 188 0
165 189 0
163 185 0
161 184 0
162 184 0
165 188 0
160 182 0
163 185 0
161 185 0
160 184 0
161 184 0
157 179 0
165 187 0
163 186 0
159 182 0
160 182 0
160 183 0
164 186 0
164 187 0
157 179 0
158 182 0
162 186 0
161 184 0
160 182 0
158 181 0
158 181 0
159 182 0
160 183 0
164 188 0
163 185 0
162 186 0
158 180 0
162 185 0
162 184 0
159 182 0
157 180 0
164 187 0
159 182 0
164 187 0
152 174 0
165 188 0
161 184 0
159 181 0
163 186 0
164 187 0
163 186 0
160 183 0
159 182 0
157 179 0
157 179 0
162 184 0
156 178 0
158 181 0
160 184 0
154 177 0
157 180 0
162 185 0
155 178 0
156 179 0
157 179 0
163 185 0
159 182 0
158 180 0
161 184 0
155 178 0
159 181 0
154 177 0
158 180 0
152 174 0
156 179 0
159 180 0
160 183 0
160 183 0
160 183 0
149 172 0
157 179 0
149 172 0
152 174 0
151 174 0
152 176 0
155 177 0
158 179 0
151 174 0
152 174 0
156 178 0
157 180 0
150 172 0
155 177 0
156 178 0
150 173 0
147 169 0
146 168 0
154 177 0
150 172 0
150 173 0
153 174 0
156 179 0
153 175 0
145 167 0
161 183 0
148 171 0
153 175 0
150 172 0
156 179 0
147 170 0
153 174 0
146 167 0
152 174 0
148 169 0
144 165 0
153 175 0
146 167 0
154 176 0
147 169 0
144 167 0
149 171 0
142 164 0
138 159 0
148 170 0
145 167 0
145 167 0
152 173 0
154 176 0
152 173 0
153 174 0
144 166 0
148 167 0
153 174 0
134 154 0
152 174 0
144 167 0
142 163 0
152 174 0
148 169 0
152 174 0
150 170 0
149 171 0
147 170 0
151 171 0
152 173 0
151 173 0
143 164 0
152 173 0
150 170 0
146 166 0
150 173 0
146 166 0
144 165 0
152 172 0
146 168 0
152 173 0
148 168 0
146 169 0
150 172 0
147 169 0
151 172 0
149 170 0
150 172 0
148 170 0
150 170 0
143 163 0
154 175 0
156 177 0
154 175 0
154 174 0
143 164 0
144 165 0
141 161 0
146 167 0
151 171 0
148 169 0
147 168 0
149 172 0
141 161 0
146 166 0
148 169 0
152 171 0
146 167 0
147 167 0
144 165 0
143 164 0
150 171 0
142 163 0
144 165 0
151 171 0
146 167 0
155 176 0
139 158 0
154 173 0
155 175 0
150 171 0
148 168 0
153 173 0
153 173 0
145 164 0
151 171 0
144 163 0
147 168 0
144 163 0
147 168 0
147 165 0
145 166 0
145 164 0
156 176 0
157 176 0
143 164 0
150 170 0
148 166 0
145 165 0
147 167 0
150 169 0
142 161 0
151 170 0
145 163 0
150 170 0
147 166 0
142 161 0
151 169 0
146 163 0
146 165 0
154 176 0
152 173 0
144 164 0
154 173 0
157 177 0
142 161 0
150 169 0
153 172 0
149 167 0
145 163 0
153 171 0
150 168 0
143 162 0
143 161 0
149 167 0
151 171 0
153 170 0
151 170 0
154 171 0
149 166 0
146 162 0
147 165 0
147 164 0
143 158 0
145 161 0
153 171 0
151 171 0
143 158 0
148 163 0
153 172 0
152 169 0
154 172 0
147 163 0
154 169 0
156 172 0
150 166 0
153 171 0
150 166 0
145 160 0
153 168 0
145 160 0
146 162 0
151 168 0
153 171 0
148 163 0
146 162 0
146 162 0
154 168 0
150 165 0
148 162 0
150 166 0
152 168 0
141 155 0
150 167 0
151 168 0
155 171 0
144 158 0
151 164 0
152 166 0
148 161 0
147 162 0
147 163 0
149 163 0
149 162 0
147 160 0
149 164 0
141 152 0
150 164 0
147 161 0
153 168 0
151 164 0
146 162 0
160 174 0
152 165 0
151 162 0
151 166 0
150 161 0
142 155 0
151 164 0
148 160 0
149 163 0
151 164 0
151 164 0
148 159 0
150 164 0
153 167 0
148 161 0
157 171 0
152 164 0
161 176 0
144 155 0
149 161 0
143 151 0
155 169 0
154 167 0
150 164 0
157 169 0
149 159 0
154 168 0
154 164 0
154 166 0
149 160 0
154 166 0
147 156 0
151 161 0
157 169 0
158 170 0
144 154 0
153 166 0
147 154 0
152 165 0
157 170 0
155 167 0
150 161 0
159 172 0
149 163 0
149 162 0
149 161 0
170 192 0
167 189 0
170 193 0
169 192 0
168 190 0
168 191 0
170 192 0
168 191 0
172 195 0
169 192 0
169 192 0
166 188 0
169 191 0
171 193 0
172 194 0
166 188 0
170 193 0
172 195 0
169 193 0
170 192 0
168 191 0
166 189 0
165 188 0
167 189 0
166 190 0
164 186 0
166 188 0
169 192 0
166 188 0
167 189 0
167 190 0
165 188 0
165 188 0
167 189 0
164 187 0
165 188 0
165 188 0
165 187 0
164 186 0
164 187 0
165 189 0
166 189 0
168 189 0
159 182 0
167 190 0
164 188 0
163 186 0
163 185 0
165 188 0
162 185 0
162 186 0
164 187 0
159 182 0
164 186 0
162 185 0
165 188 0
161 183 0
166 187 0
167 189 0
164 187 0
163 185 0
170 192 0
163 186 0
164 187 0
164 187 0
163 186 0
164 187 0
162 184 0
156 178 0
163 185 0
164 188 0
165 187 0
162 184 0
158 182 0
165 187 0
160 183 0
164 187 0
166 189 0
162 184 0
157 180 0
157 179 0
159 182 0
160 183 0
162 185 0
155 178 0
164 186 0
159 181 0
159 182 0
159 182 0
157 179 0
159 183 0
160 183 0
165 187 0
162 185 0
165 188 0
160 181 0
160 183 0
158 181 0
159 182 0
156 179 0
163 185 0
168 191 0
154 177 0
160 184 0
170 193 0
154 177 0
164 187 0
157 181 0
158 181 0
164 186 0
159 181 0
155 177 0
158 181 0
152 176 0
158 181 0
154 177 0
156 179 0
155 176 0
160 183 0
154 176 0
162 184 0
155 178 0
159 181 0
155 178 0
152 175 0
159 182 0
151 174 0
159 182 0
158 181 0
153 175 0
153 177 0
161 184 0
158 181 0
156 178 0
151 174 0
150 173 0
160 183 0
161 184 0
152 175 0
159 182 0
155 179 0
152 174 0
152 175 0
159 181 0
156 179 0
156 179 0
153 175 0
153 177 0
156 179 0
152 173 0
157 180 0
152 174 0
150 173 0
157 179 0
153 174 0
152 174 0
151 175 0
147 169 0
152 175 0
157 180 0
152 174 0
156 178 0
150 171 0
152 174 0
153 176 0
157 179 0
151 173 0
157 180 0
156 178 0
157 180 0
154 177 0
151 173 0
149 171 0
150 172 0
146 167 0
156 178 0
147 169 0
144 166 0
156 178 0
156 177 0
150 171 0
151 172 0
145 166 0
147 169 0
149 170 0
151 174 0
156 179 0
147 168 0
155 178 0
159 180 0
151 174 0
150 171 0
147 168 0
153 175 0
150 171 0
156 178 0
152 175 0
153 175 0
141 163 0
154 174 0
148 170 0
151 172 0
152 175 0
145 166 0
155 177 0
156 178 0
148 168 0
143 164 0
154 175 0
157 178 0
147 170 0
152 173 0
148 169 0
148 169 0
147 168 0
145 165 0
146 167 0
143 163 0
148 170 0
149 170 0
141 164 0
147 169 0
158 179 0
151 173 0
150 171 0
145 168 0
155 177 0
149 170 0
141 162 0
146 166 0
153 175 0
148 169 0
148 170 0
145 166 0
149 170 0
148 168 0
150 170 0
144 166 0
147 166 0
149 169 0
148 167 0
141 159 0
138 159 0
142 162 0
150 171 0
147 165 0
147 168 0
145 166 0
148 168 0
144 164 0
152 173 0
139 158 0
144 165 0
148 168 0
150 171 0
148 170 0
152 172 0
142 160 0
157 178 0
151 170 0
149 169 0
152 173 0
144 163 0
153 173 0
148 169 0
146 165 0
144 163 0
144 162 0
142 162 0
148 167 0
153 173 0
144 165 0
147 167 0
145 165 0
151 170 0
156 173 0
149 167 0
159 181 0
145 164 0
143 163 0
152 172 0
155 174 0
148 167 0
146 163 0
155 175 0
146 165 0
148 166 0
153 172 0
150 167 0
150 168 0
148 166 0
157 177 0
156 175 0
152 171 0
154 173 0
155 173 0
154 171 0
146 164 0
148 166 0
148 166 0
155 172 0
158 179 0
147 165 0
147 163 0
145 163 0
152 168 0
150 167 0
150 166 0
152 170 0
146 163 0
152 172 0
152 171 0
150 168 0
143 159 0
159 176 0
147 162 0
151 168 0
148 162 0
150 166 0
150 167 0
138 152 0
146 162 0
151 169 0
151 166 0
146 163 0
147 163 0
153 167 0
149 163 0
151 165 0
153 169 0
152 170 0
153 170 0
145 158 0
157 175 0
157 173 0
142 156 0
149 164 0
149 166 0
153 168 0
152 166 0
155 168 0
150 166 0
149 164 0
149 164 0
156 172 0
151 164 0
153 167 0
146 159 0
152 168 0
154 170 0
148 160 0
146 159 0
150 162 0
152 166 0
151 166 0
151 163 0
152 165 0
145 157 0
148 160 0
150 164 0
146 157 0
152 166 0
153 166 0
154 168 0
152 167 0
146 156 0
149 163 0
147 158 0
150 161 0
150 163 0
145 156 0
146 157 0
153 165 0
152 164 0
151 163 0
145 155 0
151 163 0
153 165 0
155 167 0
154 167 0
152 163 0
154 166 0
153 165 0
151 163 0
154 167 0
152 165 0
148 159 0
153 166 0
155 169 0
155 164 0
152 162 0
155 168 0
152 162 0
158 172 0
154 166 0
155 169 0
152 165 0
155 166 0
152 164 0
150 163 0
170 194 0
168 191 0
167 190 0
169 192 0
168 191 0
169 191 0
170 192 0
170 193 0
168 190 0
171 193 0
165 188 0
173 195 0
170 193 0
169 191 0
169 191 0
171 194 0
172 194 0
165 188 0
170 193 0
166 190 0
169 192 0
167 190 0
167 189 0
169 190 0
167 191 0
168 190 0
168 190 0
168 190 0
169 191 0
168 191 0
167 189 0
168 191 0
168 191 0
169 192 0
163 186 0
172 195 0
164 187 0
166 189 0
166 189 0
168 189 0
167 190 0
164 186 0
161 184 0
166 189 0
166 189 0
166 190 0
163 186 0
161 184 0
164 186 0
165 188 0
164 186 0
163 185 0
167 191 0
158 181 0
168 190 0
165 187 0
167 190 0
164 187 0
167 190 0
162 185 0
164 187 0
164 188 0
164 187 0
166 189 0
164 187 0
160 182 0
161 183 0
158 182 0
161 184 0
161 184 0
160 184 0
158 181 0
157 180 0
165 188 0
159 182 0
156 178 0
160 183 0
160 182 0
160 183 0
167 190 0
165 187 0
157 180 0
162 185 0
161 183 0
162 185 0
162 184 0
152 175 0
162 185 0
162 184 0
153 175 0
163 185 0
167 190 0
162 184 0
162 185 0
163 185 0
162 185 0
158 180 0
160 183 0
157 180 0
160 184 0
156 179 0
156 179 0
163 185 0
158 180 0
158 181 0
155 178 0
157 181 0
168 191 0
153 176 0
160 182 0
158 181 0
163 186 0
154 175 0
157 180 0
156 178 0
161 185 0
161 183 0
159 182 0
158 181 0
157 180 0
159 181 0
156 179 0
160 183 0
156 179 0
156 179 0
154 176 0
153 176 0
159 182 0
157 179 0
152 173 0
154 176 0
144 166 0
158 180 0
155 178 0
161 183 0
161 184 0
151 173 0
152 175 0
156 179 0
145 168 0
152 175 0
162 184 0
153 176 0
153 175 0
155 178 0
159 182 0
160 182 0
151 173 0
155 176 0
148 170 0
156 179 0
157 179 0
158 181 0
151 174 0
150 174 0
154 176 0
154 176 0
155 176 0
147 170 0
159 182 0
149 170 0
159 181 0
152 175 0
140 163 0
157 179 0
148 169 0
151 173 0
152 174 0
150 171 0
161 183 0
147 168 0
150 170 0
150 172 0
156 177 0
160 181 0
154 177 0
150 172 0
159 181 0
149 170 0
155 177 0
149 170 0
145 166 0
149 172 0
153 177 0
149 170 0
152 174 0
151 172 0
157 180 0
151 173 0
145 168 0
152 175 0
156 177 0
150 171 0
146 167 0
148 171 0
149 170 0
148 169 0
149 170 0
156 177 0
143 164 0
162 184 0
149 171 0
150 172 0
144 166 0
146 167 0
144 166 0
145 167 0
143 165 0
150 171 0
150 173 0
147 169 0
147 169 0
142 162 0
147 170 0
152 173 0
149 170 0
150 171 0
148 170 0
147 167 0
144 165 0
145 167 0
152 175 0
142 162 0
149 171 0
155 175 0
150 171 0
152 173 0
141 163 0
148 169 0
149 169 0
143 164 0
155 176 0
152 172 0
147 168 0
151 171 0
147 168 0
150 170 0
141 162 0
147 166 0
152 172 0
153 174 0
152 172 0
148 170 0
151 172 0
142 163 0
150 171 0
145 166 0
150 170 0
150 169 0
149 170 0
152 173 0
153 173 0
146 168 0
152 174 0
147 170 0
136 154 0
152 173 0
148 168 0
155 174 0
144 165 0
151 172 0
151 171 0
148 167 0
156 175 0
146 164 0
145 167 0
148 167 0
139 159 0
147 166 0
148 168 0
141 161 0
144 164 0
145 164 0
153 174 0
154 172 0
145 163 0
153 173 0
156 175 0
150 171 0
150 168 0
146 166 0
142 161 0
149 168 0
151 168 0
152 172 0
151 169 0
153 174 0
150 169 0
142 161 0
156 175 0
149 167 0
141 160 0
150 169 0
150 168 0
151 171 0
140 156 0
156 175 0
146 163 0
146 164 0
152 170 0
154 173 0
147 165 0
148 167 0
152 170 0
149 165 0
153 173 0
153 172 0
149 166 0
140 158 0
147 163 0
148 166 0
151 167 0
151 171 0
150 166 0
151 170 0
141 156 0
156 172 0
150 167 0
148 165 0
154 171 0
152 170 0
149 167 0
148 163 0
154 172 0
150 168 0
151 167 0
150 166 0
153 167 0
154 171 0
149 166 0
160 177 0
148 165 0
152 167 0
154 169 0
149 164 0
150 165 0
143 158 0
157 172 0
155 173 0
146 162 0
150 164 0
154 168 0
155 168 0
154 170 0
148 165 0
147 161 0
148 162 0
147 160 0
153 166 0
154 169 0
150 165 0
154 168 0
154 168 0
157 172 0
150 163 0
154 170 0
157 172 0
149 159 0
153 165 0
145 159 0
156 171 0
146 155 0
151 163 0
148 159 0
152 166 0
152 165 0
155 169 0
148 160 0
153 167 0
157 172 0
145 160 0
147 159 0
153 166 0
153 167 0
154 166 0
143 156 0
152 165 0
150 162 0
158 170 0
161 177 0
159 172 0
152 162 0
152 164 0
153 164 0
162 177 0
144 153 0
150 162 0
155 166 0
156 168 0
154 168 0
148 160 0
156 168 0
152 164 0
151 163 0
156 166 0
152 162 0
156 169 0
156 168 0
152 163 0
157 168 0
168 191 0
172 193 0
171 194 0
171 194 0
166 190 0
168 191 0
169 192 0
170 192 0
169 191 0
171 194 0
166 187 0
169 192 0
169 192 0
165 187 0
172 194 0
168 191 0
167 190 0
169 192 0
161 184 0
171 193 0
164 186 0
166 188 0
168 190 0
168 191 0
163 184 0
171 193 0
169 191 0
171 193 0
169 192 0
162 185 0
167 190 0
166 189 0
170 192 0
163 186 0
165 188 0
164 188 0
165 189 0
164 187 0
166 188 0
166 188 0
166 189 0
168 191 0
167 190 0
163 186 0
162 185 0
166 188 0
164 186 0
163 187 0
160 182 0
164 187 0
161 184 0
165 188 0
159 182 0
166 188 0
163 185 0
164 187 0
169 191 0
164 186 0
165 189 0
166 189 0
169 192 0
165 188 0
166 189 0
163 185 0
158 181 0
162 186 0
162 185 0
162 185 0
160 183 0
165 188 0
161 183 0
163 186 0
163 186 0
160 182 0
164 186 0
157 180 0
158 182 0
165 187 0
165 188 0
163 186 0
157 180 0
160 183 0
163 185 0
155 177 0
166 189 0
150 173 0
165 187 0
165 188 0
163 185 0
163 185 0
163 187 0
161 183 0
152 175 0
154 176 0
164 187 0
158 182 0
163 185 0
155 178 0
161 184 0
158 181 0
157 181 0
158 181 0
157 179 0
162 185 0
166 188 0
162 185 0
161 184 0
163 186 0
160 182 0
154 178 0
163 184 0
154 177 0
159 182 0
162 184 0
153 175 0
150 173 0
158 181 0
153 175 0
161 185 0
153 175 0
149 172 0
156 180 0
154 177 0
149 172 0
156 179 0
156 180 0
157 181 0
158 180 0
153 176 0
157 180 0
157 180 0
162 185 0
153 175 0
153 175 0
153 176 0
158 180 0
157 179 0
156 179 0
153 174 0
156 180 0
150 171 0
156 178 0
149 170 0
157 180 0
160 183 0
160 182 0
156 178 0
153 175 0
151 175 0
149 173 0
152 174 0
154 176 0
148 169 0
157 178 0
149 171 0
151 173 0
150 171 0
152 174 0
150 172 0
145 167 0
156 179 0
156 178 0
157 180 0
154 176 0
156 179 0
152 174 0
150 171 0
158 182 0
155 176 0
153 176 0
152 174 0
153 175 0
150 172 0
150 172 0
152 173 0
152 175 0
151 173 0
154 177 0
148 170 0
150 171 0
151 173 0
154 176 0
162 185 0
144 166 0
150 172 0
154 176 0
154 175 0
150 170 0
153 174 0
152 174 0
152 174 0
139 161 0
150 172 0
145 167 0
150 172 0
149 171 0
150 171 0
146 168 0
154 176 0
152 174 0
146 167 0
151 173 0
148 169 0
147 169 0
145 166 0
158 180 0
151 173 0
149 169 0
147 168 0
153 175 0
145 166 0
151 172 0
150 171 0
153 174 0
152 173 0
151 172 0
147 168 0
142 164 0
147 170 0
144 165 0
155 177 0
149 170 0
150 171 0
152 173 0
141 163 0
147 168 0
149 171 0
148 169 0
147 168 0
142 163 0
152 173 0
153 174 0
144 163 0
151 173 0
142 160 0
158 178 0
152 172 0
145 165 0
153 173 0
155 178 0
152 173 0
143 162 0
151 174 0
156 176 0
150 170 0
145 165 0
148 169 0
144 163 0
152 172 0
157 175 0
147 166 0
151 171 0
146 166 0
142 163 0
144 165 0
154 173 0
142 161 0
152 173 0
151 172 0
149 169 0
148 168 0
145 165 0
146 167 0
141 161 0
151 171 0
153 174 0
147 166 0
149 168 0
148 169 0
146 164 0
151 172 0
146 166 0
153 174 0
145 166 0
148 166 0
146 166 0
148 169 0
155 175 0
147 166 0
150 171 0
152 173 0
153 174 0
147 167 0
150 170 0
145 165 0
151 170 0
156 176 0
151 171 0
153 171 0
154 172 0
153 173 0
146 164 0
146 164 0
147 166 0
143 161 0
150 170 0
147 166 0
151 169 0
153 172 0
147 168 0
153 173 0
151 168 0
143 161 0
149 168 0
155 174 0
154 173 0
149 167 0
152 170 0
155 172 0
158 177 0
152 169 0
148 164 0
155 171 0
149 167 0
149 166 0
153 171 0
143 161 0
144 160 0
151 168 0
145 161 0
150 168 0
154 171 0
155 171 0
152 169 0
153 169 0
151 169 0
152 168 0
149 168 0
152 170 0
146 163 0
151 167 0
148 163 0
157 173 0
150 164 0
151 166 0
149 165 0
152 168 0
150 166 0
152 167 0
149 166 0
149 165 0
154 169 0
149 164 0
157 175 0
152 165 0
149 164 0
155 170 0
147 160 0
150 165 0
151 166 0
154 169 0
153 170 0
148 163 0
148 163 0
154 166 0
154 169 0
151 165 0
151 164 0
159 174 0
155 172 0
155 168 0
146 156 0
147 161 0
153 167 0
158 172 0
148 161 0
154 167 0
155 167 0
156 168 0
146 157 0
152 166 0
145 158 0
149 161 0
158 171 0
150 164 0
160 174 0
152 161 0
156 171 0
159 171 0
148 162 0
152 164 0
147 159 0
153 166 0
157 171 0
156 169 0
157 170 0
152 165 0
149 158 0
153 164 0
147 158 0
150 163 0
158 172 0
152 162 0
154 166 0
152 164 0
155 168 0
156 169 0
152 166 0
152 164 0
161 173 0
168 191 0
165 188 0
169 193 0
169 191 0
170 192 0
165 187 0
170 193 0
166 188 0
171 194 0
170 192 0
172 194 0
167 190 0
165 188 0
169 191 0
167 190 0
167 189 0
163 184 0
167 190 0
168 191 0
169 191 0
165 187 0
165 187 0
171 193 0
164 186 0
168 191 0
167 190 0
165 188 0
169 191 0
170 193 0
166 188 0
166 188 0
169 191 0
162 185 0
165 188 0
167 190 0
167 189 0
171 193 0
166 188 0
164 188 0
165 187 0
167 190 0
167 190 0
165 189 0
167 191 0
168 191 0
164 186 0
165 188 0
168 190 0
165 188 0
164 187 0
165 187 0
164 187 0
165 188 0
169 192 0
162 185 0
168 191 0
168 191 0
165 188 0
167 189 0
165 187 0
161 184 0
159 182 0
166 188 0
164 188 0
163 184 0
166 188 0
164 186 0
164 186 0
164 186 0
161 184 0
162 185 0
166 189 0
160 183 0
161 185 0
159 182 0
164 187 0
160 183 0
161 184 0
162 186 0
160 184 0
162 184 0
161 184 0
164 187 0
166 189 0
158 181 0
161 184 0
161 184 0
158 181 0
157 180 0
161 184 0
162 185 0
158 182 0
159 182 0
164 187 0
162 185 0
167 189 0
159 182 0
160 183 0
157 180 0
163 186 0
159 182 0
167 190 0
160 183 0
159 181 0
158 180 0
158 181 0
159 181 0
159 181 0
160 182 0
161 184 0
157 179 0
158 182 0
165 188 0
160 183 0
159 182 0
155 178 0
159 181 0
162 185 0
159 181 0
155 178 0
156 179 0
154 177 0
155 178 0
159 183 0
159 181 0
161 184 0
156 178 0
154 177 0
154 177 0
161 183 0
156 178 0
159 182 0
152 175 0
160 182 0
163 185 0
159 181 0
155 177 0
158 180 0
157 179 0
158 180 0
163 185 0
152 175 0
152 174 0
152 174 0
153 176 0
153 175 0
151 174 0
153 176 0
153 175 0
158 180 0
152 176 0
156 179 0
155 176 0
155 178 0
150 172 0
155 177 0
155 178 0
157 178 0
151 173 0
156 178 0
151 173 0
149 172 0
148 170 0
161 183 0
158 179 0
155 176 0
149 172 0
149 171 0
155 178 0
154 175 0
152 174 0
153 175 0
152 174 0
155 177 0
153 176 0
153 175 0
152 175 0
150 172 0
154 175 0
146 165 0
151 172 0
156 177 0
149 170 0
150 173 0
152 174 0
154 174 0
151 172 0
146 168 0
154 176 0
147 169 0
151 171 0
145 168 0
154 175 0
150 172 0
146 169 0
153 176 0
150 172 0
143 164 0
146 167 0
144 166 0
145 167 0
159 180 0
149 169 0
146 167 0
150 172 0
144 166 0
145 167 0
148 169 0
138 161 0
146 167 0
154 175 0
149 170 0
146 168 0
145 165 0
156 177 0
142 163 0
147 167 0
153 174 0
146 168 0
147 167 0
150 173 0
148 170 0
151 172 0
147 168 0
144 164 0
152 173 0
148 170 0
149 169 0
145 166 0
151 173 0
144 165 0
148 170 0
149 171 0
158 180 0
147 167 0
146 165 0
147 167 0
150 170 0
142 164 0
155 177 0
156 178 0
156 177 0
154 174 0
150 172 0
141 161 0
144 164 0
151 171 0
153 174 0
148 168 0
145 166 0
150 170 0
155 173 0
150 171 0
147 167 0
148 168 0
144 163 0
154 174 0
150 171 0
152 172 0
148 166 0
152 172 0
156 176 0
141 159 0
145 165 0
148 169 0
148 166 0
148 168 0
154 176 0
149 169 0
145 164 0
149 169 0
139 159 0
158 180 0
149 168 0
150 168 0
149 168 0
151 169 0
146 164 0
147 167 0
154 176 0
152 172 0
152 170 0
152 171 0
159 177 0
151 169 0
153 172 0
147 166 0
150 170 0
144 163 0
154 173 0
150 169 0
148 166 0
150 170 0
152 170 0
150 169 0
153 172 0
143 162 0
149 168 0
152 171 0
154 173 0
148 167 0
148 166 0
153 172 0
145 160 0
152 170 0
143 160 0
143 162 0
150 170 0
153 171 0
150 167 0
145 161 0
146 164 0
150 169 0
150 166 0
156 175 0
151 169 0
149 168 0
150 168 0
152 171 0
149 165 0
147 162 0
146 161 0
149 163 0
146 165 0
158 175 0
153 171 0
151 167 0
149 167 0
148 163 0
158 175 0
147 163 0
151 166 0
148 165 0
150 167 0
152 169 0
150 165 0
150 164 0
154 172 0
151 168 0
146 161 0
150 163 0
154 171 0
147 160 0
149 163 0
152 168 0
156 172 0
155 170 0
151 164 0
150 163 0
155 170 0
145 159 0
153 166 0
147 158 0
149 163 0
147 159 0
148 162 0
150 165 0
156 173 0
150 164 0
152 167 0
149 163 0
152 167 0
155 169 0
151 164 0
155 168 0
157 169 0
150 164 0
150 164 0
151 166 0
152 166 0
152 166 0
145 155 0
150 162 0
151 166 0
154 166 0
149 162 0
155 167 0
152 164 0
160 172 0
152 165 0
154 168 0
157 171 0
157 172 0
146 157 0
153 167 0
154 164 0
151 164 0
157 170 0
155 166 0
152 163 0
155 169 0
155 168 0
152 165 0
154 166 0
153 165 0
161 174 0
157 167 0
163 176 0
158 171 0
158 172 0
168 192 0
167 190 0
168 190 0
170 194 0
168 191 0
165 188 0
169 191 0
167 190 0
167 189 0
171 194 0
171 194 0
174 196 0
170 192 0
166 189 0
167 189 0
165 188 0
166 188 0
168 190 0
166 188 0
171 193 0
167 190 0
163 185 0
163 186 0
159 182 0
168 190 0
168 190 0
167 189 0
166 188 0
162 183 0
168 191 0
168 191 0
164 186 0
169 192 0
163 186 0
166 188 0
164 187 0
166 188 0
165 188 0
164 187 0
165 188 0
162 184 0
168 191 0
164 187 0
169 191 0
162 184 0
167 189 0
169 191 0
164 187 0
157 180 0
161 184 0
165 187 0
166 188 0
159 182 0
169 191 0
165 189 0
162 184 0
164 186 0
160 182 0
171 193 0
163 186 0
164 187 0
167 191 0
165 188 0
161 183 0
164 187 0
163 186 0
163 186 0
161 184 0
161 184 0
155 178 0
155 178 0
161 184 0
162 185 0
163 185 0
161 184 0
160 181 0
166 188 0
165 187 0
167 190 0
160 183 0
163 187 0
162 185 0
162 184 0
169 191 0
163 186 0
155 177 0
157 179 0
158 181 0
169 192 0
155 179 0
156 179 0
159 182 0
158 182 0
166 189 0
164 187 0
165 187 0
158 181 0
157 180 0
159 182 0
160 183 0
158 180 0
160 182 0
159 183 0
162 185 0
158 182 0
162 185 0
161 184 0
157 179 0
157 181 0
153 177 0
160 182 0
157 181 0
161 184 0
155 178 0
157 180 0
160 183 0
159 183 0
155 177 0
159 181 0
158 181 0
157 179 0
161 183 0
158 180 0
161 184 0
150 174 0
152 174 0
156 180 0
158 181 0
151 174 0
155 178 0
159 182 0
151 172 0
156 178 0
147 169 0
156 178 0
156 179 0
161 184 0
155 177 0
157 180 0
157 180 0
158 180 0
153 175 0
157 179 0
148 170 0
159 182 0
160 183 0
156 178 0
152 173 0
154 176 0
159 182 0
148 171 0
149 172 0
158 181 0
145 167 0
151 173 0
159 182 0
153 175 0
162 184 0
151 173 0
158 181 0
158 180 0
160 183 0
156 179 0
155 178 0
160 182 0
157 179 0
149 172 0
152 174 0
155 176 0
156 179 0
148 170 0
154 176 0
162 184 0
142 165 0
144 164 0
154 176 0
155 176 0
154 175 0
147 169 0
144 166 0
153 175 0
161 184 0
151 174 0
152 175 0
148 169 0
148 170 0
147 168 0
149 170 0
157 179 0
150 173 0
155 178 0
148 170 0
155 177 0
152 174 0
153 175 0
156 179 0
150 172 0
153 175 0
157 179 0
149 170 0
146 168 0
153 173 0
149 170 0
146 167 0
148 170 0
149 171 0
145 165 0
144 166 0
152 173 0
146 167 0
153 175 0
152 175 0
150 172 0
151 172 0
148 170 0
156 178 0
151 171 0
150 173 0
153 176 0
146 168 0
154 175 0
154 174 0
145 166 0
145 165 0
148 169 0
147 168 0
146 166 0
144 165 0
153 175 0
147 167 0
147 167 0
146 167 0
158 179 0
149 170 0
153 174 0
147 167 0
152 173 0
155 176 0
147 168 0
150 172 0
139 160 0
157 178 0
149 171 0
146 166 0
151 173 0
151 172 0
147 168 0
155 176 0
149 169 0
151 170 0
148 169 0
159 180 0
151 172 0
146 166 0
141 160 0
151 171 0
151 172 0
137 158 0
149 167 0
152 173 0
149 170 0
147 167 0
154 173 0
152 172 0
151 171 0
155 176 0
144 164 0
153 174 0
152 172 0
149 170 0
146 165 0
154 175 0
153 173 0
145 163 0
156 175 0
151 172 0
153 173 0
156 175 0
155 176 0
150 168 0
153 173 0
158 177 0
151 170 0
153 173 0
149 167 0
145 166 0
152 173 0
152 171 0
152 170 0
147 166 0
142 162 0
150 169 0
151 172 0
150 169 0
148 169 0
147 164 0
148 168 0
155 172 0
154 174 0
146 167 0
152 170 0
152 170 0
148 166 0
155 172 0
150 167 0
156 176 0
148 163 0
150 168 0
153 171 0
150 170 0
151 167 0
149 167 0
151 169 0
158 178 0
147 165 0
151 167 0
153 171 0
148 166 0
153 169 0
154 173 0
158 176 0
152 170 0
155 173 0
146 162 0
154 172 0
152 168 0
151 167 0
148 165 0
143 160 0
145 159 0
157 175 0
153 169 0
156 173 0
157 174 0
152 169 0
152 168 0
150 164 0
153 169 0
151 165 0
148 164 0
141 156 0
154 172 0
155 171 0
146 160 0
145 161 0
152 168 0
154 171 0
148 163 0
141 153 0
155 170 0
155 169 0
147 160 0
144 157 0
152 166 0
145 158 0
152 167 0
159 175 0
145 159 0
156 170 0
152 166 0
151 168 0
150 163 0
149 163 0
154 170 0
157 171 0
144 159 0
158 173 0
159 177 0
153 166 0
155 173 0
144 156 0
152 168 0
156 170 0
152 164 0
154 165 0
155 168 0
150 162 0
157 170 0
153 166 0
148 161 0
157 172 0
149 162 0
158 170 0
155 167 0
156 169 0
156 169 0
157 172 0
155 167 0
149 161 0
159 173 0
155 167 0
158 170 0
146 158 0
153 166 0
152 164 0
156 169 0
155 165 0
153 166 0
161 172 0
149 160 0
166 190 0
166 189 0
166 189 0
170 192 0
167 189 0
162 185 0
169 191 0
171 193 0
167 190 0
170 193 0
167 189 0
164 188 0
162 185 0
166 189 0
168 191 0
170 192 0
171 193 0
163 186 0
164 186 0
164 186 0
168 190 0
167 189 0
164 186 0
167 190 0
167 190 0
169 191 0
169 191 0
165 188 0
163 186 0
167 190 0
170 194 0
166 188 0
171 194 0
169 192 0
163 185 0
167 190 0
168 191 0
167 190 0
166 189 0
165 188 0
163 186 0
165 189 0
165 189 0
166 188 0
168 191 0
165 188 0
167 189 0
163 186 0
163 186 0
171 194 0
159 182 0
163 186 0
171 192 0
169 191 0
165 187 0
166 188 0
165 188 0
162 185 0
164 187 0
166 189 0
165 189 0
162 185 0
161 184 0
167 188 0
164 186 0
159 182 0
158 181 0
161 183 0
166 189 0
166 188 0
163 186 0
165 188 0
165 187 0
161 184 0
158 181 0
165 188 0
165 188 0
159 182 0
161 184 0
162 184 0
161 183 0
165 188 0
158 181 0
164 187 0
162 185 0
159 182 0
161 183 0
162 185 0
154 177 0
163 185 0
159 182 0
158 181 0
158 181 0
157 179 0
155 177 0
161 184 0
160 183 0
160 182 0
163 185 0
161 184 0
158 181 0
159 183 0
161 184 0
156 179 0
166 189 0
157 179 0
156 179 0
152 175 0
163 186 0
167 190 0
166 188 0
159 182 0
158 181 0
156 179 0
161 184 0
168 191 0
159 182 0
160 183 0
157 179 0
155 178 0
159 183 0
157 180 0
154 177 0
160 183 0
158 181 0
162 185 0
155 178 0
158 181 0
160 183 0
156 179 0
153 176 0
150 172 0
152 176 0
160 183 0
150 173 0
161 182 0
153 177 0
154 176 0
157 180 0
158 181 0
151 174 0
162 184 0
155 178 0
159 181 0
155 177 0
160 182 0
155 177 0
155 178 0
148 172 0
150 173 0
155 179 0
153 176 0
155 178 0
161 183 0
151 174 0
156 180 0
146 168 0
157 180 0
148 170 0
157 179 0
152 174 0
148 171 0
151 173 0
159 181 0
148 169 0
150 172 0
156 178 0
148 170 0
159 181 0
150 170 0
154 176 0
154 176 0
151 174 0
158 180 0
153 175 0
150 172 0
155 177 0
151 174 0
152 174 0
147 169 0
155 177 0
148 170 0
146 169 0
157 180 0
152 173 0
153 175 0
150 172 0
143 165 0
149 172 0
154 176 0
146 167 0
151 173 0
148 171 0
151 173 0
146 168 0
149 170 0
151 173 0
145 167 0
156 176 0
155 176 0
152 174 0
150 170 0
151 173 0
155 177 0
142 164 0
154 176 0
152 173 0
145 167 0
152 174 0
152 172 0
142 164 0
153 175 0
142 164 0
150 172 0
154 176 0
150 173 0
153 173 0
146 169 0
146 168 0
156 177 0
153 174 0
148 170 0
154 176 0
158 180 0
153 175 0
138 159 0
148 169 0
151 172 0
144 165 0
153 173 0
148 169 0
151 171 0
154 176 0
148 169 0
141 162 0
149 170 0
151 173 0
146 167 0
146 166 0
154 173 0
151 171 0
151 174 0
151 171 0
148 169 0
147 166 0
155 177 0
149 170 0
151 172 0
151 172 0
141 161 0
152 171 0
143 164 0
154 175 0
154 176 0
151 172 0
147 168 0
148 170 0
150 172 0
156 177 0
158 179 0
149 170 0
157 179 0
151 171 0
155 175 0
146 167 0
153 173 0
149 168 0
147 166 0
155 175 0
149 167 0
151 171 0
152 172 0
145 164 0
147 169 0
149 169 0
146 165 0
152 173 0
157 176 0
150 169 0
152 172 0
153 173 0
154 173 0
146 164 0
153 173 0
158 176 0
156 177 0
147 166 0
154 173 0
148 166 0
152 171 0
145 165 0
154 173 0
145 162 0
148 168 0
151 169 0
149 166 0
150 170 0
152 171 0
156 174 0
151 167 0
150 168 0
150 171 0
153 172 0
159 180 0
151 169 0
143 159 0
152 172 0
149 165 0
159 179 0
160 179 0
144 162 0
145 163 0
147 165 0
151 167 0
153 171 0
150 169 0
147 162 0
158 174 0
147 163 0
152 171 0
157 175 0
157 173 0
150 169 0
155 173 0
150 169 0
152 170 0
155 172 0
152 169 0
152 170 0
159 176 0
150 168 0
144 159 0
151 168 0
153 169 0
146 161 0
153 169 0
154 170 0
152 168 0
146 161 0
153 169 0
152 168 0
159 174 0
151 168 0
150 165 0
151 167 0
154 168 0
151 166 0
146 161 0
146 160 0
153 168 0
156 172 0
157 172 0
154 171 0
154 168 0
152 167 0
148 162 0
151 164 0
155 171 0
147 161 0
160 173 0
151 165 0
153 169 0
152 167 0
154 168 0
156 171 0
148 162 0
149 163 0
156 170 0
149 162 0
153 165 0
149 163 0
153 166 0
154 167 0
145 156 0
154 167 0
154 170 0
153 166 0
148 160 0
150 161 0
157 171 0
155 169 0
154 167 0
152 168 0
155 171 0
156 170 0
152 164 0
151 166 0
155 170 0
158 170 0
155 168 0
152 168 0
150 165 0
159 175 0
152 166 0
151 164 0
152 165 0
155 167 0
155 166 0
157 170 0
158 171 0
170 192 0
170 194 0
170 194 0
169 192 0
166 189 0
168 190 0
169 190 0
165 188 0
168 190 0
167 189 0
171 194 0
164 186 0
168 191 0
165 188 0
168 190 0
165 187 0
167 189 0
167 191 0
169 191 0
170 192 0
163 185 0
166 189 0
168 191 0
164 188 0
168 191 0
165 188 0
168 191 0
172 194 0
165 188 0
170 192 0
165 188 0
168 191 0
167 190 0
167 190 0
169 193 0
165 189 0
161 184 0
166 190 0
171 193 0
167 188 0
164 187 0
169 192 0
164 187 0
165 187 0
166 188 0
163 186 0
168 191 0
169 192 0
170 192 0
166 188 0
156 179 0
166 189 0
161 184 0
159 182 0
160 183 0
160 183 0
161 184 0
163 186 0
165 188 0
164 186 0
165 188 0
160 183 0
162 185 0
156 179 0
165 188 0
166 188 0
159 182 0
167 190 0
161 185 0
155 178 0
168 191 0
162 185 0
157 180 0
168 191 0
162 185 0
164 186 0
157 181 0
163 186 0
169 191 0
161 184 0
162 185 0
160 183 0
164 188 0
157 180 0
162 185 0
158 180 0
164 187 0
159 182 0
157 180 0
159 182 0
159 181 0
164 187 0
167 189 0
155 178 0
160 183 0
158 181 0
165 188 0
158 180 0
157 180 0
159 181 0
158 181 0
163 186 0
156 180 0
161 184 0
162 184 0
162 185 0
151 174 0
152 174 0
155 179 0
160 183 0
162 185 0
159 182 0
150 173 0
162 185 0
154 176 0
163 186 0
152 173 0
154 178 0
158 180 0
155 178 0
165 188 0
151 173 0
157 179 0
157 179 0
158 181 0
165 188 0
155 176 0
157 181 0
157 179 0
160 183 0
156 178 0
153 175 0
160 183 0
156 178 0
162 184 0
161 183 0
158 180 0
157 180 0
155 178 0
157 181 0
156 179 0
149 171 0
159 182 0
149 172 0
153 176 0
153 175 0
149 171 0
150 173 0
151 174 0
151 173 0
154 177 0
159 181 0
153 175 0
151 175 0
160 182 0
157 180 0
153 177 0
163 185 0
155 177 0
152 174 0
154 176 0
147 170 0
155 177 0
147 168 0
154 177 0
151 174 0
155 177 0
151 174 0
160 181 0
152 174 0
154 176 0
161 182 0
151 173 0
158 180 0
159 181 0
149 171 0
156 179 0
159 181 0
149 173 0
154 177 0
146 170 0
160 180 0
155 177 0
155 177 0
157 178 0
160 182 0
145 166 0
151 173 0
154 176 0
158 180 0
155 177 0
151 175 0
150 171 0
153 174 0
157 180 0
157 179 0
157 178 0
146 167 0
148 169 0
155 177 0
145 166 0
151 174 0
147 169 0
155 177 0
146 166 0
146 167 0
141 164 0
149 171 0
151 173 0
148 168 0
146 165 0
149 170 0
146 168 0
146 167 0
150 171 0
151 171 0
152 174 0
149 169 0
149 171 0
147 169 0
151 173 0
147 166 0
149 170 0
152 173 0
149 170 0
146 166 0
155 176 0
153 176 0
151 172 0
153 175 0
154 176 0
159 181 0
146 168 0
144 166 0
150 172 0
151 172 0
143 163 0
153 174 0
155 177 0
144 165 0
156 177 0
150 169 0
155 176 0
160 180 0
148 170 0
153 173 0
155 175 0
151 171 0
148 169 0
145 165 0
148 168 0
150 171 0
149 170 0
151 172 0
149 170 0
144 164 0
145 165 0
150 170 0
155 176 0
156 176 0
148 168 0
151 172 0
150 171 0
147 166 0
151 171 0
145 165 0
150 170 0
148 169 0
155 175 0
152 172 0
146 166 0
152 171 0
146 165 0
150 170 0
143 162 0
156 176 0
153 174 0
152 171 0
154 172 0
152 171 0
148 169 0
150 171 0
148 165 0
153 173 0
150 169 0
153 172 0
153 173 0
150 166 0
152 171 0
155 174 0
154 172 0
154 173 0
149 167 0
156 175 0
152 171 0
153 174 0
149 169 0
156 176 0
144 161 0
153 174 0
155 173 0
156 175 0
155 173 0
151 169 0
146 166 0
144 161 0
153 171 0
154 174 0
157 173 0
146 164 0
158 177 0
156 172 0
152 170 0
150 167 0
153 172 0
153 170 0
152 167 0
152 169 0
155 172 0
151 170 0
151 168 0
144 160 0
148 164 0
151 169 0
155 174 0
150 167 0
154 172 0
146 162 0
153 173 0
149 164 0
143 158 0
153 169 0
153 171 0
155 173 0
151 168 0
145 162 0
151 167 0
147 164 0
153 169 0
149 167 0
150 168 0
144 158 0
161 179 0
153 169 0
150 166 0
154 171 0
156 171 0
156 171 0
158 175 0
154 170 0
153 171 0
149 165 0
155 169 0
155 170 0
155 170 0
154 171 0
153 168 0
154 169 0
155 168 0
153 166 0
154 168 0
151 166 0
154 170 0
151 167 0
150 164 0
150 163 0
150 164 0
148 163 0
157 172 0
155 172 0
149 163 0
154 169 0
150 165 0
160 175 0
151 165 0
156 168 0
148 161 0
154 166 0
151 166 0
156 168 0
151 163 0
154 168 0
156 169 0
154 167 0
149 163 0
156 169 0
146 157 0
153 167 0
154 169 0
153 169 0
146 158 0
152 164 0
155 169 0
155 169 0
156 168 0
151 163 0
152 164 0
153 168 0
150 162 0
157 170 0
164 187 0
165 188 0
164 187 0
162 185 0
169 191 0
170 192 0
171 194 0
169 191 0
173 195 0
171 193 0
167 189 0
168 190 0
166 189 0
166 189 0
167 190 0
168 192 0
164 187 0
168 191 0
169 192 0
166 188 0
167 190 0
167 190 0
164 187 0
167 190 0
165 188 0
167 190 0
167 190 0
166 189 0
164 188 0
165 187 0
169 192 0
161 184 0
165 187 0
164 186 0
164 188 0
166 188 0
167 190 0
163 186 0
163 186 0
159 182 0
164 187 0
167 188 0
161 184 0
162 184 0
171 194 0
160 182 0
169 191 0
160 182 0
165 187 0
163 185 0
163 186 0
161 184 0
168 191 0
159 182 0
167 189 0
162 185 0
164 186 0
162 185 0
160 183 0
164 187 0
163 186 0
164 186 0
162 184 0
164 186 0
163 187 0
164 187 0
160 183 0
160 183 0
166 188 0
160 183 0
165 187 0
162 184 0
165 187 0
164 186 0
163 185 0
160 182 0
163 187 0
160 183 0
163 186 0
163 186 0
162 186 0
159 182 0
159 182 0
164 186 0
158 181 0
164 187 0
162 185 0
165 188 0
160 183 0
158 182 0
151 174 0
155 177 0
164 187 0
160 183 0
163 185 0
161 185 0
160 183 0
162 185 0
163 186 0
161 183 0
158 180 0
165 187 0
161 184 0
164 187 0
156 179 0
159 183 0
162 184 0
162 185 0
158 180 0
156 179 0
155 178 0
158 181 0
162 185 0
162 185 0
160 182 0
160 182 0
159 180 0
151 174 0
154 176 0
158 181 0
163 186 0
155 179 0
160 182 0
154 177 0
153 175 0
156 179 0
160 184 0
160 183 0
155 178 0
155 178 0
158 181 0
158 181 0
156 178 0
159 182 0
157 179 0
156 179 0
160 182 0
160 183 0
155 178 0
152 174 0
158 180 0
160 184 0
156 177 0
158 181 0
156 178 0
157 179 0
161 183 0
155 177 0
160 183 0
153 175 0
159 182 0
158 180 0
153 175 0
154 177 0
154 176 0
153 176 0
154 176 0
158 180 0
157 179 0
159 181 0
156 179 0
149 170 0
147 169 0
154 176 0
158 181 0
151 174 0
152 174 0
160 183 0
151 173 0
151 175 0
154 176 0
153 174 0
154 177 0
153 175 0
158 180 0
151 174 0
158 180 0
147 169 0
150 171 0
153 173 0
151 172 0
154 176 0
148 171 0
151 173 0
154 177 0
150 172 0
151 174 0
150 172 0
148 170 0
149 171 0
154 176 0
156 178 0
151 173 0
152 175 0
148 169 0
157 179 0
148 171 0
148 170 0
149 170 0
154 176 0
153 175 0
148 170 0
148 170 0
152 175 0
155 176 0
148 170 0
155 177 0
160 182 0
155 176 0
151 173 0
138 159 0
143 166 0
147 167 0
155 176 0
151 171 0
153 175 0
148 169 0
148 170 0
150 171 0
144 165 0
147 170 0
148 168 0
148 169 0
154 175 0
136 157 0
152 173 0
142 162 0
153 174 0
159 180 0
157 178 0
160 181 0
143 164 0
150 171 0
153 175 0
148 168 0
151 173 0
147 168 0
150 171 0
144 166 0
154 174 0
150 171 0
151 172 0
152 173 0
149 169 0
144 164 0
151 173 0
147 167 0
150 170 0
149 169 0
150 168 0
159 180 0
152 173 0
159 181 0
156 177 0
149 169 0
156 176 0
155 175 0
152 173 0
158 179 0
152 172 0
150 170 0
151 171 0
149 170 0
154 175 0
146 166 0
151 172 0
154 175 0
149 171 0
148 169 0
150 171 0
150 171 0
151 172 0
151 171 0
148 168 0
158 178 0
151 169 0
146 165 0
150 169 0
145 164 0
147 166 0
157 179 0
155 175 0
152 171 0
144 164 0
152 173 0
153 172 0
149 168 0
152 172 0
144 164 0
156 175 0
158 178 0
157 176 0
150 169 0
147 165 0
152 172 0
151 169 0
140 158 0
146 165 0
152 173 0
157 175 0
153 171 0
158 178 0
152 171 0
154 173 0
154 173 0
149 168 0
153 172 0
155 173 0
150 168 0
150 169 0
152 170 0
145 162 0
152 171 0
145 163 0
161 179 0
154 172 0
158 175 0
152 172 0
152 169 0
152 172 0
154 173 0
153 169 0
149 164 0
150 169 0
151 166 0
152 170 0
145 160 0
158 176 0
155 172 0
150 170 0
148 166 0
154 171 0
150 167 0
149 165 0
154 170 0
151 170 0
151 167 0
155 171 0
156 174 0
150 164 0
149 163 0
155 173 0
156 174 0
157 174 0
157 173 0
152 170 0
154 170 0
139 151 0
161 177 0
159 174 0
151 167 0
153 170 0
147 161 0
152 167 0
152 167 0
150 167 0
148 162 0
158 174 0
152 167 0
155 171 0
157 173 0
148 160 0
154 169 0
153 169 0
158 175 0
155 171 0
158 174 0
148 162 0
155 170 0
158 172 0
156 170 0
149 161 0
157 173 0
152 166 0
150 166 0
154 166 0
145 159 0
151 164 0
152 167 0
154 167 0
153 167 0
149 164 0
154 167 0
156 170 0
153 166 0
160 176 0
154 168 0
154 168 0
159 173 0
147 160 0
150 164 0
155 170 0
161 177 0
155 169 0
154 170 0
153 166 0
157 171 0
155 168 0
143 155 0
151 166 0
167 189 0
170 192 0
168 191 0
167 190 0
169 191 0
167 189 0
164 187 0
162 184 0
169 192 0
170 192 0
169 192 0
164 188 0
169 192 0
162 185 0
167 189 0
167 190 0
167 190 0
160 183 0
165 189 0
169 192 0
166 188 0
163 185 0
167 190 0
166 188 0
164 187 0
164 187 0
168 191 0
169 191 0
164 186 0
167 190 0
163 186 0
167 190 0
164 186 0
163 185 0
161 183 0
167 189 0
170 193 0
163 187 0
167 191 0
165 188 0
167 189 0
164 187 0
164 188 0
165 188 0
168 191 0
166 189 0
164 186 0
163 186 0
164 187 0
162 186 0
168 192 0
161 185 0
158 181 0
166 190 0
166 189 0
164 187 0
164 187 0
164 186 0
164 187 0
162 184 0
166 190 0
159 182 0
164 186 0
159 181 0
162 185 0
159 182 0
164 188 0
163 186 0
166 189 0
159 182 0
166 189 0
161 184 0
159 181 0
160 183 0
162 185 0
163 187 0
166 187 0
160 183 0
163 186 0
160 184 0
162 186 0
161 183 0
164 187 0
158 181 0
157 180 0
159 183 0
164 187 0
161 183 0
163 186 0
154 176 0
160 182 0
157 181 0
162 184 0
159 182 0
158 181 0
164 188 0
158 180 0
157 180 0
156 179 0
156 179 0
159 182 0
158 181 0
159 182 0
162 186 0
159 181 0
163 185 0
162 185 0
157 180 0
156 179 0
157 181 0
160 182 0
160 184 0
160 183 0
151 174 0
160 182 0
155 177 0
155 177 0
156 178 0
160 183 0
157 181 0
163 185 0
156 180 0
156 178 0
158 181 0
157 181 0
152 175 0
156 178 0
156 178 0
154 176 0
153 175 0
154 177 0
161 183 0
158 181 0
160 182 0
146 169 0
157 180 0
157 180 0
157 180 0
159 182 0
155 178 0
158 182 0
153 175 0
163 186 0
157 179 0
154 177 0
150 172 0
152 175 0
156 178 0
157 179 0
157 179 0
152 175 0
158 182 0
159 182 0
152 173 0
152 174 0
151 174 0
152 174 0
152 174 0
155 177 0
153 176 0
150 172 0
150 171 0
153 175 0
154 176 0
154 176 0
152 175 0
157 180 0
157 180 0
154 176 0
153 174 0
158 181 0
150 171 0
155 179 0
154 176 0
152 175 0
155 177 0
148 170 0
156 178 0
154 175 0
150 172 0
153 175 0
145 167 0
149 170 0
155 177 0
153 177 0
148 169 0
154 176 0
144 167 0
151 173 0
153 175 0
156 178 0
149 172 0
160 183 0
151 173 0
151 173 0
151 173 0
150 171 0
151 173 0
146 168 0
153 175 0
154 176 0
150 172 0
153 176 0
152 174 0
149 171 0
153 176 0
157 179 0
145 167 0
151 172 0
145 166 0
150 171 0
152 174 0
149 170 0
151 174 0
153 174 0
147 169 0
163 183 0
150 169 0
146 166 0
147 168 0
147 170 0
156 178 0
154 174 0
142 163 0
153 175 0
148 169 0
156 177 0
154 176 0
162 184 0
151 172 0
149 172 0
149 171 0
151 172 0
153 175 0
150 170 0
151 172 0
150 170 0
154 176 0
154 175 0
137 158 0
153 173 0
148 168 0
154 174 0
148 167 0
153 174 0
145 166 0
150 171 0
147 168 0
156 176 0
154 175 0
150 171 0
148 168 0
154 175 0
150 169 0
155 175 0
151 171 0
149 170 0
151 173 0
150 170 0
150 172 0
146 166 0
152 173 0
150 171 0
147 167 0
155 175 0
149 169 0
160 180 0
151 172 0
147 166 0
149 168 0
142 162 0
147 167 0
148 169 0
144 164 0
149 169 0
158 176 0
147 167 0
159 178 0
149 169 0
152 171 0
148 169 0
161 181 0
152 172 0
148 167 0
153 174 0
144 162 0
146 165 0
149 170 0
152 172 0
155 174 0
153 173 0
154 175 0
151 169 0
156 176 0
157 177 0
151 168 0
147 165 0
149 165 0
148 165 0
152 171 0
153 171 0
143 161 0
152 170 0
151 170 0
150 168 0
153 172 0
144 162 0
151 167 0
151 170 0
144 162 0
151 169 0
149 165 0
153 168 0
148 167 0
153 171 0
159 179 0
147 164 0
151 169 0
151 166 0
149 165 0
152 169 0
153 169 0
158 177 0
152 170 0
148 165 0
150 167 0
148 165 0
155 174 0
142 158 0
142 160 0
150 167 0
152 169 0
151 168 0
148 165 0
148 163 0
151 168 0
144 160 0
155 173 0
149 166 0
153 168 0
151 166 0
151 168 0
145 159 0
156 171 0
153 170 0
161 179 0
148 163 0
152 167 0
150 168 0
156 172 0
153 168 0
155 172 0
154 171 0
150 165 0
149 165 0
145 160 0
156 173 0
156 174 0
160 177 0
148 159 0
159 175 0
150 165 0
152 167 0
149 162 0
157 174 0
149 164 0
154 170 0
149 165 0
156 175 0
153 168 0
154 171 0
153 167 0
148 161 0
160 176 0
147 159 0
155 171 0
156 172 0
157 173 0
151 165 0
151 167 0
148 161 0
157 173 0
154 168 0
152 165 0
157 171 0
153 168 0
149 162 0
152 164 0
159 172 0
156 170 0
152 164 0
157 172 0
151 164 0
155 169 0
157 170 0
156 169 0
151 164 0
154 167 0
155 169 0
158 173 0
168 191 0
166 189 0
167 190 0
164 186 0
173 194 0
169 192 0
164 188 0
167 190 0
165 188 0
165 188 0
170 192 0
165 187 0
167 189 0
163 186 0
168 192 0
169 192 0
172 194 0
169 192 0
171 192 0
166 189 0
163 187 0
165 188 0
171 193 0
166 189 0
171 192 0
162 185 0
166 189 0
166 189 0
154 177 0
162 184 0
159 183 0
166 188 0
170 192 0
166 189 0
162 184 0
166 189 0
166 189 0
165 188 0
164 186 0
162 185 0
162 185 0
162 185 0
167 190 0
163 186 0
167 190 0
161 184 0
166 190 0
167 190 0
160 183 0
161 183 0
166 188 0
163 186 0
163 186 0
165 187 0
163 186 0
161 183 0
162 184 0
167 190 0
164 187 0
165 188 0
167 190 0
160 183 0
162 185 0
162 185 0
165 188 0
159 182 0
168 191 0
161 184 0
161 185 0
165 187 0
160 182 0
157 180 0
159 181 0
160 183 0
161 184 0
156 179 0
163 186 0
158 182 0
159 181 0
160 183 0
158 181 0
161 184 0
163 186 0
158 179 0
165 188 0
156 180 0
162 184 0
164 187 0
168 191 0
164 188 0
165 188 0
166 189 0
162 185 0
162 185 0
163 185 0
166 188 0
163 185 0
160 184 0
166 189 0
156 178 0
164 187 0
152 175 0
162 185 0
159 183 0
157 180 0
158 179 0
160 183 0
157 181 0
161 184 0
161 183 0
161 184 0
163 185 0
159 181 0
151 174 0
155 177 0
149 171 0
156 177 0
152 174 0
163 185 0
157 180 0
155 177 0
161 184 0
158 180 0
161 184 0
156 179 0
155 177 0
153 177 0
160 183 0
158 181 0
155 177 0
163 187 0
151 173 0
160 183 0
162 185 0
162 185 0
155 178 0
155 176 0
155 177 0
156 179 0
155 177 0
158 180 0
153 175 0
147 169 0
156 179 0
154 177 0
159 181 0
156 178 0
158 180 0
149 171 0
160 182 0
158 181 0
163 186 0
154 175 0
154 176 0
158 181 0
159 182 0
155 176 0
147 168 0
152 173 0
153 173 0
160 182 0
157 180 0
153 175 0
150 172 0
148 170 0
158 180 0
147 169 0
162 185 0
153 176 0
153 176 0
156 177 0
157 179 0
154 176 0
155 177 0
150 171 0
148 168 0
151 174 0
154 176 0
150 172 0
158 179 0
154 177 0
157 177 0
145 167 0
147 168 0
147 169 0
147 169 0
150 173 0
152 174 0
157 179 0
139 162 0
149 171 0
153 175 0
151 173 0
155 176 0
159 181 0
155 177 0
156 177 0
148 169 0
152 173 0
153 175 0
142 164 0
155 177 0
156 179 0
150 172 0
144 166 0
153 175 0
147 169 0
152 175 0
152 174 0
152 174 0
147 168 0
155 176 0
146 167 0
151 173 0
147 169 0
150 171 0
150 170 0
146 167 0
150 172 0
148 171 0
155 178 0
150 171 0
150 170 0
153 174 0
154 175 0
149 170 0
147 168 0
150 171 0
148 169 0
150 170 0
149 171 0
154 176 0
149 169 0
144 164 0
151 172 0
150 171 0
154 177 0
150 172 0
153 175 0
150 171 0
144 164 0
146 169 0
145 165 0
158 179 0
152 173 0
156 177 0
150 171 0
161 182 0
155 176 0
154 174 0
148 171 0
157 180 0
155 176 0
151 170 0
153 175 0
149 170 0
154 176 0
144 165 0
157 177 0
153 173 0
149 170 0
149 168 0
156 176 0
163 184 0
151 172 0
149 170 0
155 176 0
150 170 0
146 166 0
150 169 0
148 168 0
147 168 0
145 165 0
155 175 0
151 171 0
149 170 0
151 172 0
155 176 0
152 170 0
147 167 0
147 167 0
151 170 0
157 177 0
152 172 0
157 176 0
154 174 0
156 175 0
142 160 0
148 167 0
154 174 0
151 170 0
149 169 0
151 170 0
150 168 0
154 175 0
153 171 0
153 175 0
153 171 0
156 175 0
146 165 0
155 171 0
144 161 0
154 172 0
151 169 0
147 165 0
155 176 0
150 168 0
156 174 0
157 176 0
145 162 0
147 165 0
146 164 0
152 171 0
156 175 0
158 176 0
151 169 0
153 172 0
152 171 0
160 177 0
151 167 0
153 172 0
148 166 0
152 169 0
152 169 0
144 161 0
150 168 0
146 164 0
158 176 0
141 157 0
152 172 0
161 180 0
155 171 0
153 171 0
155 174 0
157 174 0
160 179 0
153 171 0
153 169 0
142 159 0
159 179 0
156 173 0
152 168 0
149 165 0
147 163 0
154 172 0
153 170 0
154 170 0
145 159 0
151 168 0
154 169 0
151 168 0
154 172 0
152 167 0
153 168 0
154 171 0
149 165 0
151 167 0
153 168 0
153 169 0
150 166 0
154 169 0
153 169 0
150 166 0
150 165 0
154 171 0
146 161 0
153 168 0
153 170 0
151 169 0
149 164 0
150 164 0
147 158 0
154 169 0
157 171 0
150 164 0
156 171 0
156 170 0
158 172 0
146 158 0
159 175 0
150 165 0
158 171 0
150 163 0
155 171 0
152 164 0
152 164 0
152 163 0
149 163 0
152 167 0
149 165 0
155 170 0
145 158 0
153 167 0
160 175 0
156 170 0
156 172 0
147 159 0
160 175 0
155 169 0
153 166 0
170 193 0
168 192 0
167 190 0
170 193 0
169 192 0
166 189 0
169 192 0
167 189 0
169 192 0
164 188 0
167 189 0
168 191 0
172 195 0
169 191 0
170 192 0
167 190 0
167 190 0
167 190 0
161 184 0
167 189 0
163 186 0
168 191 0
163 186 0
168 191 0
169 192 0
163 187 0
168 191 0
164 187 0
166 188 0
163 186 0
166 189 0
165 189 0
164 186 0
164 187 0
167 190 0
163 185 0
168 192 0
164 187 0
163 185 0
162 185 0
162 185 0
164 187 0
160 184 0
168 191 0
164 186 0
166 189 0
165 188 0
162 186 0
163 187 0
164 187 0
162 185 0
162 184 0
160 183 0
168 191 0
160 183 0
162 186 0
165 189 0
165 187 0
165 188 0
164 187 0
162 184 0
159 182 0
167 190 0
165 188 0
161 184 0
164 186 0
165 188 0
160 183 0
160 183 0
167 190 0
161 184 0
163 186 0
161 184 0
164 187 0
167 190 0
166 189 0
160 183 0
165 187 0
160 182 0
165 187 0
161 184 0
159 182 0
159 181 0
153 175 0
162 185 0
161 185 0
166 188 0
155 177 0
161 184 0
160 182 0
159 182 0
162 185 0
154 176 0
163 186 0
164 187 0
167 190 0
161 185 0
158 181 0
162 185 0
161 183 0
162 185 0
158 181 0
157 181 0
164 187 0
155 177 0
162 185 0
166 188 0
159 182 0
160 183 0
159 182 0
160 182 0
153 175 0
153 176 0
159 182 0
164 188 0
161 183 0
160 184 0
162 185 0
161 185 0
160 183 0
158 180 0
149 172 0
157 181 0
161 184 0
161 184 0
156 179 0
159 182 0
159 181 0
155 179 0
154 177 0
157 179 0
157 180 0
157 179 0
157 178 0
151 174 0
156 179 0
155 179 0
153 175 0
154 177 0
156 179 0
160 183 0
149 171 0
148 171 0
152 174 0
153 175 0
154 178 0
150 173 0
152 176 0
156 179 0
160 183 0
156 178 0
154 176 0
153 176 0
150 172 0
163 186 0
152 174 0
156 178 0
154 177 0
152 175 0
151 172 0
156 179 0
156 180 0
151 174 0
150 171 0
158 181 0
149 170 0
154 176 0
152 175 0
149 171 0
149 172 0
156 179 0
159 182 0
156 179 0
153 176 0
153 176 0
160 182 0
158 180 0
155 177 0
156 179 0
153 175 0
148 171 0
151 174 0
150 173 0
148 170 0
160 182 0
153 174 0
157 179 0
151 173 0
160 182 0
149 170 0
148 170 0
159 181 0
149 172 0
148 169 0
151 173 0
159 180 0
153 174 0
155 177 0
144 167 0
150 173 0
149 171 0
155 177 0
154 175 0
148 170 0
150 171 0
153 174 0
144 165 0
157 178 0
161 183 0
146 169 0
152 174 0
161 181 0
149 172 0
147 169 0
147 169 0
152 174 0
149 168 0
154 177 0
148 169 0
148 170 0
156 178 0
161 183 0
148 168 0
151 173 0
150 172 0
143 165 0
147 169 0
147 170 0
146 167 0
152 173 0
149 171 0
152 174 0
149 171 0
163 183 0
159 180 0
147 169 0
141 161 0
143 164 0
147 168 0
147 168 0
151 172 0
145 166 0
154 175 0
152 173 0
154 177 0
153 174 0
147 168 0
150 171 0
151 170 0
156 177 0
153 174 0
148 168 0
148 169 0
151 172 0
146 167 0
155 176 0
150 170 0
153 174 0
151 174 0
151 171 0
144 164 0
156 177 0
156 177 0
145 166 0
156 176 0
151 171 0
147 168 0
154 173 0
157 176 0
155 174 0
150 171 0
146 166 0
155 174 0
152 174 0
152 172 0
152 173 0
155 174 0
145 164 0
148 169 0
150 170 0
155 176 0
154 175 0
159 178 0
146 166 0
154 175 0
155 176 0
146 167 0
149 168 0
144 164 0
152 172 0
146 165 0
151 170 0
151 172 0
155 173 0
145 164 0
153 173 0
149 170 0
153 173 0
145 163 0
155 173 0
152 171 0
146 164 0
144 164 0
160 179 0
150 168 0
159 179 0
144 162 0
154 173 0
154 173 0
149 168 0
154 173 0
153 171 0
150 168 0
159 178 0
154 170 0
153 173 0
150 167 0
152 171 0
146 165 0
151 166 0
146 161 0
156 173 0
155 173 0
152 170 0
151 170 0
148 167 0
152 171 0
155 173 0
149 167 0
149 167 0
154 173 0
155 174 0
156 173 0
155 172 0
160 179 0
151 168 0
153 171 0
157 176 0
150 166 0
157 173 0
155 173 0
155 173 0
154 171 0
150 168 0
150 165 0
150 166 0
155 175 0
154 171 0
157 170 0
158 175 0
158 174 0
147 163 0
155 174 0
151 169 0
149 164 0
150 166 0
150 166 0
148 165 0
142 158 0
157 171 0
152 165 0
151 167 0
148 162 0
158 173 0
151 167 0
155 170 0
153 169 0
153 167 0
158 171 0
151 165 0
156 169 0
156 170 0
152 166 0
151 167 0
151 165 0
150 161 0
158 174 0
157 174 0
151 166 0
153 170 0
162 177 0
150 166 0
157 172 0
147 161 0
157 173 0
158 173 0
155 164 0
156 171 0
158 171 0
152 165 0
149 162 0
154 169 0
152 168 0
147 159 0
154 170 0
156 172 0
159 173 0
155 170 0
163 177 0
154 168 0
166 188 0
169 192 0
170 193 0
164 186 0
169 192 0
166 189 0
167 190 0
170 193 0
172 194 0
166 188 0
170 192 0
164 188 0
161 184 0
168 191 0
164 187 0
167 190 0
167 189 0
169 193 0
166 188 0
169 192 0
164 188 0
168 191 0
168 191 0
161 184 0
165 188 0
169 192 0
166 190 0
169 193 0
162 185 0
164 188 0
168 191 0
170 193 0
162 184 0
169 192 0
163 186 0
162 185 0
168 192 0
164 187 0
162 184 0
170 192 0
163 186 0
164 186 0
164 188 0
165 188 0
165 188 0
163 186 0
160 183 0
168 191 0
164 186 0
162 185 0
165 188 0
163 187 0
158 180 0
165 188 0
165 188 0
160 182 0
161 183 0
167 190 0
164 187 0
168 190 0
157 180 0
167 189 0
170 191 0
166 189 0
169 191 0
164 188 0
161 184 0
167 190 0
159 182 0
166 189 0
161 184 0
163 186 0
163 187 0
157 180 0
164 187 0
162 184 0
163 186 0
156 179 0
158 180 0
161 183 0
162 186 0
162 185 0
159 182 0
163 184 0
160 183 0
160 184 0
157 180 0
162 185 0
165 187 0
162 185 0
161 184 0
163 186 0
158 181 0
155 178 0
160 183 0
153 176 0
164 186 0
160 183 0
160 183 0
161 185 0
151 175 0
159 182 0
157 179 0
155 179 0
161 185 0
162 185 0
163 185 0
157 179 0
159 181 0
158 181 0
162 185 0
157 181 0
154 177 0
152 176 0
158 181 0
155 176 0
158 180 0
160 183 0
156 179 0
153 175 0
164 187 0
161 184 0
158 179 0
160 183 0
153 176 0
157 179 0
156 178 0
158 180 0
158 181 0
163 185 0
156 177 0
162 185 0
152 173 0
163 186 0
162 184 0
148 171 0
161 184 0
153 177 0
149 171 0
157 179 0
157 180 0
152 175 0
151 173 0
160 182 0
158 181 0
161 184 0
154 177 0
153 177 0
156 179 0
155 179 0
154 176 0
158 181 0
156 179 0
153 175 0
157 180 0
156 179 0
152 174 0
155 178 0
160 182 0
150 171 0
161 183 0
158 180 0
151 173 0
157 180 0
161 183 0
150 172 0
153 175 0
149 171 0
162 185 0
154 176 0
153 175 0
158 179 0
151 173 0
157 180 0
157 179 0
159 182 0
152 174 0
150 172 0
148 171 0
151 174 0
152 174 0
157 179 0
156 179 0
155 176 0
156 179 0
153 175 0
151 173 0
150 173 0
157 178 0
149 170 0
158 180 0
153 176 0
150 172 0
151 173 0
157 179 0
159 180 0
159 180 0
152 174 0
159 182 0
155 177 0
147 169 0
152 173 0
152 173 0
149 170 0
147 169 0
158 179 0
151 173 0
149 170 0
152 174 0
147 169 0
156 175 0
145 166 0
145 166 0
149 171 0
152 175 0
153 174 0
148 171 0
148 169 0
149 171 0
152 174 0
144 167 0
146 165 0
157 180 0
147 168 0
151 172 0
145 166 0
150 171 0
152 175 0
150 172 0
149 171 0
159 181 0
154 177 0
158 180 0
153 174 0
154 174 0
148 168 0
147 169 0
147 169 0
151 172 0
155 176 0
152 173 0
149 170 0
157 179 0
154 176 0
151 173 0
149 169 0
152 173 0
150 169 0
155 175 0
154 176 0
147 169 0
149 169 0
154 174 0
152 173 0
146 165 0
154 174 0
154 175 0
152 172 0
149 170 0
151 173 0
156 176 0
159 180 0
155 175 0
154 174 0
145 163 0
150 170 0
159 178 0
148 168 0
150 169 0
155 177 0
157 177 0
144 165 0
150 170 0
152 173 0
154 173 0
149 168 0
153 174 0
151 172 0
157 178 0
154 175 0
150 170 0
160 180 0
148 168 0
152 171 0
150 170 0
147 165 0
151 172 0
154 173 0
156 175 0
159 178 0
148 168 0
155 175 0
150 168 0
154 173 0
156 176 0
152 173 0
157 178 0
157 178 0
149 168 0
154 173 0
154 172 0
157 177 0
149 168 0
151 171 0
160 181 0
156 177 0
146 166 0
148 165 0
147 166 0
146 164 0
151 170 0
155 176 0
154 173 0
151 171 0
153 171 0
153 171 0
151 172 0
153 171 0
158 179 0
152 169 0
151 168 0
148 165 0
153 170 0
156 173 0
148 166 0
151 171 0
151 168 0
154 171 0
147 164 0
153 172 0
153 171 0
147 166 0
154 172 0
153 170 0
151 170 0
156 175 0
151 169 0
154 173 0
152 168 0
159 175 0
158 175 0
157 174 0
156 172 0
145 162 0
158 176 0
156 172 0
150 166 0
151 167 0
158 175 0
156 173 0
158 175 0
148 165 0
143 157 0
157 174 0
149 164 0
148 163 0
151 168 0
157 173 0
156 169 0
163 178 0
154 170 0
151 169 0
158 173 0
148 164 0
149 165 0
154 170 0
155 171 0
154 169 0
154 170 0
157 173 0
150 163 0
149 164 0
147 163 0
160 176 0
160 175 0
159 176 0
155 173 0
156 172 0
153 168 0
153 168 0
150 166 0
157 171 0
155 169 0
152 168 0
149 165 0
155 168 0
156 169 0
155 169 0
157 171 0
152 167 0
155 169 0
155 169 0
154 167 0
151 165 0
158 173 0
159 175 0
154 168 0
150 165 0
159 172 0
157 171 0
169 192 0
171 193 0
171 194 0
168 190 0
167 190 0
165 187 0
170 192 0
166 189 0
164 187 0
167 190 0
170 192 0
166 189 0
169 192 0
167 191 0
162 184 0
163 186 0
165 188 0
167 190 0
166 189 0
163 185 0
167 189 0
169 190 0
171 193 0
167 189 0
171 192 0
169 192 0
167 191 0
165 187 0
166 189 0
167 190 0
164 187 0
168 191 0
166 187 0
171 194 0
168 190 0
166 189 0
166 188 0
169 193 0
167 190 0
163 186 0
164 187 0
166 189 0
160 183 0
167 190 0
162 185 0
165 188 0
160 182 0
164 187 0
163 186 0
163 185 0
164 187 0
157 181 0
166 189 0
160 184 0
167 189 0
159 181 0
159 182 0
166 188 0
158 180 0
162 187 0
160 183 0
163 186 0
166 189 0
168 191 0
164 186 0
164 187 0
161 185 0
163 186 0
167 189 0
165 188 0
165 187 0
168 191 0
160 182 0
161 184 0
163 186 0
166 189 0
165 186 0
161 184 0
162 184 0
162 185 0
161 183 0
167 191 0
163 186 0
152 176 0
155 177 0
161 183 0
161 184 0
158 181 0
161 183 0
161 183 0
158 182 0
164 187 0
159 182 0
158 181 0
154 177 0
168 191 0
156 177 0
159 182 0
153 176 0
154 176 0
158 181 0
164 187 0
161 184 0
164 187 0
158 181 0
159 181 0
162 184 0
159 180 0
163 186 0
162 185 0
156 179 0
160 183 0
158 180 0
159 182 0
160 183 0
159 181 0
163 186 0
157 180 0
155 178 0
160 183 0
162 186 0
154 177 0
163 186 0
162 184 0
157 181 0
159 182 0
160 182 0
157 180 0
152 175 0
158 182 0
158 181 0
157 179 0
162 186 0
158 182 0
154 178 0
156 179 0
160 183 0
150 172 0
157 180 0
155 177 0
157 180 0
158 179 0
154 176 0
160 183 0
158 179 0
158 180 0
156 179 0
160 183 0
159 181 0
159 180 0
154 177 0
152 174 0
158 181 0
156 178 0
158 181 0
157 178 0
160 182 0
155 177 0
159 182 0
149 171 0
159 181 0
158 178 0
151 174 0
160 183 0
150 172 0
154 175 0
158 181 0
156 178 0
153 176 0
150 173 0
161 183 0
154 177 0
154 176 0
153 176 0
153 175 0
153 176 0
159 182 0
154 177 0
158 180 0
159 182 0
152 176 0
154 176 0
155 176 0
157 178 0
154 174 0
156 179 0
160 181 0
153 176 0
154 176 0
150 173 0
157 180 0
151 171 0
156 178 0
152 173 0
151 173 0
155 176 0
147 168 0
156 177 0
153 176 0
150 171 0
145 168 0
153 175 0
147 169 0
158 179 0
153 175 0
153 176 0
149 170 0
155 177 0
151 173 0
155 176 0
157 179 0
147 169 0
152 173 0
151 173 0
150 172 0
156 179 0
156 177 0
152 173 0
154 176 0
153 174 0
142 162 0
150 171 0
154 175 0
156 178 0
150 172 0
149 171 0
161 183 0
153 175 0
154 176 0
151 174 0
158 179 0
159 180 0
156 179 0
156 178 0
148 168 0
154 176 0
153 175 0
150 171 0
160 182 0
159 181 0
149 168 0
148 168 0
159 180 0
149 170 0
151 172 0
159 182 0
151 172 0
153 175 0
143 163 0
151 172 0
149 170 0
151 173 0
153 173 0
153 175 0
145 165 0
144 166 0
148 169 0
151 172 0
157 178 0
147 166 0
155 176 0
159 180 0
158 179 0
159 179 0
148 168 0
145 165 0
153 173 0
148 168 0
155 176 0
156 177 0
154 174 0
151 173 0
151 172 0
149 169 0
151 170 0
148 167 0
151 170 0
139 158 0
160 180 0
146 166 0
156 179 0
160 181 0
152 171 0
152 175 0
146 165 0
149 169 0
146 164 0
148 168 0
148 168 0
149 168 0
154 174 0
147 165 0
159 180 0
154 173 0
150 171 0
155 174 0
156 175 0
152 173 0
155 174 0
154 172 0
156 175 0
156 176 0
152 172 0
155 172 0
156 176 0
153 171 0
150 170 0
151 168 0
150 168 0
156 174 0
149 168 0
152 172 0
154 172 0
151 170 0
142 160 0
150 170 0
156 177 0
155 173 0
150 170 0
153 172 0
149 168 0
154 173 0
152 169 0
154 171 0
145 164 0
157 175 0
154 173 0
151 166 0
152 168 0
147 165 0
152 168 0
156 173 0
150 168 0
155 174 0
155 175 0
160 178 0
153 172 0
151 169 0
159 178 0
152 170 0
156 174 0
156 172 0
150 167 0
150 166 0
161 180 0
147 162 0
155 171 0
150 166 0
156 172 0
159 175 0
158 176 0
154 172 0
152 168 0
155 171 0
155 172 0
151 167 0
157 174 0
153 170 0
156 174 0
149 167 0
155 171 0
155 171 0
152 169 0
155 171 0
156 171 0
159 178 0
155 173 0
148 161 0
152 167 0
159 173 0
155 172 0
159 175 0
159 175 0
147 162 0
152 166 0
152 167 0
161 177 0
156 170 0
155 169 0
153 170 0
152 166 0
156 171 0
155 171 0
156 169 0
162 180 0
162 179 0
157 171 0
153 169 0
157 174 0
154 169 0
157 172 0
152 166 0
156 173 0
158 172 0
162 180 0
154 168 0
158 171 0
156 167 0
152 166 0
159 173 0
168 191 0
165 188 0
167 189 0
173 196 0
167 190 0
170 192 0
165 188 0
165 188 0
170 193 0
165 189 0
167 190 0
166 189 0
160 184 0
166 189 0
164 187 0
167 190 0
167 190 0
164 186 0
163 186 0
163 186 0
166 189 0
167 191 0
169 192 0
167 191 0
165 189 0
162 185 0
163 186 0
164 187 0
167 189 0
167 190 0
170 192 0
165 188 0
165 188 0
167 189 0
164 186 0
166 189 0
169 192 0
163 185 0
167 191 0
164 187 0
165 188 0
166 188 0
167 189 0
166 189 0
167 189 0
162 185 0
165 187 0
165 188 0
168 190 0
163 186 0
164 188 0
162 186 0
160 182 0
161 183 0
162 185 0
162 185 0
163 187 0
160 183 0
163 185 0
162 185 0
165 188 0
164 186 0
163 186 0
163 187 0
160 183 0
164 188 0
165 187 0
163 186 0
158 182 0
162 185 0
160 183 0
161 183 0
160 182 0
163 186 0
166 189 0
162 186 0
161 184 0
162 185 0
165 189 0
162 186 0
164 188 0
163 186 0
159 182 0
165 188 0
161 182 0
157 180 0
156 178 0
159 182 0
169 192 0
158 181 0
161 184 0
160 183 0
157 181 0
159 182 0
158 182 0
163 185 0
157 180 0
165 187 0
161 184 0
154 176 0
158 181 0
158 182 0
156 180 0
160 183 0
158 181 0
154 178 0
162 185 0
164 186 0
162 185 0
160 184 0
152 176 0
161 183 0
158 181 0
154 176 0
161 184 0
158 180 0
155 178 0
157 178 0
158 180 0
158 179 0
155 179 0
163 186 0
159 182 0
160 182 0
157 181 0
160 182 0
159 181 0
155 178 0
157 180 0
155 176 0
157 179 0
163 185 0
153 176 0
160 182 0
154 176 0
158 180 0
162 185 0
159 181 0
156 178 0
155 177 0
161 184 0
164 186 0
160 183 0
160 182 0
156 179 0
153 175 0
154 175 0
164 187 0
161 183 0
155 177 0
158 180 0
154 176 0
147 169 0
157 179 0
154 178 0
154 176 0
155 177 0
157 178 0
163 186 0
155 179 0
156 178 0
155 177 0
152 174 0
157 179 0
155 177 0
156 177 0
155 178 0
155 178 0
154 176 0
157 180 0
155 177 0
156 179 0
154 177 0
160 182 0
160 183 0
153 175 0
153 176 0
160 183 0
157 178 0
155 177 0
152 174 0
159 181 0
153 175 0
156 179 0
159 180 0
152 174 0
152 175 0
157 178 0
158 179 0
153 174 0
149 170 0
155 178 0
161 185 0
151 174 0
157 179 0
158 181 0
154 176 0
150 172 0
153 174 0
151 172 0
154 176 0
153 175 0
160 183 0
156 178 0
154 177 0
157 178 0
151 173 0
157 178 0
149 170 0
153 175 0
157 179 0
156 177 0
146 168 0
155 177 0
154 176 0
156 179 0
145 167 0
147 169 0
156 178 0
158 181 0
150 172 0
148 169 0
144 165 0
155 177 0
154 175 0
146 167 0
151 172 0
144 165 0
149 170 0
150 170 0
145 167 0
152 174 0
144 164 0
152 174 0
154 176 0
154 174 0
159 181 0
151 171 0
150 171 0
151 171 0
150 171 0
154 176 0
148 169 0
155 177 0
158 180 0
155 175 0
148 168 0
159 180 0
141 162 0
160 183 0
155 177 0
154 176 0
155 174 0
149 170 0
149 170 0
159 182 0
159 180 0
150 170 0
157 179 0
146 165 0
154 176 0
153 173 0
151 172 0
154 176 0
153 173 0
147 169 0
150 171 0
152 172 0
153 176 0
155 176 0
142 163 0
159 180 0
157 176 0
152 172 0
160 180 0
152 173 0
156 176 0
150 171 0
148 169 0
145 166 0
155 176 0
152 172 0
150 171 0
148 168 0
150 169 0
148 169 0
155 174 0
149 169 0
155 173 0
165 187 0
153 172 0
151 169 0
155 177 0
155 176 0
155 174 0
147 166 0
152 169 0
151 170 0
153 173 0
148 167 0
146 165 0
153 172 0
154 172 0
151 170 0
150 168 0
151 169 0
153 171 0
151 171 0
158 178 0
153 171 0
152 170 0
153 170 0
149 166 0
148 166 0
152 171 0
151 169 0
145 161 0
144 164 0
154 172 0
154 174 0
149 165 0
155 173 0
155 174 0
149 166 0
153 173 0
154 172 0
157 176 0
153 172 0
151 170 0
147 164 0
154 173 0
152 168 0
152 171 0
151 169 0
151 170 0
156 174 0
155 174 0
147 164 0
154 173 0
151 166 0
155 173 0
150 167 0
148 166 0
151 166 0
152 169 0
156 173 0
156 173 0
152 167 0
153 172 0
154 171 0
155 174 0
150 167 0
156 172 0
151 167 0
153 170 0
158 175 0
151 167 0
153 171 0
150 168 0
139 154 0
151 168 0
160 177 0
155 170 0
156 172 0
151 167 0
149 164 0
151 168 0
158 174 0
159 175 0
154 170 0
156 171 0
152 168 0
162 178 0
154 168 0
153 167 0
161 178 0
160 176 0
155 171 0
152 165 0
158 173 0
153 168 0
151 165 0
151 166 0
151 164 0
154 170 0
158 173 0
157 171 0
156 173 0
151 166 0
151 167 0
165 183 0
157 172 0
153 167 0
155 167 0
153 170 0
154 167 0
155 168 0
157 171 0
154 169 0
155 168 0
167 191 0
167 190 0
164 187 0
162 186 0
167 191 0
168 192 0
163 185 0
169 191 0
166 189 0
170 193 0
171 194 0
167 189 0
168 191 0
169 192 0
164 187 0
165 188 0
173 195 0
167 190 0
164 186 0
166 189 0
165 188 0
164 187 0
164 187 0
161 184 0
167 190 0
167 190 0
164 188 0
164 186 0
167 190 0
163 185 0
167 190 0
165 188 0
162 185 0
162 186 0
159 182 0
166 188 0
166 190 0
163 186 0
164 187 0
167 190 0
164 187 0
167 189 0
162 185 0
170 192 0
164 187 0
163 186 0
168 191 0
164 187 0
164 186 0
168 191 0
165 189 0
163 186 0
164 186 0
162 185 0
170 192 0
166 189 0
166 189 0
158 182 0
162 185 0
166 188 0
163 186 0
163 186 0
161 185 0
163 187 0
165 187 0
167 189 0
161 184 0
165 188 0
165 188 0
159 182 0
164 187 0
162 186 0
168 192 0
165 188 0
166 189 0
164 186 0
163 184 0
161 183 0
165 189 0
163 186 0
161 184 0
161 182 0
157 180 0
161 184 0
153 176 0
161 184 0
165 189 0
161 184 0
165 187 0
166 190 0
160 183 0
151 174 0
161 184 0
167 190 0
159 183 0
161 184 0
164 187 0
159 183 0
164 187 0
163 186 0
161 184 0
161 184 0
154 177 0
161 184 0
162 184 0
161 184 0
156 178 0
160 184 0
160 183 0
154 177 0
159 181 0
166 189 0
163 185 0
163 186 0
164 186 0
160 183 0
160 183 0
153 175 0
157 180 0
161 182 0
158 181 0
165 187 0
162 183 0
160 184 0
155 176 0
162 185 0
154 177 0
157 180 0
157 180 0
159 181 0
156 178 0
159 181 0
155 178 0
162 185 0
151 173 0
159 181 0
156 178 0
159 182 0
157 180 0
157 179 0
160 182 0
157 180 0
155 177 0
157 180 0
159 181 0
161 184 0
156 177 0
156 179 0
162 185 0
162 185 0
158 180 0
162 184 0
156 177 0
155 176 0
161 182 0
151 173 0
154 178 0
149 172 0
153 177 0
158 181 0
152 173 0
160 183 0
157 178 0
154 178 0
152 175 0
157 179 0
157 179 0
158 182 0
154 176 0
153 175 0
156 179 0
160 183 0
155 177 0
157 180 0
155 179 0
150 173 0
149 170 0
158 180 0
148 170 0
157 178 0
163 185 0
153 176 0
154 175 0
153 174 0
150 172 0
154 176 0
155 176 0
153 176 0
144 167 0
156 177 0
148 169 0
155 177 0
158 179 0
159 181 0
150 172 0
153 175 0
159 182 0
155 178 0
154 175 0
153 175 0
161 184 0
152 175 0
154 177 0
151 173 0
160 182 0
155 177 0
154 176 0
147 169 0
155 177 0
142 163 0
157 179 0
150 172 0
151 173 0
146 169 0
150 171 0
149 170 0
153 174 0
156 177 0
156 177 0
149 169 0
151 173 0
143 164 0
149 170 0
151 172 0
158 180 0
155 178 0
149 171 0
160 182 0
159 180 0
150 171 0
147 167 0
158 180 0
155 177 0
148 169 0
153 173 0
161 182 0
149 171 0
157 179 0
157 179 0
155 176 0
150 170 0
148 170 0
150 169 0
149 169 0
146 166 0
155 178 0
160 182 0
158 180 0
155 177 0
155 175 0
159 180 0
157 179 0
159 182 0
147 168 0
158 180 0
162 184 0
161 182 0
146 166 0
151 171 0
155 175 0
151 172 0
158 179 0
153 172 0
153 174 0
157 178 0
152 173 0
152 174 0
150 171 0
147 167 0
148 167 0
150 169 0
153 173 0
156 177 0
149 171 0
155 174 0
149 168 0
149 169 0
152 172 0
156 176 0
156 176 0
151 171 0
155 176 0
154 174 0
155 175 0
146 167 0
159 179 0
156 176 0
157 178 0
151 171 0
156 175 0
160 177 0
153 173 0
155 173 0
144 163 0
149 167 0
157 178 0
148 166 0
154 173 0
148 168 0
153 173 0
148 166 0
156 174 0
151 172 0
154 171 0
154 173 0
157 178 0
156 175 0
155 175 0
156 174 0
155 174 0
157 176 0
148 169 0
152 171 0
157 179 0
156 173 0
161 179 0
157 176 0
154 173 0
155 174 0
151 169 0
152 171 0
156 175 0
162 181 0
149 166 0
149 166 0
152 170 0
155 173 0
152 171 0
148 165 0
160 178 0
149 167 0
160 179 0
150 170 0
158 176 0
157 174 0
149 167 0
152 170 0
153 169 0
150 167 0
156 175 0
151 167 0
160 179 0
153 170 0
153 172 0
151 167 0
149 167 0
153 173 0
154 172 0
155 173 0
153 170 0
156 174 0
150 167 0
153 170 0
155 171 0
156 172 0
157 174 0
153 170 0
156 175 0
157 174 0
155 171 0
153 170 0
151 167 0
156 172 0
154 170 0
152 169 0
155 171 0
164 182 0
158 174 0
152 165 0
151 167 0
155 170 0
158 173 0
151 166 0
152 170 0
151 164 0
153 169 0
155 171 0
152 165 0
157 174 0
154 171 0
156 169 0
153 168 0
147 165 0
158 174 0
160 175 0
154 168 0
157 171 0
153 169 0
160 175 0
162 178 0
155 170 0
155 169 0
153 168 0
152 167 0
157 171 0
157 172 0
155 172 0
151 164 0
156 170 0
157 173 0
