P3
400 225
255
204 226 255
204 226 255
204 226 255
204 226 255
204 226 255
204 226 255
204 226 255
204 226 255
204 226 255
204 226 255
204 226 255
204 226 255
204 226 255
204 226 255
204 226 255
203 226 255
203 226 255
203 226 255
203 226 255
203 226 255
203 226 255
203 226 255
203 226 255
203 225 255
203 225 255
203 225 255
203 225 255
203 225 255
203 225 255
203 225 255
203 225 255
203 225 255
202 225 255
202 225 255
202 225 255
202 225 255
202 225 255
202 225 255
202 225 255
202 225 255
202 225 255
202 225 255
202 225 255
202 225 255
202 225 255
202 225 255
202 225 255
202 225 255
201 225 255
201 225 255
201 225 255
201 225 255
201 224 255
201 224 255
201 224 255
201 224 255
201 224 255
201 224 255
201 224 255
201 224 255
201 224 255
201 224 255
201 224 255
200 224 255
200 224 255
200 224 255
200 224 255
200 224 255
200 224 255
200 224 255
200 224 255
200 224 255
200 224 255
200 224 255
200 224 255
200 224 255
200 224 255
199 224 255
199 224 255
199 224 255
199 223 255
199 223 255
199 223 255
199 223 255
199 223 255
199 223 255
199 223 255
199 223 255
199 223 255
199 223 255
199 223 255
199 223 255
198 223 255
198 223 255
198 223 255
198 223 255
198 223 255
198 223 255
198 223 255
198 223 255
198 223 255
198 223 255
198 223 255
198 223 255
198 223 255
198 223 255
197 222 255
197 222 255
197 222 255
197 222 255
197 222 255
197 222 255
197 222 255
197 222 255
197 222 255
197 222 255
197 222 255
197 222 255
197 222 255
197 222 255
197 222 255
196 222 255
196 222 255
196 222 255
196 222 255
196 222 255
196 222 255
196 222 255
196 222 255
196 222 255
196 222 255
196 222 255
196 222 255
196 222 255
196 222 255
196 221 255
196 221 255
195 221 255
195 221 255
195 221 255
195 221 255
195 221 255
195 221 255
195 221 255
195 221 255
195 221 255
195 221 255
195 221 255
195 221 255
195 221 255
195 221 255
195 221 255
195 221 255
195 221 255
195 221 255
194 221 255
194 221 255
194 221 255
194 221 255
194 221 255
194 221 255
194 221 255
194 221 255
194 221 255
194 221 255
194 221 255
194 221 255
194 221 255
194 221 255
194 221 255
194 221 255
194 221 255
194 221 255
194 221 255
194 221 255
194 221 255
194 221 255
194 220 255
194 220 255
194 220 255
194 220 255
194 220 255
194 220 255
194 220 255
194 220 255
194 220 255
193 220 255
193 220 255
193 220 255
193 220 255
193 220 255
193 220 255
193 220 255
193 220 255
193 220 255
193 220 255
193 220 255
193 220 255
193 220 255
193 220 255
193 220 255
193 220 255
193 220 255
193 220 255
193 220 255
193 220 255
193 220 255
193 220 255
193 220 255
193 220 255
193 220 255
193 220 255
193 220 255
193 220 255
194 220 255
194 220 255
194 220 255
194 220 255
194 220 255
194 220 255
194 220 255
194 220 255
194 220 255
194 221 255
194 221 255
194 221 255
194 221 255
194 221 255
194 221 255
194 221 255
194 221 255
194 221 255
194 221 255
194 221 255
194 221 255
194 221 255
194 221 255
194 221 255
194 221 255
194 221 255
194 221 255
194 221 255
194 221 255
194 221 255
194 221 255
195 221 255
195 221 255
195 221 255
195 221 255
195 221 255
195 221 255
195 221 255
195 221 255
195 221 255
195 221 255
195 221 255
195 221 255
195 221 255
195 221 255
195 221 255
195 221 255
195 221 255
195 221 255
196 221 255
196 221 255
196 222 255
196 222 255
196 222 255
196 222 255
196 222 255
196 222 255
196 222 255
196 222 255
196 222 255
196 222 255
196 222 255
196 222 255
196 222 255
196 222 255
197 222 255
197 222 255
197 222 255
197 222 255
197 222 255
197 222 255
197 222 255
197 222 255
197 222 255
197 222 255
197 222 255
197 222 255
197 222 255
197 222 255
197 223 255
198 223 255
198 223 255
198 223 255
198 223 255
198 223 255
198 223 255
198 223 255
198 223 255
198 223 255
198 223 255
198 223 255
198 223 255
198 223 255
198 223 255
199 223 255
199 223 255
199 223 255
199 223 255
199 223 255
199 223 255
199 223 255
199 223 255
199 223 255
199 223 255
199 223 255
199 223 255
199 224 255
199 224 255
199 224 255
200 224 255
200 224 255
200 224 255
200 224 255
200 224 255
200 224 255
200 224 255
200 224 255
200 224 255
200 224 255
200 224 255
200 224 255
200 224 255
200 224 255
201 224 255
201 224 255
201 224 255
201 224 255
201 224 255
201 224 255
201 224 255
201 224 255
201 224 255
201 224 255
201 224 255
201 225 255
201 225 255
201 225 255
201 225 255
202 225 255
202 225 255
202 225 255
202 225 255
202 225 255
202 225 255
202 225 255
202 225 255
202 225 255
202 225 255
202 225 255
202 225 255
202 225 255
202 225 255
202 225 255
202 225 255
203 225 255
203 225 255
203 225 255
203 225 255
203 225 255
203 225 255
203 225 255
203 225 255
203 225 255
203 226 255
203 226 255
203 226 255
203 226 255
203 226 255
203 226 255
203 226 255
203 226 255
204 226 255
204 226 255
204 226 255
204 226 255
204 226 255
204 226 255
204 226 255
204 226 255
204 226 255
204 226 255
204 226 255
204 226 255
204 226 255
204 226 255
204 226 255
204 226 255
204 226 255
204 226 255
204 226 255
204 226 255
204 226 255
204 226 255
204 226 255
204 226 255
204 226 255
204 226 255
204 226 255
204 226 255
204 226 255
204 226 255
204 226 255
204 226 255
204 226 255
203 226 255
203 226 255
203 226 255
203 226 255
203 226 255
203 226 255
203 226 255
203 225 255
203 225 255
203 225 255
203 225 255
203 225 255
203 225 255
203 225 255
203 225 255
203 225 255
202 225 255
202 225 255
202 225 255
202 225 255
202 225 255
202 225 255
202 225 255
202 225 255
202 225 255
202 225 255
202 225 255
202 225 255
202 225 255
202 225 255
202 225 255
202 225 255
201 225 255
201 225 255
201 225 255
201 225 255
201 225 255
201 224 255
201 224 255
201 224 255
201 224 255
201 224 255
201 224 255
201 224 255
201 224 255
201 224 255
201 224 255
200 224 255
200 224 255
200 224 255
200 224 255
200 224 255
200 224 255
200 224 255
200 224 255
200 224 255
200 224 255
200 224 255
200 224 255
200 224 255
200 224 255
199 224 255
199 224 255
199 224 255
199 223 255
199 223 255
199 223 255
199 223 255
199 223 255
199 223 255
199 223 255
199 223 255
199 223 255
199 223 255
199 223 255
199 223 255
198 223 255
198 223 255
198 223 255
198 223 255
198 223 255
198 223 255
198 223 255
198 223 255
198 223 255
198 223 255
198 223 255
198 223 255
198 223 255
198 223 255
197 223 255
197 222 255
197 222 255
197 222 255
197 222 255
197 222 255
197 222 255
197 222 255
197 222 255
197 222 255
197 222 255
197 222 255
197 222 255
197 222 255
197 222 255
196 222 255
196 222 255
196 222 255
196 222 255
196 222 255
196 222 255
196 222 255
196 222 255
196 222 255
196 222 255
196 222 255
196 222 255
196 222 255
196 222 255
196 222 255
196 221 255
195 221 255
195 221 255
195 221 255
195 221 255
195 221 255
195 221 255
195 221 255
195 221 255
195 221 255
195 221 255
195 221 255
195 221 255
195 221 255
195 221 255
195 221 255
195 221 255
195 221 255
195 221 255
195 221 255
194 221 255
194 221 255
194 221 255
194 221 255
194 221 255
194 221 255
194 221 255
194 221 255
194 221 255
194 221 255
194 221 255
194 221 255
194 221 255
194 221 255
194 221 255
194 221 255
194 221 255
194 221 255
194 221 255
194 221 255
194 221 255
194 221 255
194 221 255
194 221 255
194 221 255
194 220 255
194 220 255
194 220 255
194 220 255
194 220 255
194 220 255
194 220 255
194 220 255
194 220 255
194 220 255
194 220 255
194 220 255
194 220 255
194 220 255
194 220 255
194 220 255
194 220 255
194 220 255
194 220 255
194 220 255
194 220 255
194 220 255
194 220 255
194 220 255
194 220 255
194 220 255
194 220 255
194 220 255
194 220 255
194 220 255
194 220 255
194 220 255
194 220 255
194 220 255
194 221 255
194 221 255
194 221 255
194 221 255
194 221 255
194 221 255
194 221 255
194 221 255
194 221 255
194 221 255
194 221 255
194 221 255
194 221 255
194 221 255
194 221 255
194 221 255
194 221 255
194 221 255
194 221 255
194 221 255
194 221 255
194 221 255
194 221 255
194 221 255
194 221 255
195 221 255
195 221 255
195 221 255
195 221 255
195 221 255
195 221 255
195 221 255
195 221 255
195 221 255
195 221 255
195 221 255
195 221 255
195 221 255
195 221 255
195 221 255
195 221 255
195 221 255
195 221 255
195 221 255
196 221 255
196 222 255
196 222 255
196 222 255
196 222 255
196 222 255
196 222 255
196 222 255
196 222 255
196 222 255
196 222 255
196 222 255
196 222 255
196 222 255
196 222 255
196 222 255
197 222 255
197 222 255
197 222 255
197 222 255
197 222 255
197 222 255
197 222 255
197 222 255
197 222 255
197 222 255
197 222 255
197 222 255
197 222 255
197 222 255
197 223 255
198 223 255
198 223 255
198 223 255
198 223 255
198 223 255
198 223 255
198 223 255
198 223 255
198 223 255
198 223 255
198 223 255
198 223 255
198 223 255
198 223 255
199 223 255
199 223 255
199 223 255
199 223 255
199 223 255
199 223 255
199 223 255
199 223 255
199 223 255
199 223 255
199 223 255
199 223 255
199 224 255
199 224 255
200 224 255
200 224 255
200 224 255
200 224 255
200 224 255
200 224 255
200 224 255
200 224 255
200 224 255
200 224 255
200 224 255
200 224 255
200 224 255
200 224 255
200 224 255
201 224 255
201 224 255
201 224 255
201 224 255
201 224 255
201 224 255
201 224 255
201 224 255
201 224 255
201 224 255
201 224 255
201 225 255
201 225 255
201 225 255
201 225 255
202 225 255
202 225 255
202 225 255
202 225 255
202 225 255
202 225 255
202 225 255
202 225 255
202 225 255
202 225 255
202 225 255
202 225 255
202 225 255
202 225 255
202 225 255
202 225 255
203 225 255
203 225 255
203 225 255
203 225 255
203 225 255
203 225 255
203 225 255
203 225 255
203 225 255
203 226 255
203 226 255
203 226 255
203 226 255
203 226 255
203 226 255
203 226 255
204 226 255
204 226 255
204 226 255
204 226 255
204 226 255
204 226 255
204 226 255
204 226 255
204 226 255
204 226 255
204 226 255
204 226 255
204 226 255
204 226 255
204 226 255
204 226 255
204 226 255
204 226 255
205 226 255
205 226 255
204 226 255
204 226 255
204 226 255
204 226 255
204 226 255
204 226 255
204 226 255
204 226 255
204 226 255
204 226 255
204 226 255
204 226 255
204 226 255
204 226 255
204 226 255
204 226 255
204 226 255
204 226 255
203 226 255
203 226 255
203 226 255
203 226 255
203 226 255
203 226 255
203 226 255
203 225 255
203 225 255
203 225 255
203 225 255
203 225 255
203 225 255
203 225 255
203 225 255
203 225 255
202 225 255
202 225 255
202 225 255
202 225 255
202 225 255
202 225 255
202 225 255
202 225 255
202 225 255
202 225 255
202 225 255
202 225 255
202 225 255
202 225 255
202 225 255
202 225 255
201 225 255
201 225 255
201 225 255
201 225 255
201 225 255
201 224 255
201 224 255
201 224 255
201 224 255
201 224 255
201 224 255
201 224 255
201 224 255
201 224 255
201 224 255
200 224 255
200 224 255
200 224 255
200 224 255
200 224 255
200 224 255
200 224 255
200 224 255
200 224 255
200 224 255
200 224 255
200 224 255
200 224 255
200 224 255
200 224 255
199 224 255
199 224 255
199 223 255
199 223 255
199 223 255
199 223 255
199 223 255
199 223 255
199 223 255
199 223 255
199 223 255
199 223 255
199 223 255
199 223 255
198 223 255
198 223 255
198 223 255
198 223 255
198 223 255
198 223 255
198 223 255
198 223 255
198 223 255
198 223 255
198 223 255
198 223 255
198 223 255
198 223 255
197 223 255
197 222 255
197 222 255
197 222 255
197 222 255
197 222 255
197 222 255
197 222 255
197 222 255
197 222 255
197 222 255
197 222 255
197 222 255
197 222 255
197 222 255
196 222 255
196 222 255
196 222 255
196 222 255
196 222 255
196 222 255
196 222 255
196 222 255
196 222 255
196 222 255
196 222 255
196 222 255
196 222 255
196 222 255
196 222 255
196 221 255
195 221 255
195 221 255
195 221 255
195 221 255
195 221 255
195 221 255
195 221 255
195 221 255
195 221 255
195 221 255
195 221 255
195 221 255
195 221 255
195 221 255
195 221 255
195 221 255
195 221 255
195 221 255
195 221 255
195 221 255
195 221 255
194 221 255
194 221 255
194 221 255
194 221 255
194 221 255
194 221 255
194 221 255
194 221 255
194 221 255
194 221 255
194 221 255
194 221 255
194 221 255
194 221 255
194 221 255
194 221 255
194 221 255
194 221 255
194 221 255
194 221 255
194 221 255
194 221 255
194 221 255
194 221 255
194 221 255
194 221 255
194 221 255
194 221 255
194 221 255
194 221 255
194 221 255
194 220 255
194 220 255
194 220 255
194 220 255
194 220 255
194 220 255
194 220 255
194 220 255
194 220 255
194 220 255
194 220 255
194 220 255
194 220 255
194 220 255
194 221 255
194 221 255
194 221 255
194 221 255
194 221 255
194 221 255
194 221 255
194 221 255
194 221 255
194 221 255
194 221 255
194 221 255
194 221 255
194 221 255
194 221 255
194 221 255
194 221 255
194 221 255
194 221 255
194 221 255
194 221 255
194 221 255
194 221 255
194 221 255
194 221 255
194 221 255
194 221 255
194 221 255
194 221 255
194 221 255
194 221 255
194 221 255
195 221 255
195 221 255
195 221 255
195 221 255
195 221 255
195 221 255
195 221 255
195 221 255
195 221 255
195 221 255
195 221 255
195 221 255
195 221 255
195 221 255
195 221 255
195 221 255
195 221 255
195 221 255
195 221 255
196 221 255
196 221 255
196 222 255
196 222 255
196 222 255
196 222 255
196 222 255
196 222 255
196 222 255
196 222 255
196 222 255
196 222 255
196 222 255
196 222 255
196 222 255
196 222 255
196 222 255
197 222 255
197 222 255
197 222 255
197 222 255
197 222 255
197 222 255
197 222 255
197 222 255
197 222 255
197 222 255
197 222 255
197 222 255
197 222 255
197 222 255
197 223 255
198 223 255
198 223 255
198 223 255
198 223 255
198 223 255
198 223 255
198 223 255
198 223 255
198 223 255
198 223 255
198 223 255
198 223 255
198 223 255
198 223 255
199 223 255
199 223 255
199 223 255
199 223 255
199 223 255
199 223 255
199 223 255
199 223 255
199 223 255
199 223 255
199 223 255
199 223 255
199 224 255
199 224 255
200 224 255
200 224 255
200 224 255
200 224 255
200 224 255
200 224 255
200 224 255
200 224 255
200 224 255
200 224 255
200 224 255
200 224 255
200 224 255
200 224 255
200 224 255
201 224 255
201 224 255
201 224 255
201 224 255
201 224 255
201 224 255
201 224 255
201 224 255
201 224 255
201 224 255
201 225 255
201 225 255
201 225 255
201 225 255
201 225 255
202 225 255
202 225 255
202 225 255
202 225 255
202 225 255
202 225 255
202 225 255
202 225 255
202 225 255
202 225 255
202 225 255
202 225 255
202 225 255
202 225 255
202 225 255
203 225 255
203 225 255
203 225 255
203 225 255
203 225 255
203 225 255
203 225 255
203 225 255
203 225 255
203 225 255
203 226 255
203 226 255
203 226 255
203 226 255
203 226 255
203 226 255
203 226 255
204 226 255
204 226 255
204 226 255
204 226 255
204 226 255
204 226 255
204 226 255
204 226 255
204 226 255
204 226 255
204 226 255
204 226 255
204 226 255
204 226 255
204 226 255
204 226 255
204 226 255
204 226 255
205 226 255
205 226 255
205 226 255
205 226 255
205 226 255
205 226 255
204 226 255
204 226 255
204 226 255
204 226 255
204 226 255
204 226 255
204 226 255
204 226 255
204 226 255
204 226 255
204 226 255
204 226 255
204 226 255
204 226 255
204 226 255
204 226 255
204 226 255
204 226 255
203 226 255
203 226 255
203 226 255
203 226 255
203 226 255
203 226 255
203 226 255
203 226 255
203 225 255
203 225 255
203 225 255
203 225 255
203 225 255
203 225 255
203 225 255
203 225 255
203 225 255
202 225 255
202 225 255
202 225 255
202 225 255
202 225 255
202 225 255
202 225 255
202 225 255
202 225 255
202 225 255
202 225 255
202 225 255
202 225 255
202 225 255
202 225 255
201 225 255
201 225 255
201 225 255
201 225 255
201 225 255
201 224 255
201 224 255
201 224 255
201 224 255
201 224 255
201 224 255
201 224 255
201 224 255
201 224 255
201 224 255
200 224 255
200 224 255
200 224 255
200 224 255
200 224 255
200 224 255
200 224 255
200 224 255
200 224 255
200 224 255
200 224 255
200 224 255
200 224 255
200 224 255
200 224 255
199 224 255
199 224 255
199 223 255
199 223 255
199 223 255
199 223 255
199 223 255
199 223 255
199 223 255
199 223 255
199 223 255
199 223 255
199 223 255
199 223 255
198 223 255
198 223 255
198 223 255
198 223 255
198 223 255
198 223 255
198 223 255
198 223 255
198 223 255
198 223 255
198 223 255
198 223 255
198 223 255
198 223 255
197 223 255
197 222 255
197 222 255
197 222 255
197 222 255
197 222 255
197 222 255
197 222 255
197 222 255
197 222 255
197 222 255
197 222 255
197 222 255
197 222 255
197 222 255
196 222 255
196 222 255
196 222 255
196 222 255
196 222 255
196 222 255
196 222 255
196 222 255
196 222 255
196 222 255
196 222 255
196 222 255
196 222 255
196 222 255
196 222 255
196 221 255
196 221 255
195 221 255
195 221 255
195 221 255
195 221 255
195 221 255
195 221 255
195 221 255
195 221 255
195 221 255
195 221 255
195 221 255
195 221 255
195 221 255
195 221 255
195 221 255
195 221 255
195 221 255
195 221 255
195 221 255
195 221 255
195 221 255
194 221 255
194 221 255
194 221 255
194 221 255
194 221 255
194 221 255
194 221 255
194 221 255
194 221 255
194 221 255
194 221 255
194 221 255
194 221 255
194 221 255
194 221 255
194 221 255
194 221 255
194 221 255
194 221 255
194 221 255
194 221 255
194 221 255
194 221 255
194 221 255
194 221 255
194 221 255
194 221 255
194 221 255
194 221 255
194 221 255
194 221 255
194 221 255
194 221 255
194 221 255
194 221 255
194 221 255
194 221 255
194 221 255
194 221 255
194 221 255
194 221 255
194 221 255
194 221 255
194 221 255
194 221 255
194 221 255
194 221 255
194 221 255
194 221 255
194 221 255
194 221 255
194 221 255
194 221 255
194 221 255
194 221 255
194 221 255
194 221 255
194 221 255
194 221 255
194 221 255
194 221 255
194 221 255
194 221 255
194 221 255
194 221 255
194 221 255
194 221 255
194 221 255
194 221 255
194 221 255
195 221 255
195 221 255
195 221 255
195 221 255
195 221 255
195 221 255
195 221 255
195 221 255
195 221 255
195 221 255
195 221 255
195 221 255
195 221 255
195 221 255
195 221 255
195 221 255
195 221 255
195 221 255
195 221 255
195 221 255
195 221 255
196 221 255
196 221 255
196 222 255
196 222 255
196 222 255
196 222 255
196 222 255
196 222 255
196 222 255
196 222 255
196 222 255
196 222 255
196 222 255
196 222 255
196 222 255
196 222 255
196 222 255
197 222 255
197 222 255
197 222 255
197 222 255
197 222 255
197 222 255
197 222 255
197 222 255
197 222 255
197 222 255
197 222 255
197 222 255
197 222 255
197 222 255
197 223 255
198 223 255
198 223 255
198 223 255
198 223 255
198 223 255
198 223 255
198 223 255
198 223 255
198 223 255
198 223 255
198 223 255
198 223 255
198 223 255
198 223 255
199 223 255
199 223 255
199 223 255
199 223 255
199 223 255
199 223 255
199 223 255
199 223 255
199 223 255
199 223 255
199 223 255
199 223 255
199 224 255
199 224 255
200 224 255
200 224 255
200 224 255
200 224 255
200 224 255
200 224 255
200 224 255
200 224 255
200 224 255
200 224 255
200 224 255
200 224 255
200 224 255
200 224 255
200 224 255
201 224 255
201 224 255
201 224 255
201 224 255
201 224 255
201 224 255
201 224 255
201 224 255
201 224 255
201 224 255
201 225 255
201 225 255
201 225 255
201 225 255
201 225 255
202 225 255
202 225 255
202 225 255
202 225 255
202 225 255
202 225 255
202 225 255
202 225 255
202 225 255
202 225 255
202 225 255
202 225 255
202 225 255
202 225 255
202 225 255
203 225 255
203 225 255
203 225 255
203 225 255
203 225 255
203 225 255
203 225 255
203 225 255
203 225 255
203 226 255
203 226 255
203 226 255
203 226 255
203 226 255
203 226 255
203 226 255
203 226 255
204 226 255
204 226 255
204 226 255
204 226 255
204 226 255
204 226 255
204 226 255
204 226 255
204 226 255
204 226 255
204 226 255
204 226 255
204 226 255
204 226 255
204 226 255
204 226 255
204 226 255
204 226 255
205 226 255
205 226 255
205 226 255
205 226 255
205 226 255
205 226 255
205 226 255
205 226 255
205 226 255
205 226 255
205 226 255
204 226 255
204 226 255
204 226 255
204 226 255
204 226 255
204 226 255
204 226 255
204 226 255
204 226 255
204 226 255
204 226 255
204 226 255
204 226 255
204 226 255
204 226 255
204 226 255
204 226 255
204 226 255
203 226 255
203 226 255
203 226 255
203 226 255
203 226 255
203 226 255
203 226 255
203 225 255
203 225 255
203 225 255
203 225 255
203 225 255
203 225 255
203 225 255
203 225 255
203 225 255
202 225 255
202 225 255
202 225 255
202 225 255
202 225 255
202 225 255
202 225 255
202 225 255
202 225 255
202 225 255
202 225 255
202 225 255
202 225 255
202 225 255
202 225 255
201 225 255
201 225 255
201 225 255
201 225 255
201 225 255
201 224 255
201 224 255
201 224 255
201 224 255
201 224 255
201 224 255
201 224 255
201 224 255
201 224 255
201 224 255
200 224 255
200 224 255
200 224 255
200 224 255
200 224 255
200 224 255
200 224 255
200 224 255
200 224 255
200 224 255
200 224 255
200 224 255
200 224 255
200 224 255
200 224 255
199 224 255
199 224 255
199 223 255
199 223 255
199 223 255
199 223 255
199 223 255
199 223 255
199 223 255
199 223 255
199 223 255
199 223 255
199 223 255
199 223 255
198 223 255
198 223 255
198 223 255
198 223 255
198 223 255
198 223 255
198 223 255
198 223 255
198 223 255
198 223 255
198 223 255
198 223 255
198 223 255
198 223 255
197 223 255
197 222 255
197 222 255
197 222 255
197 222 255
197 222 255
197 222 255
197 222 255
197 222 255
197 222 255
197 222 255
197 222 255
197 222 255
197 222 255
197 222 255
197 222 255
196 222 255
196 222 255
196 222 255
196 222 255
196 222 255
196 222 255
196 222 255
196 222 255
196 222 255
196 222 255
196 222 255
196 222 255
196 222 255
196 222 255
196 222 255
196 221 255
196 221 255
195 221 255
195 221 255
195 221 255
195 221 255
195 221 255
195 221 255
195 221 255
195 221 255
195 221 255
195 221 255
195 221 255
195 221 255
195 221 255
195 221 255
195 221 255
195 221 255
195 221 255
195 221 255
195 221 255
195 221 255
195 221 255
195 221 255
194 221 255
194 221 255
194 221 255
194 221 255
194 221 255
194 221 255
194 221 255
194 221 255
194 221 255
194 221 255
194 221 255
194 221 255
194 221 255
194 221 255
194 221 255
194 221 255
194 221 255
194 221 255
194 221 255
194 221 255
194 221 255
194 221 255
194 221 255
194 221 255
194 221 255
194 221 255
194 221 255
194 221 255
194 221 255
194 221 255
194 221 255
194 221 255
194 221 255
194 221 255
194 221 255
194 221 255
194 221 255
194 221 255
194 221 255
194 221 255
194 221 255
194 221 255
194 221 255
194 221 255
194 221 255
194 221 255
194 221 255
194 221 255
194 221 255
194 221 255
194 221 255
194 221 255
194 221 255
194 221 255
194 221 255
194 221 255
194 221 255
194 221 255
194 221 255
194 221 255
194 221 255
194 221 255
195 221 255
195 221 255
195 221 255
195 221 255
195 221 255
195 221 255
195 221 255
195 221 255
195 221 255
195 221 255
195 221 255
195 221 255
195 221 255
195 221 255
195 221 255
195 221 255
195 221 255
195 221 255
195 221 255
195 221 255
195 221 255
195 221 255
196 221 255
196 221 255
196 222 255
196 222 255
196 222 255
196 222 255
196 222 255
196 222 255
196 222 255
196 222 255
196 222 255
196 222 255
196 222 255
196 222 255
196 222 255
196 222 255
196 222 255
197 222 255
197 222 255
197 222 255
197 222 255
197 222 255
197 222 255
197 222 255
197 222 255
197 222 255
197 222 255
197 222 255
197 222 255
197 222 255
197 222 255
197 222 255
197 223 255
198 223 255
198 223 255
198 223 255
198 223 255
198 223 255
198 223 255
198 223 255
198 223 255
198 223 255
198 223 255
198 223 255
198 223 255
198 223 255
198 223 255
199 223 255
199 223 255
199 223 255
199 223 255
199 223 255
199 223 255
199 223 255
199 223 255
199 223 255
199 223 255
199 223 255
199 223 255
199 224 255
199 224 255
200 224 255
200 224 255
200 224 255
200 224 255
200 224 255
200 224 255
200 224 255
200 224 255
200 224 255
200 224 255
200 224 255
200 224 255
200 224 255
200 224 255
200 224 255
201 224 255
201 224 255
201 224 255
201 224 255
201 224 255
201 224 255
201 224 255
201 224 255
201 224 255
201 224 255
201 225 255
201 225 255
201 225 255
201 225 255
201 225 255
202 225 255
202 225 255
202 225 255
202 225 255
202 225 255
202 225 255
202 225 255
202 225 255
202 225 255
202 225 255
202 225 255
202 225 255
202 225 255
202 225 255
202 225 255
203 225 255
203 225 255
203 225 255
203 225 255
203 225 255
203 225 255
203 225 255
203 225 255
203 225 255
203 226 255
203 226 255
203 226 255
203 226 255
203 226 255
203 226 255
203 226 255
204 226 255
204 226 255
204 226 255
204 226 255
204 226 255
204 226 255
204 226 255
204 226 255
204 226 255
204 226 255
204 226 255
204 226 255
204 226 255
204 226 255
204 226 255
204 226 255
204 226 255
204 226 255
205 226 255
205 226 255
205 226 255
205 226 255
205 226 255
205 226 255
205 226 255
205 227 255
205 227 255
205 226 255
205 226 255
205 226 255
205 226 255
205 226 255
205 226 255
205 226 255
204 226 255
204 226 255
204 226 255
204 226 255
204 226 255
204 226 255
204 226 255
204 226 255
204 226 255
204 226 255
204 226 255
204 226 255
204 226 255
204 226 255
204 226 255
204 226 255
204 226 255
204 226 255
203 226 255
203 226 255
203 226 255
203 226 255
203 226 255
203 226 255
203 226 255
203 225 255
203 225 255
203 225 255
203 225 255
203 225 255
203 225 255
203 225 255
203 225 255
203 225 255
202 225 255
202 225 255
202 225 255
202 225 255
202 225 255
202 225 255
202 225 255
202 225 255
202 225 255
202 225 255
202 225 255
202 225 255
202 225 255
202 225 255
202 225 255
202 225 255
201 225 255
201 225 255
201 225 255
201 225 255
201 224 255
201 224 255
201 224 255
201 224 255
201 224 255
201 224 255
201 224 255
201 224 255
201 224 255
201 224 255
200 224 255
200 224 255
200 224 255
200 224 255
200 224 255
200 224 255
200 224 255
200 224 255
200 224 255
200 224 255
200 224 255
200 224 255
200 224 255
200 224 255
200 224 255
199 224 255
199 224 255
199 223 255
199 223 255
199 223 255
199 223 255
199 223 255
199 223 255
199 223 255
199 223 255
199 223 255
199 223 255
199 223 255
199 223 255
198 223 255
198 223 255
198 223 255
198 223 255
198 223 255
198 223 255
198 223 255
198 223 255
198 223 255
198 223 255
198 223 255
198 223 255
198 223 255
198 223 255
198 223 255
197 222 255
197 222 255
197 222 255
197 222 255
197 222 255
197 222 255
197 222 255
197 222 255
197 222 255
197 222 255
197 222 255
197 222 255
197 222 255
197 222 255
197 222 255
196 222 255
196 222 255
196 222 255
196 222 255
196 222 255
196 222 255
196 222 255
196 222 255
196 222 255
196 222 255
196 222 255
196 222 255
196 222 255
196 222 255
196 222 255
196 222 255
196 221 255
195 221 255
195 221 255
195 221 255
195 221 255
195 221 255
195 221 255
195 221 255
195 221 255
195 221 255
195 221 255
195 221 255
195 221 255
195 221 255
195 221 255
195 221 255
195 221 255
195 221 255
195 221 255
195 221 255
195 221 255
195 221 255
195 221 255
195 221 255
195 221 255
194 221 255
194 221 255
194 221 255
194 221 255
194 221 255
194 221 255
194 221 255
194 221 255
194 221 255
194 221 255
194 221 255
194 221 255
194 221 255
194 221 255
194 221 255
194 221 255
194 221 255
194 221 255
194 221 255
194 221 255
194 221 255
194 221 255
194 221 255
194 221 255
194 221 255
194 221 255
194 221 255
194 221 255
194 221 255
194 221 255
194 221 255
194 221 255
194 221 255
194 221 255
194 221 255
194 221 255
194 221 255
194 221 255
194 221 255
194 221 255
194 221 255
194 221 255
194 221 255
194 221 255
194 221 255
194 221 255
194 221 255
194 221 255
194 221 255
194 221 255
194 221 255
194 221 255
194 221 255
194 221 255
195 221 255
195 221 255
195 221 255
195 221 255
195 221 255
195 221 255
195 221 255
195 221 255
195 221 255
195 221 255
195 221 255
195 221 255
195 221 255
195 221 255
195 221 255
195 221 255
195 221 255
195 221 255
195 221 255
195 221 255
195 221 255
195 221 255
195 221 255
195 221 255
196 221 255
196 222 255
196 222 255
196 222 255
196 222 255
196 222 255
196 222 255
196 222 255
196 222 255
196 222 255
196 222 255
196 222 255
196 222 255
196 222 255
196 222 255
196 222 255
196 222 255
197 222 255
197 222 255
197 222 255
197 222 255
197 222 255
197 222 255
197 222 255
197 222 255
197 222 255
197 222 255
197 222 255
197 222 255
197 222 255
197 222 255
197 222 255
198 223 255
198 223 255
198 223 255
198 223 255
198 223 255
198 223 255
198 223 255
198 223 255
198 223 255
198 223 255
198 223 255
198 223 255
198 223 255
198 223 255
198 223 255
199 223 255
199 223 255
199 223 255
199 223 255
199 223 255
199 223 255
199 223 255
199 223 255
199 223 255
199 223 255
199 223 255
199 223 255
199 224 255
199 224 255
200 224 255
200 224 255
200 224 255
200 224 255
200 224 255
200 224 255
200 224 255
200 224 255
200 224 255
200 224 255
200 224 255
200 224 255
200 224 255
200 224 255
200 224 255
201 224 255
201 224 255
201 224 255
201 224 255
201 224 255
201 224 255
201 224 255
201 224 255
201 224 255
201 224 255
201 225 255
201 225 255
201 225 255
201 225 255
202 225 255
202 225 255
202 225 255
202 225 255
202 225 255
202 225 255
202 225 255
202 225 255
202 225 255
202 225 255
202 225 255
202 225 255
202 225 255
202 225 255
202 225 255
202 225 255
203 225 255
203 225 255
203 225 255
203 225 255
203 225 255
203 225 255
203 225 255
203 225 255
203 225 255
203 226 255
203 226 255
203 226 255
203 226 255
203 226 255
203 226 255
203 226 255
204 226 255
204 226 255
204 226 255
204 226 255
204 226 255
204 226 255
204 226 255
204 226 255
204 226 255
204 226 255
204 226 255
204 226 255
204 226 255
204 226 255
204 226 255
204 226 255
204 226 255
204 226 255
205 226 255
205 226 255
205 226 255
205 226 255
205 226 255
205 226 255
205 226 255
205 227 255
205 227 255
205 227 255
205 227 255
205 227 255
205 227 255
205 226 255
205 226 255
205 226 255
205 226 255
205 226 255
205 226 255
205 226 255
205 226 255
204 226 255
204 226 255
204 226 255
204 226 255
204 226 255
204 226 255
204 226 255
204 226 255
204 226 255
204 226 255
204 226 255
204 226 255
204 226 255
204 226 255
204 226 255
204 226 255
204 226 255
203 226 255
203 226 255
203 226 255
203 226 255
203 226 255
203 226 255
203 226 255
203 225 255
203 225 255
203 225 255
203 225 255
203 225 255
203 225 255
203 225 255
203 225 255
203 225 255
202 225 255
202 225 255
202 225 255
202 225 255
202 225 255
202 225 255
202 225 255
202 225 255
202 225 255
202 225 255
202 225 255
202 225 255
202 225 255
202 225 255
202 225 255
202 225 255
201 225 255
201 225 255
201 225 255
201 225 255
201 224 255
201 224 255
201 224 255
201 224 255
201 224 255
201 224 255
201 224 255
201 224 255
201 224 255
201 224 255
200 224 255
200 224 255
200 224 255
200 224 255
200 224 255
200 224 255
200 224 255
200 224 255
200 224 255
200 224 255
200 224 255
200 224 255
200 224 255
200 224 255
200 224 255
199 224 255
199 224 255
199 223 255
199 223 255
199 223 255
199 223 255
199 223 255
199 223 255
199 223 255
199 223 255
199 223 255
199 223 255
199 223 255
199 223 255
198 223 255
198 223 255
198 223 255
198 223 255
198 223 255
198 223 255
198 223 255
198 223 255
198 223 255
198 223 255
198 223 255
198 223 255
198 223 255
198 223 255
198 223 255
197 222 255
197 222 255
197 222 255
197 222 255
197 222 255
197 222 255
197 222 255
197 222 255
197 222 255
197 222 255
197 222 255
197 222 255
197 222 255
197 222 255
197 222 255
196 222 255
196 222 255
196 222 255
196 222 255
196 222 255
196 222 255
196 222 255
196 222 255
196 222 255
196 222 255
196 222 255
196 222 255
196 222 255
196 222 255
196 222 255
196 222 255
196 222 255
196 221 255
195 221 255
195 221 255
195 221 255
195 221 255
195 221 255
195 221 255
195 221 255
195 221 255
195 221 255
195 221 255
195 221 255
195 221 255
195 221 255
195 221 255
195 221 255
195 221 255
195 221 255
195 221 255
195 221 255
195 221 255
195 221 255
195 221 255
195 221 255
195 221 255
195 221 255
195 221 255
194 221 255
194 221 255
194 221 255
194 221 255
194 221 255
194 221 255
194 221 255
194 221 255
194 221 255
194 221 255
194 221 255
194 221 255
194 221 255
194 221 255
194 221 255
194 221 255
194 221 255
194 221 255
194 221 255
194 221 255
194 221 255
194 221 255
194 221 255
194 221 255
194 221 255
194 221 255
194 221 255
194 221 255
194 221 255
194 221 255
194 221 255
194 221 255
194 221 255
194 221 255
194 221 255
194 221 255
194 221 255
194 221 255
194 221 255
194 221 255
194 221 255
194 221 255
194 221 255
194 221 255
195 221 255
195 221 255
195 221 255
195 221 255
195 221 255
195 221 255
195 221 255
195 221 255
195 221 255
195 221 255
195 221 255
195 221 255
195 221 255
195 221 255
195 221 255
195 221 255
195 221 255
195 221 255
195 221 255
195 221 255
195 221 255
195 221 255
195 221 255
195 221 255
195 221 255
195 221 255
196 221 255
196 222 255
196 222 255
196 222 255
196 222 255
196 222 255
196 222 255
196 222 255
196 222 255
196 222 255
196 222 255
196 222 255
196 222 255
196 222 255
196 222 255
196 222 255
196 222 255
196 222 255
197 222 255
197 222 255
197 222 255
197 222 255
197 222 255
197 222 255
197 222 255
197 222 255
197 222 255
197 222 255
197 222 255
197 222 255
197 222 255
197 222 255
197 222 255
198 223 255
198 223 255
198 223 255
198 223 255
198 223 255
198 223 255
198 223 255
198 223 255
198 223 255
198 223 255
198 223 255
198 223 255
198 223 255
198 223 255
198 223 255
199 223 255
199 223 255
199 223 255
199 223 255
199 223 255
199 223 255
199 223 255
199 223 255
199 223 255
199 223 255
199 223 255
199 223 255
199 224 255
199 224 255
200 224 255
200 224 255
200 224 255
200 224 255
200 224 255
200 224 255
200 224 255
200 224 255
200 224 255
200 224 255
200 224 255
200 224 255
200 224 255
200 224 255
200 224 255
201 224 255
201 224 255
201 224 255
201 224 255
201 224 255
201 224 255
201 224 255
201 224 255
201 224 255
201 224 255
201 225 255
201 225 255
201 225 255
201 225 255
202 225 255
202 225 255
202 225 255
202 225 255
202 225 255
202 225 255
202 225 255
202 225 255
202 225 255
202 225 255
202 225 255
202 225 255
202 225 255
202 225 255
202 225 255
202 225 255
203 225 255
203 225 255
203 225 255
203 225 255
203 225 255
203 225 255
203 225 255
203 225 255
203 225 255
203 226 255
203 226 255
203 226 255
203 226 255
203 226 255
203 226 255
203 226 255
204 226 255
204 226 255
204 226 255
204 226 255
204 226 255
204 226 255
204 226 255
204 226 255
204 226 255
204 226 255
204 226 255
204 226 255
204 226 255
204 226 255
204 226 255
204 226 255
204 226 255
205 226 255
205 226 255
205 226 255
205 226 255
205 226 255
205 226 255
205 226 255
205 226 255
205 227 255
205 227 255
205 227 255
205 227 255
205 227 255
205 227 255
205 227 255
205 227 255
205 227 255
205 227 255
205 227 255
205 226 255
205 226 255
205 226 255
205 226 255
205 226 255
205 226 255
205 226 255
204 226 255
204 226 255
204 226 255
204 226 255
204 226 255
204 226 255
204 226 255
204 226 255
204 226 255
204 226 255
204 226 255
204 226 255
204 226 255
204 226 255
204 226 255
204 226 255
204 226 255
204 226 255
203 226 255
203 226 255
203 226 255
203 226 255
203 226 255
203 226 255
203 226 255
203 225 255
203 225 255
203 225 255
203 225 255
203 225 255
203 225 255
203 225 255
203 225 255
203 225 255
202 225 255
202 225 255
202 225 255
202 225 255
202 225 255
202 225 255
202 225 255
202 225 255
202 225 255
202 225 255
202 225 255
202 225 255
202 225 255
202 225 255
202 225 255
201 225 255
201 225 255
201 225 255
201 225 255
201 224 255
201 224 255
201 224 255
201 224 255
201 224 255
201 224 255
201 224 255
201 224 255
201 224 255
201 224 255
201 224 255
200 224 255
200 224 255
200 224 255
200 224 255
200 224 255
200 224 255
200 224 255
200 224 255
200 224 255
200 224 255
200 224 255
200 224 255
200 224 255
200 224 255
199 224 255
199 224 255
199 223 255
199 223 255
199 223 255
199 223 255
199 223 255
199 223 255
199 223 255
199 223 255
199 223 255
199 223 255
199 223 255
199 223 255
198 223 255
198 223 255
198 223 255
198 223 255
198 223 255
198 223 255
198 223 255
198 223 255
198 223 255
198 223 255
198 223 255
198 223 255
198 223 255
198 223 255
198 223 255
197 223 255
197 222 255
197 222 255
197 222 255
197 222 255
197 222 255
197 222 255
197 222 255
197 222 255
197 222 255
197 222 255
197 222 255
197 222 255
197 222 255
197 222 255
197 222 255
196 222 255
196 222 255
196 222 255
196 222 255
196 222 255
196 222 255
196 222 255
196 222 255
196 222 255
196 222 255
196 222 255
196 222 255
196 222 255
196 222 255
196 222 255
196 222 255
196 222 255
196 221 255
195 221 255
195 221 255
195 221 255
195 221 255
195 221 255
195 221 255
195 221 255
195 221 255
195 221 255
195 221 255
195 221 255
195 221 255
195 221 255
195 221 255
195 221 255
195 221 255
195 221 255
195 221 255
195 221 255
195 221 255
195 221 255
195 221 255
195 221 255
195 221 255
195 221 255
195 221 255
195 221 255
195 221 255
195 221 255
195 221 255
194 221 255
194 221 255
194 221 255
194 221 255
194 221 255
194 221 255
194 221 255
194 221 255
194 221 255
194 221 255
194 221 255
194 221 255
194 221 255
194 221 255
194 221 255
194 221 255
194 221 255
194 221 255
194 221 255
194 221 255
194 221 255
194 221 255
194 221 255
194 221 255
194 221 255
194 221 255
194 221 255
194 221 255
194 221 255
194 221 255
195 221 255
195 221 255
195 221 255
195 221 255
195 221 255
195 221 255
195 221 255
195 221 255
195 221 255
195 221 255
195 221 255
195 221 255
195 221 255
195 221 255
195 221 255
195 221 255
195 221 255
195 221 255
195 221 255
195 221 255
195 221 255
195 221 255
195 221 255
195 221 255
195 221 255
195 221 255
195 221 255
195 221 255
195 221 255
195 221 255
196 221 255
196 222 255
196 222 255
196 222 255
196 222 255
196 222 255
196 222 255
196 222 255
196 222 255
196 222 255
196 222 255
196 222 255
196 222 255
196 222 255
196 222 255
196 222 255
196 222 255
196 222 255
197 222 255
197 222 255
197 222 255
197 222 255
197 222 255
197 222 255
197 222 255
197 222 255
197 222 255
197 222 255
197 222 255
197 222 255
197 222 255
197 222 255
197 222 255
197 223 255
198 223 255
198 223 255
198 223 255
198 223 255
198 223 255
198 223 255
198 223 255
198 223 255
198 223 255
198 223 255
198 223 255
198 223 255
198 223 255
198 223 255
198 223 255
199 223 255
199 223 255
199 223 255
199 223 255
199 223 255
199 223 255
199 223 255
199 223 255
199 223 255
199 223 255
199 223 255
199 223 255
199 224 255
199 224 255
200 224 255
200 224 255
200 224 255
200 224 255
200 224 255
200 224 255
200 224 255
200 224 255
200 224 255
200 224 255
200 224 255
200 224 255
200 224 255
200 224 255
201 224 255
201 224 255
201 224 255
201 224 255
201 224 255
201 224 255
201 224 255
201 224 255
201 224 255
201 224 255
201 224 255
201 225 255
201 225 255
201 225 255
201 225 255
202 225 255
202 225 255
202 225 255
202 225 255
202 225 255
202 225 255
202 225 255
202 225 255
202 225 255
202 225 255
202 225 255
202 225 255
202 225 255
202 225 255
202 225 255
203 225 255
203 225 255
203 225 255
203 225 255
203 225 255
203 225 255
203 225 255
203 225 255
203 225 255
203 226 255
203 226 255
203 226 255
203 226 255
203 226 255
203 226 255
203 226 255
203 226 255
204 226 255
204 226 255
204 226 255
204 226 255
204 226 255
204 226 255
204 226 255
204 226 255
204 226 255
204 226 255
204 226 255
204 226 255
204 226 255
204 226 255
204 226 255
204 226 255
204 226 255
205 226 255
205 226 255
205 226 255
205 226 255
205 226 255
205 226 255
205 226 255
205 227 255
205 227 255
205 227 255
205 227 255
205 227 255
205 227 255
205 227 255
205 227 255
205 227 255
205 227 255
205 227 255
205 227 255
205 227 255
205 227 255
205 227 255
205 227 255
205 226 255
205 226 255
205 226 255
205 226 255
205 226 255
205 226 255
205 226 255
204 226 255
204 226 255
204 226 255
204 226 255
204 226 255
204 226 255
204 226 255
204 226 255
204 226 255
204 226 255
204 226 255
204 226 255
204 226 255
204 226 255
204 226 255
204 226 255
204 226 255
204 226 255
203 226 255
203 226 255
203 226 255
203 226 255
203 226 255
203 226 255
203 226 255
203 225 255
203 225 255
203 225 255
203 225 255
203 225 255
203 225 255
203 225 255
203 225 255
203 225 255
202 225 255
202 225 255
202 225 255
202 225 255
202 225 255
202 225 255
202 225 255
202 225 255
202 225 255
202 225 255
202 225 255
202 225 255
202 225 255
202 225 255
202 225 255
201 225 255
201 225 255
201 225 255
201 225 255
201 225 255
201 224 255
201 224 255
201 224 255
201 224 255
201 224 255
201 224 255
201 224 255
201 224 255
201 224 255
201 224 255
200 224 255
200 224 255
200 224 255
200 224 255
200 224 255
200 224 255
200 224 255
200 224 255
200 224 255
200 224 255
200 224 255
200 224 255
200 224 255
200 224 255
199 224 255
199 224 255
199 223 255
199 223 255
199 223 255
199 223 255
199 223 255
199 223 255
199 223 255
199 223 255
199 223 255
199 223 255
199 223 255
199 223 255
198 223 255
198 223 255
198 223 255
198 223 255
198 223 255
198 223 255
198 223 255
198 223 255
198 223 255
198 223 255
198 223 255
198 223 255
198 223 255
198 223 255
198 223 255
198 223 255
197 222 255
197 222 255
197 222 255
197 222 255
197 222 255
197 222 255
197 222 255
197 222 255
197 222 255
197 222 255
197 222 255
197 222 255
197 222 255
197 222 255
197 222 255
196 222 255
196 222 255
196 222 255
196 222 255
196 222 255
196 222 255
196 222 255
196 222 255
196 222 255
196 222 255
196 222 255
196 222 255
196 222 255
196 222 255
196 222 255
196 222 255
196 222 255
196 222 255
196 221 255
195 221 255
195 221 255
195 221 255
195 221 255
195 221 255
195 221 255
195 221 255
195 221 255
195 221 255
195 221 255
195 221 255
195 221 255
195 221 255
195 221 255
195 221 255
195 221 255
195 221 255
195 221 255
195 221 255
195 221 255
195 221 255
195 221 255
195 221 255
195 221 255
195 221 255
195 221 255
195 221 255
195 221 255
195 221 255
195 221 255
195 221 255
195 221 255
195 221 255
195 221 255
195 221 255
195 221 255
195 221 255
195 221 255
195 221 255
195 221 255
195 221 255
195 221 255
195 221 255
195 221 255
195 221 255
195 221 255
195 221 255
195 221 255
195 221 255
195 221 255
195 221 255
195 221 255
195 221 255
195 221 255
195 221 255
195 221 255
195 221 255
195 221 255
195 221 255
195 221 255
195 221 255
195 221 255
195 221 255
195 221 255
195 221 255
195 221 255
195 221 255
195 221 255
195 221 255
195 221 255
195 221 255
195 221 255
195 221 255
195 221 255
195 221 255
195 221 255
195 221 255
195 221 255
195 221 255
195 221 255
195 221 255
195 221 255
195 221 255
196 221 255
196 221 255
196 222 255
196 222 255
196 222 255
196 222 255
196 222 255
196 222 255
196 222 255
196 222 255
196 222 255
196 222 255
196 222 255
196 222 255
196 222 255
196 222 255
196 222 255
196 222 255
196 222 255
196 222 255
197 222 255
197 222 255
197 222 255
197 222 255
197 222 255
197 222 255
197 222 255
197 222 255
197 222 255
197 222 255
197 222 255
197 222 255
197 222 255
197 222 255
197 222 255
197 223 255
198 223 255
198 223 255
198 223 255
198 223 255
198 223 255
198 223 255
198 223 255
198 223 255
198 223 255
198 223 255
198 223 255
198 223 255
198 223 255
198 223 255
199 223 255
199 223 255
199 223 255
199 223 255
199 223 255
199 223 255
199 223 255
199 223 255
199 223 255
199 223 255
199 223 255
199 223 255
199 224 255
199 224 255
199 224 255
200 224 255
200 224 255
200 224 255
200 224 255
200 224 255
200 224 255
200 224 255
200 224 255
200 224 255
200 224 255
200 224 255
200 224 255
200 224 255
200 224 255
201 224 255
201 224 255
201 224 255
201 224 255
201 224 255
201 224 255
201 224 255
201 224 255
201 224 255
201 224 255
201 224 255
201 225 255
201 225 255
201 225 255
201 225 255
202 225 255
202 225 255
202 225 255
202 225 255
202 225 255
202 225 255
202 225 255
202 225 255
202 225 255
202 225 255
202 225 255
202 225 255
202 225 255
202 225 255
202 225 255
203 225 255
203 225 255
203 225 255
203 225 255
203 225 255
203 225 255
203 225 255
203 225 255
203 225 255
203 226 255
203 226 255
203 226 255
203 226 255
203 226 255
203 226 255
203 226 255
204 226 255
204 226 255
204 226 255
204 226 255
204 226 255
204 226 255
204 226 255
204 226 255
204 226 255
204 226 255
204 226 255
204 226 255
204 226 255
204 226 255
204 226 255
204 226 255
204 226 255
205 226 255
205 226 255
205 226 255
205 226 255
205 226 255
205 226 255
205 226 255
205 226 255
205 227 255
205 227 255
205 227 255
205 227 255
205 227 255
205 227 255
205 227 255
205 227 255
205 227 255
205 227 255
205 227 255
205 227 255
205 227 255
205 227 255
205 227 255
205 227 255
205 227 255
205 227 255
205 227 255
205 227 255
205 227 255
205 226 255
205 226 255
205 226 255
205 226 255
205 226 255
205 226 255
205 226 255
204 226 255
204 226 255
204 226 255
204 226 255
204 226 255
204 226 255
204 226 255
204 226 255
204 226 255
204 226 255
204 226 255
204 226 255
204 226 255
204 226 255
204 226 255
204 226 255
204 226 255
203 226 255
203 226 255
203 226 255
203 226 255
203 226 255
203 226 255
203 226 255
203 225 255
203 225 255
203 225 255
203 225 255
203 225 255
203 225 255
203 225 255
203 225 255
203 225 255
202 225 255
202 225 255
202 225 255
202 225 255
202 225 255
202 225 255
202 225 255
202 225 255
202 225 255
202 225 255
202 225 255
202 225 255
202 225 255
202 225 255
202 225 255
201 225 255
201 225 255
201 225 255
201 225 255
201 225 255
201 224 255
201 224 255
201 224 255
201 224 255
201 224 255
201 224 255
201 224 255
201 224 255
201 224 255
201 224 255
200 224 255
200 224 255
200 224 255
200 224 255
200 224 255
200 224 255
200 224 255
200 224 255
200 224 255
200 224 255
200 224 255
200 224 255
200 224 255
200 224 255
199 224 255
199 224 255
199 224 255
199 223 255
199 223 255
199 223 255
199 223 255
199 223 255
199 223 255
199 223 255
199 223 255
199 223 255
199 223 255
199 223 255
199 223 255
198 223 255
198 223 255
198 223 255
198 223 255
198 223 255
198 223 255
198 223 255
198 223 255
198 223 255
198 223 255
198 223 255
198 223 255
198 223 255
198 223 255
198 223 255
197 222 255
197 222 255
197 222 255
197 222 255
197 222 255
197 222 255
197 222 255
197 222 255
197 222 255
197 222 255
197 222 255
197 222 255
197 222 255
197 222 255
197 222 255
197 222 255
196 222 255
196 222 255
196 222 255
196 222 255
196 222 255
196 222 255
196 222 255
196 222 255
196 222 255
196 222 255
196 222 255
196 222 255
196 222 255
196 222 255
196 222 255
196 222 255
196 222 255
196 222 255
196 221 255
196 221 255
195 221 255
195 221 255
195 221 255
195 221 255
195 221 255
195 221 255
195 221 255
195 221 255
195 221 255
195 221 255
195 221 255
195 221 255
195 221 255
195 221 255
195 221 255
195 221 255
195 221 255
195 221 255
195 221 255
195 221 255
195 221 255
195 221 255
195 221 255
195 221 255
195 221 255
195 221 255
195 221 255
195 221 255
195 221 255
195 221 255
195 221 255
195 221 255
195 221 255
195 221 255
195 221 255
195 221 255
195 221 255
195 221 255
195 221 255
195 221 255
195 221 255
195 221 255
195 221 255
195 221 255
195 221 255
195 221 255
195 221 255
195 221 255
195 221 255
195 221 255
195 221 255
195 221 255
195 221 255
195 221 255
195 221 255
195 221 255
195 221 255
195 221 255
195 221 255
195 221 255
195 221 255
195 221 255
195 221 255
195 221 255
195 221 255
195 221 255
195 221 255
195 221 255
195 221 255
195 221 255
195 221 255
195 221 255
195 221 255
195 221 255
195 221 255
195 221 255
196 221 255
196 221 255
196 222 255
196 222 255
196 222 255
196 222 255
196 222 255
196 222 255
196 222 255
196 222 255
196 222 255
196 222 255
196 222 255
196 222 255
196 222 255
196 222 255
196 222 255
196 222 255
196 222 255
196 222 255
197 222 255
197 222 255
197 222 255
197 222 255
197 222 255
197 222 255
197 222 255
197 222 255
197 222 255
197 222 255
197 222 255
197 222 255
197 222 255
197 222 255
197 222 255
197 222 255
198 223 255
198 223 255
198 223 255
198 223 255
198 223 255
198 223 255
198 223 255
198 223 255
198 223 255
198 223 255
198 223 255
198 223 255
198 223 255
198 223 255
198 223 255
199 223 255
199 223 255
199 223 255
199 223 255
199 223 255
199 223 255
199 223 255
199 223 255
199 223 255
199 223 255
199 223 255
199 223 255
199 224 255
199 224 255
199 224 255
200 224 255
200 224 255
200 224 255
200 224 255
200 224 255
200 224 255
200 224 255
200 224 255
200 224 255
200 224 255
200 224 255
200 224 255
200 224 255
200 224 255
201 224 255
201 224 255
201 224 255
201 224 255
201 224 255
201 224 255
201 224 255
201 224 255
201 224 255
201 224 255
201 225 255
201 225 255
201 225 255
201 225 255
201 225 255
202 225 255
202 225 255
202 225 255
202 225 255
202 225 255
202 225 255
202 225 255
202 225 255
202 225 255
202 225 255
202 225 255
202 225 255
202 225 255
202 225 255
202 225 255
203 225 255
203 225 255
203 225 255
203 225 255
203 225 255
203 225 255
203 225 255
203 225 255
203 225 255
203 226 255
203 226 255
203 226 255
203 226 255
203 226 255
203 226 255
203 226 255
204 226 255
204 226 255
204 226 255
204 226 255
204 226 255
204 226 255
204 226 255
204 226 255
204 226 255
204 226 255
204 226 255
204 226 255
204 226 255
204 226 255
204 226 255
204 226 255
204 226 255
205 226 255
205 226 255
205 226 255
205 226 255
205 226 255
205 226 255
205 226 255
205 227 255
205 227 255
205 227 255
205 227 255
205 227 255
205 227 255
205 227 255
205 227 255
205 227 255
205 227 255
205 227 255
205 227 255
206 227 255
206 227 255
206 227 255
205 227 255
205 227 255
205 227 255
205 227 255
205 227 255
205 227 255
205 227 255
205 227 255
205 227 255
205 227 255
205 227 255
205 226 255
205 226 255
205 226 255
205 226 255
205 226 255
205 226 255
205 226 255
204 226 255
204 226 255
204 226 255
204 226 255
204 226 255
204 226 255
204 226 255
204 226 255
204 226 255
204 226 255
204 226 255
204 226 255
204 226 255
204 226 255
204 226 255
204 226 255
204 226 255
203 226 255
203 226 255
203 226 255
203 226 255
203 226 255
203 226 255
203 226 255
203 226 255
203 225 255
203 225 255
203 225 255
203 225 255
203 225 255
203 225 255
203 225 255
203 225 255
202 225 255
202 225 255
202 225 255
202 225 255
202 225 255
202 225 255
202 225 255
202 225 255
202 225 255
202 225 255
202 225 255
202 225 255
202 225 255
202 225 255
202 225 255
202 225 255
201 225 255
201 225 255
201 225 255
201 225 255
201 224 255
201 224 255
201 224 255
201 224 255
201 224 255
201 224 255
201 224 255
201 224 255
201 224 255
201 224 255
200 224 255
200 224 255
200 224 255
200 224 255
200 224 255
200 224 255
200 224 255
200 224 255
200 224 255
200 224 255
200 224 255
200 224 255
200 224 255
200 224 255
200 224 255
199 224 255
199 224 255
199 223 255
199 223 255
199 223 255
199 223 255
199 223 255
199 223 255
199 223 255
199 223 255
199 223 255
199 223 255
199 223 255
199 223 255
198 223 255
198 223 255
198 223 255
198 223 255
198 223 255
198 223 255
198 223 255
198 223 255
198 223 255
198 223 255
198 223 255
198 223 255
198 223 255
198 223 255
198 223 255
197 223 255
197 222 255
197 222 255
197 222 255
197 222 255
197 222 255
197 222 255
197 222 255
197 222 255
197 222 255
197 222 255
197 222 255
197 222 255
197 222 255
197 222 255
197 222 255
197 222 255
196 222 255
196 222 255
196 222 255
196 222 255
196 222 255
196 222 255
196 222 255
196 222 255
196 222 255
196 222 255
196 222 255
196 222 255
196 222 255
196 222 255
196 222 255
196 222 255
196 222 255
196 222 255
196 222 255
196 221 255
196 221 255
195 221 255
195 221 255
195 221 255
195 221 255
195 221 255
195 221 255
195 221 255
195 221 255
195 221 255
195 221 255
195 221 255
195 221 255
195 221 255
195 221 255
195 221 255
195 221 255
195 221 255
195 221 255
195 221 255
195 221 255
195 221 255
195 221 255
195 221 255
195 221 255
195 221 255
195 221 255
195 221 255
195 221 255
195 221 255
195 221 255
195 221 255
195 221 255
195 221 255
195 221 255
195 221 255
195 221 255
195 221 255
195 221 255
195 221 255
195 221 255
195 221 255
195 221 255
195 221 255
195 221 255
195 221 255
195 221 255
195 221 255
195 221 255
195 221 255
195 221 255
195 221 255
195 221 255
195 221 255
195 221 255
195 221 255
195 221 255
195 221 255
195 221 255
195 221 255
195 221 255
195 221 255
195 221 255
195 221 255
195 221 255
195 221 255
195 221 255
195 221 255
195 221 255
196 221 255
196 221 255
196 222 255
196 222 255
196 222 255
196 222 255
196 222 255
196 222 255
196 222 255
196 222 255
196 222 255
196 222 255
196 222 255
196 222 255
196 222 255
196 222 255
196 222 255
196 222 255
196 222 255
196 222 255
196 222 255
197 222 255
197 222 255
197 222 255
197 222 255
197 222 255
197 222 255
197 222 255
197 222 255
197 222 255
197 222 255
197 222 255
197 222 255
197 222 255
197 222 255
197 222 255
197 222 255
197 223 255
198 223 255
198 223 255
198 223 255
198 223 255
198 223 255
198 223 255
198 223 255
198 223 255
198 223 255
198 223 255
198 223 255
198 223 255
198 223 255
198 223 255
198 223 255
199 223 255
199 223 255
199 223 255
199 223 255
199 223 255
199 223 255
199 223 255
199 223 255
199 223 255
199 223 255
199 223 255
199 223 255
199 224 255
199 224 255
200 224 255
200 224 255
200 224 255
200 224 255
200 224 255
200 224 255
200 224 255
200 224 255
200 224 255
200 224 255
200 224 255
200 224 255
200 224 255
200 224 255
200 224 255
201 224 255
201 224 255
201 224 255
201 224 255
201 224 255
201 224 255
201 224 255
201 224 255
201 224 255
201 224 255
201 225 255
201 225 255
201 225 255
201 225 255
202 225 255
202 225 255
202 225 255
202 225 255
202 225 255
202 225 255
202 225 255
202 225 255
202 225 255
202 225 255
202 225 255
202 225 255
202 225 255
202 225 255
202 225 255
202 225 255
203 225 255
203 225 255
203 225 255
203 225 255
203 225 255
203 225 255
203 225 255
203 225 255
203 226 255
203 226 255
203 226 255
203 226 255
203 226 255
203 226 255
203 226 255
203 226 255
204 226 255
204 226 255
204 226 255
204 226 255
204 226 255
204 226 255
204 226 255
204 226 255
204 226 255
204 226 255
204 226 255
204 226 255
204 226 255
204 226 255
204 226 255
204 226 255
204 226 255
205 226 255
205 226 255
205 226 255
205 226 255
205 226 255
205 226 255
205 226 255
205 227 255
205 227 255
205 227 255
205 227 255
205 227 255
205 227 255
205 227 255
205 227 255
205 227 255
205 227 255
205 227 255
206 227 255
206 227 255
206 227 255
206 227 255
206 227 255
206 227 255
206 227 255
206 227 255
205 227 255
205 227 255
205 227 255
205 227 255
205 227 255
205 227 255
205 227 255
205 227 255
205 227 255
205 227 255
205 227 255
205 226 255
205 226 255
205 226 255
205 226 255
205 226 255
205 226 255
205 226 255
205 226 255
204 226 255
204 226 255
204 226 255
204 226 255
204 226 255
204 226 255
204 226 255
204 226 255
204 226 255
204 226 255
204 226 255
204 226 255
204 226 255
204 226 255
204 226 255
204 226 255
204 226 255
203 226 255
203 226 255
203 226 255
203 226 255
203 226 255
203 226 255
203 226 255
203 225 255
203 225 255
203 225 255
203 225 255
203 225 255
203 225 255
203 225 255
203 225 255
203 225 255
202 225 255
202 225 255
202 225 255
202 225 255
202 225 255
202 225 255
202 225 255
202 225 255
202 225 255
202 225 255
202 225 255
202 225 255
202 225 255
202 225 255
202 225 255
201 225 255
201 225 255
201 225 255
201 225 255
201 224 255
201 224 255
201 224 255
201 224 255
201 224 255
201 224 255
201 224 255
201 224 255
201 224 255
201 224 255
200 224 255
200 224 255
200 224 255
200 224 255
200 224 255
200 224 255
200 224 255
200 224 255
200 224 255
200 224 255
200 224 255
200 224 255
200 224 255
200 224 255
200 224 255
199 224 255
199 224 255
199 223 255
199 223 255
199 223 255
199 223 255
199 223 255
199 223 255
199 223 255
199 223 255
199 223 255
199 223 255
199 223 255
199 223 255
198 223 255
198 223 255
198 223 255
198 223 255
198 223 255
198 223 255
198 223 255
198 223 255
198 223 255
198 223 255
198 223 255
198 223 255
198 223 255
198 223 255
198 223 255
198 223 255
197 222 255
197 222 255
197 222 255
197 222 255
197 222 255
197 222 255
197 222 255
197 222 255
197 222 255
197 222 255
197 222 255
197 222 255
197 222 255
197 222 255
197 222 255
197 222 255
197 222 255
196 222 255
196 222 255
196 222 255
196 222 255
196 222 255
196 222 255
196 222 255
196 222 255
196 222 255
196 222 255
196 222 255
196 222 255
196 222 255
196 222 255
196 222 255
196 222 255
196 222 255
196 222 255
196 222 255
196 222 255
196 221 255
196 221 255
195 221 255
195 221 255
195 221 255
195 221 255
195 221 255
195 221 255
195 221 255
195 221 255
195 221 255
195 221 255
195 221 255
195 221 255
195 221 255
195 221 255
195 221 255
195 221 255
195 221 255
195 221 255
195 221 255
195 221 255
195 221 255
195 221 255
195 221 255
195 221 255
195 221 255
195 221 255
195 221 255
195 221 255
195 221 255
195 221 255
195 221 255
195 221 255
195 221 255
195 221 255
195 221 255
195 221 255
195 221 255
195 221 255
195 221 255
195 221 255
195 221 255
195 221 255
195 221 255
195 221 255
195 221 255
195 221 255
195 221 255
195 221 255
195 221 255
195 221 255
195 221 255
195 221 255
195 221 255
195 221 255
195 221 255
195 221 255
195 221 255
195 221 255
195 221 255
195 221 255
196 221 255
196 221 255
196 222 255
196 222 255
196 222 255
196 222 255
196 222 255
196 222 255
196 222 255
196 222 255
196 222 255
196 222 255
196 222 255
196 222 255
196 222 255
196 222 255
196 222 255
196 222 255
196 222 255
196 222 255
196 222 255
196 222 255
197 222 255
197 222 255
197 222 255
197 222 255
197 222 255
197 222 255
197 222 255
197 222 255
197 222 255
197 222 255
197 222 255
197 222 255
197 222 255
197 222 255
197 222 255
197 222 255
197 222 255
198 223 255
198 223 255
198 223 255
198 223 255
198 223 255
198 223 255
198 223 255
198 223 255
198 223 255
198 223 255
198 223 255
198 223 255
198 223 255
198 223 255
198 223 255
198 223 255
199 223 255
199 223 255
199 223 255
199 223 255
199 223 255
199 223 255
199 223 255
199 223 255
199 223 255
199 223 255
199 223 255
199 223 255
199 224 255
199 224 255
200 224 255
200 224 255
200 224 255
200 224 255
200 224 255
200 224 255
200 224 255
200 224 255
200 224 255
200 224 255
200 224 255
200 224 255
200 224 255
200 224 255
200 224 255
201 224 255
201 224 255
201 224 255
201 224 255
201 224 255
201 224 255
201 224 255
201 224 255
201 224 255
201 224 255
201 225 255
201 225 255
201 225 255
201 225 255
202 225 255
202 225 255
202 225 255
202 225 255
202 225 255
202 225 255
202 225 255
202 225 255
202 225 255
202 225 255
202 225 255
202 225 255
202 225 255
202 225 255
202 225 255
203 225 255
203 225 255
203 225 255
203 225 255
203 225 255
203 225 255
203 225 255
203 225 255
203 225 255
203 226 255
203 226 255
203 226 255
203 226 255
203 226 255
203 226 255
203 226 255
204 226 255
204 226 255
204 226 255
204 226 255
204 226 255
204 226 255
204 226 255
204 226 255
204 226 255
204 226 255
204 226 255
204 226 255
204 226 255
204 226 255
204 226 255
204 226 255
204 226 255
205 226 255
205 226 255
205 226 255
205 226 255
205 226 255
205 226 255
205 226 255
205 227 255
205 227 255
205 227 255
205 227 255
205 227 255
205 227 255
205 227 255
205 227 255
205 227 255
205 227 255
205 227 255
205 227 255
206 227 255
206 227 255
206 227 255
206 227 255
206 227 255
206 227 255
206 227 255
206 227 255
206 227 255
206 227 255
206 227 255
206 227 255
206 227 255
205 227 255
205 227 255
205 227 255
205 227 255
205 227 255
205 227 255
205 227 255
205 227 255
205 227 255
205 227 255
205 227 255
205 226 255
205 226 255
205 226 255
205 226 255
205 226 255
205 226 255
205 226 255
204 226 255
204 226 255
204 226 255
204 226 255
204 226 255
204 226 255
204 226 255
204 226 255
204 226 255
204 226 255
204 226 255
204 226 255
204 226 255
204 226 255
204 226 255
204 226 255
204 226 255
203 226 255
203 226 255
203 226 255
203 226 255
203 226 255
203 226 255
203 226 255
203 225 255
203 225 255
203 225 255
203 225 255
203 225 255
203 225 255
203 225 255
203 225 255
203 225 255
202 225 255
202 225 255
202 225 255
202 225 255
202 225 255
202 225 255
202 225 255
202 225 255
202 225 255
202 225 255
202 225 255
202 225 255
202 225 255
202 225 255
202 225 255
201 225 255
201 225 255
201 225 255
201 225 255
201 224 255
201 224 255
201 224 255
201 224 255
201 224 255
201 224 255
201 224 255
201 224 255
201 224 255
201 224 255
201 224 255
200 224 255
200 224 255
200 224 255
200 224 255
200 224 255
200 224 255
200 224 255
200 224 255
200 224 255
200 224 255
200 224 255
200 224 255
200 224 255
200 224 255
199 224 255
199 224 255
199 223 255
199 223 255
199 223 255
199 223 255
199 223 255
199 223 255
199 223 255
199 223 255
199 223 255
199 223 255
199 223 255
199 223 255
199 223 255
198 223 255
198 223 255
198 223 255
198 223 255
198 223 255
198 223 255
198 223 255
198 223 255
198 223 255
198 223 255
198 223 255
198 223 255
198 223 255
198 223 255
198 223 255
197 223 255
197 222 255
197 222 255
197 222 255
197 222 255
197 222 255
197 222 255
197 222 255
197 222 255
197 222 255
197 222 255
197 222 255
197 222 255
197 222 255
197 222 255
197 222 255
197 222 255
197 222 255
196 222 255
196 222 255
196 222 255
196 222 255
196 222 255
196 222 255
196 222 255
196 222 255
196 222 255
196 222 255
196 222 255
196 222 255
196 222 255
196 222 255
196 222 255
196 222 255
196 222 255
196 222 255
196 222 255
196 222 255
196 222 255
196 221 255
196 221 255
196 221 255
195 221 255
195 221 255
195 221 255
195 221 255
195 221 255
195 221 255
195 221 255
195 221 255
195 221 255
195 221 255
195 221 255
195 221 255
195 221 255
195 221 255
195 221 255
195 221 255
195 221 255
195 221 255
195 221 255
195 221 255
195 221 255
195 221 255
195 221 255
195 221 255
195 221 255
195 221 255
195 221 255
195 221 255
195 221 255
195 221 255
195 221 255
195 221 255
195 221 255
195 221 255
195 221 255
195 221 255
195 221 255
195 221 255
195 221 255
195 221 255
195 221 255
195 221 255
195 221 255
195 221 255
195 221 255
195 221 255
195 221 255
195 221 255
195 221 255
195 221 255
196 221 255
196 221 255
196 221 255
196 222 255
196 222 255
196 222 255
196 222 255
196 222 255
196 222 255
196 222 255
196 222 255
196 222 255
196 222 255
196 222 255
196 222 255
196 222 255
196 222 255
196 222 255
196 222 255
196 222 255
196 222 255
196 222 255
196 222 255
196 222 255
197 222 255
197 222 255
197 222 255
197 222 255
197 222 255
197 222 255
197 222 255
197 222 255
197 222 255
197 222 255
197 222 255
197 222 255
197 222 255
197 222 255
197 222 255
197 222 255
197 222 255
197 223 255
198 223 255
198 223 255
198 223 255
198 223 255
198 223 255
198 223 255
198 223 255
198 223 255
198 223 255
198 223 255
198 223 255
198 223 255
198 223 255
198 223 255
198 223 255
199 223 255
199 223 255
199 223 255
199 223 255
199 223 255
199 223 255
199 223 255
199 223 255
199 223 255
199 223 255
199 223 255
199 223 255
199 223 255
199 224 255
199 224 255
200 224 255
200 224 255
200 224 255
200 224 255
200 224 255
200 224 255
200 224 255
200 224 255
200 224 255
200 224 255
200 224 255
200 224 255
200 224 255
200 224 255
201 224 255
201 224 255
201 224 255
201 224 255
201 224 255
201 224 255
201 224 255
201 224 255
201 224 255
201 224 255
201 225 255
201 225 255
201 225 255
201 225 255
201 225 255
202 225 255
202 225 255
202 225 255
202 225 255
202 225 255
202 225 255
202 225 255
202 225 255
202 225 255
202 225 255
202 225 255
202 225 255
202 225 255
202 225 255
202 225 255
203 225 255
203 225 255
203 225 255
203 225 255
203 225 255
203 225 255
203 225 255
203 225 255
203 225 255
203 226 255
203 226 255
203 226 255
203 226 255
203 226 255
203 226 255
203 226 255
204 226 255
204 226 255
204 226 255
204 226 255
204 226 255
204 226 255
204 226 255
204 226 255
204 226 255
204 226 255
204 226 255
204 226 255
204 226 255
204 226 255
204 226 255
204 226 255
204 226 255
205 226 255
205 226 255
205 226 255
205 226 255
205 226 255
205 226 255
205 226 255
205 227 255
205 227 255
205 227 255
205 227 255
205 227 255
205 227 255
205 227 255
205 227 255
205 227 255
205 227 255
205 227 255
206 227 255
206 227 255
206 227 255
206 227 255
206 227 255
206 227 255
206 227 255
206 227 255
206 227 255
206 227 255
206 227 255
206 227 255
206 227 255
206 227 255
206 227 255
206 227 255
206 227 255
206 227 255
206 227 255
205 227 255
205 227 255
205 227 255
205 227 255
205 227 255
205 227 255
205 227 255
205 227 255
205 227 255
205 227 255
205 227 255
205 226 255
205 226 255
205 226 255
205 226 255
205 226 255
205 226 255
205 226 255
204 226 255
204 226 255
204 226 255
204 226 255
204 226 255
204 226 255
204 226 255
204 226 255
204 226 255
204 226 255
204 226 255
204 226 255
204 226 255
204 226 255
204 226 255
204 226 255
204 226 255
203 226 255
203 226 255
203 226 255
203 226 255
203 226 255
203 226 255
203 226 255
203 225 255
203 225 255
203 225 255
203 225 255
203 225 255
203 225 255
203 225 255
203 225 255
202 225 255
202 225 255
202 225 255
202 225 255
202 225 255
202 225 255
202 225 255
202 225 255
202 225 255
202 225 255
202 225 255
202 225 255
202 225 255
202 225 255
202 225 255
201 225 255
201 225 255
201 225 255
201 225 255
201 225 255
201 224 255
201 224 255
201 224 255
201 224 255
201 224 255
201 224 255
201 224 255
201 224 255
201 224 255
201 224 255
200 224 255
200 224 255
200 224 255
200 224 255
200 224 255
200 224 255
200 224 255
200 224 255
200 224 255
200 224 255
200 224 255
200 224 255
200 224 255
200 224 255
199 224 255
199 224 255
199 224 255
199 223 255
199 223 255
199 223 255
199 223 255
199 223 255
199 223 255
199 223 255
199 223 255
199 223 255
199 223 255
199 223 255
199 223 255
198 223 255
198 223 255
198 223 255
198 223 255
198 223 255
198 223 255
198 223 255
198 223 255
198 223 255
198 223 255
198 223 255
198 223 255
198 223 255
198 223 255
198 223 255
198 223 255
197 222 255
197 222 255
197 222 255
197 222 255
197 222 255
197 222 255
197 222 255
197 222 255
197 222 255
197 222 255
197 222 255
197 222 255
197 222 255
197 222 255
197 222 255
197 222 255
197 222 255
197 222 255
196 222 255
196 222 255
196 222 255
196 222 255
196 222 255
196 222 255
196 222 255
196 222 255
196 222 255
196 222 255
196 222 255
196 222 255
196 222 255
196 222 255
196 222 255
196 222 255
196 222 255
196 222 255
196 222 255
196 222 255
196 222 255
196 222 255
196 222 255
196 222 255
196 221 255
196 221 255
196 221 255
195 221 255
195 221 255
195 221 255
195 221 255
195 221 255
195 221 255
195 221 255
195 221 255
195 221 255
195 221 255
195 221 255
195 221 255
195 221 255
195 221 255
195 221 255
195 221 255
195 221 255
195 221 255
195 221 255
195 221 255
195 221 255
195 221 255
195 221 255
195 221 255
195 221 255
195 221 255
195 221 255
195 221 255
195 221 255
195 221 255
195 221 255
195 221 255
195 221 255
195 221 255
195 221 255
195 221 255
195 221 255
195 221 255
196 221 255
196 221 255
196 221 255
196 221 255
196 222 255
196 222 255
196 222 255
196 222 255
196 222 255
196 222 255
196 222 255
196 222 255
196 222 255
196 222 255
196 222 255
196 222 255
196 222 255
196 222 255
196 222 255
196 222 255
196 222 255
196 222 255
196 222 255
196 222 255
196 222 255
196 222 255
196 222 255
197 222 255
197 222 255
197 222 255
197 222 255
197 222 255
197 222 255
197 222 255
197 222 255
197 222 255
197 222 255
197 222 255
197 222 255
197 222 255
197 222 255
197 222 255
197 222 255
197 222 255
197 222 255
198 223 255
198 223 255
198 223 255
198 223 255
198 223 255
198 223 255
198 223 255
198 223 255
198 223 255
198 223 255
198 223 255
198 223 255
198 223 255
198 223 255
198 223 255
198 223 255
199 223 255
199 223 255
199 223 255
199 223 255
199 223 255
199 223 255
199 223 255
199 223 255
199 223 255
199 223 255
199 223 255
199 223 255
199 224 255
199 224 255
199 224 255
200 224 255
200 224 255
200 224 255
200 224 255
200 224 255
200 224 255
200 224 255
200 224 255
200 224 255
200 224 255
200 224 255
200 224 255
200 224 255
200 224 255
201 224 255
201 224 255
201 224 255
201 224 255
201 224 255
201 224 255
201 224 255
201 224 255
201 224 255
201 224 255
201 225 255
201 225 255
201 225 255
201 225 255
201 225 255
202 225 255
202 225 255
202 225 255
202 225 255
202 225 255
202 225 255
202 225 255
202 225 255
202 225 255
202 225 255
202 225 255
202 225 255
202 225 255
202 225 255
202 225 255
203 225 255
203 225 255
203 225 255
203 225 255
203 225 255
203 225 255
203 225 255
203 225 255
203 226 255
203 226 255
203 226 255
203 226 255
203 226 255
203 226 255
203 226 255
204 226 255
204 226 255
204 226 255
204 226 255
204 226 255
204 226 255
204 226 255
204 226 255
204 226 255
204 226 255
204 226 255
204 226 255
204 226 255
204 226 255
204 226 255
204 226 255
204 226 255
205 226 255
205 226 255
205 226 255
205 226 255
205 226 255
205 226 255
205 226 255
205 227 255
205 227 255
205 227 255
205 227 255
205 227 255
205 227 255
205 227 255
205 227 255
205 227 255
205 227 255
205 227 255
206 227 255
206 227 255
206 227 255
206 227 255
206 227 255
206 227 255
206 227 255
206 227 255
206 227 255
206 227 255
206 227 255
206 227 255
206 227 255
206 227 255
206 227 255
206 227 255
206 227 255
206 227 255
206 227 255
206 227 255
206 227 255
206 227 255
206 227 255
206 227 255
205 227 255
205 227 255
205 227 255
205 227 255
205 227 255
205 227 255
205 227 255
205 227 255
205 227 255
205 227 255
205 227 255
205 226 255
205 226 255
205 226 255
205 226 255
205 226 255
205 226 255
205 226 255
204 226 255
204 226 255
204 226 255
204 226 255
204 226 255
204 226 255
204 226 255
204 226 255
204 226 255
204 226 255
204 226 255
204 226 255
204 226 255
204 226 255
204 226 255
204 226 255
204 226 255
203 226 255
203 226 255
203 226 255
203 226 255
203 226 255
203 226 255
203 226 255
203 225 255
203 225 255
203 225 255
203 225 255
203 225 255
203 225 255
203 225 255
203 225 255
203 225 255
202 225 255
202 225 255
202 225 255
202 225 255
202 225 255
202 225 255
202 225 255
202 225 255
202 225 255
202 225 255
202 225 255
202 225 255
202 225 255
202 225 255
202 225 255
201 225 255
201 225 255
201 225 255
201 225 255
201 224 255
201 224 255
201 224 255
201 224 255
201 224 255
201 224 255
201 224 255
201 224 255
201 224 255
201 224 255
200 224 255
200 224 255
200 224 255
200 224 255
200 224 255
200 224 255
200 224 255
200 224 255
200 224 255
200 224 255
200 224 255
200 224 255
200 224 255
200 224 255
200 224 255
199 224 255
199 224 255
199 223 255
199 223 255
199 223 255
199 223 255
199 223 255
199 223 255
199 223 255
199 223 255
199 223 255
199 223 255
199 223 255
199 223 255
199 223 255
198 223 255
198 223 255
198 223 255
198 223 255
198 223 255
198 223 255
198 223 255
198 223 255
198 223 255
198 223 255
198 223 255
198 223 255
198 223 255
198 223 255
198 223 255
197 223 255
197 222 255
197 222 255
197 222 255
197 222 255
197 222 255
197 222 255
197 222 255
197 222 255
197 222 255
197 222 255
197 222 255
197 222 255
197 222 255
197 222 255
197 222 255
197 222 255
197 222 255
197 222 255
196 222 255
196 222 255
196 222 255
196 222 255
196 222 255
196 222 255
196 222 255
196 222 255
196 222 255
196 222 255
196 222 255
196 222 255
196 222 255
196 222 255
196 222 255
196 222 255
196 222 255
196 222 255
196 222 255
196 222 255
196 222 255
196 222 255
196 222 255
196 222 255
196 222 255
196 222 255
196 222 255
196 221 255
196 221 255
196 221 255
196 221 255
196 221 255
196 221 255
195 221 255
195 221 255
195 221 255
195 221 255
195 221 255
195 221 255
195 221 255
195 221 255
195 221 255
195 221 255
195 221 255
195 221 255
195 221 255
195 221 255
195 221 255
195 221 255
195 221 255
195 221 255
195 221 255
195 221 255
196 221 255
196 221 255
196 221 255
196 221 255
196 221 255
196 221 255
196 222 255
196 222 255
196 222 255
196 222 255
196 222 255
196 222 255
196 222 255
196 222 255
196 222 255
196 222 255
196 222 255
196 222 255
196 222 255
196 222 255
196 222 255
196 222 255
196 222 255
196 222 255
196 222 255
196 222 255
196 222 255
196 222 255
196 222 255
196 222 255
196 222 255
196 222 255
196 222 255
197 222 255
197 222 255
197 222 255
197 222 255
197 222 255
197 222 255
197 222 255
197 222 255
197 222 255
197 222 255
197 222 255
197 222 255
197 222 255
197 222 255
197 222 255
197 222 255
197 222 255
197 222 255
197 223 255
198 223 255
198 223 255
198 223 255
198 223 255
198 223 255
198 223 255
198 223 255
198 223 255
198 223 255
198 223 255
198 223 255
198 223 255
198 223 255
198 223 255
198 223 255
199 223 255
199 223 255
199 223 255
199 223 255
199 223 255
199 223 255
199 223 255
199 223 255
199 223 255
199 223 255
199 223 255
199 223 255
199 223 255
199 224 255
199 224 255
200 224 255
200 224 255
200 224 255
200 224 255
200 224 255
200 224 255
200 224 255
200 224 255
200 224 255
200 224 255
200 224 255
200 224 255
200 224 255
200 224 255
200 224 255
201 224 255
201 224 255
201 224 255
201 224 255
201 224 255
201 224 255
201 224 255
201 224 255
201 224 255
201 224 255
201 225 255
201 225 255
201 225 255
201 225 255
202 225 255
202 225 255
202 225 255
202 225 255
202 225 255
202 225 255
202 225 255
202 225 255
202 225 255
202 225 255
202 225 255
202 225 255
202 225 255
202 225 255
202 225 255
203 225 255
203 225 255
203 225 255
203 225 255
203 225 255
203 225 255
203 225 255
203 225 255
203 225 255
203 226 255
203 226 255
203 226 255
203 226 255
203 226 255
203 226 255
203 226 255
204 226 255
204 226 255
204 226 255
204 226 255
204 226 255
204 226 255
204 226 255
204 226 255
204 226 255
204 226 255
204 226 255
204 226 255
204 226 255
204 226 255
204 226 255
204 226 255
204 226 255
205 226 255
205 226 255
205 226 255
205 226 255
205 226 255
205 226 255
205 226 255
205 227 255
205 227 255
205 227 255
205 227 255
205 227 255
205 227 255
205 227 255
205 227 255
205 227 255
205 227 255
205 227 255
206 227 255
206 227 255
206 227 255
206 227 255
206 227 255
206 227 255
206 227 255
206 227 255
206 227 255
206 227 255
206 227 255
206 227 255
206 227 255
206 227 255
206 227 255
206 227 255
206 227 255
206 227 255
206 227 255
206 227 255
206 227 255
206 227 255
206 227 255
206 227 255
206 227 255
206 227 255
206 227 255
206 227 255
206 227 255
205 227 255
205 227 255
205 227 255
205 227 255
205 227 255
205 227 255
205 227 255
205 227 255
205 227 255
205 227 255
205 227 255
205 226 255
205 226 255
205 226 255
205 226 255
205 226 255
205 226 255
205 226 255
204 226 255
204 226 255
204 226 255
204 226 255
204 226 255
204 226 255
204 226 255
204 226 255
204 226 255
204 226 255
204 226 255
204 226 255
204 226 255
204 226 255
204 226 255
204 226 255
203 226 255
203 226 255
203 226 255
203 226 255
203 226 255
203 226 255
203 226 255
203 225 255
203 225 255
203 225 255
203 225 255
203 225 255
203 225 255
203 225 255
203 225 255
203 225 255
202 225 255
202 225 255
202 225 255
202 225 255
202 225 255
202 225 255
202 225 255
202 225 255
202 225 255
202 225 255
202 225 255
202 225 255
202 225 255
202 225 255
202 225 255
201 225 255
201 225 255
201 225 255
201 225 255
201 224 255
201 224 255
201 224 255
201 224 255
201 224 255
201 224 255
201 224 255
201 224 255
201 224 255
201 224 255
200 224 255
200 224 255
200 224 255
200 224 255
200 224 255
200 224 255
200 224 255
200 224 255
200 224 255
200 224 255
200 224 255
200 224 255
200 224 255
200 224 255
200 224 255
199 224 255
199 224 255
199 223 255
199 223 255
199 223 255
199 223 255
199 223 255
199 223 255
199 223 255
199 223 255
199 223 255
199 223 255
199 223 255
199 223 255
199 223 255
198 223 255
198 223 255
198 223 255
198 223 255
198 223 255
198 223 255
198 223 255
198 223 255
198 223 255
198 223 255
198 223 255
198 223 255
198 223 255
198 223 255
198 223 255
198 223 255
197 223 255
197 222 255
197 222 255
197 222 255
197 222 255
197 222 255
197 222 255
197 222 255
197 222 255
197 222 255
197 222 255
197 222 255
197 222 255
197 222 255
197 222 255
197 222 255
197 222 255
197 222 255
197 222 255
197 222 255
196 222 255
196 222 255
196 222 255
196 222 255
196 222 255
196 222 255
196 222 255
196 222 255
196 222 255
196 222 255
196 222 255
196 222 255
196 222 255
196 222 255
196 222 255
196 222 255
196 222 255
196 222 255
196 222 255
196 222 255
196 222 255
196 222 255
196 222 255
196 222 255
196 222 255
196 222 255
196 222 255
196 222 255
196 222 255
196 222 255
196 222 255
196 222 255
196 222 255
196 222 255
196 222 255
196 222 255
196 222 255
196 222 255
196 222 255
196 222 255
196 222 255
196 222 255
196 222 255
196 222 255
196 222 255
196 222 255
196 222 255
196 222 255
196 222 255
196 222 255
196 222 255
196 222 255
196 222 255
196 222 255
196 222 255
196 222 255
196 222 255
196 222 255
196 222 255
196 222 255
196 222 255
196 222 255
196 222 255
196 222 255
196 222 255
196 222 255
196 222 255
196 222 255
196 222 255
196 222 255
196 222 255
196 222 255
196 222 255
196 222 255
196 222 255
196 222 255
196 222 255
196 222 255
197 222 255
197 222 255
197 222 255
197 222 255
197 222 255
197 222 255
197 222 255
197 222 255
197 222 255
197 222 255
197 222 255
197 222 255
197 222 255
197 222 255
197 222 255
197 222 255
197 222 255
197 222 255
197 222 255
197 223 255
198 223 255
198 223 255
198 223 255
198 223 255
198 223 255
198 223 255
198 223 255
198 223 255
198 223 255
198 223 255
198 223 255
198 223 255
198 223 255
198 223 255
198 223 255
198 223 255
199 223 255
199 223 255
199 223 255
199 223 255
199 223 255
199 223 255
199 223 255
199 223 255
199 223 255
199 223 255
199 223 255
199 223 255
199 224 255
199 224 255
199 224 255
200 224 255
200 224 255
200 224 255
200 224 255
200 224 255
200 224 255
200 224 255
200 224 255
200 224 255
200 224 255
200 224 255
200 224 255
200 224 255
200 224 255
200 224 255
201 224 255
201 224 255
201 224 255
201 224 255
201 224 255
201 224 255
201 224 255
201 224 255
201 224 255
201 224 255
201 225 255
201 225 255
201 225 255
201 225 255
202 225 255
202 225 255
202 225 255
202 225 255
202 225 255
202 225 255
202 225 255
202 225 255
202 225 255
202 225 255
202 225 255
202 225 255
202 225 255
202 225 255
202 225 255
203 225 255
203 225 255
203 225 255
203 225 255
203 225 255
203 225 255
203 225 255
203 225 255
203 225 255
203 226 255
203 226 255
203 226 255
203 226 255
203 226 255
203 226 255
203 226 255
204 226 255
204 226 255
204 226 255
204 226 255
204 226 255
204 226 255
204 226 255
204 226 255
204 226 255
204 226 255
204 226 255
204 226 255
204 226 255
204 226 255
204 226 255
204 226 255
205 226 255
205 226 255
205 226 255
205 226 255
205 226 255
205 226 255
205 226 255
205 227 255
205 227 255
205 227 255
205 227 255
205 227 255
205 227 255
205 227 255
205 227 255
205 227 255
205 227 255
205 227 255
206 227 255
206 227 255
206 227 255
206 227 255
206 227 255
206 227 255
206 227 255
206 227 255
206 227 255
206 227 255
206 227 255
206 227 255
206 227 255
206 227 255
206 227 255
206 227 255
206 227 255
206 227 255
206 227 255
206 227 255
206 227 255
206 227 255
206 227 255
206 227 255
206 227 255
206 227 255
206 227 255
206 227 255
206 227 255
206 227 255
206 227 255
206 227 255
206 227 255
206 227 255
206 227 255
205 227 255
205 227 255
205 227 255
205 227 255
205 227 255
205 227 255
205 227 255
205 227 255
205 227 255
205 227 255
205 226 255
205 226 255
205 226 255
205 226 255
205 226 255
205 226 255
205 226 255
204 226 255
204 226 255
204 226 255
204 226 255
204 226 255
204 226 255
204 226 255
204 226 255
204 226 255
204 226 255
204 226 255
204 226 255
204 226 255
204 226 255
204 226 255
204 226 255
204 226 255
203 226 255
203 226 255
203 226 255
203 226 255
203 226 255
203 226 255
203 226 255
203 225 255
203 225 255
203 225 255
203 225 255
203 225 255
203 225 255
203 225 255
203 225 255
202 225 255
202 225 255
202 225 255
202 225 255
202 225 255
202 225 255
202 225 255
202 225 255
202 225 255
202 225 255
202 225 255
202 225 255
202 225 255
202 225 255
202 225 255
201 225 255
201 225 255
201 225 255
201 225 255
201 225 255
201 224 255
201 224 255
201 224 255
201 224 255
201 224 255
201 224 255
201 224 255
201 224 255
201 224 255
201 224 255
200 224 255
200 224 255
200 224 255
200 224 255
200 224 255
200 224 255
200 224 255
200 224 255
200 224 255
200 224 255
200 224 255
200 224 255
200 224 255
200 224 255
199 224 255
199 224 255
199 224 255
199 223 255
199 223 255
199 223 255
199 223 255
199 223 255
199 223 255
199 223 255
199 223 255
199 223 255
199 223 255
199 223 255
199 223 255
199 223 255
198 223 255
198 223 255
198 223 255
198 223 255
198 223 255
198 223 255
198 223 255
198 223 255
198 223 255
198 223 255
198 223 255
198 223 255
198 223 255
198 223 255
198 223 255
198 223 255
197 223 255
197 222 255
197 222 255
197 222 255
197 222 255
197 222 255
197 222 255
197 222 255
197 222 255
197 222 255
197 222 255
197 222 255
197 222 255
197 222 255
197 222 255
197 222 255
197 222 255
197 222 255
197 222 255
197 222 255
197 222 255
196 222 255
196 222 255
196 222 255
196 222 255
196 222 255
196 222 255
196 222 255
196 222 255
196 222 255
196 222 255
196 222 255
196 222 255
196 222 255
196 222 255
196 222 255
196 222 255
196 222 255
196 222 255
196 222 255
196 222 255
196 222 255
196 222 255
196 222 255
196 222 255
196 222 255
196 222 255
196 222 255
196 222 255
196 222 255
196 222 255
196 222 255
196 222 255
196 222 255
196 222 255
196 222 255
196 222 255
196 222 255
196 222 255
196 222 255
196 222 255
196 222 255
196 222 255
196 222 255
196 222 255
196 222 255
196 222 255
196 222 255
196 222 255
196 222 255
196 222 255
196 222 255
196 222 255
196 222 255
196 222 255
196 222 255
196 222 255
196 222 255
196 222 255
196 222 255
196 222 255
196 222 255
196 222 255
196 222 255
196 222 255
196 222 255
196 222 255
196 222 255
196 222 255
196 222 255
196 222 255
197 222 255
197 222 255
197 222 255
197 222 255
197 222 255
197 222 255
197 222 255
197 222 255
197 222 255
197 222 255
197 222 255
197 222 255
197 222 255
197 222 255
197 222 255
197 222 255
197 222 255
197 222 255
197 222 255
197 222 255
197 223 255
198 223 255
198 223 255
198 223 255
198 223 255
198 223 255
198 223 255
198 223 255
198 223 255
198 223 255
198 223 255
198 223 255
198 223 255
198 223 255
198 223 255
198 223 255
198 223 255
199 223 255
199 223 255
199 223 255
199 223 255
199 223 255
199 223 255
199 223 255
199 223 255
199 223 255
199 223 255
199 223 255
199 223 255
199 223 255
199 224 255
199 224 255
200 224 255
200 224 255
200 224 255
200 224 255
200 224 255
200 224 255
200 224 255
200 224 255
200 224 255
200 224 255
200 224 255
200 224 255
200 224 255
200 224 255
200 224 255
201 224 255
201 224 255
201 224 255
201 224 255
201 224 255
201 224 255
201 224 255
201 224 255
201 224 255
201 224 255
201 225 255
201 225 255
201 225 255
201 225 255
201 225 255
202 225 255
202 225 255
202 225 255
202 225 255
202 225 255
202 225 255
202 225 255
202 225 255
202 225 255
202 225 255
202 225 255
202 225 255
202 225 255
202 225 255
202 225 255
203 225 255
203 225 255
203 225 255
203 225 255
203 225 255
203 225 255
203 225 255
203 225 255
203 226 255
203 226 255
203 226 255
203 226 255
203 226 255
203 226 255
203 226 255
204 226 255
204 226 255
204 226 255
204 226 255
204 226 255
204 226 255
204 226 255
204 226 255
204 226 255
204 226 255
204 226 255
204 226 255
204 226 255
204 226 255
204 226 255
204 226 255
204 226 255
205 226 255
205 226 255
205 226 255
205 226 255
205 226 255
205 226 255
205 226 255
205 227 255
205 227 255
205 227 255
205 227 255
205 227 255
205 227 255
205 227 255
205 227 255
205 227 255
205 227 255
205 227 255
206 227 255
206 227 255
206 227 255
206 227 255
206 227 255
206 227 255
206 227 255
206 227 255
206 227 255
206 227 255
206 227 255
206 227 255
206 227 255
206 227 255
206 227 255
206 227 255
206 227 255
206 227 255
207 227 255
207 227 255
206 227 255
206 227 255
206 227 255
206 227 255
206 227 255
206 227 255
206 227 255
206 227 255
206 227 255
206 227 255
206 227 255
206 227 255
206 227 255
206 227 255
206 227 255
206 227 255
206 227 255
206 227 255
206 227 255
205 227 255
205 227 255
205 227 255
205 227 255
205 227 255
205 227 255
205 227 255
205 227 255
205 227 255
205 227 255
205 227 255
205 226 255
205 226 255
205 226 255
205 226 255
205 226 255
205 226 255
205 226 255
204 226 255
204 226 255
204 226 255
204 226 255
204 226 255
204 226 255
204 226 255
204 226 255
204 226 255
204 226 255
204 226 255
204 226 255
204 226 255
204 226 255
204 226 255
204 226 255
203 226 255
203 226 255
203 226 255
203 226 255
203 226 255
203 226 255
203 226 255
203 225 255
203 225 255
203 225 255
203 225 255
203 225 255
203 225 255
203 225 255
203 225 255
203 225 255
202 225 255
202 225 255
202 225 255
202 225 255
202 225 255
202 225 255
202 225 255
202 225 255
202 225 255
202 225 255
202 225 255
202 225 255
202 225 255
202 225 255
202 225 255
201 225 255
201 225 255
201 225 255
201 225 255
201 224 255
201 224 255
201 224 255
201 224 255
201 224 255
201 224 255
201 224 255
201 224 255
201 224 255
201 224 255
200 224 255
200 224 255
200 224 255
200 224 255
200 224 255
200 224 255
200 224 255
200 224 255
200 224 255
200 224 255
200 224 255
200 224 255
200 224 255
200 224 255
200 224 255
199 224 255
199 224 255
199 223 255
199 223 255
199 223 255
199 223 255
199 223 255
199 223 255
199 223 255
199 223 255
199 223 255
199 223 255
199 223 255
199 223 255
199 223 255
198 223 255
198 223 255
198 223 255
198 223 255
198 223 255
198 223 255
198 223 255
198 223 255
198 223 255
198 223 255
198 223 255
198 223 255
198 223 255
198 223 255
198 223 255
198 223 255
198 223 255
197 223 255
197 222 255
197 222 255
197 222 255
197 222 255
197 222 255
197 222 255
197 222 255
197 222 255
197 222 255
197 222 255
197 222 255
197 222 255
197 222 255
197 222 255
197 222 255
197 222 255
197 222 255
197 222 255
197 222 255
197 222 255
197 222 255
196 222 255
196 222 255
196 222 255
196 222 255
196 222 255
196 222 255
196 222 255
196 222 255
196 222 255
196 222 255
196 222 255
196 222 255
196 222 255
196 222 255
196 222 255
196 222 255
196 222 255
196 222 255
196 222 255
196 222 255
196 222 255
196 222 255
196 222 255
196 222 255
196 222 255
196 222 255
196 222 255
196 222 255
196 222 255
196 222 255
196 222 255
196 222 255
196 222 255
196 222 255
196 222 255
196 222 255
196 222 255
196 222 255
196 222 255
196 222 255
196 222 255
196 222 255
196 222 255
196 222 255
196 222 255
196 222 255
196 222 255
196 222 255
196 222 255
196 222 255
196 222 255
196 222 255
196 222 255
196 222 255
196 222 255
196 222 255
196 222 255
196 222 255
196 222 255
196 222 255
196 222 255
196 222 255
197 222 255
197 222 255
197 222 255
197 222 255
197 222 255
197 222 255
197 222 255
197 222 255
197 222 255
197 222 255
197 222 255
197 222 255
197 222 255
197 222 255
197 222 255
197 222 255
197 222 255
197 222 255
197 222 255
197 222 255
197 222 255
197 223 255
198 223 255
198 223 255
198 223 255
198 223 255
198 223 255
198 223 255
198 223 255
198 223 255
198 223 255
198 223 255
198 223 255
198 223 255
198 223 255
198 223 255
198 223 255
198 223 255
198 223 255
199 223 255
199 223 255
199 223 255
199 223 255
199 223 255
199 223 255
199 223 255
199 223 255
199 223 255
199 223 255
199 223 255
199 223 255
199 223 255
199 224 255
199 224 255
200 224 255
200 224 255
200 224 255
200 224 255
200 224 255
200 224 255
200 224 255
200 224 255
200 224 255
200 224 255
200 224 255
200 224 255
200 224 255
200 224 255
200 224 255
201 224 255
201 224 255
201 224 255
201 224 255
201 224 255
201 224 255
201 224 255
201 224 255
201 224 255
201 224 255
201 225 255
201 225 255
201 225 255
201 225 255
202 225 255
202 225 255
202 225 255
202 225 255
202 225 255
202 225 255
202 225 255
202 225 255
202 225 255
202 225 255
202 225 255
202 225 255
202 225 255
202 225 255
202 225 255
203 225 255
203 225 255
203 225 255
203 225 255
203 225 255
203 225 255
203 225 255
203 225 255
203 225 255
203 226 255
203 226 255
203 226 255
203 226 255
203 226 255
203 226 255
203 226 255
204 226 255
204 226 255
204 226 255
204 226 255
204 226 255
204 226 255
204 226 255
204 226 255
204 226 255
204 226 255
204 226 255
204 226 255
204 226 255
204 226 255
204 226 255
204 226 255
205 226 255
205 226 255
205 226 255
205 226 255
205 226 255
205 226 255
205 226 255
205 227 255
205 227 255
205 227 255
205 227 255
205 227 255
205 227 255
205 227 255
205 227 255
205 227 255
205 227 255
205 227 255
206 227 255
206 227 255
206 227 255
206 227 255
206 227 255
206 227 255
206 227 255
206 227 255
206 227 255
206 227 255
206 227 255
206 227 255
206 227 255
206 227 255
206 227 255
206 227 255
206 227 255
206 227 255
206 227 255
207 227 255
207 227 255
207 227 255
207 227 255
207 227 255
207 227 255
207 227 255
206 227 255
206 227 255
206 227 255
206 227 255
206 227 255
206 227 255
206 227 255
206 227 255
206 227 255
206 227 255
206 227 255
206 227 255
206 227 255
206 227 255
206 227 255
206 227 255
206 227 255
206 227 255
206 227 255
205 227 255
205 227 255
205 227 255
205 227 255
205 227 255
205 227 255
205 227 255
205 227 255
205 227 255
205 227 255
205 226 255
205 226 255
205 226 255
205 226 255
205 226 255
205 226 255
205 226 255
204 226 255
204 226 255
204 226 255
204 226 255
204 226 255
204 226 255
204 226 255
204 226 255
204 226 255
204 226 255
204 226 255
204 226 255
204 226 255
204 226 255
204 226 255
204 226 255
204 226 255
203 226 255
203 226 255
203 226 255
203 226 255
203 226 255
203 226 255
203 225 255
203 225 255
203 225 255
203 225 255
203 225 255
203 225 255
203 225 255
203 225 255
203 225 255
202 225 255
202 225 255
202 225 255
202 225 255
202 225 255
202 225 255
202 225 255
202 225 255
202 225 255
202 225 255
202 225 255
202 225 255
202 225 255
202 225 255
202 225 255
201 225 255
201 225 255
201 225 255
201 225 255
201 224 255
201 224 255
201 224 255
201 224 255
201 224 255
201 224 255
201 224 255
201 224 255
201 224 255
201 224 255
201 224 255
200 224 255
200 224 255
200 224 255
200 224 255
200 224 255
200 224 255
200 224 255
200 224 255
200 224 255
200 224 255
200 224 255
200 224 255
200 224 255
200 224 255
199 224 255
199 224 255
199 224 255
199 223 255
199 223 255
199 223 255
199 223 255
199 223 255
199 223 255
199 223 255
199 223 255
199 223 255
199 223 255
199 223 255
199 223 255
199 223 255
198 223 255
198 223 255
198 223 255
198 223 255
198 223 255
198 223 255
198 223 255
198 223 255
198 223 255
198 223 255
198 223 255
198 223 255
198 223 255
198 223 255
198 223 255
198 223 255
198 223 255
197 223 255
197 222 255
197 222 255
197 222 255
197 222 255
197 222 255
197 222 255
197 222 255
197 222 255
197 222 255
197 222 255
197 222 255
197 222 255
197 222 255
197 222 255
197 222 255
197 222 255
197 222 255
197 222 255
197 222 255
197 222 255
197 222 255
197 222 255
197 222 255
196 222 255
196 222 255
196 222 255
196 222 255
196 222 255
196 222 255
196 222 255
196 222 255
196 222 255
196 222 255
196 222 255
196 222 255
196 222 255
196 222 255
196 222 255
196 222 255
196 222 255
196 222 255
196 222 255
196 222 255
196 222 255
196 222 255
196 222 255
196 222 255
196 222 255
196 222 255
196 222 255
196 222 255
196 222 255
196 222 255
196 222 255
196 222 255
196 222 255
196 222 255
196 222 255
196 222 255
196 222 255
196 222 255
196 222 255
196 222 255
196 222 255
196 222 255
196 222 255
196 222 255
196 222 255
196 222 255
196 222 255
196 222 255
196 222 255
196 222 255
196 222 255
196 222 255
197 222 255
197 222 255
197 222 255
197 222 255
197 222 255
197 222 255
197 222 255
197 222 255
197 222 255
197 222 255
197 222 255
197 222 255
197 222 255
197 222 255
197 222 255
197 222 255
197 222 255
197 222 255
197 222 255
197 222 255
197 222 255
197 222 255
197 222 255
197 223 255
198 223 255
198 223 255
198 223 255
198 223 255
198 223 255
198 223 255
198 223 255
198 223 255
198 223 255
198 223 255
198 223 255
198 223 255
198 223 255
198 223 255
198 223 255
198 223 255
198 223 255
199 223 255
199 223 255
199 223 255
199 223 255
199 223 255
199 223 255
199 223 255
199 223 255
199 223 255
199 223 255
199 223 255
199 223 255
199 223 255
199 224 255
199 224 255
199 224 255
200 224 255
200 224 255
200 224 255
200 224 255
200 224 255
200 224 255
200 224 255
200 224 255
200 224 255
200 224 255
200 224 255
200 224 255
200 224 255
200 224 255
201 224 255
201 224 255
201 224 255
201 224 255
201 224 255
201 224 255
201 224 255
201 224 255
201 224 255
201 224 255
201 224 255
201 225 255
201 225 255
201 225 255
201 225 255
202 225 255
202 225 255
202 225 255
202 225 255
202 225 255
202 225 255
202 225 255
202 225 255
202 225 255
202 225 255
202 225 255
202 225 255
202 225 255
202 225 255
202 225 255
203 225 255
203 225 255
203 225 255
203 225 255
203 225 255
203 225 255
203 225 255
203 225 255
203 225 255
203 226 255
203 226 255
203 226 255
203 226 255
203 226 255
203 226 255
204 226 255
204 226 255
204 226 255
204 226 255
204 226 255
204 226 255
204 226 255
204 226 255
204 226 255
204 226 255
204 226 255
204 226 255
204 226 255
204 226 255
204 226 255
204 226 255
204 226 255
205 226 255
205 226 255
205 226 255
205 226 255
205 226 255
205 226 255
205 226 255
205 227 255
205 227 255
205 227 255
205 227 255
205 227 255
205 227 255
205 227 255
205 227 255
205 227 255
205 227 255
206 227 255
206 227 255
206 227 255
206 227 255
206 227 255
206 227 255
206 227 255
206 227 255
206 227 255
206 227 255
206 227 255
206 227 255
206 227 255
206 227 255
206 227 255
206 227 255
206 227 255
206 227 255
206 227 255
207 227 255
207 227 255
207 227 255
207 227 255
207 227 255
207 228 255
207 228 255
207 228 255
207 227 255
207 227 255
207 227 255
207 227 255
206 227 255
206 227 255
206 227 255
206 227 255
206 227 255
206 227 255
206 227 255
206 227 255
206 227 255
206 227 255
206 227 255
206 227 255
206 227 255
206 227 255
206 227 255
206 227 255
206 227 255
206 227 255
206 227 255
205 227 255
205 227 255
205 227 255
205 227 255
205 227 255
205 227 255
205 227 255
205 227 255
205 227 255
205 227 255
205 227 255
205 226 255
205 226 255
205 226 255
205 226 255
205 226 255
205 226 255
205 226 255
204 226 255
204 226 255
204 226 255
204 226 255
204 226 255
204 226 255
204 226 255
204 226 255
204 226 255
204 226 255
204 226 255
204 226 255
204 226 255
204 226 255
204 226 255
204 226 255
203 226 255
203 226 255
203 226 255
203 226 255
203 226 255
203 226 255
203 226 255
203 225 255
203 225 255
203 225 255
203 225 255
203 225 255
203 225 255
203 225 255
203 225 255
203 225 255
202 225 255
202 225 255
202 225 255
202 225 255
202 225 255
202 225 255
202 225 255
202 225 255
202 225 255
202 225 255
202 225 255
202 225 255
202 225 255
202 225 255
201 225 255
201 225 255
201 225 255
201 225 255
201 225 255
201 224 255
201 224 255
201 224 255
201 224 255
201 224 255
201 224 255
201 224 255
201 224 255
201 224 255
201 224 255
200 224 255
200 224 255
200 224 255
200 224 255
200 224 255
200 224 255
200 224 255
200 224 255
200 224 255
200 224 255
200 224 255
200 224 255
200 224 255
200 224 255
200 224 255
199 224 255
199 224 255
199 223 255
199 223 255
199 223 255
199 223 255
199 223 255
199 223 255
199 223 255
199 223 255
199 223 255
199 223 255
199 223 255
199 223 255
199 223 255
199 223 255
198 223 255
198 223 255
198 223 255
198 223 255
198 223 255
198 223 255
198 223 255
198 223 255
198 223 255
198 223 255
198 223 255
198 223 255
198 223 255
198 223 255
198 223 255
198 223 255
198 223 255
197 223 255
197 222 255
197 222 255
197 222 255
197 222 255
197 222 255
197 222 255
197 222 255
197 222 255
197 222 255
197 222 255
197 222 255
197 222 255
197 222 255
197 222 255
197 222 255
197 222 255
197 222 255
197 222 255
197 222 255
197 222 255
197 222 255
197 222 255
197 222 255
197 222 255
197 222 255
197 222 255
196 222 255
196 222 255
196 222 255
196 222 255
196 222 255
196 222 255
196 222 255
196 222 255
196 222 255
196 222 255
196 222 255
196 222 255
196 222 255
196 222 255
196 222 255
196 222 255
196 222 255
196 222 255
196 222 255
196 222 255
196 222 255
196 222 255
196 222 255
196 222 255
196 222 255
196 222 255
196 222 255
196 222 255
196 222 255
196 222 255
196 222 255
196 222 255
196 222 255
196 222 255
196 222 255
196 222 255
196 222 255
196 222 255
196 222 255
196 222 255
197 222 255
197 222 255
197 222 255
197 222 255
197 222 255
197 222 255
197 222 255
197 222 255
197 222 255
197 222 255
197 222 255
197 222 255
197 222 255
197 222 255
197 222 255
197 222 255
197 222 255
197 222 255
197 222 255
197 222 255
197 222 255
197 222 255
197 222 255
197 222 255
197 222 255
197 222 255
198 223 255
198 223 255
198 223 255
198 223 255
198 223 255
198 223 255
198 223 255
198 223 255
198 223 255
198 223 255
198 223 255
198 223 255
198 223 255
198 223 255
198 223 255
198 223 255
198 223 255
198 223 255
199 223 255
199 223 255
199 223 255
199 223 255
199 223 255
199 223 255
199 223 255
199 223 255
199 223 255
199 223 255
199 223 255
199 223 255
199 223 255
199 223 255
199 224 255
199 224 255
200 224 255
200 224 255
200 224 255
200 224 255
200 224 255
200 224 255
200 224 255
200 224 255
200 224 255
200 224 255
200 224 255
200 224 255
200 224 255
200 224 255
200 224 255
201 224 255
201 224 255
201 224 255
201 224 255
201 224 255
201 224 255
201 224 255
201 224 255
201 224 255
201 224 255
201 225 255
201 225 255
201 225 255
201 225 255
201 225 255
202 225 255
202 225 255
202 225 255
202 225 255
202 225 255
202 225 255
202 225 255
202 225 255
202 225 255
202 225 255
202 225 255
202 225 255
202 225 255
202 225 255
202 225 255
203 225 255
203 225 255
203 225 255
203 225 255
203 225 255
203 225 255
203 225 255
203 225 255
203 226 255
203 226 255
203 226 255
203 226 255
203 226 255
203 226 255
203 226 255
204 226 255
204 226 255
204 226 255
204 226 255
204 226 255
204 226 255
204 226 255
204 226 255
204 226 255
204 226 255
204 226 255
204 226 255
204 226 255
204 226 255
204 226 255
204 226 255
205 226 255
205 226 255
205 226 255
205 226 255
205 226 255
205 226 255
205 226 255
205 227 255
205 227 255
205 227 255
205 227 255
205 227 255
205 227 255
205 227 255
205 227 255
205 227 255
205 227 255
205 227 255
206 227 255
206 227 255
206 227 255
206 227 255
206 227 255
206 227 255
206 227 255
206 227 255
206 227 255
206 227 255
206 227 255
206 227 255
206 227 255
206 227 255
206 227 255
206 227 255
206 227 255
206 227 255
206 227 255
207 227 255
207 227 255
207 227 255
207 227 255
207 227 255
207 228 255
207 228 255
207 228 255
207 228 255
207 228 255
207 228 255
207 228 255
207 227 255
207 227 255
207 227 255
207 227 255
207 227 255
206 227 255
206 227 255
206 227 255
206 227 255
206 227 255
206 227 255
206 227 255
206 227 255
206 227 255
206 227 255
206 227 255
206 227 255
206 227 255
206 227 255
206 227 255
206 227 255
206 227 255
206 227 255
206 227 255
205 227 255
205 227 255
205 227 255
205 227 255
205 227 255
205 227 255
205 227 255
205 227 255
205 227 255
205 227 255
205 227 255
205 226 255
205 226 255
205 226 255
205 226 255
205 226 255
205 226 255
204 226 255
204 226 255
204 226 255
204 226 255
204 226 255
204 226 255
204 226 255
204 226 255
204 226 255
204 226 255
204 226 255
204 226 255
204 226 255
204 226 255
204 226 255
204 226 255
203 226 255
203 226 255
203 226 255
203 226 255
203 226 255
203 226 255
203 226 255
203 225 255
203 225 255
203 225 255
203 225 255
203 225 255
203 225 255
203 225 255
203 225 255
203 225 255
202 225 255
202 225 255
202 225 255
202 225 255
202 225 255
202 225 255
202 225 255
202 225 255
202 225 255
202 225 255
202 225 255
202 225 255
202 225 255
202 225 255
202 225 255
201 225 255
201 225 255
201 225 255
201 225 255
201 224 255
201 224 255
201 224 255
201 224 255
201 224 255
201 224 255
201 224 255
201 224 255
201 224 255
201 224 255
201 224 255
200 224 255
200 224 255
200 224 255
200 224 255
200 224 255
200 224 255
200 224 255
200 224 255
200 224 255
200 224 255
200 224 255
200 224 255
200 224 255
200 224 255
199 224 255
199 224 255
199 224 255
199 223 255
199 223 255
199 223 255
199 223 255
199 223 255
199 223 255
199 223 255
199 223 255
199 223 255
199 223 255
199 223 255
199 223 255
199 223 255
198 223 255
198 223 255
198 223 255
198 223 255
198 223 255
198 223 255
198 223 255
198 223 255
198 223 255
198 223 255
198 223 255
198 223 255
198 223 255
198 223 255
198 223 255
198 223 255
198 223 255
198 223 255
198 223 255
197 223 255
197 222 255
197 222 255
197 222 255
197 222 255
197 222 255
197 222 255
197 222 255
197 222 255
197 222 255
197 222 255
197 222 255
197 222 255
197 222 255
197 222 255
197 222 255
197 222 255
197 222 255
197 222 255
197 222 255
197 222 255
197 222 255
197 222 255
197 222 255
197 222 255
197 222 255
197 222 255
197 222 255
197 222 255
197 222 255
197 222 255
197 222 255
197 222 255
196 222 255
196 222 255
196 222 255
196 222 255
196 222 255
196 222 255
196 222 255
196 222 255
196 222 255
196 222 255
196 222 255
196 222 255
196 222 255
196 222 255
196 222 255
196 222 255
196 222 255
196 222 255
196 222 255
196 222 255
196 222 255
197 222 255
197 222 255
197 222 255
197 222 255
197 222 255
197 222 255
197 222 255
197 222 255
197 222 255
197 222 255
197 222 255
197 222 255
197 222 255
197 222 255
197 222 255
197 222 255
197 222 255
197 222 255
197 222 255
197 222 255
197 222 255
197 222 255
197 222 255
197 222 255
197 222 255
197 222 255
197 222 255
197 222 255
197 222 255
197 222 255
197 222 255
197 223 255
198 223 255
198 223 255
198 223 255
198 223 255
198 223 255
198 223 255
198 223 255
198 223 255
198 223 255
198 223 255
198 223 255
198 223 255
198 223 255
198 223 255
198 223 255
198 223 255
198 223 255
198 223 255
198 223 255
199 223 255
199 223 255
199 223 255
199 223 255
199 223 255
199 223 255
199 223 255
199 223 255
199 223 255
199 223 255
199 223 255
199 223 255
199 223 255
199 224 255
199 224 255
199 224 255
200 224 255
200 224 255
200 224 255
200 224 255
200 224 255
200 224 255
200 224 255
200 224 255
200 224 255
200 224 255
200 224 255
200 224 255
200 224 255
200 224 255
200 224 255
201 224 255
201 224 255
201 224 255
201 224 255
201 224 255
201 224 255
201 224 255
201 224 255
201 224 255
201 224 255
201 225 255
201 225 255
201 225 255
201 225 255
202 225 255
202 225 255
202 225 255
202 225 255
202 225 255
202 225 255
202 225 255
202 225 255
202 225 255
202 225 255
202 225 255
202 225 255
202 225 255
202 225 255
202 225 255
203 225 255
203 225 255
203 225 255
203 225 255
203 225 255
203 225 255
203 225 255
203 225 255
203 225 255
203 226 255
203 226 255
203 226 255
203 226 255
203 226 255
203 226 255
204 226 255
204 226 255
204 226 255
204 226 255
204 226 255
204 226 255
204 226 255
204 226 255
204 226 255
204 226 255
204 226 255
204 226 255
204 226 255
204 226 255
204 226 255
204 226 255
204 226 255
205 226 255
205 226 255
205 226 255
205 226 255
205 226 255
205 226 255
205 226 255
205 227 255
205 227 255
205 227 255
205 227 255
205 227 255
205 227 255
205 227 255
205 227 255
205 227 255
205 227 255
206 227 255
206 227 255
206 227 255
206 227 255
206 227 255
206 227 255
206 227 255
206 227 255
206 227 255
206 227 255
206 227 255
206 227 255
206 227 255
206 227 255
206 227 255
206 227 255
206 227 255
206 227 255
206 227 255
207 227 255
207 227 255
207 227 255
207 227 255
207 227 255
207 228 255
207 228 255
207 228 255
207 228 255
207 228 255
207 228 255
207 228 255
207 228 255
207 228 255
207 228 255
207 228 255
207 228 255
207 228 255
207 227 255
207 227 255
207 227 255
207 227 255
207 227 255
206 227 255
206 227 255
206 227 255
206 227 255
206 227 255
206 227 255
206 227 255
206 227 255
206 227 255
206 227 255
206 227 255
206 227 255
206 227 255
206 227 255
206 227 255
206 227 255
206 227 255
206 227 255
206 227 255
205 227 255
205 227 255
205 227 255
205 227 255
205 227 255
205 227 255
205 227 255
205 227 255
205 227 255
205 227 255
205 226 255
205 226 255
205 226 255
205 226 255
205 226 255
205 226 255
205 226 255
204 226 255
204 226 255
204 226 255
204 226 255
204 226 255
204 226 255
204 226 255
204 226 255
204 226 255
204 226 255
204 226 255
204 226 255
204 226 255
204 226 255
204 226 255
204 226 255
203 226 255
203 226 255
203 226 255
203 226 255
203 226 255
203 226 255
203 226 255
203 225 255
203 225 255
203 225 255
203 225 255
203 225 255
203 225 255
203 225 255
203 225 255
202 225 255
202 225 255
202 225 255
202 225 255
202 225 255
202 225 255
202 225 255
202 225 255
202 225 255
202 225 255
202 225 255
202 225 255
202 225 255
202 225 255
202 225 255
201 225 255
201 225 255
201 225 255
201 225 255
201 225 255
201 224 255
201 224 255
201 224 255
201 224 255
201 224 255
201 224 255
201 224 255
201 224 255
201 224 255
201 224 255
200 224 255
200 224 255
200 224 255
200 224 255
200 224 255
200 224 255
200 224 255
200 224 255
200 224 255
200 224 255
200 224 255
200 224 255
200 224 255
200 224 255
200 224 255
199 224 255
199 224 255
199 224 255
199 223 255
199 223 255
199 223 255
199 223 255
199 223 255
199 223 255
199 223 255
199 223 255
199 223 255
199 223 255
199 223 255
199 223 255
199 223 255
199 223 255
198 223 255
198 223 255
198 223 255
198 223 255
198 223 255
198 223 255
198 223 255
198 223 255
198 223 255
198 223 255
198 223 255
198 223 255
198 223 255
198 223 255
198 223 255
198 223 255
198 223 255
198 223 255
198 223 255
197 223 255
197 222 255
197 222 255
197 222 255
197 222 255
197 222 255
197 222 255
197 222 255
197 222 255
197 222 255
197 222 255
197 222 255
197 222 255
197 222 255
197 222 255
197 222 255
197 222 255
197 222 255
197 222 255
197 222 255
197 222 255
197 222 255
197 222 255
197 222 255
197 222 255
197 222 255
197 222 255
197 222 255
197 222 255
197 222 255
197 222 255
197 222 255
197 222 255
197 222 255
197 222 255
197 222 255
197 222 255
197 222 255
197 222 255
197 222 255
197 222 255
197 222 255
197 222 255
197 222 255
197 222 255
197 222 255
197 222 255
197 222 255
197 222 255
197 222 255
197 222 255
197 222 255
197 222 255
197 222 255
197 222 255
197 222 255
197 222 255
197 222 255
197 222 255
197 222 255
197 222 255
197 222 255
197 222 255
197 222 255
197 222 255
197 222 255
197 222 255
197 222 255
197 222 255
197 222 255
197 222 255
197 222 255
197 222 255
197 222 255
197 222 255
197 222 255
197 222 255
197 223 255
198 223 255
198 223 255
198 223 255
198 223 255
198 223 255
198 223 255
198 223 255
198 223 255
198 223 255
198 223 255
198 223 255
198 223 255
198 223 255
198 223 255
198 223 255
198 223 255
198 223 255
198 223 255
198 223 255
199 223 255
199 223 255
199 223 255
199 223 255
199 223 255
199 223 255
199 223 255
199 223 255
199 223 255
199 223 255
199 223 255
199 223 255
199 223 255
199 223 255
199 224 255
199 224 255
199 224 255
200 224 255
200 224 255
200 224 255
200 224 255
200 224 255
200 224 255
200 224 255
200 224 255
200 224 255
200 224 255
200 224 255
200 224 255
200 224 255
200 224 255
200 224 255
201 224 255
201 224 255
201 224 255
201 224 255
201 224 255
201 224 255
201 224 255
201 224 255
201 224 255
201 224 255
201 225 255
201 225 255
201 225 255
201 225 255
201 225 255
202 225 255
202 225 255
202 225 255
202 225 255
202 225 255
202 225 255
202 225 255
202 225 255
202 225 255
202 225 255
202 225 255
202 225 255
202 225 255
202 225 255
202 225 255
203 225 255
203 225 255
203 225 255
203 225 255
203 225 255
203 225 255
203 225 255
203 225 255
203 226 255
203 226 255
203 226 255
203 226 255
203 226 255
203 226 255
203 226 255
204 226 255
204 226 255
204 226 255
204 226 255
204 226 255
204 226 255
204 226 255
204 226 255
204 226 255
204 226 255
204 226 255
204 226 255
204 226 255
204 226 255
204 226 255
204 226 255
205 226 255
205 226 255
205 226 255
205 226 255
205 226 255
205 226 255
205 226 255
205 227 255
205 227 255
205 227 255
205 227 255
205 227 255
205 227 255
205 227 255
205 227 255
205 227 255
205 227 255
206 227 255
206 227 255
206 227 255
206 227 255
206 227 255
206 227 255
206 227 255
206 227 255
206 227 255
206 227 255
206 227 255
206 227 255
206 227 255
206 227 255
206 227 255
206 227 255
206 227 255
206 227 255
206 227 255
207 227 255
207 227 255
207 227 255
207 227 255
207 227 255
207 228 255
207 228 255
207 228 255
207 228 255
207 228 255
207 228 255
207 228 255
207 228 255
207 228 255
207 228 255
207 228 255
207 228 255
207 228 255
207 228 255
207 228 255
207 228 255
207 228 255
207 228 255
207 228 255
207 227 255
207 227 255
207 227 255
207 227 255
207 227 255
206 227 255
206 227 255
206 227 255
206 227 255
206 227 255
206 227 255
206 227 255
206 227 255
206 227 255
206 227 255
206 227 255
206 227 255
206 227 255
206 227 255
206 227 255
206 227 255
206 227 255
206 227 255
205 227 255
205 227 255
205 227 255
205 227 255
205 227 255
205 227 255
205 227 255
205 227 255
205 227 255
205 227 255
205 227 255
205 226 255
205 226 255
205 226 255
205 226 255
205 226 255
205 226 255
205 226 255
204 226 255
204 226 255
204 226 255
204 226 255
204 226 255
204 226 255
204 226 255
204 226 255
204 226 255
204 226 255
204 226 255
204 226 255
204 226 255
204 226 255
204 226 255
204 226 255
203 226 255
203 226 255
203 226 255
203 226 255
203 226 255
203 226 255
203 225 255
203 225 255
203 225 255
203 225 255
203 225 255
203 225 255
203 225 255
203 225 255
203 225 255
202 225 255
202 225 255
202 225 255
202 225 255
202 225 255
202 225 255
202 225 255
202 225 255
202 225 255
202 225 255
202 225 255
202 225 255
202 225 255
202 225 255
202 225 255
201 225 255
201 225 255
201 225 255
201 225 255
201 224 255
201 224 255
201 224 255
201 224 255
201 224 255
201 224 255
201 224 255
201 224 255
201 224 255
201 224 255
201 224 255
200 224 255
200 224 255
200 224 255
200 224 255
200 224 255
200 224 255
200 224 255
200 224 255
200 224 255
200 224 255
200 224 255
200 224 255
200 224 255
200 224 255
200 224 255
199 224 255
199 224 255
199 223 255
199 223 255
199 223 255
199 223 255
199 223 255
199 223 255
199 223 255
199 223 255
199 223 255
199 223 255
199 223 255
199 223 255
199 223 255
199 223 255
199 223 255
198 223 255
198 223 255
198 223 255
198 223 255
198 223 255
198 223 255
198 223 255
198 223 255
198 223 255
198 223 255
198 223 255
198 223 255
198 223 255
198 223 255
198 223 255
198 223 255
198 223 255
198 223 255
198 223 255
198 223 255
197 223 255
197 222 255
197 222 255
197 222 255
197 222 255
197 222 255
197 222 255
197 222 255
197 222 255
197 222 255
197 222 255
197 222 255
197 222 255
197 222 255
197 222 255
197 222 255
197 222 255
197 222 255
197 222 255
197 222 255
197 222 255
197 222 255
197 222 255
197 222 255
197 222 255
197 222 255
197 222 255
197 222 255
197 222 255
197 222 255
197 222 255
197 222 255
197 222 255
197 222 255
197 222 255
197 222 255
197 222 255
197 222 255
197 222 255
197 222 255
197 222 255
197 222 255
197 222 255
197 222 255
197 222 255
197 222 255
197 222 255
197 222 255
197 222 255
197 222 255
197 222 255
197 222 255
197 222 255
197 222 255
197 222 255
197 222 255
197 222 255
197 222 255
197 222 255
197 222 255
197 222 255
197 222 255
197 222 255
197 222 255
197 222 255
197 222 255
197 222 255
197 222 255
197 222 255
197 223 255
198 223 255
198 223 255
198 223 255
198 223 255
198 223 255
198 223 255
198 223 255
198 223 255
198 223 255
198 223 255
198 223 255
198 223 255
198 223 255
198 223 255
198 223 255
198 223 255
198 223 255
198 223 255
198 223 255
198 223 255
199 223 255
199 223 255
199 223 255
199 223 255
199 223 255
199 223 255
199 223 255
199 223 255
199 223 255
199 223 255
199 223 255
199 223 255
199 223 255
199 223 255
199 223 255
199 224 255
199 224 255
200 224 255
200 224 255
200 224 255
200 224 255
200 224 255
200 224 255
200 224 255
200 224 255
200 224 255
200 224 255
200 224 255
200 224 255
200 224 255
200 224 255
200 224 255
201 224 255
201 224 255
201 224 255
201 224 255
201 224 255
201 224 255
201 224 255
201 224 255
201 224 255
201 224 255
201 224 255
201 225 255
201 225 255
201 225 255
201 225 255
202 225 255
202 225 255
202 225 255
202 225 255
202 225 255
202 225 255
202 225 255
202 225 255
202 225 255
202 225 255
202 225 255
202 225 255
202 225 255
202 225 255
202 225 255
203 225 255
203 225 255
203 225 255
203 225 255
203 225 255
203 225 255
203 225 255
203 225 255
203 225 255
203 226 255
203 226 255
203 226 255
203 226 255
203 226 255
203 226 255
204 226 255
204 226 255
204 226 255
204 226 255
204 226 255
204 226 255
204 226 255
204 226 255
204 226 255
204 226 255
204 226 255
204 226 255
204 226 255
204 226 255
204 226 255
204 226 255
204 226 255
205 226 255
205 226 255
205 226 255
205 226 255
205 226 255
205 226 255
205 227 255
205 227 255
205 227 255
205 227 255
205 227 255
205 227 255
205 227 255
205 227 255
205 227 255
205 227 255
205 227 255
206 227 255
206 227 255
206 227 255
206 227 255
206 227 255
206 227 255
206 227 255
206 227 255
206 227 255
206 227 255
206 227 255
206 227 255
206 227 255
206 227 255
206 227 255
206 227 255
206 227 255
206 227 255
207 227 255
207 227 255
207 227 255
207 227 255
207 227 255
207 228 255
207 228 255
207 228 255
207 228 255
207 228 255
207 228 255
207 228 255
207 228 255
207 228 255
207 228 255
207 228 255
207 228 255
207 228 255
207 228 255
207 228 255
207 228 255
207 228 255
207 228 255
207 228 255
207 228 255
207 228 255
207 228 255
207 228 255
207 228 255
207 228 255
207 227 255
207 227 255
207 227 255
207 227 255
207 227 255
206 227 255
206 227 255
206 227 255
206 227 255
206 227 255
206 227 255
206 227 255
206 227 255
206 227 255
206 227 255
206 227 255
206 227 255
206 227 255
206 227 255
206 227 255
206 227 255
206 227 255
206 227 255
205 227 255
205 227 255
205 227 255
205 227 255
205 227 255
205 227 255
205 227 255
205 227 255
205 227 255
205 227 255
205 226 255
205 226 255
205 226 255
205 226 255
205 226 255
205 226 255
205 226 255
204 226 255
204 226 255
204 226 255
204 226 255
204 226 255
204 226 255
204 226 255
204 226 255
204 226 255
204 226 255
204 226 255
204 226 255
204 226 255
204 226 255
204 226 255
204 226 255
203 226 255
203 226 255
203 226 255
203 226 255
203 226 255
203 226 255
203 226 255
203 225 255
203 225 255
203 225 255
203 225 255
203 225 255
203 225 255
203 225 255
203 225 255
202 225 255
202 225 255
202 225 255
202 225 255
202 225 255
202 225 255
202 225 255
202 225 255
202 225 255
202 225 255
202 225 255
202 225 255
202 225 255
202 225 255
202 225 255
201 225 255
201 225 255
201 225 255
201 225 255
201 225 255
201 224 255
201 224 255
201 224 255
201 224 255
201 224 255
201 224 255
201 224 255
201 224 255
201 224 255
201 224 255
200 224 255
200 224 255
200 224 255
200 224 255
200 224 255
200 224 255
200 224 255
200 224 255
200 224 255
200 224 255
200 224 255
200 224 255
200 224 255
200 224 255
200 224 255
200 224 255
199 224 255
199 224 255
199 223 255
199 223 255
199 223 255
199 223 255
199 223 255
199 223 255
199 223 255
199 223 255
199 223 255
199 223 255
199 223 255
199 223 255
199 223 255
199 223 255
199 223 255
198 223 255
198 223 255
198 223 255
198 223 255
198 223 255
198 223 255
198 223 255
198 223 255
198 223 255
198 223 255
198 223 255
198 223 255
198 223 255
198 223 255
198 223 255
198 223 255
198 223 255
198 223 255
198 223 255
198 223 255
198 223 255
198 223 255
197 223 255
197 222 255
197 222 255
197 222 255
197 222 255
197 222 255
197 222 255
197 222 255
197 222 255
197 222 255
197 222 255
197 222 255
197 222 255
197 222 255
197 222 255
197 222 255
197 222 255
197 222 255
197 222 255
197 222 255
197 222 255
197 222 255
197 222 255
197 222 255
197 222 255
197 222 255
197 222 255
197 222 255
197 222 255
197 222 255
197 222 255
197 222 255
197 222 255
197 222 255
197 222 255
197 222 255
197 222 255
197 222 255
197 222 255
197 222 255
197 222 255
197 222 255
197 222 255
197 222 255
197 222 255
197 222 255
197 222 255
197 222 255
197 222 255
197 222 255
197 222 255
197 222 255
197 222 255
197 222 255
197 222 255
197 222 255
197 222 255
197 222 255
197 222 255
197 223 255
198 223 255
198 223 255
198 223 255
198 223 255
198 223 255
198 223 255
198 223 255
198 223 255
198 223 255
198 223 255
198 223 255
198 223 255
198 223 255
198 223 255
198 223 255
198 223 255
198 223 255
198 223 255
198 223 255
198 223 255
198 223 255
198 223 255
199 223 255
199 223 255
199 223 255
199 223 255
199 223 255
199 223 255
199 223 255
199 223 255
199 223 255
199 223 255
199 223 255
199 223 255
199 223 255
199 223 255
199 223 255
199 224 255
199 224 255
200 224 255
200 224 255
200 224 255
200 224 255
200 224 255
200 224 255
200 224 255
200 224 255
200 224 255
200 224 255
200 224 255
200 224 255
200 224 255
200 224 255
200 224 255
200 224 255
201 224 255
201 224 255
201 224 255
201 224 255
201 224 255
201 224 255
201 224 255
201 224 255
201 224 255
201 224 255
201 225 255
201 225 255
201 225 255
201 225 255
201 225 255
202 225 255
202 225 255
202 225 255
202 225 255
202 225 255
202 225 255
202 225 255
202 225 255
202 225 255
202 225 255
202 225 255
202 225 255
202 225 255
202 225 255
202 225 255
203 225 255
203 225 255
203 225 255
203 225 255
203 225 255
203 225 255
203 225 255
203 225 255
203 226 255
203 226 255
203 226 255
203 226 255
203 226 255
203 226 255
203 226 255
204 226 255
204 226 255
204 226 255
204 226 255
204 226 255
204 226 255
204 226 255
204 226 255
204 226 255
204 226 255
204 226 255
204 226 255
204 226 255
204 226 255
204 226 255
204 226 255
205 226 255
205 226 255
205 226 255
205 226 255
205 226 255
205 226 255
205 226 255
205 227 255
205 227 255
205 227 255
205 227 255
205 227 255
205 227 255
205 227 255
205 227 255
205 227 255
205 227 255
206 227 255
206 227 255
206 227 255
206 227 255
206 227 255
206 227 255
206 227 255
206 227 255
206 227 255
206 227 255
206 227 255
206 227 255
206 227 255
206 227 255
206 227 255
206 227 255
206 227 255
206 227 255
206 227 255
207 227 255
207 227 255
207 227 255
207 227 255
207 228 255
207 228 255
207 228 255
207 228 255
207 228 255
207 228 255
207 228 255
207 228 255
207 228 255
207 228 255
207 228 255
207 228 255
207 228 255
207 228 255
208 228 255
207 228 255
207 228 255
207 228 255
207 228 255
207 228 255
207 228 255
207 228 255
207 228 255
207 228 255
207 228 255
207 228 255
207 228 255
207 228 255
207 228 255
207 228 255
207 228 255
207 227 255
207 227 255
207 227 255
207 227 255
206 227 255
206 227 255
206 227 255
206 227 255
206 227 255
206 227 255
206 227 255
206 227 255
206 227 255
206 227 255
206 227 255
206 227 255
206 227 255
206 227 255
206 227 255
206 227 255
206 227 255
206 227 255
206 227 255
205 227 255
205 227 255
205 227 255
205 227 255
205 227 255
205 227 255
205 227 255
205 227 255
205 227 255
205 227 255
205 226 255
205 226 255
205 226 255
205 226 255
205 226 255
205 226 255
205 226 255
204 226 255
204 226 255
204 226 255
204 226 255
204 226 255
204 226 255
204 226 255
204 226 255
204 226 255
204 226 255
204 226 255
204 226 255
204 226 255
204 226 255
204 226 255
204 226 255
203 226 255
203 226 255
203 226 255
203 226 255
203 226 255
203 226 255
203 226 255
203 225 255
203 225 255
203 225 255
203 225 255
203 225 255
203 225 255
203 225 255
203 225 255
202 225 255
202 225 255
202 225 255
202 225 255
202 225 255
202 225 255
202 225 255
202 225 255
202 225 255
202 225 255
202 225 255
202 225 255
202 225 255
202 225 255
202 225 255
201 225 255
201 225 255
201 225 255
201 225 255
201 224 255
201 224 255
201 224 255
201 224 255
201 224 255
201 224 255
201 224 255
201 224 255
201 224 255
201 224 255
201 224 255
200 224 255
200 224 255
200 224 255
200 224 255
200 224 255
200 224 255
200 224 255
200 224 255
200 224 255
200 224 255
200 224 255
200 224 255
200 224 255
200 224 255
200 224 255
200 224 255
199 224 255
199 224 255
199 223 255
199 223 255
199 223 255
199 223 255
199 223 255
199 223 255
199 223 255
199 223 255
199 223 255
199 223 255
199 223 255
199 223 255
199 223 255
199 223 255
199 223 255
198 223 255
198 223 255
198 223 255
198 223 255
198 223 255
198 223 255
198 223 255
198 223 255
198 223 255
198 223 255
198 223 255
198 223 255
198 223 255
198 223 255
198 223 255
198 223 255
198 223 255
198 223 255
198 223 255
198 223 255
198 223 255
198 223 255
198 223 255
198 223 255
197 223 255
197 222 255
197 222 255
197 222 255
197 222 255
197 222 255
197 222 255
197 222 255
197 222 255
197 222 255
197 222 255
197 222 255
197 222 255
197 222 255
197 222 255
197 222 255
197 222 255
197 222 255
197 222 255
197 222 255
197 222 255
197 222 255
197 222 255
197 222 255
197 222 255
197 222 255
197 222 255
197 222 255
197 222 255
197 222 255
197 222 255
197 222 255
197 222 255
197 222 255
197 222 255
197 222 255
197 222 255
197 222 255
197 222 255
197 222 255
197 222 255
197 222 255
197 222 255
197 222 255
197 222 255
197 222 255
197 222 255
197 222 255
197 222 255
198 223 255
198 223 255
198 223 255
198 223 255
198 223 255
198 223 255
198 223 255
198 223 255
198 223 255
198 223 255
198 223 255
198 223 255
198 223 255
198 223 255
198 223 255
198 223 255
198 223 255
198 223 255
198 223 255
198 223 255
198 223 255
198 223 255
198 223 255
198 223 255
198 223 255
199 223 255
199 223 255
199 223 255
199 223 255
199 223 255
199 223 255
199 223 255
199 223 255
199 223 255
199 223 255
199 223 255
199 223 255
199 223 255
199 223 255
199 223 255
199 224 255
199 224 255
199 224 255
200 224 255
200 224 255
200 224 255
200 224 255
200 224 255
200 224 255
200 224 255
200 224 255
200 224 255
200 224 255
200 224 255
200 224 255
200 224 255
200 224 255
200 224 255
201 224 255
201 224 255
201 224 255
201 224 255
201 224 255
201 224 255
201 224 255
201 224 255
201 224 255
201 224 255
201 224 255
201 225 255
201 225 255
201 225 255
201 225 255
202 225 255
202 225 255
202 225 255
202 225 255
202 225 255
202 225 255
202 225 255
202 225 255
202 225 255
202 225 255
202 225 255
202 225 255
202 225 255
202 225 255
202 225 255
203 225 255
203 225 255
203 225 255
203 225 255
203 225 255
203 225 255
203 225 255
203 225 255
203 225 255
203 226 255
203 226 255
203 226 255
203 226 255
203 226 255
203 226 255
204 226 255
204 226 255
204 226 255
204 226 255
204 226 255
204 226 255
204 226 255
204 226 255
204 226 255
204 226 255
204 226 255
204 226 255
204 226 255
204 226 255
204 226 255
204 226 255
205 226 255
205 226 255
205 226 255
205 226 255
205 226 255
205 226 255
205 226 255
205 227 255
205 227 255
205 227 255
205 227 255
205 227 255
205 227 255
205 227 255
205 227 255
205 227 255
205 227 255
206 227 255
206 227 255
206 227 255
206 227 255
206 227 255
206 227 255
206 227 255
206 227 255
206 227 255
206 227 255
206 227 255
206 227 255
206 227 255
206 227 255
206 227 255
206 227 255
206 227 255
206 227 255
206 227 255
207 227 255
207 227 255
207 227 255
207 227 255
207 228 255
207 228 255
207 228 255
207 228 255
207 228 255
207 228 255
207 228 255
207 228 255
207 228 255
207 228 255
207 228 255
207 228 255
207 228 255
207 228 255
207 228 255
207 228 255
208 228 255
208 228 255
208 228 255
208 228 255
208 228 255
207 228 255
207 228 255
207 228 255
207 228 255
207 228 255
207 228 255
207 228 255
207 228 255
207 228 255
207 228 255
207 228 255
207 228 255
207 228 255
207 228 255
207 228 255
207 228 255
207 227 255
207 227 255
207 227 255
207 227 255
206 227 255
206 227 255
206 227 255
206 227 255
206 227 255
206 227 255
206 227 255
206 227 255
206 227 255
206 227 255
206 227 255
206 227 255
206 227 255
206 227 255
206 227 255
206 227 255
206 227 255
206 227 255
205 227 255
205 227 255
205 227 255
205 227 255
205 227 255
205 227 255
205 227 255
205 227 255
205 227 255
205 227 255
205 227 255
205 226 255
205 226 255
205 226 255
205 226 255
205 226 255
205 226 255
204 226 255
204 226 255
204 226 255
204 226 255
204 226 255
204 226 255
204 226 255
204 226 255
204 226 255
204 226 255
204 226 255
204 226 255
204 226 255
204 226 255
204 226 255
204 226 255
203 226 255
203 226 255
203 226 255
203 226 255
203 226 255
203 226 255
203 226 255
203 225 255
203 225 255
203 225 255
203 225 255
203 225 255
203 225 255
203 225 255
203 225 255
203 225 255
202 225 255
202 225 255
202 225 255
202 225 255
202 225 255
202 225 255
202 225 255
202 225 255
202 225 255
202 225 255
202 225 255
202 225 255
202 225 255
202 225 255
202 225 255
201 225 255
201 225 255
201 225 255
201 225 255
201 224 255
201 224 255
201 224 255
201 224 255
201 224 255
201 224 255
201 224 255
201 224 255
201 224 255
201 224 255
201 224 255
200 224 255
200 224 255
200 224 255
200 224 255
200 224 255
200 224 255
200 224 255
200 224 255
200 224 255
200 224 255
200 224 255
200 224 255
200 224 255
200 224 255
200 224 255
199 224 255
199 224 255
199 224 255
199 223 255
199 223 255
199 223 255
199 223 255
199 223 255
199 223 255
199 223 255
199 223 255
199 223 255
199 223 255
199 223 255
199 223 255
199 223 255
199 223 255
199 223 255
199 223 255
198 223 255
198 223 255
198 223 255
198 223 255
198 223 255
198 223 255
198 223 255
198 223 255
198 223 255
198 223 255
198 223 255
198 223 255
198 223 255
198 223 255
198 223 255
198 223 255
198 223 255
198 223 255
198 223 255
198 223 255
198 223 255
198 223 255
198 223 255
198 223 255
198 223 255
198 223 255
198 223 255
198 223 255
197 223 255
197 222 255
197 222 255
197 222 255
197 222 255
197 222 255
197 222 255
197 222 255
197 222 255
197 222 255
197 222 255
197 222 255
197 222 255
197 222 255
197 222 255
197 222 255
197 222 255
197 222 255
197 222 255
197 222 255
197 222 255
197 222 255
197 222 255
197 222 255
197 222 255
197 222 255
197 222 255
197 222 255
197 222 255
197 222 255
197 222 255
197 222 255
197 222 255
197 223 255
197 223 255
198 223 255
198 223 255
198 223 255
198 223 255
198 223 255
198 223 255
198 223 255
198 223 255
198 223 255
198 223 255
198 223 255
198 223 255
198 223 255
198 223 255
198 223 255
198 223 255
198 223 255
198 223 255
198 223 255
198 223 255
198 223 255
198 223 255
198 223 255
198 223 255
198 223 255
198 223 255
198 223 255
199 223 255
199 223 255
199 223 255
199 223 255
199 223 255
199 223 255
199 223 255
199 223 255
199 223 255
199 223 255
199 223 255
199 223 255
199 223 255
199 223 255
199 223 255
199 223 255
199 224 255
199 224 255
200 224 255
200 224 255
200 224 255
200 224 255
200 224 255
200 224 255
200 224 255
200 224 255
200 224 255
200 224 255
200 224 255
200 224 255
200 224 255
200 224 255
200 224 255
200 224 255
201 224 255
201 224 255
201 224 255
201 224 255
201 224 255
201 224 255
201 224 255
201 224 255
201 224 255
201 224 255
201 224 255
201 225 255
201 225 255
201 225 255
201 225 255
201 225 255
202 225 255
202 225 255
202 225 255
202 225 255
202 225 255
202 225 255
202 225 255
202 225 255
202 225 255
202 225 255
202 225 255
202 225 255
202 225 255
202 225 255
202 225 255
203 225 255
203 225 255
203 225 255
203 225 255
203 225 255
203 225 255
203 225 255
203 225 255
203 226 255
203 226 255
203 226 255
203 226 255
203 226 255
203 226 255
203 226 255
204 226 255
204 226 255
204 226 255
204 226 255
204 226 255
204 226 255
204 226 255
204 226 255
204 226 255
204 226 255
204 226 255
204 226 255
204 226 255
204 226 255
204 226 255
204 226 255
205 226 255
205 226 255
205 226 255
205 226 255
205 226 255
205 226 255
205 227 255
205 227 255
205 227 255
205 227 255
205 227 255
205 227 255
205 227 255
205 227 255
205 227 255
205 227 255
205 227 255
206 227 255
206 227 255
206 227 255
206 227 255
206 227 255
206 227 255
206 227 255
206 227 255
206 227 255
206 227 255
206 227 255
206 227 255
206 227 255
206 227 255
206 227 255
206 227 255
206 227 255
206 227 255
207 227 255
207 227 255
207 227 255
207 227 255
207 227 255
207 228 255
207 228 255
207 228 255
207 228 255
207 228 255
207 228 255
207 228 255
207 228 255
207 228 255
207 228 255
207 228 255
207 228 255
207 228 255
207 228 255
207 228 255
208 228 255
208 228 255
208 228 255
208 228 255
208 228 255
208 228 255
208 228 255
208 228 255
208 228 255
208 228 255
208 228 255
207 228 255
207 228 255
207 228 255
207 228 255
207 228 255
207 228 255
207 228 255
207 228 255
207 228 255
207 228 255
207 228 255
207 228 255
207 228 255
207 228 255
207 228 255
207 227 255
207 227 255
207 227 255
207 227 255
207 227 255
206 227 255
206 227 255
206 227 255
206 227 255
206 227 255
206 227 255
206 227 255
206 227 255
206 227 255
206 227 255
206 227 255
206 227 255
206 227 255
206 227 255
206 227 255
206 227 255
206 227 255
206 227 255
205 227 255
205 227 255
205 227 255
205 227 255
205 227 255
205 227 255
205 227 255
205 227 255
205 227 255
205 227 255
205 226 255
205 226 255
205 226 255
205 226 255
205 226 255
205 226 255
205 226 255
204 226 255
204 226 255
204 226 255
204 226 255
204 226 255
204 226 255
204 226 255
204 226 255
204 226 255
204 226 255
204 226 255
204 226 255
204 226 255
204 226 255
204 226 255
204 226 255
203 226 255
203 226 255
203 226 255
203 226 255
203 226 255
203 226 255
203 226 255
203 225 255
203 225 255
203 225 255
203 225 255
203 225 255
203 225 255
203 225 255
203 225 255
202 225 255
202 225 255
202 225 255
202 225 255
202 225 255
202 225 255
202 225 255
202 225 255
202 225 255
202 225 255
202 225 255
202 225 255
202 225 255
202 225 255
202 225 255
201 225 255
201 225 255
201 225 255
201 225 255
201 225 255
201 224 255
201 224 255
201 224 255
201 224 255
201 224 255
201 224 255
201 224 255
201 224 255
201 224 255
201 224 255
200 224 255
200 224 255
200 224 255
200 224 255
200 224 255
200 224 255
200 224 255
200 224 255
200 224 255
200 224 255
200 224 255
200 224 255
200 224 255
200 224 255
200 224 255
200 224 255
200 224 255
199 224 255
199 224 255
199 223 255
199 223 255
199 223 255
199 223 255
199 223 255
199 223 255
199 223 255
199 223 255
199 223 255
199 223 255
199 223 255
199 223 255
199 223 255
199 223 255
199 223 255
199 223 255
198 223 255
198 223 255
198 223 255
198 223 255
198 223 255
198 223 255
198 223 255
198 223 255
198 223 255
198 223 255
198 223 255
198 223 255
198 223 255
198 223 255
198 223 255
198 223 255
198 223 255
198 223 255
198 223 255
198 223 255
198 223 255
198 223 255
198 223 255
198 223 255
198 223 255
198 223 255
198 223 255
198 223 255
198 223 255
198 223 255
198 223 255
198 223 255
198 223 255
198 223 255
198 223 255
198 223 255
198 223 255
198 223 255
198 223 255
197 223 255
197 223 255
197 223 255
197 223 255
197 223 255
198 223 255
198 223 255
198 223 255
198 223 255
198 223 255
198 223 255
198 223 255
198 223 255
198 223 255
198 223 255
198 223 255
198 223 255
198 223 255
198 223 255
198 223 255
198 223 255
198 223 255
198 223 255
198 223 255
198 223 255
198 223 255
198 223 255
198 223 255
198 223 255
198 223 255
198 223 255
198 223 255
198 223 255
198 223 255
198 223 255
198 223 255
198 223 255
198 223 255
198 223 255
198 223 255
198 223 255
198 223 255
198 223 255
198 223 255
198 223 255
199 223 255
199 223 255
199 223 255
199 223 255
199 223 255
199 223 255
199 223 255
199 223 255
199 223 255
199 223 255
199 223 255
199 223 255
199 223 255
199 223 255
199 223 255
199 224 255
199 224 255
199 224 255
199 224 255
200 224 255
200 224 255
200 224 255
200 224 255
200 224 255
200 224 255
200 224 255
200 224 255
200 224 255
200 224 255
200 224 255
200 224 255
200 224 255
200 224 255
200 224 255
200 224 255
201 224 255
201 224 255
201 224 255
201 224 255
201 224 255
201 224 255
201 224 255
201 224 255
201 224 255
201 224 255
201 225 255
201 225 255
201 225 255
201 225 255
201 225 255
202 225 255
202 225 255
202 225 255
202 225 255
202 225 255
202 225 255
202 225 255
202 225 255
202 225 255
202 225 255
202 225 255
202 225 255
202 225 255
202 225 255
202 225 255
203 225 255
203 225 255
203 225 255
203 225 255
203 225 255
203 225 255
203 225 255
203 225 255
203 226 255
203 226 255
203 226 255
203 226 255
203 226 255
203 226 255
203 226 255
204 226 255
204 226 255
204 226 255
204 226 255
204 226 255
204 226 255
204 226 255
204 226 255
204 226 255
204 226 255
204 226 255
204 226 255
204 226 255
204 226 255
204 226 255
204 226 255
205 226 255
205 226 255
205 226 255
205 226 255
205 226 255
205 226 255
205 226 255
205 227 255
205 227 255
205 227 255
205 227 255
205 227 255
205 227 255
205 227 255
205 227 255
205 227 255
205 227 255
206 227 255
206 227 255
206 227 255
206 227 255
206 227 255
206 227 255
206 227 255
206 227 255
206 227 255
206 227 255
206 227 255
206 227 255
206 227 255
206 227 255
206 227 255
206 227 255
206 227 255
206 227 255
207 227 255
207 227 255
207 227 255
207 227 255
207 228 255
207 228 255
207 228 255
207 228 255
207 228 255
207 228 255
207 228 255
207 228 255
207 228 255
207 228 255
207 228 255
207 228 255
207 228 255
207 228 255
207 228 255
207 228 255
208 228 255
208 228 255
208 228 255
208 228 255
208 228 255
208 228 255
208 228 255
208 228 255
208 228 255
208 228 255
208 228 255
208 228 255
208 228 255
208 228 255
208 228 255
208 228 255
208 228 255
207 228 255
207 228 255
207 228 255
207 228 255
207 228 255
207 228 255
207 228 255
207 228 255
207 228 255
207 228 255
207 228 255
207 228 255
207 228 255
207 228 255
207 228 255
207 227 255
207 227 255
207 227 255
207 227 255
207 227 255
206 227 255
206 227 255
206 227 255
206 227 255
206 227 255
206 227 255
206 227 255
206 227 255
206 227 255
206 227 255
206 227 255
206 227 255
206 227 255
206 227 255
206 227 255
206 227 255
206 227 255
206 227 255
205 227 255
205 227 255
205 227 255
205 227 255
205 227 255
205 227 255
205 227 255
205 227 255
205 227 255
205 227 255
205 226 255
205 226 255
205 226 255
205 226 255
205 226 255
205 226 255
205 226 255
204 226 255
204 226 255
204 226 255
204 226 255
204 226 255
204 226 255
204 226 255
204 226 255
204 226 255
204 226 255
204 226 255
204 226 255
204 226 255
204 226 255
204 226 255
204 226 255
203 226 255
203 226 255
203 226 255
203 226 255
203 226 255
203 226 255
203 225 255
203 225 255
203 225 255
203 225 255
203 225 255
203 225 255
203 225 255
203 225 255
203 225 255
202 225 255
202 225 255
202 225 255
202 225 255
202 225 255
202 225 255
202 225 255
202 225 255
202 225 255
202 225 255
202 225 255
202 225 255
202 225 255
202 225 255
202 225 255
201 225 255
201 225 255
201 225 255
201 225 255
201 224 255
201 224 255
201 224 255
201 224 255
201 224 255
201 224 255
201 224 255
201 224 255
201 224 255
201 224 255
201 224 255
200 224 255
200 224 255
200 224 255
200 224 255
200 224 255
200 224 255
200 224 255
200 224 255
200 224 255
200 224 255
200 224 255
200 224 255
200 224 255
200 224 255
200 224 255
200 224 255
200 224 255
199 224 255
199 224 255
199 224 255
199 223 255
199 223 255
199 223 255
199 223 255
199 223 255
199 223 255
199 223 255
199 223 255
199 223 255
199 223 255
199 223 255
199 223 255
199 223 255
199 223 255
199 223 255
199 223 255
199 223 255
198 223 255
198 223 255
198 223 255
198 223 255
198 223 255
198 223 255
198 223 255
198 223 255
198 223 255
198 223 255
198 223 255
198 223 255
198 223 255
198 223 255
198 223 255
198 223 255
198 223 255
198 223 255
198 223 255
198 223 255
198 223 255
198 223 255
198 223 255
198 223 255
198 223 255
198 223 255
198 223 255
198 223 255
198 223 255
198 223 255
198 223 255
198 223 255
198 223 255
198 223 255
198 223 255
198 223 255
198 223 255
198 223 255
198 223 255
198 223 255
198 223 255
198 223 255
198 223 255
198 223 255
198 223 255
198 223 255
198 223 255
198 223 255
198 223 255
198 223 255
198 223 255
198 223 255
198 223 255
198 223 255
198 223 255
198 223 255
198 223 255
198 223 255
198 223 255
198 223 255
198 223 255
198 223 255
198 223 255
198 223 255
198 223 255
198 223 255
198 223 255
198 223 255
198 223 255
198 223 255
198 223 255
198 223 255
198 223 255
198 223 255
199 223 255
199 223 255
199 223 255
199 223 255
199 223 255
199 223 255
199 223 255
199 223 255
199 223 255
199 223 255
199 223 255
199 223 255
199 223 255
199 223 255
199 223 255
199 223 255
199 223 255
199 223 255
199 224 255
199 224 255
200 224 255
200 224 255
200 224 255
200 224 255
200 224 255
200 224 255
200 224 255
200 224 255
200 224 255
200 224 255
200 224 255
200 224 255
200 224 255
200 224 255
200 224 255
200 224 255
200 224 255
201 224 255
201 224 255
201 224 255
201 224 255
201 224 255
201 224 255
201 224 255
201 224 255
201 224 255
201 224 255
201 224 255
201 225 255
201 225 255
201 225 255
201 225 255
202 225 255
202 225 255
202 225 255
202 225 255
202 225 255
202 225 255
202 225 255
202 225 255
202 225 255
202 225 255
202 225 255
202 225 255
202 225 255
202 225 255
202 225 255
203 225 255
203 225 255
203 225 255
203 225 255
203 225 255
203 225 255
203 225 255
203 225 255
203 225 255
203 226 255
203 226 255
203 226 255
203 226 255
203 226 255
203 226 255
203 226 255
204 226 255
204 226 255
204 226 255
204 226 255
204 226 255
204 226 255
204 226 255
204 226 255
204 226 255
204 226 255
204 226 255
204 226 255
204 226 255
204 226 255
204 226 255
205 226 255
205 226 255
205 226 255
205 226 255
205 226 255
205 226 255
205 226 255
205 227 255
205 227 255
205 227 255
205 227 255
205 227 255
205 227 255
205 227 255
205 227 255
205 227 255
205 227 255
206 227 255
206 227 255
206 227 255
206 227 255
206 227 255
206 227 255
206 227 255
206 227 255
206 227 255
206 227 255
206 227 255
206 227 255
206 227 255
206 227 255
206 227 255
206 227 255
206 227 255
206 227 255
207 227 255
207 227 255
207 227 255
207 227 255
207 227 255
207 228 255
207 228 255
207 228 255
207 228 255
207 228 255
207 228 255
207 228 255
207 228 255
207 228 255
207 228 255
207 228 255
207 228 255
207 228 255
207 228 255
207 228 255
208 228 255
208 228 255
208 228 255
208 228 255
208 228 255
208 228 255
208 228 255
208 228 255
208 228 255
208 228 255
208 228 255
208 228 255
208 228 255
208 228 255
208 228 255
208 228 255
208 228 255
208 228 255
208 228 255
208 228 255
208 228 255
208 228 255
208 228 255
207 228 255
207 228 255
207 228 255
207 228 255
207 228 255
207 228 255
207 228 255
207 228 255
207 228 255
207 228 255
207 228 255
207 228 255
207 228 255
207 228 255
207 228 255
207 227 255
207 227 255
207 227 255
207 227 255
207 227 255
206 227 255
206 227 255
206 227 255
206 227 255
206 227 255
206 227 255
206 227 255
206 227 255
206 227 255
206 227 255
206 227 255
206 227 255
206 227 255
206 227 255
206 227 255
206 227 255
206 227 255
206 227 255
205 227 255
205 227 255
205 227 255
205 227 255
205 227 255
205 227 255
205 227 255
205 227 255
205 227 255
205 227 255
205 226 255
205 226 255
205 226 255
205 226 255
205 226 255
205 226 255
205 226 255
204 226 255
204 226 255
204 226 255
204 226 255
204 226 255
204 226 255
204 226 255
204 226 255
204 226 255
204 226 255
204 226 255
204 226 255
204 226 255
204 226 255
204 226 255
203 226 255
203 226 255
203 226 255
203 226 255
203 226 255
203 226 255
203 226 255
203 225 255
203 225 255
203 225 255
203 225 255
203 225 255
203 225 255
203 225 255
203 225 255
202 225 255
202 225 255
202 225 255
202 225 255
202 225 255
202 225 255
202 225 255
202 225 255
202 225 255
202 225 255
202 225 255
202 225 255
202 225 255
202 225 255
202 225 255
201 225 255
201 225 255
201 225 255
201 225 255
201 225 255
201 224 255
201 224 255
201 224 255
201 224 255
201 224 255
201 224 255
201 224 255
201 224 255
201 224 255
201 224 255
201 224 255
200 224 255
200 224 255
200 224 255
200 224 255
200 224 255
200 224 255
200 224 255
200 224 255
200 224 255
200 224 255
200 224 255
200 224 255
200 224 255
200 224 255
200 224 255
200 224 255
200 224 255
199 224 255
199 224 255
199 224 255
199 223 255
199 223 255
199 223 255
199 223 255
199 223 255
199 223 255
199 223 255
199 223 255
199 223 255
199 223 255
199 223 255
199 223 255
199 223 255
199 223 255
199 223 255
199 223 255
199 223 255
199 223 255
199 223 255
198 223 255
198 223 255
198 223 255
198 223 255
198 223 255
198 223 255
198 223 255
198 223 255
198 223 255
198 223 255
198 223 255
198 223 255
198 223 255
198 223 255
198 223 255
198 223 255
198 223 255
198 223 255
198 223 255
198 223 255
198 223 255
198 223 255
198 223 255
198 223 255
198 223 255
198 223 255
198 223 255
198 223 255
198 223 255
198 223 255
198 223 255
198 223 255
198 223 255
198 223 255
198 223 255
198 223 255
198 223 255
198 223 255
198 223 255
198 223 255
198 223 255
198 223 255
198 223 255
198 223 255
198 223 255
198 223 255
198 223 255
198 223 255
198 223 255
198 223 255
198 223 255
198 223 255
198 223 255
198 223 255
198 223 255
198 223 255
198 223 255
198 223 255
198 223 255
198 223 255
198 223 255
198 223 255
198 223 255
198 223 255
199 223 255
199 223 255
199 223 255
199 223 255
199 223 255
199 223 255
199 223 255
199 223 255
199 223 255
199 223 255
199 223 255
199 223 255
199 223 255
199 223 255
199 223 255
199 223 255
199 223 255
199 223 255
199 223 255
199 224 255
199 224 255
199 224 255
200 224 255
200 224 255
200 224 255
200 224 255
200 224 255
200 224 255
200 224 255
200 224 255
200 224 255
200 224 255
200 224 255
200 224 255
200 224 255
200 224 255
200 224 255
200 224 255
200 224 255
201 224 255
201 224 255
201 224 255
201 224 255
201 224 255
201 224 255
201 224 255
201 224 255
201 224 255
201 224 255
201 224 255
201 225 255
201 225 255
201 225 255
201 225 255
202 225 255
202 225 255
202 225 255
202 225 255
202 225 255
202 225 255
202 225 255
202 225 255
202 225 255
202 225 255
202 225 255
202 225 255
202 225 255
202 225 255
202 225 255
202 225 255
203 225 255
203 225 255
203 225 255
203 225 255
203 225 255
203 225 255
203 225 255
203 225 255
203 226 255
203 226 255
203 226 255
203 226 255
203 226 255
203 226 255
203 226 255
204 226 255
204 226 255
204 226 255
204 226 255
204 226 255
204 226 255
204 226 255
204 226 255
204 226 255
204 226 255
204 226 255
204 226 255
204 226 255
204 226 255
204 226 255
204 226 255
205 226 255
205 226 255
205 226 255
205 226 255
205 226 255
205 226 255
205 227 255
205 227 255
205 227 255
205 227 255
205 227 255
205 227 255
205 227 255
205 227 255
205 227 255
205 227 255
206 227 255
206 227 255
206 227 255
206 227 255
206 227 255
206 227 255
206 227 255
206 227 255
206 227 255
206 227 255
206 227 255
206 227 255
206 227 255
206 227 255
206 227 255
206 227 255
206 227 255
206 227 255
207 227 255
207 227 255
207 227 255
207 227 255
207 227 255
207 228 255
207 228 255
207 228 255
207 228 255
207 228 255
207 228 255
207 228 255
207 228 255
207 228 255
207 228 255
207 228 255
207 228 255
207 228 255
207 228 255
207 228 255
208 228 255
208 228 255
208 228 255
208 228 255
208 228 255
208 228 255
208 228 255
208 228 255
208 228 255
208 228 255
208 228 255
208 228 255
208 228 255
208 228 255
208 228 255
208 228 255
208 228 255
208 228 255
208 228 255
208 228 255
208 228 255
208 228 255
208 228 255
208 228 255
208 228 255
208 228 255
208 228 255
208 228 255
208 228 255
207 228 255
207 228 255
207 228 255
207 228 255
207 228 255
207 228 255
207 228 255
207 228 255
207 228 255
207 228 255
207 228 255
207 228 255
207 228 255
207 228 255
207 228 255
207 227 255
207 227 255
207 227 255
207 227 255
207 227 255
206 227 255
206 227 255
206 227 255
206 227 255
206 227 255
206 227 255
206 227 255
206 227 255
206 227 255
206 227 255
206 227 255
206 227 255
206 227 255
206 227 255
206 227 255
206 227 255
206 227 255
205 227 255
205 227 255
205 227 255
205 227 255
205 227 255
205 227 255
205 227 255
205 227 255
205 227 255
205 227 255
205 227 255
205 226 255
205 226 255
205 226 255
205 226 255
205 226 255
205 226 255
204 226 255
204 226 255
204 226 255
204 226 255
204 226 255
204 226 255
204 226 255
204 226 255
204 226 255
204 226 255
204 226 255
204 226 255
204 226 255
204 226 255
204 226 255
204 226 255
203 226 255
203 226 255
203 226 255
203 226 255
203 226 255
203 226 255
203 226 255
203 225 255
203 225 255
203 225 255
203 225 255
203 225 255
203 225 255
203 225 255
203 225 255
202 225 255
202 225 255
202 225 255
202 225 255
202 225 255
202 225 255
202 225 255
202 225 255
202 225 255
202 225 255
202 225 255
202 225 255
202 225 255
202 225 255
202 225 255
201 225 255
201 225 255
201 225 255
201 225 255
201 225 255
201 224 255
201 224 255
201 224 255
201 224 255
201 224 255
201 224 255
201 224 255
201 224 255
201 224 255
201 224 255
201 224 255
200 224 255
200 224 255
200 224 255
200 224 255
200 224 255
200 224 255
200 224 255
200 224 255
200 224 255
200 224 255
200 224 255
200 224 255
200 224 255
200 224 255
200 224 255
200 224 255
200 224 255
199 224 255
199 224 255
199 224 255
199 224 255
199 223 255
199 223 255
199 223 255
199 223 255
199 223 255
199 223 255
199 223 255
199 223 255
199 223 255
199 223 255
199 223 255
199 223 255
199 223 255
199 223 255
199 223 255
199 223 255
199 223 255
199 223 255
199 223 255
199 223 255
198 223 255
198 223 255
198 223 255
198 223 255
198 223 255
198 223 255
198 223 255
198 223 255
198 223 255
198 223 255
198 223 255
198 223 255
198 223 255
198 223 255
198 223 255
198 223 255
198 223 255
198 223 255
198 223 255
198 223 255
198 223 255
198 223 255
198 223 255
198 223 255
198 223 255
198 223 255
198 223 255
198 223 255
198 223 255
198 223 255
198 223 255
198 223 255
198 223 255
198 223 255
198 223 255
198 223 255
198 223 255
198 223 255
198 223 255
198 223 255
198 223 255
198 223 255
198 223 255
198 223 255
198 223 255
198 223 255
198 223 255
198 223 255
198 223 255
198 223 255
198 223 255
198 223 255
198 223 255
198 223 255
199 223 255
199 223 255
199 223 255
199 223 255
199 223 255
199 223 255
199 223 255
199 223 255
199 223 255
199 223 255
199 223 255
199 223 255
199 223 255
199 223 255
199 223 255
199 223 255
199 223 255
199 223 255
199 223 255
199 223 255
199 224 255
199 224 255
199 224 255
200 224 255
200 224 255
200 224 255
200 224 255
200 224 255
200 224 255
200 224 255
200 224 255
200 224 255
200 224 255
200 224 255
200 224 255
200 224 255
200 224 255
200 224 255
200 224 255
200 224 255
200 224 255
201 224 255
201 224 255
201 224 255
201 224 255
201 224 255
201 224 255
201 224 255
201 224 255
201 224 255
201 224 255
201 224 255
201 225 255
201 225 255
201 225 255
201 225 255
201 225 255
202 225 255
202 225 255
202 225 255
202 225 255
202 225 255
202 225 255
202 225 255
202 225 255
202 225 255
202 225 255
202 225 255
202 225 255
202 225 255
202 225 255
202 225 255
203 225 255
203 225 255
203 225 255
203 225 255
203 225 255
203 225 255
203 225 255
203 225 255
203 226 255
203 226 255
203 226 255
203 226 255
203 226 255
203 226 255
203 226 255
204 226 255
204 226 255
204 226 255
204 226 255
204 226 255
204 226 255
204 226 255
204 226 255
204 226 255
204 226 255
204 226 255
204 226 255
204 226 255
204 226 255
204 226 255
204 226 255
205 226 255
205 226 255
205 226 255
205 226 255
205 226 255
205 226 255
205 227 255
205 227 255
205 227 255
205 227 255
205 227 255
205 227 255
205 227 255
205 227 255
205 227 255
205 227 255
205 227 255
206 227 255
206 227 255
206 227 255
206 227 255
206 227 255
206 227 255
206 227 255
206 227 255
206 227 255
206 227 255
206 227 255
206 227 255
206 227 255
206 227 255
206 227 255
206 227 255
206 227 255
207 227 255
207 227 255
207 227 255
207 227 255
207 227 255
207 228 255
207 228 255
207 228 255
207 228 255
207 228 255
207 228 255
207 228 255
207 228 255
207 228 255
207 228 255
207 228 255
207 228 255
207 228 255
207 228 255
207 228 255
208 228 255
208 228 255
208 228 255
208 228 255
208 228 255
208 228 255
208 228 255
208 228 255
208 228 255
208 228 255
208 228 255
208 228 255
208 228 255
208 228 255
208 228 255
208 228 255
208 228 255
208 228 255
208 228 255
208 228 255
208 228 255
208 228 255
208 228 255
208 228 255
208 228 255
208 228 255
208 228 255
208 228 255
208 228 255
208 228 255
208 228 255
208 228 255
208 228 255
208 228 255
208 228 255
207 228 255
207 228 255
207 228 255
207 228 255
207 228 255
207 228 255
207 228 255
207 228 255
207 228 255
207 228 255
207 228 255
207 228 255
207 228 255
207 228 255
207 228 255
207 227 255
207 227 255
207 227 255
207 227 255
206 227 255
206 227 255
206 227 255
206 227 255
206 227 255
206 227 255
206 227 255
206 227 255
206 227 255
206 227 255
206 227 255
206 227 255
206 227 255
206 227 255
206 227 255
206 227 255
206 227 255
206 227 255
205 227 255
205 227 255
205 227 255
205 227 255
205 227 255
205 227 255
205 227 255
205 227 255
205 227 255
205 227 255
205 226 255
205 226 255
205 226 255
205 226 255
205 226 255
205 226 255
205 226 255
204 226 255
204 226 255
204 226 255
204 226 255
204 226 255
204 226 255
204 226 255
204 226 255
204 226 255
204 226 255
204 226 255
204 226 255
204 226 255
204 226 255
204 226 255
204 226 255
203 226 255
203 226 255
203 226 255
203 226 255
203 226 255
203 226 255
203 225 255
203 225 255
203 225 255
203 225 255
203 225 255
203 225 255
203 225 255
203 225 255
203 225 255
202 225 255
202 225 255
202 225 255
202 225 255
202 225 255
202 225 255
202 225 255
202 225 255
202 225 255
202 225 255
202 225 255
202 225 255
202 225 255
202 225 255
202 225 255
201 225 255
201 225 255
201 225 255
201 225 255
201 225 255
201 224 255
201 224 255
201 224 255
201 224 255
201 224 255
201 224 255
201 224 255
201 224 255
201 224 255
201 224 255
201 224 255
200 224 255
200 224 255
200 224 255
200 224 255
200 224 255
200 224 255
200 224 255
200 224 255
200 224 255
200 224 255
200 224 255
200 224 255
200 224 255
200 224 255
200 224 255
200 224 255
200 224 255
200 224 255
199 224 255
199 224 255
199 224 255
199 224 255
199 223 255
199 223 255
199 223 255
199 223 255
199 223 255
199 223 255
199 223 255
199 223 255
199 223 255
199 223 255
199 223 255
199 223 255
199 223 255
199 223 255
199 223 255
199 223 255
199 223 255
199 223 255
199 223 255
199 223 255
199 223 255
199 223 255
199 223 255
198 223 255
198 223 255
198 223 255
198 223 255
198 223 255
198 223 255
198 223 255
198 223 255
198 223 255
198 223 255
198 223 255
198 223 255
198 223 255
198 223 255
198 223 255
198 223 255
198 223 255
198 223 255
198 223 255
198 223 255
198 223 255
198 223 255
198 223 255
198 223 255
198 223 255
198 223 255
198 223 255
198 223 255
198 223 255
198 223 255
198 223 255
198 223 255
198 223 255
198 223 255
198 223 255
198 223 255
198 223 255
198 223 255
198 223 255
198 223 255
199 223 255
199 223 255
199 223 255
199 223 255
199 223 255
199 223 255
199 223 255
199 223 255
199 223 255
199 223 255
199 223 255
199 223 255
199 223 255
199 223 255
199 223 255
199 223 255
199 223 255
199 223 255
199 223 255
199 223 255
199 223 255
199 223 255
199 223 255
199 224 255
199 224 255
199 224 255
199 224 255
200 224 255
200 224 255
200 224 255
200 224 255
200 224 255
200 224 255
200 224 255
200 224 255
200 224 255
200 224 255
200 224 255
200 224 255
200 224 255
200 224 255
200 224 255
200 224 255
200 224 255
200 224 255
201 224 255
201 224 255
201 224 255
201 224 255
201 224 255
201 224 255
201 224 255
201 224 255
201 224 255
201 224 255
201 224 255
201 225 255
201 225 255
201 225 255
201 225 255
201 225 255
202 225 255
202 225 255
202 225 255
202 225 255
202 225 255
202 225 255
202 225 255
202 225 255
202 225 255
202 225 255
202 225 255
202 225 255
202 225 255
202 225 255
202 225 255
203 225 255
203 225 255
203 225 255
203 225 255
203 225 255
203 225 255
203 225 255
203 225 255
203 225 255
203 226 255
203 226 255
203 226 255
203 226 255
203 226 255
203 226 255
204 226 255
204 226 255
204 226 255
204 226 255
204 226 255
204 226 255
204 226 255
204 226 255
204 226 255
204 226 255
204 226 255
204 226 255
204 226 255
204 226 255
204 226 255
204 226 255
205 226 255
205 226 255
205 226 255
205 226 255
205 226 255
205 226 255
205 226 255
205 227 255
205 227 255
205 227 255
205 227 255
205 227 255
205 227 255
205 227 255
205 227 255
205 227 255
205 227 255
206 227 255
206 227 255
206 227 255
206 227 255
206 227 255
206 227 255
206 227 255
206 227 255
206 227 255
206 227 255
206 227 255
206 227 255
206 227 255
206 227 255
206 227 255
206 227 255
206 227 255
207 227 255
207 227 255
207 227 255
207 227 255
207 227 255
207 228 255
207 228 255
207 228 255
207 228 255
207 228 255
207 228 255
207 228 255
207 228 255
207 228 255
207 228 255
207 228 255
207 228 255
207 228 255
207 228 255
207 228 255
208 228 255
208 228 255
208 228 255
208 228 255
208 228 255
208 228 255
208 228 255
208 228 255
208 228 255
208 228 255
208 228 255
208 228 255
208 228 255
208 228 255
208 228 255
208 228 255
208 228 255
208 228 255
208 228 255
209 228 255
208 228 255
208 228 255
208 228 255
208 228 255
208 228 255
208 228 255
208 228 255
208 228 255
208 228 255
208 228 255
208 228 255
208 228 255
208 228 255
208 228 255
208 228 255
208 228 255
208 228 255
208 228 255
208 228 255
208 228 255
208 228 255
207 228 255
207 228 255
207 228 255
207 228 255
207 228 255
207 228 255
207 228 255
207 228 255
207 228 255
207 228 255
207 228 255
207 228 255
207 228 255
207 228 255
207 228 255
207 227 255
207 227 255
207 227 255
207 227 255
207 227 255
206 227 255
206 227 255
206 227 255
206 227 255
206 227 255
206 227 255
206 227 255
206 227 255
206 227 255
206 227 255
206 227 255
206 227 255
206 227 255
206 227 255
206 227 255
206 227 255
206 227 255
205 227 255
205 227 255
205 227 255
205 227 255
205 227 255
205 227 255
205 227 255
205 227 255
205 227 255
205 227 255
205 226 255
205 226 255
205 226 255
205 226 255
205 226 255
205 226 255
205 226 255
204 226 255
204 226 255
204 226 255
204 226 255
204 226 255
204 226 255
204 226 255
204 226 255
204 226 255
204 226 255
204 226 255
204 226 255
204 226 255
204 226 255
204 226 255
204 226 255
203 226 255
203 226 255
203 226 255
203 226 255
203 226 255
203 226 255
203 225 255
203 225 255
203 225 255
203 225 255
203 225 255
203 225 255
203 225 255
203 225 255
203 225 255
202 225 255
202 225 255
202 225 255
202 225 255
202 225 255
202 225 255
202 225 255
202 225 255
202 225 255
202 225 255
202 225 255
202 225 255
202 225 255
202 225 255
202 225 255
201 225 255
201 225 255
201 225 255
201 225 255
201 225 255
201 224 255
201 224 255
201 224 255
201 224 255
201 224 255
201 224 255
201 224 255
201 224 255
201 224 255
201 224 255
201 224 255
200 224 255
200 224 255
200 224 255
200 224 255
200 224 255
200 224 255
200 224 255
200 224 255
200 224 255
200 224 255
200 224 255
200 224 255
200 224 255
200 224 255
200 224 255
200 224 255
200 224 255
200 224 255
200 224 255
199 224 255
199 224 255
199 224 255
199 224 255
199 223 255
199 223 255
199 223 255
199 223 255
199 223 255
199 223 255
199 223 255
199 223 255
199 223 255
199 223 255
199 223 255
199 223 255
199 223 255
199 223 255
199 223 255
199 223 255
199 223 255
199 223 255
199 223 255
199 223 255
199 223 255
199 223 255
199 223 255
199 223 255
199 223 255
199 223 255
199 223 255
199 223 255
199 223 255
198 223 255
198 223 255
198 223 255
198 223 255
198 223 255
198 223 255
198 223 255
198 223 255
198 223 255
198 223 255
198 223 255
198 223 255
198 223 255
198 223 255
198 223 255
198 223 255
198 223 255
198 223 255
198 223 255
199 223 255
199 223 255
199 223 255
199 223 255
199 223 255
199 223 255
199 223 255
199 223 255
199 223 255
199 223 255
199 223 255
199 223 255
199 223 255
199 223 255
199 223 255
199 223 255
199 223 255
199 223 255
199 223 255
199 223 255
199 223 255
199 223 255
199 223 255
199 223 255
199 223 255
199 223 255
199 223 255
199 223 255
199 223 255
199 223 255
199 224 255
199 224 255
199 224 255
199 224 255
200 224 255
200 224 255
200 224 255
200 224 255
200 224 255
200 224 255
200 224 255
200 224 255
200 224 255
200 224 255
200 224 255
200 224 255
200 224 255
200 224 255
200 224 255
200 224 255
200 224 255
200 224 255
201 224 255
201 224 255
201 224 255
201 224 255
201 224 255
201 224 255
201 224 255
201 224 255
201 224 255
201 224 255
201 224 255
201 224 255
201 225 255
201 225 255
201 225 255
201 225 255
201 225 255
202 225 255
202 225 255
202 225 255
202 225 255
202 225 255
202 225 255
202 225 255
202 225 255
202 225 255
202 225 255
202 225 255
202 225 255
202 225 255
202 225 255
202 225 255
203 225 255
203 225 255
203 225 255
203 225 255
203 225 255
203 225 255
203 225 255
203 225 255
203 225 255
203 226 255
203 226 255
203 226 255
203 226 255
203 226 255
203 226 255
203 226 255
204 226 255
204 226 255
204 226 255
204 226 255
204 226 255
204 226 255
204 226 255
204 226 255
204 226 255
204 226 255
204 226 255
204 226 255
204 226 255
204 226 255
204 226 255
205 226 255
205 226 255
205 226 255
205 226 255
205 226 255
205 226 255
205 226 255
205 227 255
205 227 255
205 227 255
205 227 255
205 227 255
205 227 255
205 227 255
205 227 255
205 227 255
205 227 255
206 227 255
206 227 255
206 227 255
206 227 255
206 227 255
206 227 255
206 227 255
206 227 255
206 227 255
206 227 255
206 227 255
206 227 255
206 227 255
206 227 255
206 227 255
206 227 255
206 227 255
207 227 255
207 227 255
207 227 255
207 227 255
207 227 255
207 228 255
207 228 255
207 228 255
207 228 255
207 228 255
207 228 255
207 228 255
207 228 255
207 228 255
207 228 255
207 228 255
207 228 255
207 228 255
207 228 255
207 228 255
208 228 255
208 228 255
208 228 255
208 228 255
208 228 255
208 228 255
208 228 255
208 228 255
208 228 255
208 228 255
208 228 255
208 228 255
208 228 255
208 228 255
208 228 255
208 228 255
208 228 255
208 228 255
208 228 255
208 228 255
208 228 255
209 228 255
209 229 255
209 229 255
209 228 255
209 228 255
208 228 255
208 228 255
208 228 255
208 228 255
208 228 255
208 228 255
208 228 255
208 228 255
208 228 255
208 228 255
208 228 255
208 228 255
208 228 255
208 228 255
208 228 255
208 228 255
208 228 255
208 228 255
208 228 255
208 228 255
208 228 255
207 228 255
207 228 255
207 228 255
207 228 255
207 228 255
207 228 255
207 228 255
207 228 255
207 228 255
207 228 255
207 228 255
207 228 255
207 228 255
207 228 255
207 228 255
207 227 255
207 227 255
207 227 255
207 227 255
206 227 255
206 227 255
206 227 255
206 227 255
206 227 255
206 227 255
206 227 255
206 227 255
206 227 255
206 227 255
206 227 255
206 227 255
206 227 255
206 227 255
206 227 255
206 227 255
206 227 255
206 227 255
205 227 255
205 227 255
205 227 255
205 227 255
205 227 255
205 227 255
205 227 255
205 227 255
205 227 255
205 227 255
205 226 255
205 226 255
205 226 255
205 226 255
205 226 255
205 226 255
204 226 255
204 226 255
204 226 255
204 226 255
204 226 255
204 226 255
204 226 255
204 226 255
204 226 255
204 226 255
204 226 255
204 226 255
204 226 255
204 226 255
204 226 255
204 226 255
203 226 255
203 226 255
203 226 255
203 226 255
203 226 255
203 226 255
203 226 255
203 225 255
203 225 255
203 225 255
203 225 255
203 225 255
203 225 255
203 225 255
203 225 255
203 225 255
202 225 255
202 225 255
202 225 255
202 225 255
202 225 255
202 225 255
202 225 255
202 225 255
202 225 255
202 225 255
202 225 255
202 225 255
202 225 255
202 225 255
202 225 255
201 225 255
201 225 255
201 225 255
201 225 255
201 225 255
201 224 255
201 224 255
201 224 255
201 224 255
201 224 255
201 224 255
201 224 255
201 224 255
201 224 255
201 224 255
201 224 255
201 224 255
200 224 255
200 224 255
200 224 255
200 224 255
200 224 255
200 224 255
200 224 255
200 224 255
200 224 255
200 224 255
200 224 255
200 224 255
200 224 255
200 224 255
200 224 255
200 224 255
200 224 255
200 224 255
200 224 255
200 224 255
199 224 255
199 224 255
199 224 255
199 224 255
199 223 255
199 223 255
199 223 255
199 223 255
199 223 255
199 223 255
199 223 255
199 223 255
199 223 255
199 223 255
199 223 255
199 223 255
199 223 255
199 223 255
199 223 255
199 223 255
199 223 255
199 223 255
199 223 255
199 223 255
199 223 255
199 223 255
199 223 255
199 223 255
199 223 255
199 223 255
199 223 255
199 223 255
199 223 255
199 223 255
199 223 255
199 223 255
199 223 255
199 223 255
199 223 255
199 223 255
199 223 255
199 223 255
199 223 255
199 223 255
199 223 255
199 223 255
199 223 255
199 223 255
199 223 255
199 223 255
199 223 255
199 223 255
199 223 255
199 223 255
199 223 255
199 223 255
199 223 255
199 223 255
199 223 255
199 223 255
199 223 255
199 223 255
199 223 255
199 223 255
199 223 255
199 223 255
199 223 255
199 223 255
199 223 255
199 223 255
199 223 255
199 223 255
199 224 255
199 224 255
199 224 255
199 224 255
200 224 255
200 224 255
200 224 255
200 224 255
200 224 255
200 224 255
200 224 255
200 224 255
200 224 255
200 224 255
200 224 255
200 224 255
200 224 255
200 224 255
200 224 255
200 224 255
200 224 255
200 224 255
200 224 255
200 224 255
201 224 255
201 224 255
201 224 255
201 224 255
201 224 255
201 224 255
201 224 255
201 224 255
201 224 255
201 224 255
201 224 255
201 224 255
201 225 255
201 225 255
201 225 255
201 225 255
201 225 255
202 225 255
202 225 255
202 225 255
202 225 255
202 225 255
202 225 255
202 225 255
202 225 255
202 225 255
202 225 255
202 225 255
202 225 255
202 225 255
202 225 255
202 225 255
203 225 255
203 225 255
203 225 255
203 225 255
203 225 255
203 225 255
203 225 255
203 225 255
203 225 255
203 226 255
203 226 255
203 226 255
203 226 255
203 226 255
203 226 255
203 226 255
204 226 255
204 226 255
204 226 255
204 226 255
204 226 255
204 226 255
204 226 255
204 226 255
204 226 255
204 226 255
204 226 255
204 226 255
204 226 255
204 226 255
204 226 255
204 226 255
205 226 255
205 226 255
205 226 255
205 226 255
205 226 255
205 226 255
205 227 255
205 227 255
205 227 255
205 227 255
205 227 255
205 227 255
205 227 255
205 227 255
205 227 255
205 227 255
206 227 255
206 227 255
206 227 255
206 227 255
206 227 255
206 227 255
206 227 255
206 227 255
206 227 255
206 227 255
206 227 255
206 227 255
206 227 255
206 227 255
206 227 255
206 227 255
206 227 255
207 227 255
207 227 255
207 227 255
207 227 255
207 227 255
207 228 255
207 228 255
207 228 255
207 228 255
207 228 255
207 228 255
207 228 255
207 228 255
207 228 255
207 228 255
207 228 255
207 228 255
207 228 255
207 228 255
207 228 255
208 228 255
208 228 255
208 228 255
208 228 255
208 228 255
208 228 255
208 228 255
208 228 255
208 228 255
208 228 255
208 228 255
208 228 255
208 228 255
208 228 255
208 228 255
208 228 255
208 228 255
208 228 255
208 228 255
208 228 255
208 228 255
209 228 255
209 229 255
209 229 255
209 229 255
209 229 255
209 229 255
209 229 255
209 229 255
209 229 255
209 229 255
209 228 255
208 228 255
208 228 255
208 228 255
208 228 255
208 228 255
208 228 255
208 228 255
208 228 255
208 228 255
208 228 255
208 228 255
208 228 255
208 228 255
208 228 255
208 228 255
208 228 255
208 228 255
208 228 255
208 228 255
208 228 255
208 228 255
208 228 255
207 228 255
207 228 255
207 228 255
207 228 255
207 228 255
207 228 255
207 228 255
207 228 255
207 228 255
207 228 255
207 228 255
207 228 255
207 228 255
207 228 255
207 227 255
207 227 255
207 227 255
207 227 255
206 227 255
206 227 255
206 227 255
206 227 255
206 227 255
206 227 255
206 227 255
206 227 255
206 227 255
206 227 255
206 227 255
206 227 255
206 227 255
206 227 255
206 227 255
206 227 255
206 227 255
206 227 255
205 227 255
205 227 255
205 227 255
205 227 255
205 227 255
205 227 255
205 227 255
205 227 255
205 227 255
205 227 255
205 226 255
205 226 255
205 226 255
205 226 255
205 226 255
205 226 255
204 226 255
204 226 255
204 226 255
204 226 255
204 226 255
204 226 255
204 226 255
204 226 255
204 226 255
204 226 255
204 226 255
204 226 255
204 226 255
204 226 255
204 226 255
204 226 255
203 226 255
203 226 255
203 226 255
203 226 255
203 226 255
203 226 255
203 226 255
203 225 255
203 225 255
203 225 255
203 225 255
203 225 255
203 225 255
203 225 255
203 225 255
203 225 255
202 225 255
202 225 255
202 225 255
202 225 255
202 225 255
202 225 255
202 225 255
202 225 255
202 225 255
202 225 255
202 225 255
202 225 255
202 225 255
202 225 255
202 225 255
201 225 255
201 225 255
201 225 255
201 225 255
201 225 255
201 224 255
201 224 255
201 224 255
201 224 255
201 224 255
201 224 255
201 224 255
201 224 255
201 224 255
201 224 255
201 224 255
201 224 255
201 224 255
200 224 255
200 224 255
200 224 255
200 224 255
200 224 255
200 224 255
200 224 255
200 224 255
200 224 255
200 224 255
200 224 255
200 224 255
200 224 255
200 224 255
200 224 255
200 224 255
200 224 255
200 224 255
200 224 255
200 224 255
200 224 255
199 224 255
199 224 255
199 224 255
199 224 255
199 223 255
199 223 255
199 223 255
199 223 255
199 223 255
199 223 255
199 223 255
199 223 255
199 223 255
199 223 255
199 223 255
199 223 255
199 223 255
199 223 255
199 223 255
199 223 255
199 223 255
199 223 255
199 223 255
199 223 255
199 223 255
199 223 255
199 223 255
199 223 255
199 223 255
199 223 255
199 223 255
199 223 255
199 223 255
199 223 255
199 223 255
199 223 255
199 223 255
199 223 255
199 223 255
199 223 255
199 223 255
199 223 255
199 223 255
199 223 255
199 223 255
199 223 255
199 223 255
199 223 255
199 223 255
199 223 255
199 223 255
199 223 255
199 223 255
199 223 255
199 223 255
199 223 255
199 223 255
199 223 255
199 223 255
199 223 255
199 223 255
199 223 255
199 224 255
199 224 255
199 224 255
199 224 255
200 224 255
200 224 255
200 224 255
200 224 255
200 224 255
200 224 255
200 224 255
200 224 255
200 224 255
200 224 255
200 224 255
200 224 255
200 224 255
200 224 255
200 224 255
200 224 255
200 224 255
200 224 255
200 224 255
200 224 255
200 224 255
200 224 255
201 224 255
201 224 255
201 224 255
201 224 255
201 224 255
201 224 255
201 224 255
201 224 255
201 224 255
201 224 255
201 224 255
201 224 255
201 225 255
201 225 255
201 225 255
201 225 255
201 225 255
202 225 255
202 225 255
202 225 255
202 225 255
202 225 255
202 225 255
202 225 255
202 225 255
202 225 255
202 225 255
202 225 255
202 225 255
202 225 255
202 225 255
202 225 255
203 225 255
203 225 255
203 225 255
203 225 255
203 225 255
203 225 255
203 225 255
203 225 255
203 225 255
203 226 255
203 226 255
203 226 255
203 226 255
203 226 255
203 226 255
203 226 255
204 226 255
204 226 255
204 226 255
204 226 255
204 226 255
204 226 255
204 226 255
204 226 255
204 226 255
204 226 255
204 226 255
204 226 255
204 226 255
204 226 255
204 226 255
204 226 255
205 226 255
205 226 255
205 226 255
205 226 255
205 226 255
205 226 255
205 227 255
205 227 255
205 227 255
205 227 255
205 227 255
205 227 255
205 227 255
205 227 255
205 227 255
205 227 255
206 227 255
206 227 255
206 227 255
206 227 255
206 227 255
206 227 255
206 227 255
206 227 255
206 227 255
206 227 255
206 227 255
206 227 255
206 227 255
206 227 255
206 227 255
206 227 255
206 227 255
206 227 255
207 227 255
207 227 255
207 227 255
207 227 255
207 228 255
207 228 255
207 228 255
207 228 255
207 228 255
207 228 255
207 228 255
207 228 255
207 228 255
207 228 255
207 228 255
207 228 255
207 228 255
207 228 255
207 228 255
208 228 255
208 228 255
208 228 255
208 228 255
208 228 255
208 228 255
208 228 255
208 228 255
208 228 255
208 228 255
208 228 255
208 228 255
208 228 255
208 228 255
208 228 255
208 228 255
208 228 255
208 228 255
208 228 255
208 228 255
209 228 255
209 228 255
209 229 255
209 229 255
209 229 255
209 229 255
209 229 255
209 229 255
209 229 255
209 229 255
209 229 255
209 229 255
209 229 255
209 229 255
209 229 255
209 229 255
209 229 255
209 228 255
209 228 255
208 228 255
208 228 255
208 228 255
208 228 255
208 228 255
208 228 255
208 228 255
208 228 255
208 228 255
208 228 255
208 228 255
208 228 255
208 228 255
208 228 255
208 228 255
208 228 255
208 228 255
208 228 255
208 228 255
208 228 255
207 228 255
207 228 255
207 228 255
207 228 255
207 228 255
207 228 255
207 228 255
207 228 255
207 228 255
207 228 255
207 228 255
207 228 255
207 228 255
207 228 255
207 228 255
207 227 255
207 227 255
207 227 255
207 227 255
206 227 255
206 227 255
206 227 255
206 227 255
206 227 255
206 227 255
206 227 255
206 227 255
206 227 255
206 227 255
206 227 255
206 227 255
206 227 255
206 227 255
206 227 255
206 227 255
206 227 255
206 227 255
205 227 255
205 227 255
205 227 255
205 227 255
205 227 255
205 227 255
205 227 255
205 227 255
205 227 255
205 227 255
205 226 255
205 226 255
205 226 255
205 226 255
205 226 255
205 226 255
204 226 255
204 226 255
204 226 255
204 226 255
204 226 255
204 226 255
204 226 255
204 226 255
204 226 255
204 226 255
204 226 255
204 226 255
204 226 255
204 226 255
204 226 255
204 226 255
203 226 255
203 226 255
203 226 255
203 226 255
203 226 255
203 226 255
203 226 255
203 225 255
203 225 255
203 225 255
203 225 255
203 225 255
203 225 255
203 225 255
203 225 255
203 225 255
202 225 255
202 225 255
202 225 255
202 225 255
202 225 255
202 225 255
202 225 255
202 225 255
202 225 255
202 225 255
202 225 255
202 225 255
202 225 255
202 225 255
202 225 255
202 225 255
201 225 255
201 225 255
201 225 255
201 225 255
201 224 255
201 224 255
201 224 255
201 224 255
201 224 255
201 224 255
201 224 255
201 224 255
201 224 255
201 224 255
201 224 255
201 224 255
201 224 255
200 224 255
200 224 255
200 224 255
200 224 255
200 224 255
200 224 255
200 224 255
200 224 255
200 224 255
200 224 255
200 224 255
200 224 255
200 224 255
200 224 255
200 224 255
200 224 255
200 224 255
200 224 255
200 224 255
200 224 255
200 224 255
200 224 255
200 224 255
200 224 255
199 224 255
199 224 255
199 224 255
199 224 255
199 224 255
199 223 255
199 223 255
199 223 255
199 223 255
199 223 255
199 223 255
199 223 255
199 223 255
199 223 255
199 223 255
199 223 255
199 223 255
199 223 255
199 223 255
199 223 255
199 223 255
199 223 255
199 223 255
199 223 255
199 223 255
199 223 255
199 223 255
199 223 255
199 223 255
199 223 255
199 223 255
199 223 255
199 223 255
199 223 255
199 223 255
199 223 255
199 223 255
199 223 255
199 223 255
199 223 255
199 223 255
199 223 255
199 223 255
199 223 255
199 223 255
199 223 255
199 223 255
199 223 255
199 223 255
199 224 255
199 224 255
199 224 255
199 224 255
199 224 255
199 224 255
200 224 255
200 224 255
200 224 255
200 224 255
200 224 255
200 224 255
200 224 255
200 224 255
200 224 255
200 224 255
200 224 255
200 224 255
200 224 255
200 224 255
200 224 255
200 224 255
200 224 255
200 224 255
200 224 255
200 224 255
200 224 255
200 224 255
200 224 255
201 224 255
201 224 255
201 224 255
201 224 255
201 224 255
201 224 255
201 224 255
201 224 255
201 224 255
201 224 255
201 224 255
201 224 255
201 224 255
201 225 255
201 225 255
201 225 255
201 225 255
202 225 255
202 225 255
202 225 255
202 225 255
202 225 255
202 225 255
202 225 255
202 225 255
202 225 255
202 225 255
202 225 255
202 225 255
202 225 255
202 225 255
202 225 255
202 225 255
203 225 255
203 225 255
203 225 255
203 225 255
203 225 255
203 225 255
203 225 255
203 225 255
203 225 255
203 226 255
203 226 255
203 226 255
203 226 255
203 226 255
203 226 255
203 226 255
204 226 255
204 226 255
204 226 255
204 226 255
204 226 255
204 226 255
204 226 255
204 226 255
204 226 255
204 226 255
204 226 255
204 226 255
204 226 255
204 226 255
204 226 255
204 226 255
205 226 255
205 226 255
205 226 255
205 226 255
205 226 255
205 226 255
205 227 255
205 227 255
205 227 255
205 227 255
205 227 255
205 227 255
205 227 255
205 227 255
205 227 255
205 227 255
206 227 255
206 227 255
206 227 255
206 227 255
206 227 255
206 227 255
206 227 255
206 227 255
206 227 255
206 227 255
206 227 255
206 227 255
206 227 255
206 227 255
206 227 255
206 227 255
206 227 255
206 227 255
207 227 255
207 227 255
207 227 255
207 227 255
207 228 255
207 228 255
207 228 255
207 228 255
207 228 255
207 228 255
207 228 255
207 228 255
207 228 255
207 228 255
207 228 255
207 228 255
207 228 255
207 228 255
208 228 255
208 228 255
208 228 255
208 228 255
208 228 255
208 228 255
208 228 255
208 228 255
208 228 255
208 228 255
208 228 255
208 228 255
208 228 255
208 228 255
208 228 255
208 228 255
208 228 255
208 228 255
208 228 255
208 228 255
208 228 255
209 228 255
209 228 255
209 229 255
209 229 255
209 229 255
209 229 255
209 229 255
209 229 255
209 229 255
209 229 255
209 229 255
209 229 255
209 229 255
209 229 255
209 229 255
209 229 255
209 229 255
209 229 255
209 229 255
209 229 255
209 229 255
209 229 255
209 229 255
209 228 255
209 228 255
208 228 255
208 228 255
208 228 255
208 228 255
208 228 255
208 228 255
208 228 255
208 228 255
208 228 255
208 228 255
208 228 255
208 228 255
208 228 255
208 228 255
208 228 255
208 228 255
208 228 255
208 228 255
208 228 255
208 228 255
208 228 255
207 228 255
207 228 255
207 228 255
207 228 255
207 228 255
207 228 255
207 228 255
207 228 255
207 228 255
207 228 255
207 228 255
207 228 255
207 228 255
207 228 255
207 227 255
207 227 255
207 227 255
207 227 255
207 227 255
206 227 255
206 227 255
206 227 255
206 227 255
206 227 255
206 227 255
206 227 255
206 227 255
206 227 255
206 227 255
206 227 255
206 227 255
206 227 255
206 227 255
206 227 255
206 227 255
206 227 255
205 227 255
205 227 255
205 227 255
205 227 255
205 227 255
205 227 255
205 227 255
205 227 255
205 227 255
205 227 255
205 226 255
205 226 255
205 226 255
205 226 255
205 226 255
205 226 255
204 226 255
204 226 255
204 226 255
204 226 255
204 226 255
204 226 255
204 226 255
204 226 255
204 226 255
204 226 255
204 226 255
204 226 255
204 226 255
204 226 255
204 226 255
204 226 255
203 226 255
203 226 255
203 226 255
203 226 255
203 226 255
203 226 255
203 226 255
203 225 255
203 225 255
203 225 255
203 225 255
203 225 255
203 225 255
203 225 255
203 225 255
202 225 255
202 225 255
202 225 255
202 225 255
202 225 255
202 225 255
202 225 255
202 225 255
202 225 255
202 225 255
202 225 255
202 225 255
202 225 255
202 225 255
202 225 255
202 225 255
202 225 255
201 225 255
201 225 255
201 225 255
201 225 255
201 225 255
201 224 255
201 224 255
201 224 255
201 224 255
201 224 255
201 224 255
201 224 255
201 224 255
201 224 255
201 224 255
201 224 255
201 224 255
201 224 255
200 224 255
200 224 255
200 224 255
200 224 255
200 224 255
200 224 255
200 224 255
200 224 255
200 224 255
200 224 255
200 224 255
200 224 255
200 224 255
200 224 255
200 224 255
200 224 255
200 224 255
200 224 255
200 224 255
200 224 255
200 224 255
200 224 255
200 224 255
200 224 255
200 224 255
200 224 255
200 224 255
199 224 255
199 224 255
199 224 255
199 224 255
199 224 255
199 224 255
199 224 255
199 224 255
199 223 255
199 223 255
199 223 255
199 223 255
199 223 255
199 223 255
199 223 255
199 223 255
199 223 255
199 223 255
199 223 255
199 223 255
199 223 255
199 223 255
199 223 255
199 223 255
199 223 255
199 223 255
199 223 255
199 223 255
199 223 255
199 223 255
199 223 255
199 223 255
199 224 255
199 224 255
199 224 255
199 224 255
199 224 255
199 224 255
199 224 255
199 224 255
199 224 255
200 224 255
200 224 255
200 224 255
200 224 255
200 224 255
200 224 255
200 224 255
200 224 255
200 224 255
200 224 255
200 224 255
200 224 255
200 224 255
200 224 255
200 224 255
200 224 255
200 224 255
200 224 255
200 224 255
200 224 255
200 224 255
200 224 255
200 224 255
200 224 255
200 224 255
200 224 255
201 224 255
201 224 255
201 224 255
201 224 255
201 224 255
201 224 255
201 224 255
201 224 255
201 224 255
201 224 255
201 224 255
201 224 255
201 224 255
201 225 255
201 225 255
201 225 255
201 225 255
201 225 255
202 225 255
202 225 255
202 225 255
202 225 255
202 225 255
202 225 255
202 225 255
202 225 255
202 225 255
202 225 255
202 225 255
202 225 255
202 225 255
202 225 255
202 225 255
202 225 255
202 225 255
203 225 255
203 225 255
203 225 255
203 225 255
203 225 255
203 225 255
203 225 255
203 225 255
203 226 255
203 226 255
203 226 255
203 226 255
203 226 255
203 226 255
203 226 255
204 226 255
204 226 255
204 226 255
204 226 255
204 226 255
204 226 255
204 226 255
204 226 255
204 226 255
204 226 255
204 226 255
204 226 255
204 226 255
204 226 255
204 226 255
204 226 255
205 226 255
205 226 255
205 226 255
205 226 255
205 226 255
205 226 255
205 227 255
205 227 255
205 227 255
205 227 255
205 227 255
205 227 255
205 227 255
205 227 255
205 227 255
205 227 255
206 227 255
206 227 255
206 227 255
206 227 255
206 227 255
206 227 255
206 227 255
206 227 255
206 227 255
206 227 255
206 227 255
206 227 255
206 227 255
206 227 255
206 227 255
206 227 255
206 227 255
206 227 255
207 227 255
207 227 255
207 227 255
207 227 255
207 228 255
207 228 255
207 228 255
207 228 255
207 228 255
207 228 255
207 228 255
207 228 255
207 228 255
207 228 255
207 228 255
207 228 255
207 228 255
207 228 255
208 228 255
208 228 255
208 228 255
208 228 255
208 228 255
208 228 255
208 228 255
208 228 255
208 228 255
208 228 255
208 228 255
208 228 255
208 228 255
208 228 255
208 228 255
208 228 255
208 228 255
208 228 255
208 228 255
208 228 255
208 228 255
209 228 255
209 228 255
209 229 255
209 229 255
209 229 255
209 229 255
209 229 255
209 229 255
209 229 255
209 229 255
209 229 255
209 229 255
209 229 255
209 229 255
209 229 255
209 229 255
209 229 255
209 229 255
209 229 255
209 229 255
209 229 255
209 229 255
209 229 255
209 229 255
209 229 255
209 229 255
209 229 255
209 229 255
209 229 255
209 229 255
209 228 255
208 228 255
208 228 255
208 228 255
208 228 255
208 228 255
208 228 255
208 228 255
208 228 255
208 228 255
208 228 255
208 228 255
208 228 255
208 228 255
208 228 255
208 228 255
208 228 255
208 228 255
208 228 255
208 228 255
208 228 255
208 228 255
207 228 255
207 228 255
207 228 255
207 228 255
207 228 255
207 228 255
207 228 255
207 228 255
207 228 255
207 228 255
207 228 255
207 228 255
207 228 255
207 228 255
207 227 255
207 227 255
207 227 255
207 227 255
206 227 255
206 227 255
206 227 255
206 227 255
206 227 255
206 227 255
206 227 255
206 227 255
206 227 255
206 227 255
206 227 255
206 227 255
206 227 255
206 227 255
206 227 255
206 227 255
206 227 255
206 227 255
205 227 255
205 227 255
205 227 255
205 227 255
205 227 255
205 227 255
205 227 255
205 227 255
205 227 255
205 227 255
205 226 255
205 226 255
205 226 255
205 226 255
205 226 255
205 226 255
204 226 255
204 226 255
204 226 255
204 226 255
204 226 255
204 226 255
204 226 255
204 226 255
204 226 255
204 226 255
204 226 255
204 226 255
204 226 255
204 226 255
204 226 255
204 226 255
203 226 255
203 226 255
203 226 255
203 226 255
203 226 255
203 226 255
203 226 255
203 225 255
203 225 255
203 225 255
203 225 255
203 225 255
203 225 255
203 225 255
203 225 255
203 225 255
202 225 255
202 225 255
202 225 255
202 225 255
202 225 255
202 225 255
202 225 255
202 225 255
202 225 255
202 225 255
202 225 255
202 225 255
202 225 255
202 225 255
202 225 255
202 225 255
201 225 255
201 225 255
201 225 255
201 225 255
201 225 255
201 224 255
201 224 255
201 224 255
201 224 255
201 224 255
201 224 255
201 224 255
201 224 255
201 224 255
201 224 255
201 224 255
201 224 255
201 224 255
201 224 255
200 224 255
200 224 255
200 224 255
200 224 255
200 224 255
200 224 255
200 224 255
200 224 255
200 224 255
200 224 255
200 224 255
200 224 255
200 224 255
200 224 255
200 224 255
200 224 255
200 224 255
200 224 255
200 224 255
200 224 255
200 224 255
200 224 255
200 224 255
200 224 255
200 224 255
200 224 255
200 224 255
200 224 255
200 224 255
200 224 255
200 224 255
200 224 255
200 224 255
200 224 255
200 224 255
199 224 255
199 224 255
199 224 255
199 224 255
199 224 255
199 224 255
199 224 255
199 224 255
199 224 255
199 224 255
199 224 255
199 224 255
199 224 255
199 224 255
199 224 255
199 224 255
199 224 255
199 224 255
200 224 255
200 224 255
200 224 255
200 224 255
200 224 255
200 224 255
200 224 255
200 224 255
200 224 255
200 224 255
200 224 255
200 224 255
200 224 255
200 224 255
200 224 255
200 224 255
200 224 255
200 224 255
200 224 255
200 224 255
200 224 255
200 224 255
200 224 255
200 224 255
200 224 255
200 224 255
200 224 255
200 224 255
200 224 255
200 224 255
200 224 255
200 224 255
201 224 255
201 224 255
201 224 255
201 224 255
201 224 255
201 224 255
201 224 255
201 224 255
201 224 255
201 224 255
201 224 255
201 224 255
201 224 255
201 224 255
201 225 255
201 225 255
201 225 255
201 225 255
201 225 255
201 225 255
202 225 255
202 225 255
202 225 255
202 225 255
202 225 255
202 225 255
202 225 255
202 225 255
202 225 255
202 225 255
202 225 255
202 225 255
202 225 255
202 225 255
202 225 255
202 225 255
203 225 255
203 225 255
203 225 255
203 225 255
203 225 255
203 225 255
203 225 255
203 225 255
203 225 255
203 226 255
203 226 255
203 226 255
203 226 255
203 226 255
203 226 255
203 226 255
204 226 255
204 226 255
204 226 255
204 226 255
204 226 255
204 226 255
204 226 255
204 226 255
204 226 255
204 226 255
204 226 255
204 226 255
204 226 255
204 226 255
204 226 255
204 226 255
205 226 255
205 226 255
205 226 255
205 226 255
205 226 255
205 226 255
205 226 255
205 227 255
205 227 255
205 227 255
205 227 255
205 227 255
205 227 255
205 227 255
205 227 255
205 227 255
206 227 255
206 227 255
206 227 255
206 227 255
206 227 255
206 227 255
206 227 255
206 227 255
206 227 255
206 227 255
206 227 255
206 227 255
206 227 255
206 227 255
206 227 255
206 227 255
206 227 255
207 227 255
207 227 255
207 227 255
207 227 255
207 227 255
207 228 255
207 228 255
207 228 255
207 228 255
207 228 255
207 228 255
207 228 255
207 228 255
207 228 255
207 228 255
207 228 255
207 228 255
207 228 255
207 228 255
208 228 255
208 228 255
208 228 255
208 228 255
208 228 255
208 228 255
208 228 255
208 228 255
208 228 255
208 228 255
208 228 255
208 228 255
208 228 255
208 228 255
208 228 255
208 228 255
208 228 255
208 228 255
208 228 255
208 228 255
208 228 255
209 228 255
209 229 255
209 229 255
209 229 255
209 229 255
209 229 255
209 229 255
209 229 255
209 229 255
209 229 255
209 229 255
209 229 255
209 229 255
209 229 255
209 229 255
209 229 255
209 229 255
209 229 255
209 229 255
209 229 255
209 229 255
209 229 255
209 229 255
209 229 255
209 229 255
209 229 255
209 229 255
209 229 255
209 229 255
209 229 255
209 229 255
209 229 255
209 229 255
209 229 255
209 229 255
209 229 255
209 228 255
209 228 255
208 228 255
208 228 255
208 228 255
208 228 255
208 228 255
208 228 255
208 228 255
208 228 255
208 228 255
208 228 255
208 228 255
208 228 255
208 228 255
208 228 255
208 228 255
208 228 255
208 228 255
208 228 255
208 228 255
208 228 255
207 228 255
207 228 255
207 228 255
207 228 255
207 228 255
207 228 255
207 228 255
207 228 255
207 228 255
207 228 255
207 228 255
207 228 255
207 228 255
207 228 255
207 227 255
207 227 255
207 227 255
207 227 255
207 227 255
206 227 255
206 227 255
206 227 255
206 227 255
206 227 255
206 227 255
206 227 255
206 227 255
206 227 255
206 227 255
206 227 255
206 227 255
206 227 255
206 227 255
206 227 255
206 227 255
206 227 255
205 227 255
205 227 255
205 227 255
205 227 255
205 227 255
205 227 255
205 227 255
205 227 255
205 227 255
205 227 255
205 226 255
205 226 255
205 226 255
205 226 255
205 226 255
205 226 255
204 226 255
204 226 255
204 226 255
204 226 255
204 226 255
204 226 255
204 226 255
204 226 255
204 226 255
204 226 255
204 226 255
204 226 255
204 226 255
204 226 255
204 226 255
204 226 255
203 226 255
203 226 255
203 226 255
203 226 255
203 226 255
203 226 255
203 226 255
203 225 255
203 225 255
203 225 255
203 225 255
203 225 255
203 225 255
203 225 255
203 225 255
203 225 255
202 225 255
202 225 255
202 225 255
202 225 255
202 225 255
202 225 255
202 225 255
202 225 255
202 225 255
202 225 255
202 225 255
202 225 255
202 225 255
202 225 255
202 225 255
202 225 255
202 225 255
201 225 255
201 225 255
201 225 255
201 225 255
201 225 255
201 224 255
201 224 255
201 224 255
201 224 255
201 224 255
201 224 255
201 224 255
201 224 255
201 224 255
201 224 255
201 224 255
201 224 255
201 224 255
201 224 255
201 224 255
200 224 255
200 224 255
200 224 255
200 224 255
200 224 255
200 224 255
200 224 255
200 224 255
200 224 255
200 224 255
200 224 255
200 224 255
200 224 255
200 224 255
200 224 255
200 224 255
200 224 255
200 224 255
200 224 255
200 224 255
200 224 255
200 224 255
200 224 255
200 224 255
200 224 255
200 224 255
200 224 255
200 224 255
200 224 255
200 224 255
200 224 255
200 224 255
200 224 255
200 224 255
200 224 255
200 224 255
200 224 255
200 224 255
200 224 255
200 224 255
200 224 255
200 224 255
200 224 255
200 224 255
200 224 255
200 224 255
200 224 255
200 224 255
200 224 255
200 224 255
200 224 255
200 224 255
200 224 255
200 224 255
200 224 255
200 224 255
200 224 255
200 224 255
200 224 255
200 224 255
200 224 255
200 224 255
200 224 255
200 224 255
200 224 255
200 224 255
200 224 255
200 224 255
200 224 255
200 224 255
200 224 255
200 224 255
200 224 255
200 224 255
200 224 255
200 224 255
201 224 255
201 224 255
201 224 255
201 224 255
201 224 255
201 224 255
201 224 255
201 224 255
201 224 255
201 224 255
201 224 255
201 224 255
201 224 255
201 224 255
201 224 255
201 225 255
201 225 255
201 225 255
201 225 255
201 225 255
202 225 255
202 225 255
202 225 255
202 225 255
202 225 255
202 225 255
202 225 255
202 225 255
202 225 255
202 225 255
202 225 255
202 225 255
202 225 255
202 225 255
202 225 255
202 225 255
202 225 255
203 225 255
203 225 255
203 225 255
203 225 255
203 225 255
203 225 255
203 225 255
203 225 255
203 225 255
203 226 255
203 226 255
203 226 255
203 226 255
203 226 255
203 226 255
203 226 255
204 226 255
204 226 255
204 226 255
204 226 255
204 226 255
204 226 255
204 226 255
204 226 255
204 226 255
204 226 255
204 226 255
204 226 255
204 226 255
204 226 255
204 226 255
204 226 255
205 226 255
205 226 255
205 226 255
205 226 255
205 226 255
205 226 255
205 226 255
205 227 255
205 227 255
205 227 255
205 227 255
205 227 255
205 227 255
205 227 255
205 227 255
205 227 255
206 227 255
206 227 255
206 227 255
206 227 255
206 227 255
206 227 255
206 227 255
206 227 255
206 227 255
206 227 255
206 227 255
206 227 255
206 227 255
206 227 255
206 227 255
206 227 255
206 227 255
207 227 255
207 227 255
207 227 255
207 227 255
207 227 255
207 228 255
207 228 255
207 228 255
207 228 255
207 228 255
207 228 255
207 228 255
207 228 255
207 228 255
207 228 255
207 228 255
207 228 255
207 228 255
207 228 255
208 228 255
208 228 255
208 228 255
208 228 255
208 228 255
208 228 255
208 228 255
208 228 255
208 228 255
208 228 255
208 228 255
208 228 255
208 228 255
208 228 255
208 228 255
208 228 255
208 228 255
208 228 255
208 228 255
208 228 255
209 228 255
209 228 255
209 229 255
209 229 255
209 229 255
209 229 255
209 229 255
209 229 255
209 229 255
209 229 255
209 229 255
209 229 255
209 229 255
209 229 255
209 229 255
209 229 255
209 229 255
209 229 255
209 229 255
209 229 255
209 229 255
210 229 255
209 229 255
209 229 255
209 229 255
209 229 255
209 229 255
209 229 255
209 229 255
209 229 255
209 229 255
209 229 255
209 229 255
209 229 255
209 229 255
209 229 255
209 229 255
209 229 255
209 229 255
209 229 255
209 229 255
209 229 255
209 229 255
209 229 255
209 228 255
208 228 255
208 228 255
208 228 255
208 228 255
208 228 255
208 228 255
208 228 255
208 228 255
208 228 255
208 228 255
208 228 255
208 228 255
208 228 255
208 228 255
208 228 255
208 228 255
208 228 255
208 228 255
208 228 255
208 228 255
207 228 255
207 228 255
207 228 255
207 228 255
207 228 255
207 228 255
207 228 255
207 228 255
207 228 255
207 228 255
207 228 255
207 228 255
207 228 255
207 228 255
207 227 255
207 227 255
207 227 255
207 227 255
207 227 255
206 227 255
206 227 255
206 227 255
206 227 255
206 227 255
206 227 255
206 227 255
206 227 255
206 227 255
206 227 255
206 227 255
206 227 255
206 227 255
206 227 255
206 227 255
206 227 255
206 227 255
205 227 255
205 227 255
205 227 255
205 227 255
205 227 255
205 227 255
205 227 255
205 227 255
205 227 255
205 226 255
205 226 255
205 226 255
205 226 255
205 226 255
205 226 255
205 226 255
204 226 255
204 226 255
204 226 255
204 226 255
204 226 255
204 226 255
204 226 255
204 226 255
204 226 255
204 226 255
204 226 255
204 226 255
204 226 255
204 226 255
204 226 255
204 226 255
203 226 255
203 226 255
203 226 255
203 226 255
203 226 255
203 226 255
203 226 255
203 225 255
203 225 255
203 225 255
203 225 255
203 225 255
203 225 255
203 225 255
203 225 255
203 225 255
202 225 255
202 225 255
202 225 255
202 225 255
202 225 255
202 225 255
202 225 255
202 225 255
202 225 255
202 225 255
202 225 255
202 225 255
202 225 255
202 225 255
202 225 255
202 225 255
202 225 255
202 225 255
201 225 255
201 225 255
201 225 255
201 225 255
201 225 255
201 224 255
201 224 255
201 224 255
201 224 255
201 224 255
201 224 255
201 224 255
201 224 255
201 224 255
201 224 255
201 224 255
201 224 255
201 224 255
201 224 255
201 224 255
201 224 255
201 224 255
200 224 255
200 224 255
200 224 255
200 224 255
200 224 255
200 224 255
200 224 255
200 224 255
200 224 255
200 224 255
200 224 255
200 224 255
200 224 255
200 224 255
200 224 255
200 224 255
200 224 255
200 224 255
200 224 255
200 224 255
200 224 255
200 224 255
200 224 255
200 224 255
200 224 255
200 224 255
200 224 255
200 224 255
200 224 255
200 224 255
200 224 255
200 224 255
200 224 255
200 224 255
200 224 255
200 224 255
200 224 255
200 224 255
200 224 255
200 224 255
200 224 255
200 224 255
200 224 255
200 224 255
200 224 255
200 224 255
200 224 255
200 224 255
200 224 255
200 224 255
200 224 255
200 224 255
200 224 255
200 224 255
200 224 255
200 224 255
200 224 255
200 224 255
200 224 255
200 224 255
200 224 255
200 224 255
200 224 255
200 224 255
201 224 255
201 224 255
201 224 255
201 224 255
201 224 255
201 224 255
201 224 255
201 224 255
201 224 255
201 224 255
201 224 255
201 224 255
201 224 255
201 224 255
201 224 255
201 224 255
201 224 255
201 225 255
201 225 255
201 225 255
201 225 255
201 225 255
202 225 255
202 225 255
202 225 255
202 225 255
202 225 255
202 225 255
202 225 255
202 225 255
202 225 255
202 225 255
202 225 255
202 225 255
202 225 255
202 225 255
202 225 255
202 225 255
202 225 255
202 225 255
203 225 255
203 225 255
203 225 255
203 225 255
203 225 255
203 225 255
203 225 255
203 225 255
203 225 255
203 226 255
203 226 255
203 226 255
203 226 255
203 226 255
203 226 255
203 226 255
204 226 255
204 226 255
204 226 255
204 226 255
204 226 255
204 226 255
204 226 255
204 226 255
204 226 255
204 226 255
204 226 255
204 226 255
204 226 255
204 226 255
204 226 255
204 226 255
205 226 255
205 226 255
205 226 255
205 226 255
205 226 255
205 226 255
205 226 255
205 227 255
205 227 255
205 227 255
205 227 255
205 227 255
205 227 255
205 227 255
205 227 255
205 227 255
206 227 255
206 227 255
206 227 255
206 227 255
206 227 255
206 227 255
206 227 255
206 227 255
206 227 255
206 227 255
206 227 255
206 227 255
206 227 255
206 227 255
206 227 255
206 227 255
206 227 255
207 227 255
207 227 255
207 227 255
207 227 255
207 227 255
207 228 255
207 228 255
207 228 255
207 228 255
207 228 255
207 228 255
207 228 255
207 228 255
207 228 255
207 228 255
207 228 255
207 228 255
207 228 255
207 228 255
208 228 255
208 228 255
208 228 255
208 228 255
208 228 255
208 228 255
208 228 255
208 228 255
208 228 255
208 228 255
208 228 255
208 228 255
208 228 255
208 228 255
208 228 255
208 228 255
208 228 255
208 228 255
208 228 255
208 228 255
209 228 255
209 229 255
209 229 255
209 229 255
209 229 255
209 229 255
209 229 255
209 229 255
209 229 255
209 229 255
209 229 255
209 229 255
209 229 255
209 229 255
209 229 255
209 229 255
209 229 255
209 229 255
209 229 255
209 229 255
209 229 255
209 229 255
209 229 255
210 229 255
210 229 255
210 229 255
210 229 255
210 229 255
210 229 255
209 229 255
209 229 255
209 229 255
209 229 255
209 229 255
209 229 255
209 229 255
209 229 255
209 229 255
209 229 255
209 229 255
209 229 255
209 229 255
209 229 255
209 229 255
209 229 255
209 229 255
209 229 255
209 229 255
209 229 255
209 229 255
209 228 255
208 228 255
208 228 255
208 228 255
208 228 255
208 228 255
208 228 255
208 228 255
208 228 255
208 228 255
208 228 255
208 228 255
208 228 255
208 228 255
208 228 255
208 228 255
208 228 255
208 228 255
208 228 255
208 228 255
208 228 255
207 228 255
207 228 255
207 228 255
207 228 255
207 228 255
207 228 255
207 228 255
207 228 255
207 228 255
207 228 255
207 228 255
207 228 255
207 228 255
207 228 255
207 227 255
207 227 255
207 227 255
207 227 255
207 227 255
206 227 255
206 227 255
206 227 255
206 227 255
206 227 255
206 227 255
206 227 255
206 227 255
206 227 255
206 227 255
206 227 255
206 227 255
206 227 255
206 227 255
206 227 255
206 227 255
206 227 255
205 227 255
205 227 255
205 227 255
205 227 255
205 227 255
205 227 255
205 227 255
205 227 255
205 227 255
205 227 255
205 226 255
205 226 255
205 226 255
205 226 255
205 226 255
205 226 255
204 226 255
204 226 255
204 226 255
204 226 255
204 226 255
204 226 255
204 226 255
204 226 255
204 226 255
204 226 255
204 226 255
204 226 255
204 226 255
204 226 255
204 226 255
204 226 255
203 226 255
203 226 255
203 226 255
203 226 255
203 226 255
203 226 255
203 226 255
203 225 255
203 225 255
203 225 255
203 225 255
203 225 255
203 225 255
203 225 255
203 225 255
203 225 255
202 225 255
202 225 255
202 225 255
202 225 255
202 225 255
202 225 255
202 225 255
202 225 255
202 225 255
202 225 255
202 225 255
202 225 255
202 225 255
202 225 255
202 225 255
202 225 255
202 225 255
202 225 255
202 225 255
201 225 255
201 225 255
201 225 255
201 225 255
201 225 255
201 225 255
201 224 255
201 224 255
201 224 255
201 224 255
201 224 255
201 224 255
201 224 255
201 224 255
201 224 255
201 224 255
201 224 255
201 224 255
201 224 255
201 224 255
201 224 255
201 224 255
201 224 255
201 224 255
200 224 255
200 224 255
200 224 255
200 224 255
200 224 255
200 224 255
200 224 255
200 224 255
200 224 255
200 224 255
200 224 255
200 224 255
200 224 255
200 224 255
200 224 255
200 224 255
200 224 255
200 224 255
200 224 255
200 224 255
200 224 255
200 224 255
200 224 255
200 224 255
200 224 255
200 224 255
200 224 255
200 224 255
200 224 255
200 224 255
200 224 255
200 224 255
200 224 255
200 224 255
200 224 255
200 224 255
200 224 255
200 224 255
200 224 255
200 224 255
200 224 255
200 224 255
200 224 255
200 224 255
200 224 255
200 224 255
200 224 255
200 224 255
200 224 255
200 224 255
200 224 255
200 224 255
200 224 255
201 224 255
201 224 255
201 224 255
201 224 255
201 224 255
201 224 255
201 224 255
201 224 255
201 224 255
201 224 255
201 224 255
201 224 255
201 224 255
201 224 255
201 224 255
201 224 255
201 224 255
201 225 255
201 225 255
201 225 255
201 225 255
201 225 255
201 225 255
202 225 255
202 225 255
202 225 255
202 225 255
202 225 255
202 225 255
202 225 255
202 225 255
202 225 255
202 225 255
202 225 255
202 225 255
202 225 255
202 225 255
202 225 255
202 225 255
202 225 255
202 225 255
202 225 255
203 225 255
203 225 255
203 225 255
203 225 255
203 225 255
203 225 255
203 225 255
203 225 255
203 225 255
203 226 255
203 226 255
203 226 255
203 226 255
203 226 255
203 226 255
203 226 255
204 226 255
204 226 255
204 226 255
204 226 255
204 226 255
204 226 255
204 226 255
204 226 255
204 226 255
204 226 255
204 226 255
204 226 255
204 226 255
204 226 255
204 226 255
204 226 255
205 226 255
205 226 255
205 226 255
205 226 255
205 226 255
205 226 255
205 227 255
205 227 255
205 227 255
205 227 255
205 227 255
205 227 255
205 227 255
205 227 255
205 227 255
205 227 255
206 227 255
206 227 255
206 227 255
206 227 255
206 227 255
206 227 255
206 227 255
206 227 255
206 227 255
206 227 255
206 227 255
206 227 255
206 227 255
206 227 255
206 227 255
206 227 255
206 227 255
207 227 255
207 227 255
207 227 255
207 227 255
207 227 255
207 228 255
207 228 255
207 228 255
207 228 255
207 228 255
207 228 255
207 228 255
207 228 255
207 228 255
207 228 255
207 228 255
207 228 255
207 228 255
207 228 255
208 228 255
208 228 255
208 228 255
208 228 255
208 228 255
208 228 255
208 228 255
208 228 255
208 228 255
208 228 255
208 228 255
208 228 255
208 228 255
208 228 255
208 228 255
208 228 255
208 228 255
208 228 255
208 228 255
208 228 255
209 228 255
209 229 255
209 229 255
209 229 255
209 229 255
209 229 255
209 229 255
209 229 255
209 229 255
209 229 255
209 229 255
209 229 255
209 229 255
209 229 255
209 229 255
209 229 255
209 229 255
209 229 255
209 229 255
209 229 255
209 229 255
209 229 255
210 229 255
210 229 255
210 229 255
210 229 255
210 229 255
210 229 255
210 229 255
210 229 255
210 229 255
210 229 255
210 229 255
210 229 255
210 229 255
210 229 255
209 229 255
209 229 255
209 229 255
209 229 255
209 229 255
209 229 255
209 229 255
209 229 255
209 229 255
209 229 255
209 229 255
209 229 255
209 229 255
209 229 255
209 229 255
209 229 255
209 229 255
209 229 255
209 229 255
209 229 255
209 228 255
208 228 255
208 228 255
208 228 255
208 228 255
208 228 255
208 228 255
208 228 255
208 228 255
208 228 255
208 228 255
208 228 255
208 228 255
208 228 255
208 228 255
208 228 255
208 228 255
208 228 255
208 228 255
208 228 255
208 228 255
208 228 255
207 228 255
207 228 255
207 228 255
207 228 255
207 228 255
207 228 255
207 228 255
207 228 255
207 228 255
207 228 255
207 228 255
207 228 255
207 228 255
207 228 255
207 227 255
207 227 255
207 227 255
207 227 255
206 227 255
206 227 255
206 227 255
206 227 255
206 227 255
206 227 255
206 227 255
206 227 255
206 227 255
206 227 255
206 227 255
206 227 255
206 227 255
206 227 255
206 227 255
206 227 255
206 227 255
205 227 255
205 227 255
205 227 255
205 227 255
205 227 255
205 227 255
205 227 255
205 227 255
205 227 255
205 227 255
205 226 255
205 226 255
205 226 255
205 226 255
205 226 255
205 226 255
204 226 255
204 226 255
204 226 255
204 226 255
204 226 255
204 226 255
204 226 255
204 226 255
204 226 255
204 226 255
204 226 255
204 226 255
204 226 255
204 226 255
204 226 255
204 226 255
203 226 255
203 226 255
203 226 255
203 226 255
203 226 255
203 226 255
203 226 255
203 226 255
203 225 255
203 225 255
203 225 255
203 225 255
203 225 255
203 225 255
203 225 255
203 225 255
203 225 255
202 225 255
202 225 255
202 225 255
202 225 255
202 225 255
202 225 255
202 225 255
202 225 255
202 225 255
202 225 255
202 225 255
202 225 255
202 225 255
202 225 255
202 225 255
202 225 255
202 225 255
202 225 255
202 225 255
201 225 255
201 225 255
201 225 255
201 225 255
201 225 255
201 225 255
201 224 255
201 224 255
201 224 255
201 224 255
201 224 255
201 224 255
201 224 255
201 224 255
201 224 255
201 224 255
201 224 255
201 224 255
201 224 255
201 224 255
201 224 255
201 224 255
201 224 255
201 224 255
201 224 255
201 224 255
201 224 255
201 224 255
200 224 255
200 224 255
200 224 255
200 224 255
200 224 255
200 224 255
200 224 255
200 224 255
200 224 255
200 224 255
200 224 255
200 224 255
200 224 255
200 224 255
200 224 255
200 224 255
200 224 255
200 224 255
200 224 255
200 224 255
200 224 255
200 224 255
200 224 255
200 224 255
200 224 255
200 224 255
200 224 255
200 224 255
200 224 255
200 224 255
200 224 255
200 224 255
200 224 255
200 224 255
200 224 255
200 224 255
201 224 255
201 224 255
201 224 255
201 224 255
201 224 255
201 224 255
201 224 255
201 224 255
201 224 255
201 224 255
201 224 255
201 224 255
201 224 255
201 224 255
201 224 255
201 224 255
201 224 255
201 224 255
201 224 255
201 224 255
201 224 255
201 224 255
201 225 255
201 225 255
201 225 255
201 225 255
201 225 255
201 225 255
202 225 255
202 225 255
202 225 255
202 225 255
202 225 255
202 225 255
202 225 255
202 225 255
202 225 255
202 225 255
202 225 255
202 225 255
202 225 255
202 225 255
202 225 255
202 225 255
202 225 255
202 225 255
202 225 255
203 225 255
203 225 255
203 225 255
203 225 255
203 225 255
203 225 255
203 225 255
203 225 255
203 225 255
203 226 255
203 226 255
203 226 255
203 226 255
203 226 255
203 226 255
203 226 255
203 226 255
204 226 255
204 226 255
204 226 255
204 226 255
204 226 255
204 226 255
204 226 255
204 226 255
204 226 255
204 226 255
204 226 255
204 226 255
204 226 255
204 226 255
204 226 255
204 226 255
205 226 255
205 226 255
205 226 255
205 226 255
205 226 255
205 226 255
205 227 255
205 227 255
205 227 255
205 227 255
205 227 255
205 227 255
205 227 255
205 227 255
205 227 255
205 227 255
206 227 255
206 227 255
206 227 255
206 227 255
206 227 255
206 227 255
206 227 255
206 227 255
206 227 255
206 227 255
206 227 255
206 227 255
206 227 255
206 227 255
206 227 255
206 227 255
206 227 255
207 227 255
207 227 255
207 227 255
207 227 255
207 228 255
207 228 255
207 228 255
207 228 255
207 228 255
207 228 255
207 228 255
207 228 255
207 228 255
207 228 255
207 228 255
207 228 255
207 228 255
207 228 255
208 228 255
208 228 255
208 228 255
208 228 255
208 228 255
208 228 255
208 228 255
208 228 255
208 228 255
208 228 255
208 228 255
208 228 255
208 228 255
208 228 255
208 228 255
208 228 255
208 228 255
208 228 255
208 228 255
208 228 255
209 228 255
209 228 255
209 229 255
209 229 255
209 229 255
209 229 255
209 229 255
209 229 255
209 229 255
209 229 255
209 229 255
209 229 255
209 229 255
209 229 255
209 229 255
209 229 255
209 229 255
209 229 255
209 229 255
209 229 255
209 229 255
209 229 255
209 229 255
210 229 255
210 229 255
210 229 255
210 229 255
210 229 255
210 229 255
210 229 255
210 229 255
210 229 255
210 229 255
210 229 255
210 229 255
210 229 255
210 229 255
210 229 255
210 229 255
210 229 255
210 229 255
210 229 255
210 229 255
209 229 255
209 229 255
209 229 255
209 229 255
209 229 255
209 229 255
209 229 255
209 229 255
209 229 255
209 229 255
209 229 255
209 229 255
209 229 255
209 229 255
209 229 255
209 229 255
209 229 255
209 229 255
209 229 255
209 229 255
209 229 255
209 228 255
208 228 255
208 228 255
208 228 255
208 228 255
208 228 255
208 228 255
208 228 255
208 228 255
208 228 255
208 228 255
208 228 255
208 228 255
208 228 255
208 228 255
208 228 255
208 228 255
208 228 255
208 228 255
208 228 255
208 228 255
207 228 255
207 228 255
207 228 255
207 228 255
207 228 255
207 228 255
207 228 255
207 228 255
207 228 255
207 228 255
207 228 255
207 228 255
207 228 255
207 228 255
207 227 255
207 227 255
207 227 255
207 227 255
206 227 255
206 227 255
206 227 255
206 227 255
206 227 255
206 227 255
206 227 255
206 227 255
206 227 255
206 227 255
206 227 255
206 227 255
206 227 255
206 227 255
206 227 255
206 227 255
206 227 255
205 227 255
205 227 255
205 227 255
205 227 255
205 227 255
205 227 255
205 227 255
205 227 255
205 227 255
205 227 255
205 226 255
205 226 255
205 226 255
205 226 255
205 226 255
205 226 255
205 226 255
204 226 255
204 226 255
204 226 255
204 226 255
204 226 255
204 226 255
204 226 255
204 226 255
204 226 255
204 226 255
204 226 255
204 226 255
204 226 255
204 226 255
204 226 255
204 226 255
203 226 255
203 226 255
203 226 255
203 226 255
203 226 255
203 226 255
203 226 255
203 225 255
203 225 255
203 225 255
203 225 255
203 225 255
203 225 255
203 225 255
203 225 255
203 225 255
203 225 255
202 225 255
202 225 255
202 225 255
202 225 255
202 225 255
202 225 255
202 225 255
202 225 255
202 225 255
202 225 255
202 225 255
202 225 255
202 225 255
202 225 255
202 225 255
202 225 255
202 225 255
202 225 255
202 225 255
201 225 255
201 225 255
201 225 255
201 225 255
201 225 255
201 225 255
201 225 255
201 224 255
201 224 255
201 224 255
201 224 255
201 224 255
201 224 255
201 224 255
201 224 255
201 224 255
201 224 255
201 224 255
201 224 255
201 224 255
201 224 255
201 224 255
201 224 255
201 224 255
201 224 255
201 224 255
201 224 255
201 224 255
201 224 255
201 224 255
201 224 255
201 224 255
201 224 255
201 224 255
201 224 255
201 224 255
201 224 255
201 224 255
201 224 255
201 224 255
201 224 255
201 224 255
201 224 255
201 224 255
201 224 255
201 224 255
201 224 255
201 224 255
201 224 255
201 224 255
201 224 255
201 224 255
201 224 255
201 224 255
201 224 255
201 224 255
201 224 255
201 224 255
201 224 255
201 224 255
201 224 255
201 224 255
201 224 255
201 224 255
201 224 255
201 224 255
201 224 255
201 224 255
201 224 255
201 224 255
201 224 255
201 224 255
201 224 255
201 224 255
201 224 255
201 224 255
201 225 255
201 225 255
201 225 255
201 225 255
201 225 255
201 225 255
201 225 255
202 225 255
202 225 255
202 225 255
202 225 255
202 225 255
202 225 255
202 225 255
202 225 255
202 225 255
202 225 255
202 225 255
202 225 255
202 225 255
202 225 255
202 225 255
202 225 255
202 225 255
202 225 255
202 225 255
202 225 255
203 225 255
203 225 255
203 225 255
203 225 255
203 225 255
203 225 255
203 225 255
203 225 255
203 225 255
203 225 255
203 226 255
203 226 255
203 226 255
203 226 255
203 226 255
203 226 255
203 226 255
204 226 255
204 226 255
204 226 255
204 226 255
204 226 255
204 226 255
204 226 255
204 226 255
204 226 255
204 226 255
204 226 255
204 226 255
204 226 255
204 226 255
204 226 255
204 226 255
204 226 255
205 226 255
205 226 255
205 226 255
205 226 255
205 226 255
205 226 255
205 227 255
205 227 255
205 227 255
205 227 255
205 227 255
205 227 255
205 227 255
205 227 255
205 227 255
205 227 255
206 227 255
206 227 255
206 227 255
206 227 255
206 227 255
206 227 255
206 227 255
206 227 255
206 227 255
206 227 255
206 227 255
206 227 255
206 227 255
206 227 255
206 227 255
206 227 255
206 227 255
207 227 255
207 227 255
207 227 255
207 227 255
207 228 255
207 228 255
207 228 255
207 228 255
207 228 255
207 228 255
207 228 255
207 228 255
207 228 255
207 228 255
207 228 255
207 228 255
207 228 255
207 228 255
208 228 255
208 228 255
208 228 255
208 228 255
208 228 255
208 228 255
208 228 255
208 228 255
208 228 255
208 228 255
208 228 255
208 228 255
208 228 255
208 228 255
208 228 255
208 228 255
208 228 255
208 228 255
208 228 255
208 228 255
209 228 255
209 229 255
209 229 255
209 229 255
209 229 255
209 229 255
209 229 255
209 229 255
209 229 255
209 229 255
209 229 255
209 229 255
209 229 255
209 229 255
209 229 255
209 229 255
209 229 255
209 229 255
209 229 255
209 229 255
209 229 255
209 229 255
210 229 255
210 229 255
210 229 255
210 229 255
210 229 255
210 229 255
210 229 255
210 229 255
210 229 255
210 229 255
210 229 255
210 229 255
210 229 255
210 229 255
210 229 255
210 229 255
210 229 255
210 229 255
210 229 255
210 229 255
210 229 255
210 229 255
210 229 255
210 229 255
210 229 255
210 229 255
210 229 255
210 229 255
209 229 255
209 229 255
209 229 255
209 229 255
209 229 255
209 229 255
209 229 255
209 229 255
209 229 255
209 229 255
209 229 255
209 229 255
209 229 255
209 229 255
209 229 255
209 229 255
209 229 255
209 229 255
209 229 255
209 229 255
209 228 255
209 228 255
208 228 255
208 228 255
208 228 255
208 228 255
208 228 255
208 228 255
208 228 255
208 228 255
208 228 255
208 228 255
208 228 255
208 228 255
208 228 255
208 228 255
208 228 255
208 228 255
208 228 255
208 228 255
208 228 255
207 228 255
207 228 255
207 228 255
207 228 255
207 228 255
207 228 255
207 228 255
207 228 255
207 228 255
207 228 255
207 228 255
207 228 255
207 228 255
207 228 255
207 227 255
207 227 255
207 227 255
207 227 255
206 227 255
206 227 255
206 227 255
206 227 255
206 227 255
206 227 255
206 227 255
206 227 255
206 227 255
206 227 255
206 227 255
206 227 255
206 227 255
206 227 255
206 227 255
206 227 255
206 227 255
205 227 255
205 227 255
205 227 255
205 227 255
205 227 255
205 227 255
205 227 255
205 227 255
205 227 255
205 227 255
205 226 255
205 226 255
205 226 255
205 226 255
205 226 255
205 226 255
205 226 255
204 226 255
204 226 255
204 226 255
204 226 255
204 226 255
204 226 255
204 226 255
204 226 255
204 226 255
204 226 255
204 226 255
204 226 255
204 226 255
204 226 255
204 226 255
204 226 255
203 226 255
203 226 255
203 226 255
203 226 255
203 226 255
203 226 255
203 226 255
203 226 255
203 225 255
203 225 255
203 225 255
203 225 255
203 225 255
203 225 255
203 225 255
203 225 255
203 225 255
202 225 255
202 225 255
202 225 255
202 225 255
202 225 255
202 225 255
202 225 255
202 225 255
202 225 255
202 225 255
202 225 255
202 225 255
202 225 255
202 225 255
202 225 255
202 225 255
202 225 255
202 225 255
202 225 255
202 225 255
202 225 255
202 225 255
201 225 255
201 225 255
201 225 255
201 225 255
201 225 255
201 225 255
201 225 255
201 225 255
201 224 255
201 224 255
201 224 255
201 224 255
201 224 255
201 224 255
201 224 255
201 224 255
201 224 255
201 224 255
201 224 255
201 224 255
201 224 255
201 224 255
201 224 255
201 224 255
201 224 255
201 224 255
201 224 255
201 224 255
201 224 255
201 224 255
201 224 255
201 224 255
201 224 255
201 224 255
201 224 255
201 224 255
201 224 255
201 224 255
201 224 255
201 224 255
201 224 255
201 224 255
201 224 255
201 224 255
201 224 255
201 224 255
201 224 255
201 224 255
201 224 255
201 224 255
201 224 255
201 224 255
201 224 255
201 224 255
201 224 255
201 224 255
201 224 255
201 224 255
201 224 255
201 224 255
201 224 255
201 224 255
201 224 255
201 224 255
201 225 255
201 225 255
201 225 255
201 225 255
201 225 255
201 225 255
201 225 255
201 225 255
202 225 255
202 225 255
202 225 255
202 225 255
202 225 255
202 225 255
202 225 255
202 225 255
202 225 255
202 225 255
202 225 255
202 225 255
202 225 255
202 225 255
202 225 255
202 225 255
202 225 255
202 225 255
202 225 255
202 225 255
202 225 255
203 225 255
203 225 255
203 225 255
203 225 255
203 225 255
203 225 255
203 225 255
203 225 255
203 225 255
203 225 255
203 226 255
203 226 255
203 226 255
203 226 255
203 226 255
203 226 255
203 226 255
203 226 255
204 226 255
204 226 255
204 226 255
204 226 255
204 226 255
204 226 255
204 226 255
204 226 255
204 226 255
204 226 255
204 226 255
204 226 255
204 226 255
204 226 255
204 226 255
204 226 255
205 226 255
205 226 255
205 226 255
205 226 255
205 226 255
205 226 255
205 226 255
205 227 255
205 227 255
205 227 255
205 227 255
205 227 255
205 227 255
205 227 255
205 227 255
205 227 255
205 227 255
206 227 255
206 227 255
206 227 255
206 227 255
206 227 255
206 227 255
206 227 255
206 227 255
206 227 255
206 227 255
206 227 255
206 227 255
206 227 255
206 227 255
206 227 255
206 227 255
206 227 255
207 227 255
207 227 255
207 227 255
207 227 255
207 228 255
207 228 255
207 228 255
207 228 255
207 228 255
207 228 255
207 228 255
207 228 255
207 228 255
207 228 255
207 228 255
207 228 255
207 228 255
207 228 255
208 228 255
208 228 255
208 228 255
208 228 255
208 228 255
208 228 255
208 228 255
208 228 255
208 228 255
208 228 255
208 228 255
208 228 255
208 228 255
208 228 255
208 228 255
208 228 255
208 228 255
208 228 255
208 228 255
209 228 255
209 228 255
209 229 255
209 229 255
209 229 255
209 229 255
209 229 255
209 229 255
209 229 255
209 229 255
209 229 255
209 229 255
209 229 255
209 229 255
209 229 255
209 229 255
209 229 255
209 229 255
209 229 255
209 229 255
209 229 255
209 229 255
210 229 255
210 229 255
210 229 255
210 229 255
210 229 255
210 229 255
210 229 255
210 229 255
210 229 255
210 229 255
210 229 255
210 229 255
210 229 255
210 229 255
210 229 255
210 229 255
210 229 255
210 229 255
210 229 255
210 229 255
210 229 255
210 229 255
210 229 255
210 229 255
210 229 255
210 229 255
210 229 255
210 229 255
210 229 255
210 229 255
210 229 255
210 229 255
210 229 255
210 229 255
210 229 255
209 229 255
209 229 255
209 229 255
209 229 255
209 229 255
209 229 255
209 229 255
209 229 255
209 229 255
209 229 255
209 229 255
209 229 255
209 229 255
209 229 255
209 229 255
209 229 255
209 229 255
209 229 255
209 229 255
209 229 255
209 229 255
209 228 255
208 228 255
208 228 255
208 228 255
208 228 255
208 228 255
208 228 255
208 228 255
208 228 255
208 228 255
208 228 255
208 228 255
208 228 255
208 228 255
208 228 255
208 228 255
208 228 255
208 228 255
208 228 255
208 228 255
207 228 255
207 228 255
207 228 255
207 228 255
207 228 255
207 228 255
207 228 255
207 228 255
207 228 255
207 228 255
207 228 255
207 228 255
207 228 255
207 228 255
207 227 255
207 227 255
207 227 255
207 227 255
207 227 255
206 227 255
206 227 255
206 227 255
206 227 255
206 227 255
206 227 255
206 227 255
206 227 255
206 227 255
206 227 255
206 227 255
206 227 255
206 227 255
206 227 255
206 227 255
206 227 255
206 227 255
205 227 255
205 227 255
205 227 255
205 227 255
205 227 255
205 227 255
205 227 255
205 227 255
205 227 255
205 226 255
205 226 255
205 226 255
205 226 255
205 226 255
205 226 255
205 226 255
204 226 255
204 226 255
204 226 255
204 226 255
204 226 255
204 226 255
204 226 255
204 226 255
204 226 255
204 226 255
204 226 255
204 226 255
204 226 255
204 226 255
204 226 255
204 226 255
204 226 255
203 226 255
203 226 255
203 226 255
203 226 255
203 226 255
203 226 255
203 226 255
203 225 255
203 225 255
203 225 255
203 225 255
203 225 255
203 225 255
203 225 255
203 225 255
203 225 255
203 225 255
203 225 255
202 225 255
202 225 255
202 225 255
202 225 255
202 225 255
202 225 255
202 225 255
202 225 255
202 225 255
202 225 255
202 225 255
202 225 255
202 225 255
202 225 255
202 225 255
202 225 255
202 225 255
202 225 255
202 225 255
202 225 255
202 225 255
202 225 255
202 225 255
201 225 255
201 225 255
201 225 255
201 225 255
201 225 255
201 225 255
201 225 255
201 225 255
201 225 255
201 225 255
201 224 255
201 224 255
201 224 255
201 224 255
201 224 255
201 224 255
201 224 255
201 224 255
201 224 255
201 224 255
201 224 255
201 224 255
201 224 255
201 224 255
201 224 255
201 224 255
201 224 255
201 224 255
201 224 255
201 224 255
201 224 255
201 224 255
201 224 255
201 224 255
201 224 255
201 224 255
201 224 255
201 224 255
201 224 255
201 224 255
201 224 255
201 224 255
201 224 255
201 224 255
201 224 255
201 224 255
201 224 255
201 224 255
201 224 255
201 224 255
201 225 255
201 225 255
201 225 255
201 225 255
201 225 255
201 225 255
201 225 255
201 225 255
201 225 255
201 225 255
202 225 255
202 225 255
202 225 255
202 225 255
202 225 255
202 225 255
202 225 255
202 225 255
202 225 255
202 225 255
202 225 255
202 225 255
202 225 255
202 225 255
202 225 255
202 225 255
202 225 255
202 225 255
202 225 255
202 225 255
202 225 255
202 225 255
202 225 255
203 225 255
203 225 255
203 225 255
203 225 255
203 225 255
203 225 255
203 225 255
203 225 255
203 225 255
203 225 255
203 225 255
203 226 255
203 226 255
203 226 255
203 226 255
203 226 255
203 226 255
203 226 255
203 226 255
204 226 255
204 226 255
204 226 255
204 226 255
204 226 255
204 226 255
204 226 255
204 226 255
204 226 255
204 226 255
204 226 255
204 226 255
204 226 255
204 226 255
204 226 255
204 226 255
205 226 255
205 226 255
205 226 255
205 226 255
205 226 255
205 226 255
205 226 255
205 227 255
205 227 255
205 227 255
205 227 255
205 227 255
205 227 255
205 227 255
205 227 255
205 227 255
205 227 255
206 227 255
206 227 255
206 227 255
206 227 255
206 227 255
206 227 255
206 227 255
206 227 255
206 227 255
206 227 255
206 227 255
206 227 255
206 227 255
206 227 255
206 227 255
206 227 255
206 227 255
207 227 255
207 227 255
207 227 255
207 227 255
207 228 255
207 228 255
207 228 255
207 228 255
207 228 255
207 228 255
207 228 255
207 228 255
207 228 255
207 228 255
207 228 255
207 228 255
207 228 255
208 228 255
208 228 255
208 228 255
208 228 255
208 228 255
208 228 255
208 228 255
208 228 255
208 228 255
208 228 255
208 228 255
208 228 255
208 228 255
208 228 255
208 228 255
208 228 255
208 228 255
208 228 255
208 228 255
208 228 255
209 228 255
209 229 255
209 229 255
209 229 255
209 229 255
209 229 255
209 229 255
209 229 255
209 229 255
209 229 255
209 229 255
209 229 255
209 229 255
209 229 255
209 229 255
209 229 255
209 229 255
209 229 255
209 229 255
209 229 255
209 229 255
209 229 255
210 229 255
210 229 255
210 229 255
210 229 255
210 229 255
210 229 255
210 229 255
210 229 255
210 229 255
210 229 255
210 229 255
210 229 255
210 229 255
210 229 255
210 229 255
210 229 255
210 229 255
210 229 255
210 229 255
210 230 255
210 229 255
210 229 255
210 229 255
210 229 255
210 229 255
210 229 255
210 229 255
210 229 255
210 229 255
210 229 255
210 229 255
210 229 255
210 229 255
210 229 255
210 229 255
210 229 255
210 229 255
210 229 255
210 229 255
210 229 255
210 229 255
210 229 255
209 229 255
209 229 255
209 229 255
209 229 255
209 229 255
209 229 255
209 229 255
209 229 255
209 229 255
209 229 255
209 229 255
209 229 255
209 229 255
209 229 255
209 229 255
209 229 255
209 229 255
209 229 255
209 229 255
209 229 255
209 228 255
209 228 255
208 228 255
208 228 255
208 228 255
208 228 255
208 228 255
208 228 255
208 228 255
208 228 255
208 228 255
208 228 255
208 228 255
208 228 255
208 228 255
208 228 255
208 228 255
208 228 255
208 228 255
208 228 255
208 228 255
207 228 255
207 228 255
207 228 255
207 228 255
207 228 255
207 228 255
207 228 255
207 228 255
207 228 255
207 228 255
207 228 255
207 228 255
207 228 255
207 228 255
207 227 255
207 227 255
207 227 255
207 227 255
206 227 255
206 227 255
206 227 255
206 227 255
206 227 255
206 227 255
206 227 255
206 227 255
206 227 255
206 227 255
206 227 255
206 227 255
206 227 255
206 227 255
206 227 255
206 227 255
206 227 255
205 227 255
205 227 255
205 227 255
205 227 255
205 227 255
205 227 255
205 227 255
205 227 255
205 227 255
205 227 255
205 226 255
205 226 255
205 226 255
205 226 255
205 226 255
205 226 255
205 226 255
204 226 255
204 226 255
204 226 255
204 226 255
204 226 255
204 226 255
204 226 255
204 226 255
204 226 255
204 226 255
204 226 255
204 226 255
204 226 255
204 226 255
204 226 255
204 226 255
203 226 255
203 226 255
203 226 255
203 226 255
203 226 255
203 226 255
203 226 255
203 226 255
203 225 255
203 225 255
203 225 255
203 225 255
203 225 255
203 225 255
203 225 255
203 225 255
203 225 255
203 225 255
203 225 255
202 225 255
202 225 255
202 225 255
202 225 255
202 225 255
202 225 255
202 225 255
202 225 255
202 225 255
202 225 255
202 225 255
202 225 255
202 225 255
202 225 255
202 225 255
202 225 255
202 225 255
202 225 255
202 225 255
202 225 255
202 225 255
202 225 255
202 225 255
202 225 255
202 225 255
202 225 255
201 225 255
201 225 255
201 225 255
201 225 255
201 225 255
201 225 255
201 225 255
201 225 255
201 225 255
201 225 255
201 225 255
201 225 255
201 225 255
201 225 255
201 225 255
201 225 255
201 225 255
201 225 255
201 224 255
201 224 255
201 224 255
201 224 255
201 224 255
201 224 255
201 224 255
201 224 255
201 224 255
201 224 255
201 225 255
201 224 255
201 225 255
201 225 255
201 225 255
201 225 255
201 225 255
201 225 255
201 225 255
201 225 255
201 225 255
201 225 255
201 225 255
201 225 255
201 225 255
201 225 255
201 225 255
201 225 255
202 225 255
202 225 255
202 225 255
202 225 255
202 225 255
202 225 255
202 225 255
202 225 255
202 225 255
202 225 255
202 225 255
202 225 255
202 225 255
202 225 255
202 225 255
202 225 255
202 225 255
202 225 255
202 225 255
202 225 255
202 225 255
202 225 255
202 225 255
202 225 255
202 225 255
202 225 255
203 225 255
203 225 255
203 225 255
203 225 255
203 225 255
203 225 255
203 225 255
203 225 255
203 225 255
203 225 255
203 225 255
203 226 255
203 226 255
203 226 255
203 226 255
203 226 255
203 226 255
203 226 255
203 226 255
204 226 255
204 226 255
204 226 255
204 226 255
204 226 255
204 226 255
204 226 255
204 226 255
204 226 255
204 226 255
204 226 255
204 226 255
204 226 255
204 226 255
204 226 255
204 226 255
204 226 255
205 226 255
205 226 255
205 226 255
205 226 255
205 226 255
205 226 255
205 227 255
205 227 255
205 227 255
205 227 255
205 227 255
205 227 255
205 227 255
205 227 255
205 227 255
205 227 255
206 227 255
206 227 255
206 227 255
206 227 255
206 227 255
206 227 255
206 227 255
206 227 255
206 227 255
206 227 255
206 227 255
206 227 255
206 227 255
206 227 255
206 227 255
206 227 255
206 227 255
207 227 255
207 227 255
207 227 255
207 227 255
207 228 255
207 228 255
207 228 255
207 228 255
207 228 255
207 228 255
207 228 255
207 228 255
207 228 255
207 228 255
207 228 255
207 228 255
207 228 255
207 228 255
208 228 255
208 228 255
208 228 255
208 228 255
208 228 255
208 228 255
208 228 255
208 228 255
208 228 255
208 228 255
208 228 255
208 228 255
208 228 255
208 228 255
208 228 255
208 228 255
208 228 255
208 228 255
208 228 255
209 228 255
209 228 255
209 229 255
209 229 255
209 229 255
209 229 255
209 229 255
209 229 255
209 229 255
209 229 255
209 229 255
209 229 255
209 229 255
209 229 255
209 229 255
209 229 255
209 229 255
209 229 255
209 229 255
209 229 255
209 229 255
209 229 255
210 229 255
210 229 255
210 229 255
210 229 255
210 229 255
210 229 255
210 229 255
210 229 255
210 229 255
210 229 255
210 229 255
210 229 255
210 229 255
210 229 255
210 229 255
210 229 255
210 229 255
210 229 255
210 229 255
210 229 255
210 229 255
210 229 255
210 230 255
211 230 255
211 230 255
210 230 255
210 230 255
210 230 255
210 229 255
210 229 255
210 229 255
210 229 255
210 229 255
210 229 255
210 229 255
210 229 255
210 229 255
210 229 255
210 229 255
210 229 255
210 229 255
210 229 255
210 229 255
210 229 255
210 229 255
210 229 255
210 229 255
210 229 255
210 229 255
210 229 255
209 229 255
209 229 255
209 229 255
209 229 255
209 229 255
209 229 255
209 229 255
209 229 255
209 229 255
209 229 255
209 229 255
209 229 255
209 229 255
209 229 255
209 229 255
209 229 255
209 229 255
209 229 255
209 229 255
209 228 255
209 228 255
208 228 255
208 228 255
208 228 255
208 228 255
208 228 255
208 228 255
208 228 255
208 228 255
208 228 255
208 228 255
208 228 255
208 228 255
208 228 255
208 228 255
208 228 255
208 228 255
208 228 255
208 228 255
208 228 255
207 228 255
207 228 255
207 228 255
207 228 255
207 228 255
207 228 255
207 228 255
207 228 255
207 228 255
207 228 255
207 228 255
207 228 255
207 228 255
207 228 255
207 227 255
207 227 255
207 227 255
207 227 255
206 227 255
206 227 255
206 227 255
206 227 255
206 227 255
206 227 255
206 227 255
206 227 255
206 227 255
206 227 255
206 227 255
206 227 255
206 227 255
206 227 255
206 227 255
206 227 255
206 227 255
205 227 255
205 227 255
205 227 255
205 227 255
205 227 255
205 227 255
205 227 255
205 227 255
205 227 255
205 227 255
205 226 255
205 226 255
205 226 255
205 226 255
205 226 255
205 226 255
205 226 255
204 226 255
204 226 255
204 226 255
204 226 255
204 226 255
204 226 255
204 226 255
204 226 255
204 226 255
204 226 255
204 226 255
204 226 255
204 226 255
204 226 255
204 226 255
204 226 255
204 226 255
203 226 255
203 226 255
203 226 255
203 226 255
203 226 255
203 226 255
203 226 255
203 226 255
203 225 255
203 225 255
203 225 255
203 225 255
203 225 255
203 225 255
203 225 255
203 225 255
203 225 255
203 225 255
203 225 255
202 225 255
202 225 255
202 225 255
202 225 255
202 225 255
202 225 255
202 225 255
202 225 255
202 225 255
202 225 255
202 225 255
202 225 255
202 225 255
202 225 255
202 225 255
202 225 255
202 225 255
202 225 255
202 225 255
202 225 255
202 225 255
202 225 255
202 225 255
202 225 255
202 225 255
202 225 255
202 225 255
202 225 255
202 225 255
202 225 255
202 225 255
202 225 255
202 225 255
201 225 255
201 225 255
201 225 255
201 225 255
201 225 255
201 225 255
201 225 255
201 225 255
201 225 255
201 225 255
201 225 255
201 225 255
201 225 255
201 225 255
201 225 255
201 225 255
201 225 255
201 225 255
201 225 255
201 225 255
201 225 255
201 225 255
201 225 255
202 225 255
202 225 255
202 225 255
202 225 255
202 225 255
202 225 255
202 225 255
202 225 255
202 225 255
202 225 255
202 225 255
202 225 255
202 225 255
202 225 255
202 225 255
202 225 255
202 225 255
202 225 255
202 225 255
202 225 255
202 225 255
202 225 255
202 225 255
202 225 255
202 225 255
202 225 255
202 225 255
202 225 255
202 225 255
202 225 255
202 225 255
202 225 255
202 225 255
203 225 255
203 225 255
203 225 255
203 225 255
203 225 255
203 225 255
203 225 255
203 225 255
203 225 255
203 225 255
203 225 255
203 225 255
203 226 255
203 226 255
203 226 255
203 226 255
203 226 255
203 226 255
203 226 255
203 226 255
204 226 255
204 226 255
204 226 255
204 226 255
204 226 255
204 226 255
204 226 255
204 226 255
204 226 255
204 226 255
204 226 255
204 226 255
204 226 255
204 226 255
204 226 255
204 226 255
204 226 255
205 226 255
205 226 255
205 226 255
205 226 255
205 226 255
205 226 255
205 226 255
205 227 255
205 227 255
205 227 255
205 227 255
205 227 255
205 227 255
205 227 255
205 227 255
205 227 255
205 227 255
206 227 255
206 227 255
206 227 255
206 227 255
206 227 255
206 227 255
206 227 255
206 227 255
206 227 255
206 227 255
206 227 255
206 227 255
206 227 255
206 227 255
206 227 255
206 227 255
206 227 255
207 227 255
207 227 255
207 227 255
207 227 255
207 228 255
207 228 255
207 228 255
207 228 255
207 228 255
207 228 255
207 228 255
207 228 255
207 228 255
207 228 255
207 228 255
207 228 255
207 228 255
207 228 255
208 228 255
208 228 255
208 228 255
208 228 255
208 228 255
208 228 255
208 228 255
208 228 255
208 228 255
208 228 255
208 228 255
208 228 255
208 228 255
208 228 255
208 228 255
208 228 255
208 228 255
208 228 255
208 228 255
209 228 255
209 228 255
209 229 255
209 229 255
209 229 255
209 229 255
209 229 255
209 229 255
209 229 255
209 229 255
209 229 255
209 229 255
209 229 255
209 229 255
209 229 255
209 229 255
209 229 255
209 229 255
209 229 255
209 229 255
209 229 255
210 229 255
210 229 255
210 229 255
210 229 255
210 229 255
210 229 255
210 229 255
210 229 255
210 229 255
210 229 255
210 229 255
210 229 255
210 229 255
210 229 255
210 229 255
210 229 255
210 229 255
210 229 255
210 229 255
210 229 255
210 229 255
210 229 255
210 230 255
210 230 255
210 230 255
211 230 255
211 230 255
211 230 255
211 230 255
211 230 255
211 230 255
211 230 255
211 230 255
211 230 255
210 230 255
210 230 255
210 229 255
210 229 255
210 229 255
210 229 255
210 229 255
210 229 255
210 229 255
210 229 255
210 229 255
210 229 255
210 229 255
210 229 255
210 229 255
210 229 255
210 229 255
210 229 255
210 229 255
210 229 255
210 229 255
210 229 255
210 229 255
209 229 255
209 229 255
209 229 255
209 229 255
209 229 255
209 229 255
209 229 255
209 229 255
209 229 255
209 229 255
209 229 255
209 229 255
209 229 255
209 229 255
209 229 255
209 229 255
209 229 255
209 229 255
209 229 255
209 229 255
209 228 255
209 228 255
208 228 255
208 228 255
208 228 255
208 228 255
208 228 255
208 228 255
208 228 255
208 228 255
208 228 255
208 228 255
208 228 255
208 228 255
208 228 255
208 228 255
208 228 255
208 228 255
208 228 255
208 228 255
208 228 255
207 228 255
207 228 255
207 228 255
207 228 255
207 228 255
207 228 255
207 228 255
207 228 255
207 228 255
207 228 255
207 228 255
207 228 255
207 228 255
207 227 255
207 227 255
207 227 255
207 227 255
207 227 255
206 227 255
206 227 255
206 227 255
206 227 255
206 227 255
206 227 255
206 227 255
206 227 255
206 227 255
206 227 255
206 227 255
206 227 255
206 227 255
206 227 255
206 227 255
206 227 255
206 227 255
205 227 255
205 227 255
205 227 255
205 227 255
205 227 255
205 227 255
205 227 255
205 227 255
205 227 255
205 227 255
205 226 255
205 226 255
205 226 255
205 226 255
205 226 255
205 226 255
205 226 255
204 226 255
204 226 255
204 226 255
204 226 255
204 226 255
204 226 255
204 226 255
204 226 255
204 226 255
204 226 255
204 226 255
204 226 255
204 226 255
204 226 255
204 226 255
204 226 255
204 226 255
203 226 255
203 226 255
203 226 255
203 226 255
203 226 255
203 226 255
203 226 255
203 226 255
203 226 255
203 225 255
203 225 255
203 225 255
203 225 255
203 225 255
203 225 255
203 225 255
203 225 255
203 225 255
203 225 255
203 225 255
203 225 255
202 225 255
202 225 255
202 225 255
202 225 255
202 225 255
202 225 255
202 225 255
202 225 255
202 225 255
202 225 255
202 225 255
202 225 255
202 225 255
202 225 255
202 225 255
202 225 255
202 225 255
202 225 255
202 225 255
202 225 255
202 225 255
202 225 255
202 225 255
202 225 255
202 225 255
202 225 255
202 225 255
202 225 255
202 225 255
202 225 255
202 225 255
202 225 255
202 225 255
202 225 255
202 225 255
202 225 255
202 225 255
202 225 255
202 225 255
202 225 255
202 225 255
202 225 255
202 225 255
202 225 255
202 225 255
202 225 255
202 225 255
202 225 255
202 225 255
202 225 255
202 225 255
202 225 255
202 225 255
202 225 255
202 225 255
202 225 255
202 225 255
202 225 255
202 225 255
202 225 255
202 225 255
202 225 255
202 225 255
202 225 255
202 225 255
202 225 255
202 225 255
202 225 255
202 225 255
202 225 255
202 225 255
202 225 255
202 225 255
202 225 255
202 225 255
202 225 255
202 225 255
202 225 255
203 225 255
203 225 255
203 225 255
203 225 255
203 225 255
203 225 255
203 225 255
203 225 255
203 225 255
203 225 255
203 225 255
203 225 255
203 226 255
203 226 255
203 226 255
203 226 255
203 226 255
203 226 255
203 226 255
203 226 255
203 226 255
204 226 255
204 226 255
204 226 255
204 226 255
204 226 255
204 226 255
204 226 255
204 226 255
204 226 255
204 226 255
204 226 255
204 226 255
204 226 255
204 226 255
204 226 255
204 226 255
204 226 255
205 226 255
205 226 255
205 226 255
205 226 255
205 226 255
205 226 255
205 226 255
205 227 255
205 227 255
205 227 255
205 227 255
205 227 255
205 227 255
205 227 255
205 227 255
205 227 255
205 227 255
206 227 255
206 227 255
206 227 255
206 227 255
206 227 255
206 227 255
206 227 255
206 227 255
206 227 255
206 227 255
206 227 255
206 227 255
206 227 255
206 227 255
206 227 255
206 227 255
206 227 255
207 227 255
207 227 255
207 227 255
207 227 255
207 227 255
207 228 255
207 228 255
207 228 255
207 228 255
207 228 255
207 228 255
207 228 255
207 228 255
207 228 255
207 228 255
207 228 255
207 228 255
207 228 255
208 228 255
208 228 255
208 228 255
208 228 255
208 228 255
208 228 255
208 228 255
208 228 255
208 228 255
208 228 255
208 228 255
208 228 255
208 228 255
208 228 255
208 228 255
208 228 255
208 228 255
208 228 255
208 228 255
208 228 255
209 228 255
209 229 255
209 229 255
209 229 255
209 229 255
209 229 255
209 229 255
209 229 255
209 229 255
209 229 255
209 229 255
209 229 255
209 229 255
209 229 255
209 229 255
209 229 255
209 229 255
209 229 255
209 229 255
209 229 255
209 229 255
210 229 255
210 229 255
210 229 255
210 229 255
210 229 255
210 229 255
210 229 255
210 229 255
210 229 255
210 229 255
210 229 255
210 229 255
210 229 255
210 229 255
210 229 255
210 229 255
210 229 255
210 229 255
210 229 255
210 229 255
210 229 255
210 230 255
210 230 255
210 230 255
211 230 255
211 230 255
211 230 255
211 230 255
211 230 255
211 230 255
211 230 255
211 230 255
211 230 255
211 230 255
211 230 255
211 230 255
211 230 255
211 230 255
211 230 255
211 230 255
210 230 255
210 230 255
210 230 255
210 229 255
210 229 255
210 229 255
210 229 255
210 229 255
210 229 255
210 229 255
210 229 255
210 229 255
210 229 255
210 229 255
210 229 255
210 229 255
210 229 255
210 229 255
210 229 255
210 229 255
210 229 255
210 229 255
210 229 255
210 229 255
209 229 255
209 229 255
209 229 255
209 229 255
209 229 255
209 229 255
209 229 255
209 229 255
209 229 255
209 229 255
209 229 255
209 229 255
209 229 255
209 229 255
209 229 255
209 229 255
209 229 255
209 229 255
209 229 255
209 229 255
209 228 255
208 228 255
208 228 255
208 228 255
208 228 255
208 228 255
208 228 255
208 228 255
208 228 255
208 228 255
208 228 255
208 228 255
208 228 255
208 228 255
208 228 255
208 228 255
208 228 255
208 228 255
208 228 255
208 228 255
207 228 255
207 228 255
207 228 255
207 228 255
207 228 255
207 228 255
207 228 255
207 228 255
207 228 255
207 228 255
207 228 255
207 228 255
207 228 255
207 228 255
207 227 255
207 227 255
207 227 255
207 227 255
206 227 255
206 227 255
206 227 255
206 227 255
206 227 255
206 227 255
206 227 255
206 227 255
206 227 255
206 227 255
206 227 255
206 227 255
206 227 255
206 227 255
206 227 255
206 227 255
206 227 255
205 227 255
205 227 255
205 227 255
205 227 255
205 227 255
205 227 255
205 227 255
205 227 255
205 227 255
205 227 255
205 226 255
205 226 255
205 226 255
205 226 255
205 226 255
205 226 255
205 226 255
204 226 255
204 226 255
204 226 255
204 226 255
204 226 255
204 226 255
204 226 255
204 226 255
204 226 255
204 226 255
204 226 255
204 226 255
204 226 255
204 226 255
204 226 255
204 226 255
204 226 255
204 226 255
203 226 255
203 226 255
203 226 255
203 226 255
203 226 255
203 226 255
203 226 255
203 226 255
203 226 255
203 225 255
203 225 255
203 225 255
203 225 255
203 225 255
203 225 255
203 225 255
203 225 255
203 225 255
203 225 255
203 225 255
203 225 255
203 225 255
203 225 255
202 225 255
202 225 255
202 225 255
202 225 255
202 225 255
202 225 255
202 225 255
202 225 255
202 225 255
202 225 255
202 225 255
202 225 255
202 225 255
202 225 255
202 225 255
202 225 255
202 225 255
202 225 255
202 225 255
202 225 255
202 225 255
202 225 255
202 225 255
202 225 255
202 225 255
202 225 255
192 213 242
181 201 229
175 195 222
164 182 207
154 172 195
162 181 205
156 174 198
162 181 205
157 175 199
166 185 210
162 181 205
173 193 219
182 202 230
195 218 247
198 221 251
202 225 255
202 225 255
202 225 255
202 225 255
202 225 255
202 225 255
202 225 255
202 225 255
202 225 255
202 225 255
202 225 255
202 225 255
202 225 255
202 225 255
202 225 255
202 225 255
202 225 255
202 225 255
202 225 255
202 225 255
202 225 255
202 225 255
202 225 255
202 225 255
202 225 255
203 225 255
203 225 255
203 225 255
203 225 255
203 225 255
203 225 255
203 225 255
203 225 255
203 225 255
203 225 255
203 225 255
203 225 255
203 225 255
203 225 255
203 226 255
203 226 255
203 226 255
203 226 255
203 226 255
203 226 255
203 226 255
203 226 255
203 226 255
204 226 255
204 226 255
204 226 255
204 226 255
204 226 255
204 226 255
204 226 255
204 226 255
204 226 255
204 226 255
204 226 255
204 226 255
204 226 255
204 226 255
204 226 255
204 226 255
204 226 255
204 226 255
205 226 255
205 226 255
205 226 255
205 226 255
205 226 255
205 226 255
205 226 255
205 227 255
205 227 255
205 227 255
205 227 255
205 227 255
205 227 255
205 227 255
205 227 255
205 227 255
205 227 255
206 227 255
206 227 255
206 227 255
206 227 255
206 227 255
206 227 255
206 227 255
206 227 255
206 227 255
206 227 255
206 227 255
206 227 255
206 227 255
206 227 255
206 227 255
206 227 255
206 227 255
207 227 255
207 227 255
207 227 255
207 227 255
207 228 255
207 228 255
207 228 255
207 228 255
207 228 255
207 228 255
207 228 255
207 228 255
207 228 255
207 228 255
207 228 255
207 228 255
207 228 255
207 228 255
208 228 255
208 228 255
208 228 255
208 228 255
208 228 255
208 228 255
208 228 255
208 228 255
208 228 255
208 228 255
208 228 255
208 228 255
208 228 255
208 228 255
208 228 255
208 228 255
208 228 255
208 228 255
208 228 255
209 228 255
209 228 255
209 229 255
209 229 255
209 229 255
209 229 255
209 229 255
209 229 255
209 229 255
209 229 255
209 229 255
209 229 255
209 229 255
209 229 255
209 229 255
209 229 255
209 229 255
209 229 255
209 229 255
209 229 255
209 229 255
210 229 255
210 229 255
210 229 255
210 229 255
210 229 255
210 229 255
210 229 255
210 229 255
210 229 255
210 229 255
210 229 255
210 229 255
210 229 255
210 229 255
210 229 255
210 229 255
210 229 255
210 229 255
210 229 255
210 229 255
210 229 255
210 230 255
210 230 255
210 230 255
211 230 255
211 230 255
211 230 255
211 230 255
211 230 255
211 230 255
211 230 255
211 230 255
211 230 255
211 230 255
211 230 255
211 230 255
211 230 255
211 230 255
211 230 255
211 230 255
211 230 255
211 230 255
211 230 255
211 230 255
211 230 255
211 230 255
211 230 255
211 230 255
210 230 255
210 230 255
210 230 255
210 229 255
210 229 255
210 229 255
210 229 255
210 229 255
210 229 255
210 229 255
210 229 255
210 229 255
210 229 255
210 229 255
210 229 255
210 229 255
210 229 255
210 229 255
210 229 255
210 229 255
210 229 255
210 229 255
210 229 255
210 229 255
209 229 255
209 229 255
209 229 255
209 229 255
209 229 255
209 229 255
209 229 255
209 229 255
209 229 255
209 229 255
209 229 255
209 229 255
209 229 255
209 229 255
209 229 255
209 229 255
209 229 255
209 229 255
209 229 255
209 228 255
209 228 255
208 228 255
208 228 255
208 228 255
208 228 255
208 228 255
208 228 255
208 228 255
208 228 255
208 228 255
208 228 255
208 228 255
208 228 255
208 228 255
208 228 255
208 228 255
208 228 255
208 228 255
208 228 255
208 228 255
207 228 255
207 228 255
207 228 255
207 228 255
207 228 255
207 228 255
207 228 255
207 228 255
207 228 255
207 228 255
207 228 255
207 228 255
207 228 255
207 227 255
207 227 255
207 227 255
207 227 255
206 227 255
206 227 255
206 227 255
206 227 255
206 227 255
206 227 255
206 227 255
206 227 255
206 227 255
206 227 255
206 227 255
206 227 255
206 227 255
206 227 255
206 227 255
206 227 255
206 227 255
206 227 255
205 227 255
205 227 255
205 227 255
205 227 255
205 227 255
205 227 255
205 227 255
205 227 255
205 227 255
205 227 255
205 226 255
205 226 255
205 226 255
205 226 255
205 226 255
205 226 255
205 226 255
204 226 255
204 226 255
204 226 255
204 226 255
204 226 255
204 226 255
204 226 255
204 226 255
204 226 255
204 226 255
204 226 255
204 226 255
204 226 255
204 226 255
204 226 255
204 226 255
204 226 255
204 226 255
204 226 255
203 226 255
203 226 255
203 226 255
203 226 255
203 226 255
203 226 255
203 226 255
203 226 255
203 226 255
203 225 255
203 225 255
203 225 255
203 225 255
203 225 255
203 225 255
203 225 255
203 225 255
203 225 255
203 225 255
203 225 255
203 225 255
203 225 255
203 225 255
203 225 255
203 225 255
202 225 255
202 225 255
202 225 255
202 225 255
202 225 255
202 225 255
202 225 255
202 225 255
202 225 255
202 225 255
202 225 255
202 225 255
199 221 251
172 192 218
162 181 206
135 151 171
117 130 148
98 109 124
61 69 79
60 67 77
60 68 77
61 69 79
60 68 77
61 69 79
62 69 79
60 68 78
62 70 79
60 67 77
62 69 79
60 68 78
59 66 76
62 70 80
62 69 79
66 75 86
77 86 98
123 137 156
140 156 178
158 176 199
184 205 232
199 221 251
202 225 255
202 225 255
202 225 255
202 225 255
202 225 255
202 225 255
202 225 255
202 225 255
202 225 255
202 225 255
202 225 255
202 225 255
203 225 255
203 225 255
203 225 255
203 225 255
203 225 255
203 225 255
203 225 255
203 225 255
203 225 255
203 225 255
203 225 255
203 225 255
203 225 255
203 225 255
203 225 255
203 226 255
203 226 255
203 226 255
203 226 255
203 226 255
203 226 255
203 226 255
203 226 255
203 226 255
203 226 255
204 226 255
204 226 255
204 226 255
204 226 255
204 226 255
204 226 255
204 226 255
204 226 255
204 226 255
204 226 255
204 226 255
204 226 255
204 226 255
204 226 255
204 226 255
204 226 255
204 226 255
204 226 255
204 226 255
205 226 255
205 226 255
205 226 255
205 226 255
205 226 255
205 226 255
205 226 255
205 227 255
205 227 255
205 227 255
205 227 255
205 227 255
205 227 255
205 227 255
205 227 255
205 227 255
205 227 255
206 227 255
206 227 255
206 227 255
206 227 255
206 227 255
206 227 255
206 227 255
206 227 255
206 227 255
206 227 255
206 227 255
206 227 255
206 227 255
206 227 255
206 227 255
206 227 255
206 227 255
206 227 255
207 227 255
207 227 255
207 227 255
207 227 255
207 228 255
207 228 255
207 228 255
207 228 255
207 228 255
207 228 255
207 228 255
207 228 255
207 228 255
207 228 255
207 228 255
207 228 255
207 228 255
208 228 255
208 228 255
208 228 255
208 228 255
208 228 255
208 228 255
208 228 255
208 228 255
208 228 255
208 228 255
208 228 255
208 228 255
208 228 255
208 228 255
208 228 255
208 228 255
208 228 255
208 228 255
208 228 255
208 228 255
209 228 255
209 229 255
209 229 255
209 229 255
209 229 255
209 229 255
209 229 255
209 229 255
209 229 255
209 229 255
209 229 255
209 229 255
209 229 255
209 229 255
209 229 255
209 229 255
209 229 255
209 229 255
209 229 255
209 229 255
210 229 255
210 229 255
210 229 255
210 229 255
210 229 255
210 229 255
210 229 255
210 229 255
210 229 255
210 229 255
210 229 255
210 229 255
210 229 255
210 229 255
210 229 255
210 229 255
210 229 255
210 229 255
210 229 255
210 229 255
210 229 255
210 230 255
210 230 255
210 230 255
211 230 255
211 230 255
211 230 255
211 230 255
211 230 255
211 230 255
211 230 255
211 230 255
211 230 255
211 230 255
211 230 255
211 230 255
211 230 255
211 230 255
211 230 255
211 230 255
211 230 255
211 230 255
211 230 255
211 230 255
211 230 255
211 230 255
211 230 255
211 230 255
211 230 255
211 230 255
211 230 255
211 230 255
211 230 255
211 230 255
211 230 255
211 230 255
210 230 255
210 230 255
210 230 255
210 229 255
210 229 255
210 229 255
210 229 255
210 229 255
210 229 255
210 229 255
210 229 255
210 229 255
210 229 255
210 229 255
210 229 255
210 229 255
210 229 255
210 229 255
210 229 255
210 229 255
210 229 255
210 229 255
210 229 255
209 229 255
209 229 255
209 229 255
209 229 255
209 229 255
209 229 255
209 229 255
209 229 255
209 229 255
209 229 255
209 229 255
209 229 255
209 229 255
209 229 255
209 229 255
209 229 255
209 229 255
209 229 255
209 229 255
209 229 255
209 228 255
208 228 255
208 228 255
208 228 255
208 228 255
208 228 255
208 228 255
208 228 255
208 228 255
208 228 255
208 228 255
208 228 255
208 228 255
208 228 255
208 228 255
208 228 255
208 228 255
208 228 255
208 228 255
208 228 255
207 228 255
207 228 255
207 228 255
207 228 255
207 228 255
207 228 255
207 228 255
207 228 255
207 228 255
207 228 255
207 228 255
207 228 255
207 228 255
207 228 255
207 227 255
207 227 255
207 227 255
207 227 255
206 227 255
206 227 255
206 227 255
206 227 255
206 227 255
206 227 255
206 227 255
206 227 255
206 227 255
206 227 255
206 227 255
206 227 255
206 227 255
206 227 255
206 227 255
206 227 255
206 227 255
205 227 255
205 227 255
205 227 255
205 227 255
205 227 255
205 227 255
205 227 255
205 227 255
205 227 255
205 227 255
205 227 255
205 226 255
205 226 255
205 226 255
205 226 255
205 226 255
205 226 255
205 226 255
204 226 255
204 226 255
204 226 255
204 226 255
204 226 255
204 226 255
204 226 255
204 226 255
204 226 255
204 226 255
204 226 255
204 226 255
204 226 255
204 226 255
204 226 255
204 226 255
204 226 255
204 226 255
204 226 255
204 226 255
203 226 255
203 226 255
203 226 255
203 226 255
203 226 255
203 226 255
203 226 255
203 226 255
203 226 255
203 226 255
203 225 255
203 225 255
203 225 255
203 225 255
203 225 255
203 225 255
203 225 255
203 225 255
203 225 255
203 225 255
203 225 255
203 225 255
203 225 255
203 225 255
203 225 255
203 225 255
203 225 255
203 225 255
200 222 252
169 188 214
141 156 178
98 110 125
64 71 80
61 69 79
61 69 80
59 67 77
61 68 78
61 68 78
62 70 79
59 67 77
61 69 79
61 69 79
61 68 78
61 68 78
60 67 77
60 67 77
59 66 76
60 67 77
61 69 79
60 67 77
60 67 77
60 68 78
62 69 79
62 69 79
60 68 78
62 70 79
62 69 79
60 68 78
60 68 78
69 78 89
101 112 128
147 164 186
172 191 217
197 219 248
203 225 255
203 225 255
203 225 255
203 225 255
203 225 255
203 225 255
203 225 255
203 225 255
203 225 255
203 225 255
203 225 255
203 225 255
203 225 255
203 225 255
203 225 255
203 225 255
203 225 255
203 225 255
203 226 255
203 226 255
203 226 255
203 226 255
203 226 255
203 226 255
203 226 255
203 226 255
203 226 255
203 226 255
204 226 255
204 226 255
204 226 255
204 226 255
204 226 255
204 226 255
204 226 255
204 226 255
204 226 255
204 226 255
204 226 255
204 226 255
204 226 255
204 226 255
204 226 255
204 226 255
204 226 255
204 226 255
204 226 255
204 226 255
205 226 255
205 226 255
205 226 255
205 226 255
205 226 255
205 226 255
205 226 255
205 227 255
205 227 255
205 227 255
205 227 255
205 227 255
205 227 255
205 227 255
205 227 255
205 227 255
205 227 255
205 227 255
206 227 255
206 227 255
206 227 255
206 227 255
206 227 255
206 227 255
206 227 255
206 227 255
206 227 255
206 227 255
206 227 255
206 227 255
206 227 255
206 227 255
206 227 255
206 227 255
206 227 255
207 227 255
207 227 255
207 227 255
207 227 255
207 228 255
207 228 255
207 228 255
207 228 255
207 228 255
207 228 255
207 228 255
207 228 255
207 228 255
207 228 255
207 228 255
207 228 255
207 228 255
207 228 255
208 228 255
208 228 255
208 228 255
208 228 255
208 228 255
208 228 255
208 228 255
208 228 255
208 228 255
208 228 255
208 228 255
208 228 255
208 228 255
208 228 255
208 228 255
208 228 255
208 228 255
208 228 255
208 228 255
209 228 255
209 229 255
209 229 255
209 229 255
209 229 255
209 229 255
209 229 255
209 229 255
209 229 255
209 229 255
209 229 255
209 229 255
209 229 255
209 229 255
209 229 255
209 229 255
209 229 255
209 229 255
209 229 255
209 229 255
210 229 255
210 229 255
210 229 255
210 229 255
210 229 255
210 229 255
210 229 255
210 229 255
210 229 255
210 229 255
210 229 255
210 229 255
210 229 255
210 229 255
210 229 255
210 229 255
210 229 255
210 229 255
210 229 255
210 229 255
210 229 255
210 230 255
210 230 255
210 230 255
211 230 255
211 230 255
211 230 255
211 230 255
211 230 255
211 230 255
211 230 255
211 230 255
211 230 255
211 230 255
211 230 255
211 230 255
211 230 255
211 230 255
211 230 255
211 230 255
211 230 255
211 230 255
211 230 255
211 230 255
211 230 255
211 230 255
211 230 255
211 230 255
211 230 255
211 230 255
211 230 255
211 230 255
211 230 255
211 230 255
211 230 255
211 230 255
211 230 255
211 230 255
211 230 255
211 230 255
211 230 255
211 230 255
211 230 255
211 230 255
210 230 255
210 230 255
210 230 255
210 229 255
210 229 255
210 229 255
210 229 255
210 229 255
210 229 255
210 229 255
210 229 255
210 229 255
210 229 255
210 229 255
210 229 255
210 229 255
210 229 255
210 229 255
210 229 255
210 229 255
210 229 255
210 229 255
210 229 255
209 229 255
209 229 255
209 229 255
209 229 255
209 229 255
209 229 255
209 229 255
209 229 255
209 229 255
209 229 255
209 229 255
209 229 255
209 229 255
209 229 255
209 229 255
209 229 255
209 229 255
209 229 255
209 229 255
209 228 255
209 228 255
208 228 255
208 228 255
208 228 255
208 228 255
208 228 255
208 228 255
208 228 255
208 228 255
208 228 255
208 228 255
208 228 255
208 228 255
208 228 255
208 228 255
208 228 255
208 228 255
208 228 255
208 228 255
208 228 255
207 228 255
207 228 255
207 228 255
207 228 255
207 228 255
207 228 255
207 228 255
207 228 255
207 228 255
207 228 255
207 228 255
207 228 255
207 228 255
207 227 255
207 227 255
207 227 255
207 227 255
207 227 255
206 227 255
206 227 255
206 227 255
206 227 255
206 227 255
206 227 255
206 227 255
206 227 255
206 227 255
206 227 255
206 227 255
206 227 255
206 227 255
206 227 255
206 227 255
206 227 255
206 227 255
205 227 255
205 227 255
205 227 255
205 227 255
205 227 255
205 227 255
205 227 255
205 227 255
205 227 255
205 227 255
205 227 255
205 226 255
205 226 255
205 226 255
205 226 255
205 226 255
205 226 255
205 226 255
204 226 255
204 226 255
204 226 255
204 226 255
204 226 255
204 226 255
204 226 255
204 226 255
204 226 255
204 226 255
204 226 255
204 226 255
204 226 255
204 226 255
204 226 255
204 226 255
204 226 255
204 226 255
204 226 255
204 226 255
204 226 255
203 226 255
203 226 255
203 226 255
203 226 255
203 226 255
203 226 255
203 226 255
203 226 255
203 226 255
203 226 255
203 226 255
203 226 255
203 225 255
203 225 255
203 225 255
203 225 255
203 225 255
203 225 255
203 225 255
203 225 255
189 211 239
160 178 202
107 120 136
64 72 82
61 68 78
62 69 79
58 66 75
60 67 77
61 68 78
61 69 79
61 69 79
60 68 77
61 68 78
62 69 79
62 69 79
60 68 77
60 67 77
60 68 77
61 68 78
61 69 79
61 69 79
60 68 77
62 69 79
61 68 77
59 66 75
59 66 76
60 67 76
60 67 77
59 66 76
61 69 78
62 70 80
61 68 78
61 69 78
60 68 77
60 68 78
61 68 77
60 68 78
61 68 78
60 68 78
109 122 138
155 172 195
196 218 247
203 225 255
203 225 255
203 225 255
203 225 255
203 225 255
203 225 255
203 225 255
203 225 255
203 226 255
203 226 255
203 226 255
203 226 255
203 226 255
203 226 255
203 226 255
203 226 255
203 226 255
203 226 255
203 226 255
203 226 255
204 226 255
204 226 255
204 226 255
204 226 255
204 226 255
204 226 255
204 226 255
204 226 255
204 226 255
204 226 255
204 226 255
204 226 255
204 226 255
204 226 255
204 226 255
204 226 255
204 226 255
204 226 255
204 226 255
204 226 255
204 226 255
205 226 255
205 226 255
205 226 255
205 226 255
205 226 255
205 226 255
205 226 255
205 227 255
205 227 255
205 227 255
205 227 255
205 227 255
205 227 255
205 227 255
205 227 255
205 227 255
205 227 255
205 227 255
206 227 255
206 227 255
206 227 255
206 227 255
206 227 255
206 227 255
206 227 255
206 227 255
206 227 255
206 227 255
206 227 255
206 227 255
206 227 255
206 227 255
206 227 255
206 227 255
206 227 255
206 227 255
207 227 255
207 227 255
207 227 255
207 227 255
207 228 255
207 228 255
207 228 255
207 228 255
207 228 255
207 228 255
207 228 255
207 228 255
207 228 255
207 228 255
207 228 255
207 228 255
207 228 255
208 228 255
208 228 255
208 228 255
208 228 255
208 228 255
208 228 255
208 228 255
208 228 255
208 228 255
208 228 255
208 228 255
208 228 255
208 228 255
208 228 255
208 228 255
208 228 255
208 228 255
208 228 255
208 228 255
209 228 255
209 229 255
209 229 255
209 229 255
209 229 255
209 229 255
209 229 255
209 229 255
209 229 255
209 229 255
209 229 255
209 229 255
209 229 255
209 229 255
209 229 255
209 229 255
209 229 255
209 229 255
209 229 255
209 229 255
209 229 255
210 229 255
210 229 255
210 229 255
210 229 255
210 229 255
210 229 255
210 229 255
210 229 255
210 229 255
210 229 255
210 229 255
210 229 255
210 229 255
210 229 255
210 229 255
210 229 255
210 229 255
210 229 255
210 229 255
210 229 255
210 230 255
210 230 255
210 230 255
211 230 255
211 230 255
211 230 255
211 230 255
211 230 255
211 230 255
211 230 255
211 230 255
211 230 255
211 230 255
211 230 255
211 230 255
211 230 255
211 230 255
211 230 255
211 230 255
211 230 255
211 230 255
211 230 255
211 230 255
211 230 255
211 230 255
211 230 255
211 230 255
211 230 255
211 230 255
211 230 255
211 230 255
211 230 255
211 230 255
211 230 255
211 230 255
211 230 255
211 230 255
211 230 255
211 230 255
211 230 255
211 230 255
211 230 255
211 230 255
211 230 255
211 230 255
211 230 255
211 230 255
211 230 255
211 230 255
211 230 255
211 230 255
210 230 255
210 230 255
210 230 255
210 229 255
210 229 255
210 229 255
210 229 255
210 229 255
210 229 255
210 229 255
210 229 255
210 229 255
210 229 255
210 229 255
210 229 255
210 229 255
210 229 255
210 229 255
210 229 255
210 229 255
210 229 255
210 229 255
210 229 255
209 229 255
209 229 255
209 229 255
209 229 255
209 229 255
209 229 255
209 229 255
209 229 255
209 229 255
209 229 255
209 229 255
209 229 255
209 229 255
209 229 255
209 229 255
209 229 255
209 229 255
209 229 255
209 229 255
209 228 255
209 228 255
208 228 255
208 228 255
208 228 255
208 228 255
208 228 255
208 228 255
208 228 255
208 228 255
208 228 255
208 228 255
208 228 255
208 228 255
208 228 255
208 228 255
208 228 255
208 228 255
208 228 255
208 228 255
207 228 255
207 228 255
207 228 255
207 228 255
207 228 255
207 228 255
207 228 255
207 228 255
207 228 255
207 228 255
207 228 255
207 228 255
207 228 255
207 228 255
207 227 255
207 227 255
207 227 255
207 227 255
206 227 255
206 227 255
206 227 255
206 227 255
206 227 255
206 227 255
206 227 255
206 227 255
206 227 255
206 227 255
206 227 255
206 227 255
206 227 255
206 227 255
206 227 255
206 227 255
206 227 255
206 227 255
205 227 255
205 227 255
205 227 255
205 227 255
205 227 255
205 227 255
205 227 255
205 227 255
205 227 255
205 227 255
205 227 255
205 226 255
205 226 255
205 226 255
205 226 255
205 226 255
205 226 255
205 226 255
205 226 255
204 226 255
204 226 255
204 226 255
204 226 255
204 226 255
204 226 255
204 226 255
204 226 255
204 226 255
204 226 255
204 226 255
204 226 255
204 226 255
204 226 255
204 226 255
204 226 255
204 226 255
204 226 255
204 226 255
204 226 255
204 226 255
204 226 255
203 226 255
203 226 255
203 226 255
203 226 255
203 226 255
203 226 255
203 226 255
203 226 255
203 226 255
203 226 255
203 226 255
196 217 246
164 182 207
98 109 124
61 69 79
61 68 78
58 65 75
60 68 78
60 67 77
61 68 77
61 68 78
62 69 78
59 67 77
61 68 78
60 67 77
59 67 76
59 67 76
60 67 77
60 68 77
59 66 76
61 68 77
60 67 76
60 68 77
59 67 77
59 66 76
60 67 77
60 67 77
58 65 74
59 66 76
60 67 76
60 67 77
60 68 77
61 68 77
61 68 78
60 67 77
60 68 78
61 68 78
61 68 78
59 66 76
60 67 77
58 66 75
60 68 78
61 68 78
61 69 78
61 69 79
60 67 77
103 115 131
159 176 200
198 220 250
203 226 255
203 226 255
203 226 255
203 226 255
203 226 255
203 226 255
203 226 255
203 226 255
203 226 255
203 226 255
204 226 255
204 226 255
204 226 255
204 226 255
204 226 255
204 226 255
204 226 255
204 226 255
204 226 255
204 226 255
204 226 255
204 226 255
204 226 255
204 226 255
204 226 255
204 226 255
204 226 255
204 226 255
204 226 255
204 226 255
204 226 255
204 226 255
204 226 255
205 226 255
205 226 255
205 226 255
205 226 255
205 226 255
205 226 255
205 226 255
205 226 255
205 227 255
205 227 255
205 227 255
205 227 255
205 227 255
205 227 255
205 227 255
205 227 255
205 227 255
205 227 255
205 227 255
206 227 255
206 227 255
206 227 255
206 227 255
206 227 255
206 227 255
206 227 255
206 227 255
206 227 255
206 227 255
206 227 255
206 227 255
206 227 255
206 227 255
206 227 255
206 227 255
206 227 255
207 227 255
207 227 255
207 227 255
207 227 255
207 227 255
207 228 255
207 228 255
207 228 255
207 228 255
207 228 255
207 228 255
207 228 255
207 228 255
207 228 255
207 228 255
207 228 255
207 228 255
207 228 255
207 228 255
208 228 255
208 228 255
208 228 255
208 228 255
208 228 255
208 228 255
208 228 255
208 228 255
208 228 255
208 228 255
208 228 255
208 228 255
208 228 255
208 228 255
208 228 255
208 228 255
208 228 255
208 228 255
209 228 255
209 228 255
209 229 255
209 229 255
209 229 255
209 229 255
209 229 255
209 229 255
209 229 255
209 229 255
209 229 255
209 229 255
209 229 255
209 229 255
209 229 255
209 229 255
209 229 255
209 229 255
209 229 255
209 229 255
209 229 255
210 229 255
210 229 255
210 229 255
210 229 255
210 229 255
210 229 255
210 229 255
210 229 255
210 229 255
210 229 255
210 229 255
210 229 255
210 229 255
210 229 255
210 229 255
210 229 255
210 229 255
210 229 255
210 229 255
210 229 255
210 230 255
210 230 255
210 230 255
211 230 255
211 230 255
211 230 255
211 230 255
211 230 255
211 230 255
211 230 255
211 230 255
211 230 255
211 230 255
211 230 255
211 230 255
211 230 255
211 230 255
211 230 255
211 230 255
211 230 255
211 230 255
211 230 255
211 230 255
211 230 255
211 230 255
211 230 255
211 230 255
211 230 255
211 230 255
212 230 255
212 230 255
212 230 255
212 230 255
211 230 255
211 230 255
211 230 255
211 230 255
211 230 255
211 230 255
211 230 255
211 230 255
211 230 255
211 230 255
211 230 255
211 230 255
211 230 255
211 230 255
211 230 255
211 230 255
211 230 255
211 230 255
211 230 255
211 230 255
211 230 255
211 230 255
211 230 255
211 230 255
211 230 255
211 230 255
210 230 255
210 230 255
210 230 255
210 229 255
210 229 255
210 229 255
210 229 255
210 229 255
210 229 255
210 229 255
210 229 255
210 229 255
210 229 255
210 229 255
210 229 255
210 229 255
210 229 255
210 229 255
210 229 255
210 229 255
210 229 255
210 229 255
210 229 255
209 229 255
209 229 255
209 229 255
209 229 255
209 229 255
209 229 255
209 229 255
209 229 255
209 229 255
209 229 255
209 229 255
209 229 255
209 229 255
209 229 255
209 229 255
209 229 255
209 229 255
209 229 255
209 229 255
209 228 255
208 228 255
208 228 255
208 228 255
208 228 255
208 228 255
208 228 255
208 228 255
208 228 255
208 228 255
208 228 255
208 228 255
208 228 255
208 228 255
208 228 255
208 228 255
208 228 255
208 228 255
208 228 255
208 228 255
207 228 255
207 228 255
207 228 255
207 228 255
207 228 255
207 228 255
207 228 255
207 228 255
207 228 255
207 228 255
207 228 255
207 228 255
207 228 255
207 228 255
207 227 255
207 227 255
207 227 255
207 227 255
206 227 255
206 227 255
206 227 255
206 227 255
206 227 255
206 227 255
206 227 255
206 227 255
206 227 255
206 227 255
206 227 255
206 227 255
206 227 255
206 227 255
206 227 255
206 227 255
206 227 255
206 227 255
205 227 255
205 227 255
205 227 255
205 227 255
205 227 255
205 227 255
205 227 255
205 227 255
205 227 255
205 227 255
205 227 255
205 227 255
205 226 255
205 226 255
205 226 255
205 226 255
205 226 255
205 226 255
205 226 255
204 226 255
204 226 255
204 226 255
204 226 255
204 226 255
204 226 255
204 226 255
204 226 255
204 226 255
204 226 255
204 226 255
204 226 255
204 226 255
204 226 255
204 226 255
204 226 255
204 226 255
204 226 255
204 226 255
204 226 255
204 226 255
204 226 255
204 226 255
204 226 255
204 226 255
203 226 255
203 226 255
186 206 234
137 152 173
64 71 81
62 69 79
61 68 77
61 68 78
61 69 79
60 67 76
60 67 76
60 67 77
59 66 76
60 67 77
61 68 78
60 67 77
60 67 77
61 68 77
61 68 77
60 68 77
60 68 77
61 68 78
59 67 76
58 65 75
61 68 77
60 67 76
60 67 76
59 66 75
59 66 76
58 66 75
61 68 78
61 68 79
61 68 77
59 66 75
60 67 76
60 67 77
61 68 78
59 66 76
59 66 76
60 67 77
59 66 76
60 67 76
58 65 74
61 68 77
61 68 78
60 67 77
61 68 78
59 66 76
61 68 77
60 67 77
62 69 79
67 75 85
128 143 162
180 199 226
203 226 255
204 226 255
204 226 255
204 226 255
204 226 255
204 226 255
204 226 255
204 226 255
204 226 255
204 226 255
204 226 255
204 226 255
204 226 255
204 226 255
204 226 255
204 226 255
204 226 255
204 226 255
204 226 255
204 226 255
204 226 255
204 226 255
204 226 255
204 226 255
204 226 255
204 226 255
204 226 255
205 226 255
205 226 255
205 226 255
205 226 255
205 226 255
205 226 255
205 226 255
205 226 255
205 227 255
205 227 255
205 227 255
205 227 255
205 227 255
205 227 255
205 227 255
205 227 255
205 227 255
205 227 255
205 227 255
206 227 255
206 227 255
206 227 255
206 227 255
206 227 255
206 227 255
206 227 255
206 227 255
206 227 255
206 227 255
206 227 255
206 227 255
206 227 255
206 227 255
206 227 255
206 227 255
206 227 255
206 227 255
207 227 255
207 227 255
207 227 255
207 227 255
207 228 255
207 228 255
207 228 255
207 228 255
207 228 255
207 228 255
207 228 255
207 228 255
207 228 255
207 228 255
207 228 255
207 228 255
207 228 255
207 228 255
208 228 255
208 228 255
208 228 255
208 228 255
208 228 255
208 228 255
208 228 255
208 228 255
208 228 255
208 228 255
208 228 255
208 228 255
208 228 255
208 228 255
208 228 255
208 228 255
208 228 255
208 228 255
208 228 255
209 228 255
209 229 255
209 229 255
209 229 255
209 229 255
209 229 255
209 229 255
209 229 255
209 229 255
209 229 255
209 229 255
209 229 255
209 229 255
209 229 255
209 229 255
209 229 255
209 229 255
209 229 255
209 229 255
209 229 255
210 229 255
210 229 255
210 229 255
210 229 255
210 229 255
210 229 255
210 229 255
210 229 255
210 229 255
210 229 255
210 229 255
210 229 255
210 229 255
210 229 255
210 229 255
210 229 255
210 229 255
210 229 255
210 229 255
210 229 255
210 230 255
210 230 255
210 230 255
211 230 255
211 230 255
211 230 255
211 230 255
211 230 255
211 230 255
211 230 255
211 230 255
211 230 255
211 230 255
211 230 255
211 230 255
211 230 255
211 230 255
211 230 255
211 230 255
211 230 255
211 230 255
211 230 255
211 230 255
211 230 255
211 230 255
211 230 255
211 230 255
211 230 255
211 230 255
212 230 255
212 230 255
212 230 255
212 230 255
212 230 255
212 230 255
212 230 255
212 230 255
212 230 255
212 230 255
212 230 255
212 230 255
212 230 255
211 230 255
211 230 255
211 230 255
211 230 255
211 230 255
211 230 255
211 230 255
211 230 255
211 230 255
211 230 255
211 230 255
211 230 255
211 230 255
211 230 255
211 230 255
211 230 255
211 230 255
211 230 255
211 230 255
211 230 255
211 230 255
211 230 255
211 230 255
211 230 255
211 230 255
210 230 255
210 230 255
210 230 255
210 229 255
210 229 255
210 229 255
210 229 255
210 229 255
210 229 255
210 229 255
210 229 255
210 229 255
210 229 255
210 229 255
210 229 255
210 229 255
210 229 255
210 229 255
210 229 255
210 229 255
210 229 255
210 229 255
210 229 255
209 229 255
209 229 255
209 229 255
209 229 255
209 229 255
209 229 255
209 229 255
209 229 255
209 229 255
209 229 255
209 229 255
209 229 255
209 229 255
209 229 255
209 229 255
209 229 255
209 229 255
209 229 255
209 229 255
209 228 255
208 228 255
208 228 255
208 228 255
208 228 255
208 228 255
208 228 255
208 228 255
208 228 255
208 228 255
208 228 255
208 228 255
208 228 255
208 228 255
208 228 255
208 228 255
208 228 255
208 228 255
208 228 255
208 228 255
207 228 255
207 228 255
207 228 255
207 228 255
207 228 255
207 228 255
207 228 255
207 228 255
207 228 255
207 228 255
207 228 255
207 228 255
207 228 255
207 227 255
207 227 255
207 227 255
207 227 255
207 227 255
206 227 255
206 227 255
206 227 255
206 227 255
206 227 255
206 227 255
206 227 255
206 227 255
206 227 255
206 227 255
206 227 255
206 227 255
206 227 255
206 227 255
206 227 255
206 227 255
206 227 255
206 227 255
205 227 255
205 227 255
205 227 255
205 227 255
205 227 255
205 227 255
205 227 255
205 227 255
205 227 255
205 227 255
205 227 255
205 227 255
205 226 255
205 226 255
205 226 255
205 226 255
205 226 255
205 226 255
205 226 255
205 226 255
204 226 255
204 226 255
204 226 255
204 226 255
204 226 255
204 226 255
204 226 255
204 226 255
204 226 255
204 226 255
204 226 255
204 226 255
204 226 255
204 226 255
204 226 255
204 226 255
204 226 255
204 226 255
204 226 255
202 224 253
166 184 208
94 105 119
60 67 77
61 68 78
61 68 78
59 67 76
59 66 76
59 66 75
59 66 76
62 69 78
60 68 77
61 68 77
60 67 76
60 67 77
59 66 76
61 68 77
60 67 76
61 69 78
60 67 77
60 67 76
59 66 76
58 65 74
59 66 75
59 66 74
57 64 74
60 67 77
60 67 76
59 66 76
58 65 74
60 67 76
60 67 77
59 66 76
59 66 76
60 67 76
61 68 77
59 66 75
60 67 77
57 64 74
61 68 78
61 68 78
59 66 75
60 66 76
59 66 76
62 69 79
60 67 77
60 67 76
61 69 78
59 67 76
60 68 77
60 67 77
61 69 79
59 66 76
60 68 77
60 67 77
98 109 124
167 185 210
202 224 253
204 226 255
204 226 255
204 226 255
204 226 255
204 226 255
204 226 255
204 226 255
204 226 255
204 226 255
204 226 255
204 226 255
204 226 255
204 226 255
204 226 255
204 226 255
204 226 255
204 226 255
204 226 255
205 226 255
205 226 255
205 226 255
205 226 255
205 226 255
205 226 255
205 226 255
205 226 255
205 226 255
205 227 255
205 227 255
205 227 255
205 227 255
205 227 255
205 227 255
205 227 255
205 227 255
205 227 255
205 227 255
205 227 255
205 227 255
206 227 255
206 227 255
206 227 255
206 227 255
206 227 255
206 227 255
206 227 255
206 227 255
206 227 255
206 227 255
206 227 255
206 227 255
206 227 255
206 227 255
206 227 255
206 227 255
206 227 255
206 227 255
207 227 255
207 227 255
207 227 255
207 227 255
207 228 255
207 228 255
207 228 255
207 228 255
207 228 255
207 228 255
207 228 255
207 228 255
207 228 255
207 228 255
207 228 255
207 228 255
207 228 255
207 228 255
208 228 255
208 228 255
208 228 255
208 228 255
208 228 255
208 228 255
208 228 255
208 228 255
208 228 255
208 228 255
208 228 255
208 228 255
208 228 255
208 228 255
208 228 255
208 228 255
208 228 255
208 228 255
208 228 255
209 228 255
209 229 255
209 229 255
209 229 255
209 229 255
209 229 255
209 229 255
209 229 255
209 229 255
209 229 255
209 229 255
209 229 255
209 229 255
209 229 255
209 229 255
209 229 255
209 229 255
209 229 255
209 229 255
209 229 255
210 229 255
210 229 255
210 229 255
210 229 255
210 229 255
210 229 255
210 229 255
210 229 255
210 229 255
210 229 255
210 229 255
210 229 255
210 229 255
210 229 255
210 229 255
210 229 255
210 229 255
210 229 255
210 229 255
210 229 255
210 230 255
210 230 255
211 230 255
211 230 255
211 230 255
211 230 255
211 230 255
211 230 255
211 230 255
211 230 255
211 230 255
211 230 255
211 230 255
211 230 255
211 230 255
211 230 255
211 230 255
211 230 255
211 230 255
211 230 255
211 230 255
211 230 255
211 230 255
211 230 255
211 230 255
211 230 255
211 230 255
211 230 255
212 230 255
212 230 255
212 230 255
212 230 255
212 230 255
212 230 255
212 230 255
212 230 255
212 230 255
212 230 255
212 230 255
212 230 255
212 230 255
212 230 255
212 230 255
212 230 255
212 230 255
212 230 255
212 230 255
212 230 255
212 230 255
212 230 255
211 230 255
211 230 255
211 230 255
211 230 255
211 230 255
211 230 255
211 230 255
211 230 255
211 230 255
211 230 255
211 230 255
211 230 255
211 230 255
211 230 255
211 230 255
211 230 255
211 230 255
211 230 255
211 230 255
211 230 255
211 230 255
211 230 255
211 230 255
211 230 255
211 230 255
210 230 255
210 230 255
210 230 255
210 229 255
210 229 255
210 229 255
210 229 255
210 229 255
210 229 255
210 229 255
210 229 255
210 229 255
210 229 255
210 229 255
210 229 255
210 229 255
210 229 255
210 229 255
210 229 255
210 229 255
210 229 255
210 229 255
210 229 255
209 229 255
209 229 255
209 229 255
209 229 255
209 229 255
209 229 255
209 229 255
209 229 255
209 229 255
209 229 255
209 229 255
209 229 255
209 229 255
209 229 255
209 229 255
209 229 255
209 229 255
209 229 255
209 229 255
209 228 255
208 228 255
208 228 255
208 228 255
208 228 255
208 228 255
208 228 255
208 228 255
208 228 255
208 228 255
208 228 255
208 228 255
208 228 255
208 228 255
208 228 255
208 228 255
208 228 255
208 228 255
208 228 255
208 228 255
207 228 255
207 228 255
207 228 255
207 228 255
207 228 255
207 228 255
207 228 255
207 228 255
207 228 255
207 228 255
207 228 255
207 228 255
207 228 255
207 228 255
207 227 255
207 227 255
207 227 255
207 227 255
206 227 255
206 227 255
206 227 255
206 227 255
206 227 255
206 227 255
206 227 255
206 227 255
206 227 255
206 227 255
206 227 255
206 227 255
206 227 255
206 227 255
206 227 255
206 227 255
206 227 255
206 227 255
206 227 255
205 227 255
205 227 255
205 227 255
205 227 255
205 227 255
205 227 255
205 227 255
205 227 255
205 227 255
205 227 255
205 227 255
205 227 255
205 226 255
205 226 255
205 226 255
205 226 255
205 226 255
205 226 255
205 226 255
205 226 255
205 226 255
204 226 255
204 226 255
204 226 255
204 226 255
204 226 255
204 226 255
204 226 255
204 226 255
204 226 255
204 226 255
204 226 255
202 224 253
172 190 216
89 99 112
60 67 77
60 68 77
60 67 77
58 65 75
58 65 74
62 69 79
59 66 75
61 68 77
60 66 75
59 66 75
60 67 76
60 68 77
59 65 74
60 67 76
61 68 78
60 67 76
60 67 76
61 68 77
60 67 76
60 68 78
61 69 78
57 65 74
58 65 74
60 67 76
59 66 75
58 65 75
60 67 76
61 67 76
58 65 73
58 65 74
60 67 76
58 65 74
59 66 75
60 67 76
60 67 76
59 67 76
60 67 77
59 66 76
60 67 77
59 66 76
60 67 76
61 67 77
60 67 76
59 67 76
58 65 75
60 67 76
62 69 79
59 66 75
61 68 78
60 67 77
60 68 77
60 67 77
58 65 75
60 67 77
61 68 77
60 68 78
101 112 127
176 195 221
202 224 253
204 226 255
204 226 255
204 226 255
204 226 255
204 226 255
204 226 255
204 226 255
204 226 255
204 226 255
204 226 255
204 226 255
205 226 255
205 226 255
205 226 255
205 226 255
205 226 255
205 226 255
205 226 255
205 226 255
205 226 255
205 227 255
205 227 255
205 227 255
205 227 255
205 227 255
205 227 255
205 227 255
205 227 255
205 227 255
205 227 255
205 227 255
205 227 255
206 227 255
206 227 255
206 227 255
206 227 255
206 227 255
206 227 255
206 227 255
206 227 255
206 227 255
206 227 255
206 227 255
206 227 255
206 227 255
206 227 255
206 227 255
206 227 255
206 227 255
206 227 255
206 227 255
207 227 255
207 227 255
207 227 255
207 227 255
207 228 255
207 228 255
207 228 255
207 228 255
207 228 255
207 228 255
207 228 255
207 228 255
207 228 255
207 228 255
207 228 255
207 228 255
207 228 255
207 228 255
208 228 255
208 228 255
208 228 255
208 228 255
208 228 255
208 228 255
208 228 255
208 228 255
208 228 255
208 228 255
208 228 255
208 228 255
208 228 255
208 228 255
208 228 255
208 228 255
208 228 255
208 228 255
208 228 255
209 228 255
209 229 255
209 229 255
209 229 255
209 229 255
209 229 255
209 229 255
209 229 255
209 229 255
209 229 255
209 229 255
209 229 255
209 229 255
209 229 255
209 229 255
209 229 255
209 229 255
209 229 255
209 229 255
209 229 255
210 229 255
210 229 255
210 229 255
210 229 255
210 229 255
210 229 255
210 229 255
210 229 255
210 229 255
210 229 255
210 229 255
210 229 255
210 229 255
210 229 255
210 229 255
210 229 255
210 229 255
210 229 255
210 229 255
210 229 255
210 230 255
210 230 255
211 230 255
211 230 255
211 230 255
211 230 255
211 230 255
211 230 255
211 230 255
211 230 255
211 230 255
211 230 255
211 230 255
211 230 255
211 230 255
211 230 255
211 230 255
211 230 255
211 230 255
211 230 255
211 230 255
211 230 255
211 230 255
211 230 255
211 230 255
211 230 255
211 230 255
211 230 255
212 230 255
212 230 255
212 230 255
212 230 255
212 230 255
212 230 255
212 230 255
212 230 255
212 230 255
212 230 255
212 230 255
212 230 255
212 230 255
212 230 255
212 230 255
212 230 255
212 230 255
212 230 255
212 230 255
212 230 255
212 230 255
212 230 255
212 230 255
212 230 255
212 230 255
212 230 255
212 230 255
212 230 255
212 230 255
212 230 255
211 230 255
211 230 255
211 230 255
211 230 255
211 230 255
211 230 255
211 230 255
211 230 255
211 230 255
211 230 255
211 230 255
211 230 255
211 230 255
211 230 255
211 230 255
211 230 255
211 230 255
211 230 255
211 230 255
211 230 255
211 230 255
211 230 255
211 230 255
211 230 255
211 230 255
211 230 255
210 230 255
210 230 255
210 229 255
210 229 255
210 229 255
210 229 255
210 229 255
210 229 255
210 229 255
210 229 255
210 229 255
210 229 255
210 229 255
210 229 255
210 229 255
210 229 255
210 229 255
210 229 255
210 229 255
210 229 255
210 229 255
210 229 255
209 229 255
209 229 255
209 229 255
209 229 255
209 229 255
209 229 255
209 229 255
209 229 255
209 229 255
209 229 255
209 229 255
209 229 255
209 229 255
209 229 255
209 229 255
209 229 255
209 229 255
209 229 255
209 229 255
209 228 255
208 228 255
208 228 255
208 228 255
208 228 255
208 228 255
208 228 255
208 228 255
208 228 255
208 228 255
208 228 255
208 228 255
208 228 255
208 228 255
208 228 255
208 228 255
208 228 255
208 228 255
208 228 255
208 228 255
207 228 255
207 228 255
207 228 255
207 228 255
207 228 255
207 228 255
207 228 255
207 228 255
207 228 255
207 228 255
207 228 255
207 228 255
207 228 255
207 228 255
207 227 255
207 227 255
207 227 255
207 227 255
206 227 255
206 227 255
206 227 255
206 227 255
206 227 255
206 227 255
206 227 255
206 227 255
206 227 255
206 227 255
206 227 255
206 227 255
206 227 255
206 227 255
206 227 255
206 227 255
206 227 255
206 227 255
206 227 255
205 227 255
205 227 255
205 227 255
205 227 255
205 227 255
205 227 255
205 227 255
205 227 255
205 227 255
205 227 255
205 227 255
205 227 255
205 227 255
205 226 255
205 226 255
205 226 255
205 226 255
205 226 255
205 226 255
205 226 255
205 226 255
205 226 255
205 226 255
204 226 255
204 226 255
204 226 255
204 226 255
177 196 222
91 101 115
60 68 77
60 68 78
60 68 77
59 66 76
58 66 76
61 68 77
60 67 77
55 62 72
60 67 77
58 66 75
59 66 75
58 64 73
59 66 76
60 67 77
58 65 74
60 68 78
60 67 77
60 67 76
59 66 76
60 67 76
60 67 76
57 64 73
58 65 74
60 67 76
59 66 75
59 66 75
59 66 74
57 64 74
59 66 75
60 67 76
59 66 76
58 65 74
59 66 76
60 67 76
60 67 77
57 63 72
61 67 76
57 64 73
57 64 74
60 66 75
59 65 74
59 66 75
60 67 76
57 64 73
60 67 77
60 67 77
58 65 74
60 67 76
58 65 75
60 67 77
58 65 75
59 66 76
60 67 77
59 66 76
59 67 77
59 66 76
60 66 76
60 67 77
62 69 79
62 69 79
111 123 140
168 186 211
204 226 255
204 226 255
204 226 255
204 226 255
205 226 255
205 226 255
205 226 255
205 226 255
205 226 255
205 226 255
205 226 255
205 226 255
205 226 255
205 226 255
205 227 255
205 227 255
205 227 255
205 227 255
205 227 255
205 227 255
205 227 255
205 227 255
205 227 255
205 227 255
205 227 255
205 227 255
206 227 255
206 227 255
206 227 255
206 227 255
206 227 255
206 227 255
206 227 255
206 227 255
206 227 255
206 227 255
206 227 255
206 227 255
206 227 255
206 227 255
206 227 255
206 227 255
206 227 255
206 227 255
206 227 255
206 227 255
207 227 255
207 227 255
207 227 255
207 227 255
207 228 255
207 228 255
207 228 255
207 228 255
207 228 255
207 228 255
207 228 255
207 228 255
207 228 255
207 228 255
207 228 255
207 228 255
207 228 255
207 228 255
208 228 255
208 228 255
208 228 255
208 228 255
208 228 255
208 228 255
208 228 255
208 228 255
208 228 255
208 228 255
208 228 255
208 228 255
208 228 255
208 228 255
208 228 255
208 228 255
208 228 255
208 228 255
208 228 255
209 228 255
209 229 255
209 229 255
209 229 255
209 229 255
209 229 255
209 229 255
209 229 255
209 229 255
209 229 255
209 229 255
209 229 255
209 229 255
209 229 255
209 229 255
209 229 255
209 229 255
209 229 255
209 229 255
209 229 255
210 229 255
210 229 255
210 229 255
210 229 255
210 229 255
210 229 255
210 229 255
210 229 255
210 229 255
210 229 255
210 229 255
210 229 255
210 229 255
210 229 255
210 229 255
210 229 255
210 229 255
210 229 255
210 229 255
210 229 255
210 230 255
210 230 255
211 230 255
211 230 255
211 230 255
211 230 255
211 230 255
211 230 255
211 230 255
211 230 255
211 230 255
211 230 255
211 230 255
211 230 255
211 230 255
211 230 255
211 230 255
211 230 255
211 230 255
211 230 255
211 230 255
211 230 255
211 230 255
211 230 255
211 230 255
211 230 255
211 230 255
211 230 255
212 230 255
212 230 255
212 230 255
212 230 255
212 230 255
212 230 255
212 230 255
212 230 255
212 230 255
212 230 255
212 230 255
212 230 255
212 230 255
212 230 255
212 230 255
212 230 255
212 230 255
212 231 255
212 231 255
212 230 255
212 230 255
212 230 255
212 230 255
212 230 255
212 230 255
212 230 255
212 230 255
212 230 255
212 230 255
212 230 255
212 230 255
212 230 255
212 230 255
212 230 255
212 230 255
212 230 255
212 230 255
212 230 255
212 230 255
211 230 255
211 230 255
211 230 255
211 230 255
211 230 255
211 230 255
211 230 255
211 230 255
211 230 255
211 230 255
211 230 255
211 230 255
211 230 255
211 230 255
211 230 255
211 230 255
211 230 255
211 230 255
211 230 255
211 230 255
211 230 255
211 230 255
211 230 255
211 230 255
211 230 255
210 230 255
210 230 255
210 229 255
210 229 255
210 229 255
210 229 255
210 229 255
210 229 255
210 229 255
210 229 255
210 229 255
210 229 255
210 229 255
210 229 255
210 229 255
210 229 255
210 229 255
210 229 255
210 229 255
210 229 255
210 229 255
210 229 255
209 229 255
209 229 255
209 229 255
209 229 255
209 229 255
209 229 255
209 229 255
209 229 255
209 229 255
209 229 255
209 229 255
209 229 255
209 229 255
209 229 255
209 229 255
209 229 255
209 229 255
209 229 255
209 228 255
209 228 255
208 228 255
208 228 255
208 228 255
208 228 255
208 228 255
208 228 255
208 228 255
208 228 255
208 228 255
208 228 255
208 228 255
208 228 255
208 228 255
208 228 255
208 228 255
208 228 255
208 228 255
208 228 255
208 228 255
207 228 255
207 228 255
207 228 255
207 228 255
207 228 255
207 228 255
207 228 255
207 228 255
207 228 255
207 228 255
207 228 255
207 228 255
207 228 255
207 228 255
207 227 255
207 227 255
207 227 255
207 227 255
207 227 255
206 227 255
206 227 255
206 227 255
206 227 255
206 227 255
206 227 255
206 227 255
206 227 255
206 227 255
206 227 255
206 227 255
206 227 255
206 227 255
206 227 255
206 227 255
206 227 255
206 227 255
206 227 255
206 227 255
205 227 255
205 227 255
205 227 255
205 227 255
205 227 255
205 227 255
205 227 255
205 227 255
205 227 255
205 227 255
205 227 255
205 227 255
205 227 255
205 227 255
205 226 255
205 226 255
205 226 255
205 226 255
205 226 255
205 226 255
196 217 245
117 130 147
60 68 77
59 66 76
60 67 77
62 69 78
59 67 76
59 66 74
59 66 76
59 66 76
59 66 76
60 67 76
60 67 76
59 66 75
59 66 76
59 67 76
59 65 74
60 66 75
60 67 76
59 65 74
61 68 78
58 65 75
59 66 75
58 65 74
58 66 75
58 65 75
60 67 77
60 67 77
61 68 77
59 65 74
60 67 77
57 64 74
59 66 74
60 67 76
58 65 74
59 66 75
61 67 77
60 67 75
59 66 75
59 66 75
57 64 73
58 65 75
56 63 72
59 66 75
58 65 74
58 65 74
59 66 75
60 67 76
59 66 75
58 65 74
59 65 74
59 66 75
59 66 76
61 68 77
62 69 78
58 66 75
59 66 76
61 67 77
60 67 77
61 68 77
60 67 77
60 66 75
61 68 77
58 66 75
58 65 75
62 69 79
113 126 143
191 211 238
205 226 255
205 226 255
205 226 255
205 226 255
205 226 255
205 226 255
205 227 255
205 227 255
205 227 255
205 227 255
205 227 255
205 227 255
205 227 255
205 227 255
205 227 255
205 227 255
205 227 255
205 227 255
205 227 255
205 227 255
206 227 255
206 227 255
206 227 255
206 227 255
206 227 255
206 227 255
206 227 255
206 227 255
206 227 255
206 227 255
206 227 255
206 227 255
206 227 255
206 227 255
206 227 255
206 227 255
206 227 255
206 227 255
206 227 255
207 227 255
207 227 255
207 227 255
207 227 255
207 227 255
207 228 255
207 228 255
207 228 255
207 228 255
207 228 255
207 228 255
207 228 255
207 228 255
207 228 255
207 228 255
207 228 255
207 228 255
207 228 255
207 228 255
208 228 255
208 228 255
208 228 255
208 228 255
208 228 255
208 228 255
208 228 255
208 228 255
208 228 255
208 228 255
208 228 255
208 228 255
208 228 255
208 228 255
208 228 255
208 228 255
208 228 255
208 228 255
208 228 255
209 228 255
209 229 255
209 229 255
209 229 255
209 229 255
209 229 255
209 229 255
209 229 255
209 229 255
209 229 255
209 229 255
209 229 255
209 229 255
209 229 255
209 229 255
209 229 255
209 229 255
209 229 255
209 229 255
209 229 255
210 229 255
210 229 255
210 229 255
210 229 255
210 229 255
210 229 255
210 229 255
210 229 255
210 229 255
210 229 255
210 229 255
210 229 255
210 229 255
210 229 255
210 229 255
210 229 255
210 229 255
210 229 255
210 229 255
210 229 255
210 230 255
210 230 255
211 230 255
211 230 255
211 230 255
211 230 255
211 230 255
211 230 255
211 230 255
211 230 255
211 230 255
211 230 255
211 230 255
211 230 255
211 230 255
211 230 255
211 230 255
211 230 255
211 230 255
211 230 255
211 230 255
211 230 255
211 230 255
211 230 255
211 230 255
211 230 255
211 230 255
212 230 255
212 230 255
212 230 255
212 230 255
212 230 255
212 230 255
212 230 255
212 230 255
212 230 255
212 230 255
212 230 255
212 230 255
212 230 255
212 230 255
212 230 255
212 230 255
212 230 255
212 230 255
212 230 255
212 230 255
212 231 255
212 231 255
212 231 255
212 231 255
212 231 255
212 231 255
212 231 255
212 231 255
212 230 255
212 230 255
212 230 255
212 230 255
212 230 255
212 230 255
212 230 255
212 230 255
212 230 255
212 230 255
212 230 255
212 230 255
212 230 255
212 230 255
212 230 255
212 230 255
212 230 255
212 230 255
212 230 255
212 230 255
211 230 255
211 230 255
211 230 255
211 230 255
211 230 255
211 230 255
211 230 255
211 230 255
211 230 255
211 230 255
211 230 255
211 230 255
211 230 255
211 230 255
211 230 255
211 230 255
211 230 255
211 230 255
211 230 255
211 230 255
211 230 255
211 230 255
211 230 255
211 230 255
211 230 255
210 230 255
210 230 255
210 229 255
210 229 255
210 229 255
210 229 255
210 229 255
210 229 255
210 229 255
210 229 255
210 229 255
210 229 255
210 229 255
210 229 255
210 229 255
210 229 255
210 229 255
210 229 255
210 229 255
210 229 255
210 229 255
210 229 255
209 229 255
209 229 255
209 229 255
209 229 255
209 229 255
209 229 255
209 229 255
209 229 255
209 229 255
209 229 255
209 229 255
209 229 255
209 229 255
209 229 255
209 229 255
209 229 255
209 229 255
209 229 255
209 228 255
209 228 255
208 228 255
208 228 255
208 228 255
208 228 255
208 228 255
208 228 255
208 228 255
208 228 255
208 228 255
208 228 255
208 228 255
208 228 255
208 228 255
208 228 255
208 228 255
208 228 255
208 228 255
208 228 255
208 228 255
207 228 255
207 228 255
207 228 255
207 228 255
207 228 255
207 228 255
207 228 255
207 228 255
207 228 255
207 228 255
207 228 255
207 228 255
207 228 255
207 228 255
207 227 255
207 227 255
207 227 255
207 227 255
207 227 255
206 227 255
206 227 255
206 227 255
206 227 255
206 227 255
206 227 255
206 227 255
206 227 255
206 227 255
206 227 255
206 227 255
206 227 255
206 227 255
206 227 255
206 227 255
206 227 255
206 227 255
206 227 255
206 227 255
206 227 255
206 227 255
205 227 255
205 227 255
205 227 255
205 227 255
205 227 255
205 227 255
205 227 255
205 227 255
205 227 255
205 227 255
205 227 255
205 227 255
201 222 251
146 162 183
69 77 88
59 66 76
61 68 77
60 67 76
60 67 76
59 66 76
57 64 74
59 67 76
60 67 77
59 66 76
60 67 76
60 67 76
60 67 77
60 67 76
60 68 77
58 66 75
59 66 75
58 65 74
59 67 76
58 65 74
59 66 74
59 66 75
61 68 78
60 67 76
61 68 77
59 65 74
59 66 75
61 68 77
58 65 74
58 65 74
58 65 74
59 66 76
58 65 74
57 64 73
58 65 74
60 66 75
58 65 74
57 63 72
58 65 74
61 68 77
59 66 75
60 67 76
58 64 74
59 66 75
59 65 74
56 63 72
61 68 77
61 69 78
60 66 75
60 67 76
59 66 76
59 66 75
60 68 77
59 66 74
60 67 77
59 66 75
60 67 76
60 68 77
60 67 76
60 67 76
59 66 75
59 67 76
61 68 78
60 68 77
60 67 77
60 67 77
60 68 77
59 67 77
146 162 183
201 222 251
205 227 255
205 227 255
205 227 255
205 227 255
205 227 255
205 227 255
205 227 255
205 227 255
205 227 255
205 227 255
205 227 255
205 227 255
206 227 255
206 227 255
206 227 255
206 227 255
206 227 255
206 227 255
206 227 255
206 227 255
206 227 255
206 227 255
206 227 255
206 227 255
206 227 255
206 227 255
206 227 255
206 227 255
206 227 255
206 227 255
206 227 255
206 227 255
206 227 255
207 227 255
207 227 255
207 227 255
207 227 255
207 227 255
207 228 255
207 228 255
207 228 255
207 228 255
207 228 255
207 228 255
207 228 255
207 228 255
207 228 255
207 228 255
207 228 255
207 228 255
207 228 255
207 228 255
208 228 255
208 228 255
208 228 255
208 228 255
208 228 255
208 228 255
208 228 255
208 228 255
208 228 255
208 228 255
208 228 255
208 228 255
208 228 255
208 228 255
208 228 255
208 228 255
208 228 255
208 228 255
208 228 255
209 228 255
209 229 255
209 229 255
209 229 255
209 229 255
209 229 255
209 229 255
209 229 255
209 229 255
209 229 255
209 229 255
209 229 255
209 229 255
209 229 255
209 229 255
209 229 255
209 229 255
209 229 255
209 229 255
209 229 255
210 229 255
210 229 255
210 229 255
210 229 255
210 229 255
210 229 255
210 229 255
210 229 255
210 229 255
210 229 255
210 229 255
210 229 255
210 229 255
210 229 255
210 229 255
210 229 255
210 229 255
210 229 255
210 229 255
210 229 255
210 230 255
210 230 255
211 230 255
211 230 255
211 230 255
211 230 255
211 230 255
211 230 255
211 230 255
211 230 255
211 230 255
211 230 255
211 230 255
211 230 255
211 230 255
211 230 255
211 230 255
211 230 255
211 230 255
211 230 255
211 230 255
211 230 255
211 230 255
211 230 255
211 230 255
211 230 255
211 230 255
212 230 255
212 230 255
212 230 255
212 230 255
212 230 255
212 230 255
212 230 255
212 230 255
212 230 255
212 230 255
212 230 255
212 230 255
212 230 255
212 230 255
212 230 255
212 230 255
212 230 255
212 230 255
212 230 255
212 230 255
212 231 255
212 231 255
212 231 255
212 231 255
212 231 255
212 231 255
213 231 255
213 231 255
212 231 255
212 231 255
212 231 255
212 231 255
212 231 255
212 231 255
212 231 255
212 231 255
212 231 255
212 230 255
212 230 255
212 230 255
212 230 255
212 230 255
212 230 255
212 230 255
212 230 255
212 230 255
212 230 255
212 230 255
212 230 255
212 230 255
212 230 255
212 230 255
212 230 255
212 230 255
212 230 255
212 230 255
212 230 255
211 230 255
211 230 255
211 230 255
211 230 255
211 230 255
211 230 255
211 230 255
211 230 255
211 230 255
211 230 255
211 230 255
211 230 255
211 230 255
211 230 255
211 230 255
211 230 255
211 230 255
211 230 255
211 230 255
211 230 255
211 230 255
211 230 255
211 230 255
211 230 255
210 230 255
210 230 255
210 230 255
210 229 255
210 229 255
210 229 255
210 229 255
210 229 255
210 229 255
210 229 255
210 229 255
210 229 255
210 229 255
210 229 255
210 229 255
210 229 255
210 229 255
210 229 255
210 229 255
210 229 255
210 229 255
210 229 255
209 229 255
209 229 255
209 229 255
209 229 255
209 229 255
209 229 255
209 229 255
209 229 255
209 229 255
209 229 255
209 229 255
209 229 255
209 229 255
209 229 255
209 229 255
209 229 255
209 229 255
209 229 255
209 229 255
209 228 255
208 228 255
208 228 255
208 228 255
208 228 255
208 228 255
208 228 255
208 228 255
208 228 255
208 228 255
208 228 255
208 228 255
208 228 255
208 228 255
208 228 255
208 228 255
208 228 255
208 228 255
208 228 255
208 228 255
207 228 255
207 228 255
207 228 255
207 228 255
207 228 255
207 228 255
207 228 255
207 228 255
207 228 255
207 228 255
207 228 255
207 228 255
207 228 255
207 228 255
207 228 255
207 227 255
207 227 255
207 227 255
207 227 255
207 227 255
206 227 255
206 227 255
206 227 255
206 227 255
206 227 255
206 227 255
206 227 255
206 227 255
206 227 255
206 227 255
206 227 255
206 227 255
206 227 255
206 227 255
206 227 255
206 227 255
206 227 255
206 227 255
206 227 255
206 227 255
206 227 255
206 227 255
205 227 255
205 227 255
205 227 255
205 227 255
205 227 255
192 213 240
96 106 120
58 66 76
59 66 76
59 66 75
59 66 75
59 67 76
60 68 77
61 68 77
58 65 74
59 65 74
57 64 73
59 66 76
59 66 75
60 68 77
60 67 76
59 66 75
59 66 75
59 66 75
61 68 77
59 66 75
58 65 75
59 65 74
59 66 75
59 66 75
59 65 74
58 65 74
60 67 76
60 66 75
57 65 74
60 67 76
60 67 77
59 66 76
58 65 74
57 64 73
60 67 76
55 62 70
60 66 75
56 63 71
60 67 76
60 66 76
59 66 75
59 65 74
61 67 76
60 67 76
59 65 74
61 67 77
59 66 75
60 67 76
59 65 74
59 66 74
58 64 73
59 66 75
58 65 74
57 64 73
57 64 73
59 66 75
58 65 74
60 67 76
58 65 74
58 64 74
59 66 76
58 65 73
58 65 74
59 66 75
58 65 74
58 65 74
59 67 77
58 65 75
59 66 74
59 66 75
60 68 77
89 99 112
184 203 229
205 227 255
205 227 255
205 227 255
205 227 255
205 227 255
206 227 255
206 227 255
206 227 255
206 227 255
206 227 255
206 227 255
206 227 255
206 227 255
206 227 255
206 227 255
206 227 255
206 227 255
206 227 255
206 227 255
206 227 255
206 227 255
206 227 255
206 227 255
206 227 255
206 227 255
206 227 255
206 227 255
207 227 255
207 227 255
207 227 255
207 227 255
207 227 255
207 228 255
207 228 255
207 228 255
207 228 255
207 228 255
207 228 255
207 228 255
207 228 255
207 228 255
207 228 255
207 228 255
207 228 255
207 228 255
207 228 255
207 228 255
208 228 255
208 228 255
208 228 255
208 228 255
208 228 255
208 228 255
208 228 255
208 228 255
208 228 255
208 228 255
208 228 255
208 228 255
208 228 255
208 228 255
208 228 255
208 228 255
208 228 255
208 228 255
208 228 255
209 228 255
209 229 255
209 229 255
209 229 255
209 229 255
209 229 255
209 229 255
209 229 255
209 229 255
209 229 255
209 229 255
209 229 255
209 229 255
209 229 255
209 229 255
209 229 255
209 229 255
209 229 255
209 229 255
209 229 255
210 229 255
210 229 255
210 229 255
210 229 255
210 229 255
210 229 255
210 229 255
210 229 255
210 229 255
210 229 255
210 229 255
210 229 255
210 229 255
210 229 255
210 229 255
210 229 255
210 229 255
210 229 255
210 229 255
210 230 255
210 230 255
210 230 255
211 230 255
211 230 255
211 230 255
211 230 255
211 230 255
211 230 255
211 230 255
211 230 255
211 230 255
211 230 255
211 230 255
211 230 255
211 230 255
211 230 255
211 230 255
211 230 255
211 230 255
211 230 255
211 230 255
211 230 255
211 230 255
211 230 255
211 230 255
211 230 255
212 230 255
212 230 255
212 230 255
212 230 255
212 230 255
212 230 255
212 230 255
212 230 255
212 230 255
212 230 255
212 230 255
212 230 255
212 230 255
212 230 255
212 230 255
212 230 255
212 230 255
212 230 255
212 230 255
212 230 255
212 231 255
212 231 255
212 231 255
212 231 255
212 231 255
212 231 255
212 231 255
212 231 255
212 231 255
213 231 255
213 231 255
213 231 255
213 231 255
213 231 255
213 231 255
213 231 255
213 231 255
213 231 255
212 231 255
212 231 255
212 231 255
212 231 255
212 231 255
212 231 255
212 231 255
212 231 255
212 231 255
212 230 255
212 230 255
212 230 255
212 230 255
212 230 255
212 230 255
212 230 255
212 230 255
212 230 255
212 230 255
212 230 255
212 230 255
212 230 255
212 230 255
212 230 255
212 230 255
212 230 255
212 230 255
212 230 255
211 230 255
211 230 255
211 230 255
211 230 255
211 230 255
211 230 255
211 230 255
211 230 255
211 230 255
211 230 255
211 230 255
211 230 255
211 230 255
211 230 255
211 230 255
211 230 255
211 230 255
211 230 255
211 230 255
211 230 255
211 230 255
211 230 255
211 230 255
211 230 255
211 230 255
210 230 255
210 230 255
210 229 255
210 229 255
210 229 255
210 229 255
210 229 255
210 229 255
210 229 255
210 229 255
210 229 255
210 229 255
210 229 255
210 229 255
210 229 255
210 229 255
210 229 255
210 229 255
210 229 255
210 229 255
210 229 255
209 229 255
209 229 255
209 229 255
209 229 255
209 229 255
209 229 255
209 229 255
209 229 255
209 229 255
209 229 255
209 229 255
209 229 255
209 229 255
209 229 255
209 229 255
209 229 255
209 229 255
209 229 255
209 229 255
209 228 255
208 228 255
208 228 255
208 228 255
208 228 255
208 228 255
208 228 255
208 228 255
208 228 255
208 228 255
208 228 255
208 228 255
208 228 255
208 228 255
208 228 255
208 228 255
208 228 255
208 228 255
208 228 255
208 228 255
208 228 255
207 228 255
207 228 255
207 228 255
207 228 255
207 228 255
207 228 255
207 228 255
207 228 255
207 228 255
207 228 255
207 228 255
207 228 255
207 228 255
207 228 255
207 228 255
207 227 255
207 227 255
207 227 255
207 227 255
207 227 255
206 227 255
206 227 255
206 227 255
206 227 255
206 227 255
206 227 255
206 227 255
206 227 255
206 227 255
206 227 255
206 227 255
206 227 255
206 227 255
206 227 255
206 227 255
206 227 255
206 227 255
206 227 255
206 227 255
206 227 255
203 224 252
138 152 172
60 67 77
60 67 76
60 68 77
58 65 74
60 67 76
60 67 76
61 67 76
59 66 75
60 67 77
59 66 75
59 66 75
56 63 72
59 66 76
56 63 72
57 64 74
61 67 77
60 67 76
58 65 73
59 66 74
58 64 73
58 65 74
56 62 71
57 64 73
58 65 74
58 65 74
59 65 74
57 64 73
55 62 71
57 63 72
59 66 74
59 65 74
59 66 76
59 65 74
58 65 74
59 65 74
60 68 77
56 63 72
61 68 77
60 67 77
58 64 74
59 66 75
59 65 74
60 67 76
59 66 75
59 66 76
60 67 76
57 63 72
60 67 76
59 66 76
58 64 73
58 65 74
60 66 75
61 68 77
58 65 74
56 62 71
58 66 75
58 65 74
59 66 75
59 66 75
55 62 71
60 66 75
58 65 74
57 64 73
59 67 76
57 64 73
58 65 74
61 68 77
60 67 76
60 67 76
61 67 76
58 65 75
60 66 76
59 66 76
63 70 79
140 155 175
203 224 252
206 227 255
206 227 255
206 227 255
206 227 255
206 227 255
206 227 255
206 227 255
206 227 255
206 227 255
206 227 255
206 227 255
206 227 255
206 227 255
206 227 255
206 227 255
206 227 255
206 227 255
206 227 255
206 227 255
206 227 255
207 227 255
207 227 255
207 227 255
207 227 255
207 227 255
207 228 255
207 228 255
207 228 255
207 228 255
207 228 255
207 228 255
207 228 255
207 228 255
207 228 255
207 228 255
207 228 255
207 228 255
207 228 255
207 228 255
207 228 255
208 228 255
208 228 255
208 228 255
208 228 255
208 228 255
208 228 255
208 228 255
208 228 255
208 228 255
208 228 255
208 228 255
208 228 255
208 228 255
208 228 255
208 228 255
208 228 255
208 228 255
208 228 255
208 228 255
208 228 255
209 228 255
209 229 255
209 229 255
209 229 255
209 229 255
209 229 255
209 229 255
209 229 255
209 229 255
209 229 255
209 229 255
209 229 255
209 229 255
209 229 255
209 229 255
209 229 255
209 229 255
209 229 255
209 229 255
209 229 255
210 229 255
210 229 255
210 229 255
210 229 255
210 229 255
210 229 255
210 229 255
210 229 255
210 229 255
210 229 255
210 229 255
210 229 255
210 229 255
210 229 255
210 229 255
210 229 255
210 229 255
210 229 255
210 229 255
210 230 255
210 230 255
211 230 255
211 230 255
211 230 255
211 230 255
211 230 255
211 230 255
211 230 255
211 230 255
211 230 255
211 230 255
211 230 255
211 230 255
211 230 255
211 230 255
211 230 255
211 230 255
211 230 255
211 230 255
211 230 255
211 230 255
211 230 255
211 230 255
211 230 255
211 230 255
211 230 255
212 230 255
212 230 255
212 230 255
212 230 255
212 230 255
212 230 255
212 230 255
212 230 255
212 230 255
212 230 255
212 230 255
212 230 255
212 230 255
212 230 255
212 230 255
212 230 255
212 230 255
212 230 255
212 230 255
212 231 255
212 231 255
212 231 255
212 231 255
212 231 255
212 231 255
212 231 255
212 231 255
212 231 255
213 231 255
213 231 255
213 231 255
213 231 255
213 231 255
213 231 255
213 231 255
213 231 255
213 231 255
213 231 255
213 231 255
213 231 255
213 231 255
213 231 255
213 231 255
213 231 255
213 231 255
213 231 255
213 231 255
212 231 255
212 231 255
212 231 255
212 231 255
212 231 255
212 231 255
212 231 255
212 231 255
212 230 255
212 230 255
212 230 255
212 230 255
212 230 255
212 230 255
212 230 255
212 230 255
212 230 255
212 230 255
212 230 255
212 230 255
212 230 255
212 230 255
212 230 255
212 230 255
212 230 255
212 230 255
212 230 255
212 230 255
211 230 255
211 230 255
211 230 255
211 230 255
211 230 255
211 230 255
211 230 255
211 230 255
211 230 255
211 230 255
211 230 255
211 230 255
211 230 255
211 230 255
211 230 255
211 230 255
211 230 255
211 230 255
211 230 255
211 230 255
211 230 255
211 230 255
211 230 255
211 230 255
210 230 255
210 230 255
210 229 255
210 229 255
210 229 255
210 229 255
210 229 255
210 229 255
210 229 255
210 229 255
210 229 255
210 229 255
210 229 255
210 229 255
210 229 255
210 229 255
210 229 255
210 229 255
210 229 255
210 229 255
210 229 255
209 229 255
209 229 255
209 229 255
209 229 255
209 229 255
209 229 255
209 229 255
209 229 255
209 229 255
209 229 255
209 229 255
209 229 255
209 229 255
209 229 255
209 229 255
209 229 255
209 229 255
209 229 255
209 229 255
209 228 255
209 228 255
208 228 255
208 228 255
208 228 255
208 228 255
208 228 255
208 228 255
208 228 255
208 228 255
208 228 255
208 228 255
208 228 255
208 228 255
208 228 255
208 228 255
208 228 255
208 228 255
208 228 255
208 228 255
208 228 255
207 228 255
207 228 255
207 228 255
207 228 255
207 228 255
207 228 255
207 228 255
207 228 255
207 228 255
207 228 255
207 228 255
207 228 255
207 228 255
207 228 255
207 228 255
207 228 255
207 227 255
207 227 255
207 227 255
207 227 255
207 227 255
206 227 255
206 227 255
206 227 255
206 227 255
206 227 255
206 227 255
206 227 255
206 227 255
206 227 255
206 227 255
206 227 255
206 227 255
206 227 255
206 227 255
190 210 236
113 125 141
60 67 75
60 67 76
58 64 74
59 66 76
59 66 75
60 67 77
60 67 76
58 65 74
61 68 77
58 65 74
59 66 76
59 66 76
59 65 74
58 65 74
58 65 74
58 65 74
58 65 74
59 66 75
59 66 74
60 67 76
58 65 74
57 64 73
59 66 75
60 66 75
57 64 72
58 64 73
57 63 72
59 65 74
59 66 74
61 68 77
58 64 73
59 66 75
56 62 72
59 66 75
60 66 76
61 68 77
56 62 71
58 65 74
61 68 76
58 65 74
57 64 72
59 65 74
60 67 76
58 65 75
60 67 76
59 66 74
56 63 72
60 67 76
56 63 72
58 64 73
59 66 76
58 65 74
61 68 77
59 66 75
58 64 72
57 64 73
59 65 74
60 67 75
59 66 75
59 66 75
58 65 74
60 67 76
59 65 74
58 65 74
58 65 74
60 67 76
59 66 76
57 64 73
59 65 74
58 65 74
59 66 75
61 68 78
58 65 75
59 66 75
63 69 78
59 66 75
106 117 133
192 212 239
206 227 255
206 227 255
206 227 255
206 227 255
206 227 255
206 227 255
206 227 255
206 227 255
206 227 255
206 227 255
206 227 255
206 227 255
206 227 255
206 227 255
207 227 255
207 227 255
207 227 255
207 227 255
207 227 255
207 228 255
207 228 255
207 228 255
207 228 255
207 228 255
207 228 255
207 228 255
207 228 255
207 228 255
207 228 255
207 228 255
207 228 255
207 228 255
207 228 255
207 228 255
207 228 255
208 228 255
208 228 255
208 228 255
208 228 255
208 228 255
208 228 255
208 228 255
208 228 255
208 228 255
208 228 255
208 228 255
208 228 255
208 228 255
208 228 255
208 228 255
208 228 255
208 228 255
208 228 255
208 228 255
209 228 255
209 228 255
209 229 255
209 229 255
209 229 255
209 229 255
209 229 255
209 229 255
209 229 255
209 229 255
209 229 255
209 229 255
209 229 255
209 229 255
209 229 255
209 229 255
209 229 255
209 229 255
209 229 255
209 229 255
210 229 255
210 229 255
210 229 255
210 229 255
210 229 255
210 229 255
210 229 255
210 229 255
210 229 255
210 229 255
210 229 255
210 229 255
210 229 255
210 229 255
210 229 255
210 229 255
210 229 255
210 229 255
210 229 255
210 230 255
210 230 255
210 230 255
211 230 255
211 230 255
211 230 255
211 230 255
211 230 255
211 230 255
211 230 255
211 230 255
211 230 255
211 230 255
211 230 255
211 230 255
211 230 255
211 230 255
211 230 255
211 230 255
211 230 255
211 230 255
211 230 255
211 230 255
211 230 255
211 230 255
211 230 255
211 230 255
212 230 255
212 230 255
212 230 255
212 230 255
212 230 255
212 230 255
212 230 255
212 230 255
212 230 255
212 230 255
212 230 255
212 230 255
212 230 255
212 230 255
212 230 255
212 230 255
212 230 255
212 230 255
212 230 255
212 231 255
212 231 255
212 231 255
212 231 255
212 231 255
212 231 255
212 231 255
212 231 255
212 231 255
213 231 255
213 231 255
213 231 255
213 231 255
213 231 255
213 231 255
213 231 255
213 231 255
213 231 255
213 231 255
213 231 255
213 231 255
213 231 255
213 231 255
213 231 255
213 231 255
213 231 255
213 231 255
213 231 255
213 231 255
213 231 255
213 231 255
213 231 255
213 231 255
213 231 255
213 231 255
213 231 255
213 231 255
213 231 255
212 231 255
212 231 255
212 231 255
212 231 255
212 231 255
212 231 255
212 231 255
212 231 255
212 231 255
212 230 255
212 230 255
212 230 255
212 230 255
212 230 255
212 230 255
212 230 255
212 230 255
212 230 255
212 230 255
212 230 255
212 230 255
212 230 255
212 230 255
212 230 255
212 230 255
212 230 255
212 230 255
212 230 255
211 230 255
211 230 255
211 230 255
211 230 255
211 230 255
211 230 255
211 230 255
211 230 255
211 230 255
211 230 255
211 230 255
211 230 255
211 230 255
211 230 255
211 230 255
211 230 255
211 230 255
211 230 255
211 230 255
211 230 255
211 230 255
211 230 255
211 230 255
210 230 255
210 230 255
210 230 255
210 229 255
210 229 255
210 229 255
210 229 255
210 229 255
210 229 255
210 229 255
210 229 255
210 229 255
210 229 255
210 229 255
210 229 255
210 229 255
210 229 255
210 229 255
210 229 255
210 229 255
210 229 255
210 229 255
209 229 255
209 229 255
209 229 255
209 229 255
209 229 255
209 229 255
209 229 255
209 229 255
209 229 255
209 229 255
209 229 255
209 229 255
209 229 255
209 229 255
209 229 255
209 229 255
209 229 255
209 229 255
209 229 255
209 228 255
208 228 255
208 228 255
208 228 255
208 228 255
208 228 255
208 228 255
208 228 255
208 228 255
208 228 255
208 228 255
208 228 255
208 228 255
208 228 255
208 228 255
208 228 255
208 228 255
208 228 255
208 228 255
208 228 255
208 228 255
207 228 255
207 228 255
207 228 255
207 228 255
207 228 255
207 228 255
207 228 255
207 228 255
207 228 255
207 228 255
207 228 255
207 228 255
207 228 255
207 228 255
207 228 255
207 228 255
207 227 255
207 227 255
207 227 255
207 227 255
207 227 255
207 227 255
206 227 255
206 227 255
206 227 255
206 227 255
206 227 255
206 227 255
206 227 255
181 199 224
73 81 92
58 65 74
60 67 76
58 65 74
60 67 77
61 68 77
59 66 76
59 66 75
60 67 76
57 64 73
58 65 74
58 65 74
59 66 75
59 66 75
60 67 76
56 62 71
57 63 72
58 65 74
59 66 75
57 63 72
57 64 73
59 66 76
59 66 75
60 66 75
60 67 76
58 65 74
60 67 76
56 62 71
58 65 74
57 64 73
59 65 74
57 64 74
58 65 74
59 66 75
59 66 76
59 66 76
58 65 75
59 66 76
60 67 76
57 64 72
54 61 70
59 65 74
58 64 73
60 67 76
56 63 71
58 65 74
60 67 77
58 65 74
59 65 74
58 64 73
60 66 75
59 65 73
57 65 74
56 63 72
59 66 75
58 65 75
60 67 76
59 65 74
61 68 77
56 63 72
57 64 72
57 64 73
58 65 74
60 66 75
59 65 74
59 66 76
59 66 75
58 65 75
61 68 77
58 65 74
59 66 74
60 67 76
61 68 77
58 65 74
59 66 76
59 66 74
58 65 74
58 65 74
59 66 75
78 86 97
175 193 218
206 227 255
206 227 255
206 227 255
206 227 255
206 227 255
206 227 255
206 227 255
207 227 255
207 227 255
207 227 255
207 227 255
207 227 255
207 227 255
207 228 255
207 228 255
207 228 255
207 228 255
207 228 255
207 228 255
207 228 255
207 228 255
207 228 255
207 228 255
207 228 255
207 228 255
207 228 255
207 228 255
207 228 255
207 228 255
208 228 255
208 228 255
208 228 255
208 228 255
208 228 255
208 228 255
208 228 255
208 228 255
208 228 255
208 228 255
208 228 255
208 228 255
208 228 255
208 228 255
208 228 255
208 228 255
208 228 255
208 228 255
208 228 255
208 228 255
209 228 255
209 229 255
209 229 255
209 229 255
209 229 255
209 229 255
209 229 255
209 229 255
209 229 255
209 229 255
209 229 255
209 229 255
209 229 255
209 229 255
209 229 255
209 229 255
209 229 255
209 229 255
209 229 255
209 229 255
210 229 255
210 229 255
210 229 255
210 229 255
210 229 255
210 229 255
210 229 255
210 229 255
210 229 255
210 229 255
210 229 255
210 229 255
210 229 255
210 229 255
210 229 255
210 229 255
210 229 255
210 229 255
210 229 255
210 230 255
210 230 255
210 230 255
211 230 255
211 230 255
211 230 255
211 230 255
211 230 255
211 230 255
211 230 255
211 230 255
211 230 255
211 230 255
211 230 255
211 230 255
211 230 255
211 230 255
211 230 255
211 230 255
211 230 255
211 230 255
211 230 255
211 230 255
211 230 255
211 230 255
211 230 255
212 230 255
212 230 255
212 230 255
212 230 255
212 230 255
212 230 255
212 230 255
212 230 255
212 230 255
212 230 255
212 230 255
212 230 255
212 230 255
212 230 255
212 230 255
212 230 255
212 230 255
212 230 255
212 230 255
212 230 255
212 231 255
212 231 255
212 231 255
212 231 255
212 231 255
212 231 255
212 231 255
212 231 255
213 231 255
213 231 255
213 231 255
213 231 255
213 231 255
213 231 255
213 231 255
213 231 255
213 231 255
213 231 255
213 231 255
213 231 255
213 231 255
213 231 255
213 231 255
213 231 255
213 231 255
213 231 255
213 231 255
213 231 255
213 231 255
213 231 255
213 231 255
213 231 255
213 231 255
213 231 255
213 231 255
213 231 255
213 231 255
213 231 255
213 231 255
213 231 255
213 231 255
213 231 255
213 231 255
213 231 255
213 231 255
213 231 255
213 231 255
212 231 255
212 231 255
212 231 255
212 231 255
212 231 255
212 231 255
212 231 255
212 231 255
212 230 255
212 230 255
212 230 255
212 230 255
212 230 255
212 230 255
212 230 255
212 230 255
212 230 255
212 230 255
212 230 255
212 230 255
212 230 255
212 230 255
212 230 255
212 230 255
212 230 255
212 230 255
212 230 255
211 230 255
211 230 255
211 230 255
211 230 255
211 230 255
211 230 255
211 230 255
211 230 255
211 230 255
211 230 255
211 230 255
211 230 255
211 230 255
211 230 255
211 230 255
211 230 255
211 230 255
211 230 255
211 230 255
211 230 255
211 230 255
211 230 255
211 230 255
211 230 255
210 230 255
210 230 255
210 229 255
210 229 255
210 229 255
210 229 255
210 229 255
210 229 255
210 229 255
210 229 255
210 229 255
210 229 255
210 229 255
210 229 255
210 229 255
210 229 255
210 229 255
210 229 255
210 229 255
210 229 255
210 229 255
210 229 255
209 229 255
209 229 255
209 229 255
209 229 255
209 229 255
209 229 255
209 229 255
209 229 255
209 229 255
209 229 255
209 229 255
209 229 255
209 229 255
209 229 255
209 229 255
209 229 255
209 229 255
209 229 255
209 228 255
209 228 255
208 228 255
208 228 255
208 228 255
208 228 255
208 228 255
208 228 255
208 228 255
208 228 255
208 228 255
208 228 255
208 228 255
208 228 255
208 228 255
208 228 255
208 228 255
208 228 255
208 228 255
208 228 255
208 228 255
208 228 255
208 228 255
207 228 255
207 228 255
207 228 255
207 228 255
207 228 255
207 228 255
207 228 255
207 228 255
207 228 255
207 228 255
207 228 255
207 228 255
207 228 255
207 228 255
207 228 255
207 228 255
207 227 255
207 227 255
207 227 255
207 227 255
207 227 255
206 226 254
153 169 190
62 69 78
60 67 76
60 67 76
59 66 75
57 64 73
58 65 74
59 66 76
60 67 77
60 67 76
57 64 73
57 64 73
59 66 75
56 63 71
59 66 74
58 65 74
57 64 73
61 68 77
60 66 76
60 67 76
57 64 73
59 65 74
58 64 73
59 66 75
56 62 71
59 65 74
57 64 73
57 63 72
61 68 76
59 65 74
60 67 76
60 66 75
56 62 71
59 65 74
61 68 77
57 64 74
59 66 75
56 63 72
54 60 69
55 61 70
60 67 76
56 63 71
58 64 73
56 63 72
58 65 74
58 65 74
58 65 73
58 64 73
55 62 71
56 63 71
55 61 70
58 65 74
58 65 74
60 66 75
60 67 77
59 66 75
58 65 74
58 64 74
60 66 76
60 67 76
58 65 74
59 66 75
58 65 74
57 64 73
57 64 73
58 65 74
59 66 75
59 66 75
59 66 75
58 65 74
57 64 73
61 67 76
59 66 75
60 66 75
60 66 75
59 66 75
60 67 77
60 66 75
59 67 77
62 69 78
58 65 75
59 66 74
58 65 74
158 174 196
207 227 255
207 227 255
207 227 255
207 227 255
207 227 255
207 227 255
207 228 255
207 228 255
207 228 255
207 228 255
207 228 255
207 228 255
207 228 255
207 228 255
207 228 255
207 228 255
207 228 255
207 228 255
207 228 255
207 228 255
207 228 255
207 228 255
207 228 255
208 228 255
208 228 255
208 228 255
208 228 255
208 228 255
208 228 255
208 228 255
208 228 255
208 228 255
208 228 255
208 228 255
208 228 255
208 228 255
208 228 255
208 228 255
208 228 255
208 228 255
208 228 255
208 228 255
208 228 255
209 228 255
209 228 255
209 229 255
209 229 255
209 229 255
209 229 255
209 229 255
209 229 255
209 229 255
209 229 255
209 229 255
209 229 255
209 229 255
209 229 255
209 229 255
209 229 255
209 229 255
209 229 255
209 229 255
209 229 255
209 229 255
210 229 255
210 229 255
210 229 255
210 229 255
210 229 255
210 229 255
210 229 255
210 229 255
210 229 255
210 229 255
210 229 255
210 229 255
210 229 255
210 229 255
210 229 255
210 229 255
210 229 255
210 229 255
210 229 255
210 230 255
210 230 255
211 230 255
211 230 255
211 230 255
211 230 255
211 230 255
211 230 255
211 230 255
211 230 255
211 230 255
211 230 255
211 230 255
211 230 255
211 230 255
211 230 255
211 230 255
211 230 255
211 230 255
211 230 255
211 230 255
211 230 255
211 230 255
211 230 255
211 230 255
211 230 255
212 230 255
212 230 255
212 230 255
212 230 255
212 230 255
212 230 255
212 230 255
212 230 255
212 230 255
212 230 255
212 230 255
212 230 255
212 230 255
212 230 255
212 230 255
212 230 255
212 230 255
212 230 255
212 230 255
212 231 255
212 231 255
212 231 255
212 231 255
212 231 255
212 231 255
212 231 255
212 231 255
213 231 255
213 231 255
213 231 255
213 231 255
213 231 255
213 231 255
213 231 255
213 231 255
213 231 255
213 231 255
213 231 255
213 231 255
213 231 255
213 231 255
213 231 255
213 231 255
213 231 255
213 231 255
213 231 255
213 231 255
213 231 255
213 231 255
213 231 255
213 231 255
213 231 255
213 231 255
213 231 255
213 231 255
213 231 255
213 231 255
213 231 255
213 231 255
213 231 255
213 231 255
213 231 255
213 231 255
213 231 255
213 231 255
213 231 255
213 231 255
213 231 255
213 231 255
213 231 255
213 231 255
213 231 255
213 231 255
213 231 255
213 231 255
213 231 255
212 231 255
212 231 255
212 231 255
212 231 255
212 231 255
212 231 255
212 231 255
212 231 255
212 230 255
212 230 255
212 230 255
212 230 255
212 230 255
212 230 255
212 230 255
212 230 255
212 230 255
212 230 255
212 230 255
212 230 255
212 230 255
212 230 255
212 230 255
212 230 255
212 230 255
212 230 255
212 230 255
211 230 255
211 230 255
211 230 255
211 230 255
211 230 255
211 230 255
211 230 255
211 230 255
211 230 255
211 230 255
211 230 255
211 230 255
211 230 255
211 230 255
211 230 255
211 230 255
211 230 255
211 230 255
211 230 255
211 230 255
211 230 255
211 230 255
211 230 255
210 230 255
210 230 255
210 230 255
210 229 255
210 229 255
210 229 255
210 229 255
210 229 255
210 229 255
210 229 255
210 229 255
210 229 255
210 229 255
210 229 255
210 229 255
210 229 255
210 229 255
210 229 255
210 229 255
210 229 255
210 229 255
210 229 255
209 229 255
209 229 255
209 229 255
209 229 255
209 229 255
209 229 255
209 229 255
209 229 255
209 229 255
209 229 255
209 229 255
209 229 255
209 229 255
209 229 255
209 229 255
209 229 255
209 229 255
209 229 255
209 229 255
209 228 255
209 228 255
208 228 255
208 228 255
208 228 255
208 228 255
208 228 255
208 228 255
208 228 255
208 228 255
208 228 255
208 228 255
208 228 255
208 228 255
208 228 255
208 228 255
208 228 255
208 228 255
208 228 255
208 228 255
208 228 255
208 228 255
208 228 255
207 228 255
207 228 255
207 228 255
207 228 255
207 228 255
207 228 255
207 228 255
207 228 255
207 228 255
207 228 255
207 228 255
207 228 255
207 228 255
207 228 255
207 228 255
204 224 252
143 158 178
59 66 75
58 65 74
58 65 74
61 67 77
58 64 73
58 65 74
59 66 75
58 66 75
58 65 73
60 67 76
62 69 78
59 66 75
59 66 75
56 62 70
60 67 76
58 65 74
59 66 75
59 65 74
58 65 74
59 66 75
58 65 74
58 65 74
57 63 72
59 66 75
55 61 70
58 65 74
57 64 73
56 62 71
58 65 73
57 64 73
61 67 76
58 64 73
58 64 73
57 64 73
60 66 76
58 64 73
59 66 75
58 65 74
57 64 73
58 64 73
56 62 71
58 64 73
58 65 73
56 63 72
57 63 72
56 63 72
59 65 74
58 64 74
58 64 73
59 66 75
59 65 74
59 66 75
59 66 74
59 66 75
60 67 76
58 65 74
58 64 73
61 67 76
57 63 72
56 63 72
57 64 73
59 66 75
59 66 75
58 64 73
59 66 75
60 66 75
59 66 75
56 62 71
57 63 72
60 67 76
59 66 75
58 65 75
59 66 76
60 66 75
57 64 73
60 67 76
57 64 73
61 67 76
57 64 73
57 64 73
59 66 76
59 66 75
60 67 76
58 65 74
124 137 154
205 225 253
207 228 255
207 228 255
207 228 255
207 228 255
207 228 255
207 228 255
207 228 255
207 228 255
207 228 255
207 228 255
207 228 255
207 228 255
207 228 255
207 228 255
207 228 255
208 228 255
208 228 255
208 228 255
208 228 255
208 228 255
208 228 255
208 228 255
208 228 255
208 228 255
208 228 255
208 228 255
208 228 255
208 228 255
208 228 255
208 228 255
208 228 255
208 228 255
208 228 255
208 228 255
208 228 255
208 228 255
209 228 255
209 228 255
209 229 255
209 229 255
209 229 255
209 229 255
209 229 255
209 229 255
209 229 255
209 229 255
209 229 255
209 229 255
209 229 255
209 229 255
209 229 255
209 229 255
209 229 255
209 229 255
209 229 255
209 229 255
209 229 255
210 229 255
210 229 255
210 229 255
210 229 255
210 229 255
210 229 255
210 229 255
210 229 255
210 229 255
210 229 255
210 229 255
210 229 255
210 229 255
210 229 255
210 229 255
210 229 255
210 229 255
210 229 255
210 229 255
210 230 255
210 230 255
210 230 255
211 230 255
211 230 255
211 230 255
211 230 255
211 230 255
211 230 255
211 230 255
211 230 255
211 230 255
211 230 255
211 230 255
211 230 255
211 230 255
211 230 255
211 230 255
211 230 255
211 230 255
211 230 255
211 230 255
211 230 255
211 230 255
211 230 255
211 230 255
212 230 255
212 230 255
212 230 255
212 230 255
212 230 255
212 230 255
212 230 255
212 230 255
212 230 255
212 230 255
212 230 255
212 230 255
212 230 255
212 230 255
212 230 255
212 230 255
212 230 255
212 230 255
212 230 255
212 231 255
212 231 255
212 231 255
212 231 255
212 231 255
212 231 255
212 231 255
212 231 255
213 231 255
213 231 255
213 231 255
213 231 255
213 231 255
213 231 255
213 231 255
213 231 255
213 231 255
213 231 255
213 231 255
213 231 255
213 231 255
213 231 255
213 231 255
213 231 255
213 231 255
213 231 255
213 231 255
213 231 255
213 231 255
213 231 255
213 231 255
213 231 255
213 231 255
213 231 255
213 231 255
213 231 255
213 231 255
213 231 255
213 231 255
213 231 255
213 231 255
213 231 255
213 231 255
213 231 255
213 231 255
213 231 255
213 231 255
213 231 255
213 231 255
213 231 255
213 231 255
213 231 255
213 231 255
213 231 255
213 231 255
213 231 255
213 231 255
213 231 255
213 231 255
213 231 255
213 231 255
213 231 255
213 231 255
213 231 255
213 231 255
213 231 255
213 231 255
212 231 255
212 231 255
212 231 255
212 231 255
212 231 255
212 231 255
212 231 255
212 231 255
212 230 255
212 230 255
212 230 255
212 230 255
212 230 255
212 230 255
212 230 255
212 230 255
212 230 255
212 230 255
212 230 255
212 230 255
212 230 255
212 230 255
212 230 255
212 230 255
212 230 255
212 230 255
212 230 255
211 230 255
211 230 255
211 230 255
211 230 255
211 230 255
211 230 255
211 230 255
211 230 255
211 230 255
211 230 255
211 230 255
211 230 255
211 230 255
211 230 255
211 230 255
211 230 255
211 230 255
211 230 255
211 230 255
211 230 255
211 230 255
211 230 255
211 230 255
210 230 255
210 230 255
210 230 255
210 229 255
210 229 255
210 229 255
210 229 255
210 229 255
210 229 255
210 229 255
210 229 255
210 229 255
210 229 255
210 229 255
210 229 255
210 229 255
210 229 255
210 229 255
210 229 255
210 229 255
210 229 255
210 229 255
209 229 255
209 229 255
209 229 255
209 229 255
209 229 255
209 229 255
209 229 255
209 229 255
209 229 255
209 229 255
209 229 255
209 229 255
209 229 255
209 229 255
209 229 255
209 229 255
209 229 255
209 229 255
209 229 255
209 228 255
209 228 255
208 228 255
208 228 255
208 228 255
208 228 255
208 228 255
208 228 255
208 228 255
208 228 255
208 228 255
208 228 255
208 228 255
208 228 255
208 228 255
208 228 255
208 228 255
208 228 255
208 228 255
208 228 255
208 228 255
208 228 255
208 228 255
208 228 255
207 228 255
207 228 255
207 228 255
207 228 255
207 228 255
207 228 255
207 228 255
207 228 255
198 218 245
121 133 150
59 66 76
60 66 75
59 66 75
59 65 74
58 64 73
56 62 70
60 67 76
58 65 74
58 65 74
58 65 74
57 64 72
58 65 74
58 65 74
58 64 72
60 67 76
57 63 72
58 65 74
57 64 72
57 63 72
58 65 73
58 64 72
57 64 72
59 65 74
58 65 74
58 64 73
57 63 72
57 63 72
57 64 73
59 65 74
57 64 73
59 65 73
57 64 73
57 64 72
56 63 72
58 65 74
57 63 72
61 68 77
56 62 71
53 59 67
57 63 72
58 65 74
57 64 73
59 65 74
59 66 75
58 65 74
61 67 76
56 63 71
59 65 74
54 61 69
57 64 73
59 65 74
60 66 75
58 64 72
58 64 73
59 66 75
59 65 74
57 64 73
58 64 73
58 64 73
56 62 71
58 64 72
57 63 72
59 66 75
59 66 75
56 62 71
61 68 77
59 66 75
58 65 74
57 64 72
59 66 74
59 65 75
58 65 74
57 63 72
60 67 76
58 65 74
57 64 73
57 64 72
59 65 74
59 66 76
59 67 76
59 66 75
59 66 76
60 66 76
58 65 74
58 65 75
59 66 75
121 133 150
202 222 249
207 228 255
207 228 255
207 228 255
207 228 255
207 228 255
207 228 255
207 228 255
207 228 255
208 228 255
208 228 255
208 228 255
208 228 255
208 228 255
208 228 255
208 228 255
208 228 255
208 228 255
208 228 255
208 228 255
208 228 255
208 228 255
208 228 255
208 228 255
208 228 255
208 228 255
208 228 255
208 228 255
208 228 255
208 228 255
208 228 255
209 228 255
209 228 255
209 229 255
209 229 255
209 229 255
209 229 255
209 229 255
209 229 255
209 229 255
209 229 255
209 229 255
209 229 255
209 229 255
209 229 255
209 229 255
209 229 255
209 229 255
209 229 255
209 229 255
209 229 255
209 229 255
210 229 255
210 229 255
210 229 255
210 229 255
210 229 255
210 229 255
210 229 255
210 229 255
210 229 255
210 229 255
210 229 255
210 229 255
210 229 255
210 229 255
210 229 255
210 229 255
210 229 255
210 229 255
210 229 255
210 229 255
210 230 255
210 230 255
211 230 255
211 230 255
211 230 255
211 230 255
211 230 255
211 230 255
211 230 255
211 230 255
211 230 255
211 230 255
211 230 255
211 230 255
211 230 255
211 230 255
211 230 255
211 230 255
211 230 255
211 230 255
211 230 255
211 230 255
211 230 255
211 230 255
211 230 255
212 230 255
212 230 255
212 230 255
212 230 255
212 230 255
212 230 255
212 230 255
212 230 255
212 230 255
212 230 255
212 230 255
212 230 255
212 230 255
212 230 255
212 230 255
212 230 255
212 230 255
212 230 255
212 230 255
212 231 255
212 231 255
212 231 255
212 231 255
212 231 255
212 231 255
212 231 255
212 231 255
213 231 255
213 231 255
213 231 255
213 231 255
213 231 255
213 231 255
213 231 255
213 231 255
213 231 255
213 231 255
213 231 255
213 231 255
213 231 255
213 231 255
213 231 255
213 231 255
213 231 255
213 231 255
213 231 255
213 231 255
213 231 255
213 231 255
213 231 255
213 231 255
213 231 255
213 231 255
213 231 255
213 231 255
213 231 255
213 231 255
213 231 255
213 231 255
214 231 255
214 231 255
214 231 255
214 231 255
214 231 255
213 231 255
213 231 255
213 231 255
213 231 255
213 231 255
213 231 255
213 231 255
213 231 255
213 231 255
213 231 255
213 231 255
213 231 255
213 231 255
213 231 255
213 231 255
213 231 255
213 231 255
213 231 255
213 231 255
213 231 255
213 231 255
213 231 255
213 231 255
213 231 255
213 231 255
213 231 255
213 231 255
213 231 255
213 231 255
213 231 255
213 231 255
213 231 255
212 231 255
212 231 255
212 231 255
212 231 255
212 231 255
212 231 255
212 231 255
212 231 255
212 230 255
212 230 255
212 230 255
212 230 255
212 230 255
212 230 255
212 230 255
212 230 255
212 230 255
212 230 255
212 230 255
212 230 255
212 230 255
212 230 255
212 230 255
212 230 255
212 230 255
212 230 255
212 230 255
211 230 255
211 230 255
211 230 255
211 230 255
211 230 255
211 230 255
211 230 255
211 230 255
211 230 255
211 230 255
211 230 255
211 230 255
211 230 255
211 230 255
211 230 255
211 230 255
211 230 255
211 230 255
211 230 255
211 230 255
211 230 255
211 230 255
211 230 255
210 230 255
210 230 255
210 229 255
210 229 255
210 229 255
210 229 255
210 229 255
210 229 255
210 229 255
210 229 255
210 229 255
210 229 255
210 229 255
210 229 255
210 229 255
210 229 255
210 229 255
210 229 255
210 229 255
210 229 255
210 229 255
210 229 255
209 229 255
209 229 255
209 229 255
209 229 255
209 229 255
209 229 255
209 229 255
209 229 255
209 229 255
209 229 255
209 229 255
209 229 255
209 229 255
209 229 255
209 229 255
209 229 255
209 229 255
209 229 255
209 229 255
209 228 255
209 228 255
208 228 255
208 228 255
208 228 255
208 228 255
208 228 255
208 228 255
208 228 255
208 228 255
208 228 255
208 228 255
208 228 255
208 228 255
208 228 255
208 228 255
208 228 255
208 228 255
208 228 255
208 228 255
208 228 255
208 228 255
208 228 255
208 228 255
207 228 255
207 228 255
202 222 249
106 117 132
59 65 74
60 67 76
57 64 72
58 66 75
58 65 73
59 66 75
58 65 74
57 64 72
57 64 73
57 63 71
60 66 75
57 63 72
57 64 73
58 64 73
57 64 73
55 62 70
58 65 74
59 65 74
57 63 72
55 62 70
57 63 72
58 65 74
58 65 73
58 65 74
58 65 74
57 64 73
58 65 74
57 64 72
59 65 74
58 65 74
54 61 69
54 60 69
57 63 72
57 63 71
58 65 74
57 64 72
59 65 74
57 63 72
59 66 75
57 64 72
57 64 72
58 64 73
56 63 72
59 66 75
58 65 74
57 64 73
58 64 73
58 65 74
56 63 72
59 65 74
56 63 72
55 62 70
54 61 70
56 63 72
57 63 72
55 62 70
57 64 72
59 66 74
59 66 75
59 66 75
59 65 74
60 67 76
59 66 75
56 63 72
58 65 74
57 64 73
60 66 74
57 64 72
58 64 73
60 66 74
56 62 71
57 64 73
59 66 74
56 63 71
59 66 74
57 63 71
57 64 73
59 66 75
58 65 74
57 63 72
58 65 74
56 63 72
57 64 73
60 67 76
59 66 76
59 65 74
58 65 73
59 65 74
118 130 146
202 222 248
207 228 255
207 228 255
208 228 255
208 228 255
208 228 255
208 228 255
208 228 255
208 228 255
208 228 255
208 228 255
208 228 255
208 228 255
208 228 255
208 228 255
208 228 255
208 228 255
208 228 255
208 228 255
208 228 255
208 228 255
208 228 255
208 228 255
208 228 255
208 228 255
209 228 255
209 228 255
209 229 255
209 229 255
209 229 255
209 229 255
209 229 255
209 229 255
209 229 255
209 229 255
209 229 255
209 229 255
209 229 255
209 229 255
209 229 255
209 229 255
209 229 255
209 229 255
209 229 255
209 229 255
209 229 255
210 229 255
210 229 255
210 229 255
210 229 255
210 229 255
210 229 255
210 229 255
210 229 255
210 229 255
210 229 255
210 229 255
210 229 255
210 229 255
210 229 255
210 229 255
210 229 255
210 229 255
210 229 255
210 229 255
210 229 255
210 230 255
210 230 255
211 230 255
211 230 255
211 230 255
211 230 255
211 230 255
211 230 255
211 230 255
211 230 255
211 230 255
211 230 255
211 230 255
211 230 255
211 230 255
211 230 255
211 230 255
211 230 255
211 230 255
211 230 255
211 230 255
211 230 255
211 230 255
211 230 255
211 230 255
211 230 255
212 230 255
212 230 255
212 230 255
212 230 255
212 230 255
212 230 255
212 230 255
212 230 255
212 230 255
212 230 255
212 230 255
212 230 255
212 230 255
212 230 255
212 230 255
212 230 255
212 230 255
212 230 255
212 231 255
212 231 255
212 231 255
212 231 255
212 231 255
212 231 255
212 231 255
212 231 255
213 231 255
213 231 255
213 231 255
213 231 255
213 231 255
213 231 255
213 231 255
213 231 255
213 231 255
213 231 255
213 231 255
213 231 255
213 231 255
213 231 255
213 231 255
213 231 255
213 231 255
213 231 255
213 231 255
213 231 255
213 231 255
213 231 255
213 231 255
213 231 255
213 231 255
213 231 255
213 231 255
213 231 255
213 231 255
213 231 255
213 231 255
214 231 255
214 231 255
214 231 255
214 231 255
214 231 255
214 231 255
214 231 255
214 231 255
214 231 255
214 231 255
214 231 255
214 231 255
214 231 255
214 231 255
214 231 255
214 231 255
214 231 255
213 231 255
213 231 255
213 231 255
213 231 255
213 231 255
213 231 255
213 231 255
213 231 255
213 231 255
213 231 255
213 231 255
213 231 255
213 231 255
213 231 255
213 231 255
213 231 255
213 231 255
213 231 255
213 231 255
213 231 255
213 231 255
213 231 255
213 231 255
213 231 255
213 231 255
213 231 255
213 231 255
213 231 255
213 231 255
213 231 255
213 231 255
212 231 255
212 231 255
212 231 255
212 231 255
212 231 255
212 231 255
212 231 255
212 231 255
212 230 255
212 230 255
212 230 255
212 230 255
212 230 255
212 230 255
212 230 255
212 230 255
212 230 255
212 230 255
212 230 255
212 230 255
212 230 255
212 230 255
212 230 255
212 230 255
212 230 255
212 230 255
212 230 255
211 230 255
211 230 255
211 230 255
211 230 255
211 230 255
211 230 255
211 230 255
211 230 255
211 230 255
211 230 255
211 230 255
211 230 255
211 230 255
211 230 255
211 230 255
211 230 255
211 230 255
211 230 255
211 230 255
211 230 255
211 230 255
211 230 255
211 230 255
210 230 255
210 230 255
210 229 255
210 229 255
210 229 255
210 229 255
210 229 255
210 229 255
210 229 255
210 229 255
210 229 255
210 229 255
210 229 255
210 229 255
210 229 255
210 229 255
210 229 255
210 229 255
210 229 255
210 229 255
210 229 255
210 229 255
209 229 255
209 229 255
209 229 255
209 229 255
209 229 255
209 229 255
209 229 255
209 229 255
209 229 255
209 229 255
209 229 255
209 229 255
209 229 255
209 229 255
209 229 255
209 229 255
209 229 255
209 229 255
209 229 255
209 228 255
209 228 255
208 228 255
208 228 255
208 228 255
208 228 255
208 228 255
208 228 255
208 228 255
208 228 255
208 228 255
208 228 255
208 228 255
208 228 255
208 228 255
208 228 255
208 228 255
208 228 255
208 228 255
208 228 255
200 219 246
111 122 137
58 64 73
59 65 74
57 63 72
59 66 75
57 64 73
60 66 76
58 64 73
57 64 73
56 63 71
60 67 76
60 67 76
58 65 73
58 64 73
58 65 74
55 62 70
58 64 73
59 65 74
57 63 72
60 67 76
58 65 73
59 65 74
59 66 75
60 66 75
55 61 69
58 64 72
59 66 75
58 65 75
57 63 72
58 64 73
58 65 74
56 63 72
58 65 74
56 63 72
56 62 71
58 64 72
58 64 73
55 61 70
59 66 74
58 64 72
57 64 72
60 66 74
57 64 72
59 66 74
58 64 73
56 62 71
57 64 72
59 66 75
58 65 74
59 66 74
56 62 70
55 62 70
57 64 73
57 63 72
56 62 70
56 63 72
59 65 74
57 63 72
56 63 71
57 63 72
57 64 72
59 65 74
56 63 72
57 63 72
57 64 72
60 67 76
56 63 72
59 66 76
56 62 71
58 65 74
58 64 72
57 64 72
56 62 71
57 64 72
58 64 73
57 63 72
58 64 73
58 64 73
59 65 74
59 66 75
58 65 74
55 61 69
57 64 73
58 65 73
57 64 73
58 65 74
57 64 72
62 69 78
58 64 73
58 65 74
57 63 72
103 113 128
202 222 248
208 228 255
208 228 255
208 228 255
208 228 255
208 228 255
208 228 255
208 228 255
208 228 255
208 228 255
208 228 255
208 228 255
208 228 255
208 228 255
208 228 255
208 228 255
208 228 255
208 228 255
208 228 255
209 228 255
209 229 255
209 229 255
209 229 255
209 229 255
209 229 255
209 229 255
209 229 255
209 229 255
209 229 255
209 229 255
209 229 255
209 229 255
209 229 255
209 229 255
209 229 255
209 229 255
209 229 255
209 229 255
209 229 255
209 229 255
210 229 255
210 229 255
210 229 255
210 229 255
210 229 255
210 229 255
210 229 255
210 229 255
210 229 255
210 229 255
210 229 255
210 229 255
210 229 255
210 229 255
210 229 255
210 229 255
210 229 255
210 229 255
210 229 255
210 229 255
210 230 255
210 230 255
210 230 255
211 230 255
211 230 255
211 230 255
211 230 255
211 230 255
211 230 255
211 230 255
211 230 255
211 230 255
211 230 255
211 230 255
211 230 255
211 230 255
211 230 255
211 230 255
211 230 255
211 230 255
211 230 255
211 230 255
211 230 255
211 230 255
211 230 255
211 230 255
212 230 255
212 230 255
212 230 255
212 230 255
212 230 255
212 230 255
212 230 255
212 230 255
212 230 255
212 230 255
212 230 255
212 230 255
212 230 255
212 230 255
212 230 255
212 230 255
212 230 255
212 230 255
212 231 255
212 231 255
212 231 255
212 231 255
212 231 255
212 231 255
212 231 255
212 231 255
213 231 255
213 231 255
213 231 255
213 231 255
213 231 255
213 231 255
213 231 255
213 231 255
213 231 255
213 231 255
213 231 255
213 231 255
213 231 255
213 231 255
213 231 255
213 231 255
213 231 255
213 231 255
213 231 255
213 231 255
213 231 255
213 231 255
213 231 255
213 231 255
213 231 255
213 231 255
213 231 255
213 231 255
213 231 255
213 231 255
213 231 255
214 231 255
214 231 255
214 231 255
214 231 255
214 231 255
214 231 255
214 231 255
214 231 255
214 231 255
214 231 255
214 231 255
214 231 255
214 231 255
214 231 255
214 231 255
214 231 255
214 231 255
214 231 255
214 231 255
214 231 255
214 231 255
214 231 255
214 231 255
214 231 255
214 231 255
214 231 255
214 231 255
214 231 255
213 231 255
213 231 255
213 231 255
213 231 255
213 231 255
213 231 255
213 231 255
213 231 255
213 231 255
213 231 255
213 231 255
213 231 255
213 231 255
213 231 255
213 231 255
213 231 255
213 231 255
213 231 255
213 231 255
213 231 255
213 231 255
213 231 255
213 231 255
213 231 255
213 231 255
213 231 255
213 231 255
213 231 255
213 231 255
213 231 255
213 231 255
212 231 255
212 231 255
212 231 255
212 231 255
212 231 255
212 231 255
212 231 255
212 230 255
212 230 255
212 230 255
212 230 255
212 230 255
212 230 255
212 230 255
212 230 255
212 230 255
212 230 255
212 230 255
212 230 255
212 230 255
212 230 255
212 230 255
212 230 255
212 230 255
212 230 255
211 230 255
211 230 255
211 230 255
211 230 255
211 230 255
211 230 255
211 230 255
211 230 255
211 230 255
211 230 255
211 230 255
211 230 255
211 230 255
211 230 255
211 230 255
211 230 255
211 230 255
211 230 255
211 230 255
211 230 255
211 230 255
211 230 255
211 230 255
211 230 255
210 230 255
210 230 255
210 229 255
210 229 255
210 229 255
210 229 255
210 229 255
210 229 255
210 229 255
210 229 255
210 229 255
210 229 255
210 229 255
210 229 255
210 229 255
210 229 255
210 229 255
210 229 255
210 229 255
210 229 255
210 229 255
210 229 255
209 229 255
209 229 255
209 229 255
209 229 255
209 229 255
209 229 255
209 229 255
209 229 255
209 229 255
209 229 255
209 229 255
209 229 255
209 229 255
209 229 255
209 229 255
209 229 255
209 229 255
209 229 255
209 229 255
209 229 255
209 228 255
209 228 255
208 228 255
208 228 255
208 228 255
208 228 255
208 228 255
208 228 255
208 228 255
208 228 255
208 228 255
208 228 255
208 228 255
203 223 250
105 116 130
61 67 76
58 65 75
60 67 76
57 64 72
60 67 76
55 61 70
55 61 70
58 64 72
58 65 74
58 64 73
58 65 74
61 67 76
58 65 74
57 63 71
55 61 70
58 64 72
57 63 72
57 64 73
57 64 72
56 62 70
57 63 71
58 64 73
56 63 72
58 64 73
60 67 76
58 65 74
58 65 74
59 65 74
58 64 73
57 64 73
59 66 75
60 67 75
58 64 73
56 63 72
55 62 70
56 63 72
57 64 72
57 63 71
55 61 70
58 65 74
58 64 73
56 62 70
58 65 73
57 64 72
59 66 74
59 65 74
57 64 73
57 64 72
57 63 72
59 65 74
54 60 69
59 66 74
58 65 74
58 64 73
59 66 75
58 64 73
59 66 75
58 64 73
53 59 67
56 61 69
57 63 72
57 63 72
57 63 71
56 63 71
55 61 69
58 65 74
58 64 73
56 62 70
59 65 74
58 64 74
58 64 72
56 62 71
59 66 74
56 62 70
57 64 73
59 66 75
58 64 73
57 63 72
60 66 75
55 61 69
59 66 74
59 65 74
58 64 72
59 65 74
59 66 75
57 63 71
59 66 74
58 64 73
59 66 75
57 63 72
59 66 76
58 64 73
112 123 139
207 227 254
208 228 255
208 228 255
208 228 255
208 228 255
208 228 255
208 228 255
208 228 255
208 228 255
208 228 255
208 228 255
208 228 255
209 228 255
209 228 255
209 229 255
209 229 255
209 229 255
209 229 255
209 229 255
209 229 255
209 229 255
209 229 255
209 229 255
209 229 255
209 229 255
209 229 255
209 229 255
209 229 255
209 229 255
209 229 255
209 229 255
209 229 255
209 229 255
209 229 255
210 229 255
210 229 255
210 229 255
210 229 255
210 229 255
210 229 255
210 229 255
210 229 255
210 229 255
210 229 255
210 229 255
210 229 255
210 229 255
210 229 255
210 229 255
210 229 255
210 229 255
210 229 255
210 229 255
210 229 255
210 230 255
210 230 255
211 230 255
211 230 255
211 230 255
211 230 255
211 230 255
211 230 255
211 230 255
211 230 255
211 230 255
211 230 255
211 230 255
211 230 255
211 230 255
211 230 255
211 230 255
211 230 255
211 230 255
211 230 255
211 230 255
211 230 255
211 230 255
211 230 255
211 230 255
211 230 255
212 230 255
212 230 255
212 230 255
212 230 255
212 230 255
212 230 255
212 230 255
212 230 255
212 230 255
212 230 255
212 230 255
212 230 255
212 230 255
212 230 255
212 230 255
212 230 255
212 230 255
212 231 255
212 231 255
212 231 255
212 231 255
212 231 255
212 231 255
212 231 255
212 231 255
212 231 255
213 231 255
213 231 255
213 231 255
213 231 255
213 231 255
213 231 255
213 231 255
213 231 255
213 231 255
213 231 255
213 231 255
213 231 255
213 231 255
213 231 255
213 231 255
213 231 255
213 231 255
213 231 255
213 231 255
213 231 255
213 231 255
213 231 255
213 231 255
213 231 255
213 231 255
213 231 255
213 231 255
213 231 255
213 231 255
213 231 255
214 231 255
214 231 255
214 231 255
214 231 255
214 231 255
214 231 255
214 231 255
214 231 255
214 231 255
214 231 255
214 231 255
214 231 255
214 231 255
214 231 255
214 231 255
214 231 255
214 231 255
214 232 255
214 232 255
214 232 255
214 232 255
214 231 255
214 231 255
214 231 255
214 231 255
214 231 255
214 231 255
214 231 255
214 231 255
214 231 255
214 231 255
214 231 255
214 231 255
214 231 255
214 231 255
214 231 255
214 231 255
214 231 255
214 231 255
213 231 255
213 231 255
213 231 255
213 231 255
213 231 255
213 231 255
213 231 255
213 231 255
213 231 255
213 231 255
213 231 255
213 231 255
213 231 255
213 231 255
213 231 255
213 231 255
213 231 255
213 231 255
213 231 255
213 231 255
213 231 255
213 231 255
213 231 255
213 231 255
213 231 255
213 231 255
213 231 255
213 231 255
213 231 255
213 231 255
212 231 255
212 231 255
212 231 255
212 231 255
212 231 255
212 231 255
212 231 255
212 231 255
212 230 255
212 230 255
212 230 255
212 230 255
212 230 255
212 230 255
212 230 255
212 230 255
212 230 255
212 230 255
212 230 255
212 230 255
212 230 255
212 230 255
212 230 255
212 230 255
212 230 255
212 230 255
211 230 255
211 230 255
211 230 255
211 230 255
211 230 255
211 230 255
211 230 255
211 230 255
211 230 255
211 230 255
211 230 255
211 230 255
211 230 255
211 230 255
211 230 255
211 230 255
211 230 255
211 230 255
211 230 255
211 230 255
211 230 255
211 230 255
211 230 255
211 230 255
210 230 255
210 230 255
210 229 255
210 229 255
210 229 255
210 229 255
210 229 255
210 229 255
210 229 255
210 229 255
210 229 255
210 229 255
210 229 255
210 229 255
210 229 255
210 229 255
210 229 255
210 229 255
210 229 255
210 229 255
210 229 255
210 229 255
209 229 255
209 229 255
209 229 255
209 229 255
209 229 255
209 229 255
209 229 255
209 229 255
209 229 255
209 229 255
209 229 255
209 229 255
209 229 255
209 229 255
209 229 255
209 229 255
209 229 255
209 229 255
209 229 255
209 229 255
209 229 255
209 229 255
209 228 255
208 228 255
208 228 255
208 228 255
208 228 255
206 226 253
129 142 160
59 66 75
58 64 73
57 64 73
58 64 73
58 65 74
57 64 72
56 63 72
57 63 72
60 67 77
59 66 75
60 66 75
61 68 77
59 65 74
55 61 70
59 66 75
56 63 71
58 65 73
58 64 73
55 61 70
56 62 71
57 63 72
59 66 75
57 64 73
57 63 72
57 63 72
57 63 72
57 63 72
58 65 74
59 66 75
57 64 72
57 63 72
57 63 72
57 63 72
55 62 70
58 64 73
58 64 72
55 61 70
57 64 72
56 62 70
57 64 72
57 64 72
56 63 72
57 64 73
58 65 74
58 64 73
55 61 69
58 65 73
58 64 73
56 62 70
56 63 71
56 63 71
55 62 70
58 64 73
58 64 73
57 63 72
55 62 70
58 65 73
56 62 69
57 63 72
56 63 71
57 64 72
58 64 73
59 66 75
56 62 71
57 63 71
56 62 71
57 64 72
56 62 71
57 63 72
60 66 76
58 64 72
56 62 71
59 65 73
56 63 72
57 64 72
57 63 72
56 62 71
58 64 73
58 65 73
57 63 72
58 65 73
59 66 75
60 66 76
57 64 72
57 63 71
56 63 71
61 68 77
59 65 74
59 66 75
58 65 75
59 66 76
58 65 73
56 62 71
58 65 74
112 123 138
203 223 250
208 228 255
208 228 255
208 228 255
208 228 255
209 228 255
209 229 255
209 229 255
209 229 255
209 229 255
209 229 255
209 229 255
209 229 255
209 229 255
209 229 255
209 229 255
209 229 255
209 229 255
209 229 255
209 229 255
209 229 255
209 229 255
209 229 255
209 229 255
209 229 255
209 229 255
209 229 255
209 229 255
210 229 255
210 229 255
210 229 255
210 229 255
210 229 255
210 229 255
210 229 255
210 229 255
210 229 255
210 229 255
210 229 255
210 229 255
210 229 255
210 229 255
210 229 255
210 229 255
210 229 255
210 229 255
210 229 255
210 229 255
210 230 255
210 230 255
211 230 255
211 230 255
211 230 255
211 230 255
211 230 255
211 230 255
211 230 255
211 230 255
211 230 255
211 230 255
211 230 255
211 230 255
211 230 255
211 230 255
211 230 255
211 230 255
211 230 255
211 230 255
211 230 255
211 230 255
211 230 255
211 230 255
211 230 255
212 230 255
212 230 255
212 230 255
212 230 255
212 230 255
212 230 255
212 230 255
212 230 255
212 230 255
212 230 255
212 230 255
212 230 255
212 230 255
212 230 255
212 230 255
212 230 255
212 230 255
212 230 255
212 231 255
212 231 255
212 231 255
212 231 255
212 231 255
212 231 255
212 231 255
212 231 255
213 231 255
213 231 255
213 231 255
213 231 255
213 231 255
213 231 255
213 231 255
213 231 255
213 231 255
213 231 255
213 231 255
213 231 255
213 231 255
213 231 255
213 231 255
213 231 255
213 231 255
213 231 255
213 231 255
213 231 255
213 231 255
213 231 255
213 231 255
213 231 255
213 231 255
213 231 255
213 231 255
213 231 255
213 231 255
213 231 255
213 231 255
214 231 255
214 231 255
214 231 255
214 231 255
214 231 255
214 231 255
214 231 255
214 231 255
214 231 255
214 231 255
214 231 255
214 231 255
214 231 255
214 231 255
214 231 255
214 231 255
214 231 255
214 231 255
214 232 255
214 232 255
214 232 255
214 232 255
214 232 255
214 232 255
214 232 255
214 232 255
214 232 255
214 232 255
214 232 255
214 232 255
214 232 255
214 232 255
214 231 255
214 231 255
214 231 255
214 231 255
214 231 255
214 231 255
214 231 255
214 231 255
214 231 255
214 231 255
214 231 255
214 231 255
214 231 255
214 231 255
214 231 255
214 231 255
214 231 255
214 231 255
213 231 255
213 231 255
213 231 255
213 231 255
213 231 255
213 231 255
213 231 255
213 231 255
213 231 255
213 231 255
213 231 255
213 231 255
213 231 255
213 231 255
213 231 255
213 231 255
213 231 255
213 231 255
213 231 255
213 231 255
213 231 255
213 231 255
213 231 255
213 231 255
213 231 255
213 231 255
213 231 255
213 231 255
213 231 255
213 231 255
212 231 255
212 231 255
212 231 255
212 231 255
212 231 255
212 231 255
212 231 255
212 231 255
212 230 255
212 230 255
212 230 255
212 230 255
212 230 255
212 230 255
212 230 255
212 230 255
212 230 255
212 230 255
212 230 255
212 230 255
212 230 255
212 230 255
212 230 255
212 230 255
212 230 255
212 230 255
211 230 255
211 230 255
211 230 255
211 230 255
211 230 255
211 230 255
211 230 255
211 230 255
211 230 255
211 230 255
211 230 255
211 230 255
211 230 255
211 230 255
211 230 255
211 230 255
211 230 255
211 230 255
211 230 255
211 230 255
211 230 255
211 230 255
211 230 255
210 230 255
210 230 255
210 230 255
210 229 255
210 229 255
210 229 255
210 229 255
210 229 255
210 229 255
210 229 255
210 229 255
210 229 255
210 229 255
210 229 255
210 229 255
210 229 255
210 229 255
210 229 255
210 229 255
210 229 255
210 229 255
210 229 255
210 229 255
209 229 255
209 229 255
209 229 255
209 229 255
209 229 255
209 229 255
209 229 255
209 229 255
209 229 255
209 229 255
209 229 255
209 229 255
209 229 255
209 229 255
209 229 255
209 229 255
209 229 255
209 229 255
209 229 255
209 229 255
208 227 254
125 138 154
59 65 74
59 66 74
59 65 74
58 64 73
58 65 74
59 66 75
57 63 72
56 62 71
59 65 74
59 66 74
56 63 72
57 64 73
57 63 72
57 63 72
56 62 71
58 64 73
57 64 72
58 65 74
57 64 72
57 63 72
59 65 74
57 63 72
55 61 70
57 63 72
57 63 72
55 62 71
56 62 70
59 65 74
57 64 73
59 65 74
55 62 71
59 66 75
58 64 73
58 64 72
58 64 73
53 60 68
59 66 74
59 65 74
57 63 72
54 60 69
55 61 69
57 63 71
58 64 73
55 62 70
59 65 74
57 63 72
55 61 70
60 66 75
57 64 72
56 62 70
58 65 74
55 61 70
56 62 71
57 63 71
56 63 71
60 66 75
55 61 69
59 65 74
58 64 72
58 64 72
57 64 72
55 61 69
57 63 72
57 63 72
58 65 74
58 64 72
57 64 72
57 63 71
57 63 72
57 64 72
58 64 73
58 64 73
57 64 73
57 63 71
56 62 70
58 64 73
58 64 72
56 63 72
58 64 73
59 65 74
60 66 74
57 63 71
59 66 75
59 66 75
57 64 72
55 62 70
57 63 72
58 65 74
57 63 72
57 64 73
57 64 72
60 66 75
54 61 69
59 65 74
59 65 74
59 66 75
122 135 151
209 229 255
209 229 255
209 229 255
209 229 255
209 229 255
209 229 255
209 229 255
209 229 255
209 229 255
209 229 255
209 229 255
209 229 255
209 229 255
209 229 255
209 229 255
209 229 255
209 229 255
209 229 255
209 229 255
209 229 255
209 229 255
210 229 255
210 229 255
210 229 255
210 229 255
210 229 255
210 229 255
210 229 255
210 229 255
210 229 255
210 229 255
210 229 255
210 229 255
210 229 255
210 229 255
210 229 255
210 229 255
210 229 255
210 229 255
210 229 255
210 229 255
210 229 255
210 230 255
210 230 255
211 230 255
211 230 255
211 230 255
211 230 255
211 230 255
211 230 255
211 230 255
211 230 255
211 230 255
211 230 255
211 230 255
211 230 255
211 230 255
211 230 255
211 230 255
211 230 255
211 230 255
211 230 255
211 230 255
211 230 255
211 230 255
211 230 255
211 230 255
212 230 255
212 230 255
212 230 255
212 230 255
212 230 255
212 230 255
212 230 255
212 230 255
212 230 255
212 230 255
212 230 255
212 230 255
212 230 255
212 230 255
212 230 255
212 230 255
212 230 255
212 230 255
212 231 255
212 231 255
212 231 255
212 231 255
212 231 255
212 231 255
212 231 255
212 231 255
213 231 255
213 231 255
213 231 255
213 231 255
213 231 255
213 231 255
213 231 255
213 231 255
213 231 255
213 231 255
213 231 255
213 231 255
213 231 255
213 231 255
213 231 255
213 231 255
213 231 255
213 231 255
213 231 255
213 231 255
213 231 255
213 231 255
213 231 255
213 231 255
213 231 255
213 231 255
213 231 255
213 231 255
213 231 255
213 231 255
214 231 255
214 231 255
214 231 255
214 231 255
214 231 255
214 231 255
214 231 255
214 231 255
214 231 255
214 231 255
214 231 255
214 231 255
214 231 255
214 231 255
214 231 255
214 231 255
214 231 255
214 231 255
214 232 255
214 232 255
214 232 255
214 232 255
214 232 255
214 232 255
214 232 255
214 232 255
214 232 255
214 232 255
214 232 255
214 232 255
214 232 255
214 232 255
214 232 255
214 232 255
214 232 255
214 232 255
214 232 255
214 232 255
214 232 255
214 232 255
214 232 255
214 232 255
214 232 255
214 232 255
214 231 255
214 231 255
214 231 255
214 231 255
214 231 255
214 231 255
214 231 255
214 231 255
214 231 255
214 231 255
214 231 255
214 231 255
214 231 255
214 231 255
214 231 255
214 231 255
214 231 255
214 231 255
213 231 255
213 231 255
213 231 255
213 231 255
213 231 255
213 231 255
213 231 255
213 231 255
213 231 255
213 231 255
213 231 255
213 231 255
213 231 255
213 231 255
213 231 255
213 231 255
213 231 255
213 231 255
213 231 255
213 231 255
213 231 255
213 231 255
213 231 255
213 231 255
213 231 255
213 231 255
213 231 255
213 231 255
213 231 255
212 231 255
212 231 255
212 231 255
212 231 255
212 231 255
212 231 255
212 231 255
212 231 255
212 230 255
212 230 255
212 230 255
212 230 255
212 230 255
212 230 255
212 230 255
212 230 255
212 230 255
212 230 255
212 230 255
212 230 255
212 230 255
212 230 255
212 230 255
212 230 255
212 230 255
212 230 255
211 230 255
211 230 255
211 230 255
211 230 255
211 230 255
211 230 255
211 230 255
211 230 255
211 230 255
211 230 255
211 230 255
211 230 255
211 230 255
211 230 255
211 230 255
211 230 255
211 230 255
211 230 255
211 230 255
211 230 255
211 230 255
211 230 255
211 230 255
211 230 255
210 230 255
210 230 255
210 229 255
210 229 255
210 229 255
210 229 255
210 229 255
210 229 255
210 229 255
210 229 255
210 229 255
210 229 255
210 229 255
210 229 255
210 229 255
210 229 255
210 229 255
210 229 255
210 229 255
210 229 255
210 229 255
210 229 255
210 229 255
209 229 255
209 229 255
209 229 255
209 229 255
209 229 255
209 229 255
209 229 255
209 229 255
209 229 255
209 229 255
209 229 255
209 229 255
209 229 255
209 229 255
149 164 183
59 66 74
59 65 74
56 62 71
59 66 75
58 64 73
60 66 76
58 65 74
56 62 71
59 65 74
57 64 73
57 63 72
57 64 72
58 65 74
57 64 73
57 64 72
59 65 74
56 62 71
55 61 70
57 64 72
56 62 71
58 65 74
58 64 72
55 61 70
57 63 71
55 61 70
58 64 73
56 62 70
58 65 74
57 63 72
54 60 68
57 63 72
57 64 73
57 64 73
60 66 75
58 64 73
55 61 70
56 63 72
58 64 72
59 65 74
54 60 68
56 63 72
56 62 71
58 64 73
55 62 70
58 64 73
54 60 69
55 61 69
58 64 72
55 61 69
55 61 70
56 63 71
58 64 72
58 64 72
55 61 70
56 63 71
57 63 72
57 63 71
57 63 71
57 64 72
59 65 74
57 64 72
57 63 71
57 63 72
56 62 70
56 63 71
59 66 74
57 63 72
58 65 73
57 63 72
55 62 70
56 62 70
56 63 72
58 65 74
56 63 71
58 64 72
59 66 74
54 61 69
57 64 73
58 64 72
58 64 73
57 64 73
54 60 69
58 64 73
57 63 72
58 65 74
58 65 73
58 64 73
56 62 70
56 63 72
58 64 73
58 65 73
59 65 74
59 65 74
56 63 71
57 64 72
58 65 74
58 65 74
59 65 74
133 146 164
209 229 255
209 229 255
209 229 255
209 229 255
209 229 255
209 229 255
209 229 255
209 229 255
209 229 255
209 229 255
209 229 255
209 229 255
209 229 255
209 229 255
210 229 255
210 229 255
210 229 255
210 229 255
210 229 255
210 229 255
210 229 255
210 229 255
210 229 255
210 229 255
210 229 255
210 229 255
210 229 255
210 229 255
210 229 255
210 229 255
210 229 255
210 229 255
210 229 255
210 229 255
210 229 255
210 230 255
210 230 255
211 230 255
211 230 255
211 230 255
211 230 255
211 230 255
211 230 255
211 230 255
211 230 255
211 230 255
211 230 255
211 230 255
211 230 255
211 230 255
211 230 255
211 230 255
211 230 255
211 230 255
211 230 255
211 230 255
211 230 255
211 230 255
211 230 255
211 230 255
211 230 255
212 230 255
212 230 255
212 230 255
212 230 255
212 230 255
212 230 255
212 230 255
212 230 255
212 230 255
212 230 255
212 230 255
212 230 255
212 230 255
212 230 255
212 230 255
212 230 255
212 230 255
212 230 255
212 231 255
212 231 255
212 231 255
212 231 255
212 231 255
212 231 255
212 231 255
212 231 255
213 231 255
213 231 255
213 231 255
213 231 255
213 231 255
213 231 255
213 231 255
213 231 255
213 231 255
213 231 255
213 231 255
213 231 255
213 231 255
213 231 255
213 231 255
213 231 255
213 231 255
213 231 255
213 231 255
213 231 255
213 231 255
213 231 255
213 231 255
213 231 255
213 231 255
213 231 255
213 231 255
213 231 255
213 231 255
214 231 255
214 231 255
214 231 255
214 231 255
214 231 255
214 231 255
214 231 255
214 231 255
214 231 255
214 231 255
214 231 255
214 231 255
214 231 255
214 231 255
214 231 255
214 231 255
214 231 255
214 231 255
214 232 255
214 232 255
214 232 255
214 232 255
214 232 255
214 232 255
214 232 255
214 232 255
214 232 255
214 232 255
214 232 255
214 232 255
214 232 255
214 232 255
214 232 255
214 232 255
215 232 255
215 232 255
215 232 255
215 232 255
214 232 255
214 232 255
214 232 255
214 232 255
214 232 255
214 232 255
214 232 255
214 232 255
214 232 255
214 232 255
214 232 255
214 232 255
214 232 255
214 232 255
214 232 255
214 232 255
214 232 255
214 232 255
214 231 255
214 231 255
214 231 255
214 231 255
214 231 255
214 231 255
214 231 255
214 231 255
214 231 255
214 231 255
214 231 255
214 231 255
214 231 255
214 231 255
214 231 255
214 231 255
214 231 255
214 231 255
213 231 255
213 231 255
213 231 255
213 231 255
213 231 255
213 231 255
213 231 255
213 231 255
213 231 255
213 231 255
213 231 255
213 231 255
213 231 255
213 231 255
213 231 255
213 231 255
213 231 255
213 231 255
213 231 255
213 231 255
213 231 255
213 231 255
213 231 255
213 231 255
213 231 255
213 231 255
213 231 255
213 231 255
213 231 255
212 231 255
212 231 255
212 231 255
212 231 255
212 231 255
212 231 255
212 231 255
212 231 255
212 230 255
212 230 255
212 230 255
212 230 255
212 230 255
212 230 255
212 230 255
212 230 255
212 230 255
212 230 255
212 230 255
212 230 255
212 230 255
212 230 255
212 230 255
212 230 255
212 230 255
211 230 255
211 230 255
211 230 255
211 230 255
211 230 255
211 230 255
211 230 255
211 230 255
211 230 255
211 230 255
211 230 255
211 230 255
211 230 255
211 230 255
211 230 255
211 230 255
211 230 255
211 230 255
211 230 255
211 230 255
211 230 255
211 230 255
211 230 255
211 230 255
210 230 255
210 230 255
210 230 255
210 229 255
210 229 255
210 229 255
210 229 255
210 229 255
210 229 255
210 229 255
210 229 255
210 229 255
210 229 255
210 229 255
210 229 255
210 229 255
210 229 255
210 229 255
210 229 255
210 229 255
210 229 255
210 229 255
210 229 255
210 229 255
209 229 255
209 229 255
209 229 255
209 229 255
209 229 255
209 229 255
209 229 255
172 189 211
59 66 74
58 64 73
57 64 72
61 67 77
59 65 74
60 67 75
58 64 72
56 63 71
56 63 71
58 65 74
58 65 74
59 65 73
57 64 73
57 63 71
55 61 69
58 64 73
57 64 72
59 65 74
58 65 73
57 63 71
56 63 71
56 62 70
56 62 70
56 63 71
59 65 74
55 62 70
56 63 71
58 64 73
57 63 72
58 64 72
58 64 72
57 63 72
59 65 74
56 62 71
56 62 71
56 62 71
56 62 70
58 65 74
60 66 74
59 65 73
57 64 72
59 65 74
55 61 70
57 63 72
56 63 72
58 64 72
57 64 73
57 64 72
56 62 71
58 64 72
56 62 70
59 65 74
57 64 73
59 65 74
55 62 71
60 66 74
57 64 72
55 61 70
55 61 69
57 63 72
57 63 72
61 67 75
57 63 72
57 63 72
56 62 70
56 62 70
57 63 72
57 64 72
55 61 70
59 65 74
56 62 71
58 64 73
56 62 71
55 61 70
57 64 72
58 65 74
57 63 72
57 64 72
55 61 70
56 62 71
55 62 70
60 67 76
58 65 74
57 63 71
58 65 73
58 65 74
56 62 71
58 64 72
58 64 72
58 65 74
58 65 73
60 66 75
56 62 70
59 66 74
58 64 73
58 65 73
56 63 72
57 63 72
58 65 74
60 67 76
175 192 214
209 229 255
209 229 255
209 229 255
209 229 255
209 229 255
209 229 255
209 229 255
210 229 255
210 229 255
210 229 255
210 229 255
210 229 255
210 229 255
210 229 255
210 229 255
210 229 255
210 229 255
210 229 255
210 229 255
210 229 255
210 229 255
210 229 255
210 229 255
210 229 255
210 229 255
210 229 255
210 229 255
210 229 255
210 229 255
210 230 255
210 230 255
211 230 255
211 230 255
211 230 255
211 230 255
211 230 255
211 230 255
211 230 255
211 230 255
211 230 255
211 230 255
211 230 255
211 230 255
211 230 255
211 230 255
211 230 255
211 230 255
211 230 255
211 230 255
211 230 255
211 230 255
211 230 255
211 230 255
211 230 255
211 230 255
212 230 255
212 230 255
212 230 255
212 230 255
212 230 255
212 230 255
212 230 255
212 230 255
212 230 255
212 230 255
212 230 255
212 230 255
212 230 255
212 230 255
212 230 255
212 230 255
212 230 255
212 231 255
212 231 255
212 231 255
212 231 255
212 231 255
212 231 255
212 231 255
212 231 255
213 231 255
213 231 255
213 231 255
213 231 255
213 231 255
213 231 255
213 231 255
213 231 255
213 231 255
213 231 255
213 231 255
213 231 255
213 231 255
213 231 255
213 231 255
213 231 255
213 231 255
213 231 255
213 231 255
213 231 255
213 231 255
213 231 255
213 231 255
213 231 255
213 231 255
213 231 255
213 231 255
213 231 255
213 231 255
213 231 255
214 231 255
214 231 255
214 231 255
214 231 255
214 231 255
214 231 255
214 231 255
214 231 255
214 231 255
214 231 255
214 231 255
214 231 255
214 231 255
214 231 255
214 231 255
214 231 255
214 232 255
214 232 255
214 232 255
214 232 255
214 232 255
214 232 255
214 232 255
214 232 255
214 232 255
214 232 255
214 232 255
214 232 255
214 232 255
214 232 255
214 232 255
214 232 255
214 232 255
214 232 255
214 232 255
215 232 255
215 232 255
215 232 255
215 232 255
215 232 255
215 232 255
215 232 255
215 232 255
215 232 255
215 232 255
215 232 255
215 232 255
215 232 255
215 232 255
215 232 255
214 232 255
214 232 255
214 232 255
214 232 255
214 232 255
214 232 255
214 232 255
214 232 255
214 232 255
214 232 255
214 232 255
214 232 255
214 232 255
214 232 255
214 232 255
214 232 255
214 232 255
214 231 255
214 231 255
214 231 255
214 231 255
214 231 255
214 231 255
214 231 255
214 231 255
214 231 255
214 231 255
214 231 255
214 231 255
214 231 255
214 231 255
214 231 255
214 231 255
214 231 255
214 231 255
213 231 255
213 231 255
213 231 255
213 231 255
213 231 255
213 231 255
213 231 255
213 231 255
213 231 255
213 231 255
213 231 255
213 231 255
213 231 255
213 231 255
213 231 255
213 231 255
213 231 255
213 231 255
213 231 255
213 231 255
213 231 255
213 231 255
213 231 255
213 231 255
213 231 255
213 231 255
213 231 255
213 231 255
212 231 255
212 231 255
212 231 255
212 231 255
212 231 255
212 231 255
212 231 255
212 231 255
212 231 255
212 230 255
212 230 255
212 230 255
212 230 255
212 230 255
212 230 255
212 230 255
212 230 255
212 230 255
212 230 255
212 230 255
212 230 255
212 230 255
212 230 255
212 230 255
212 230 255
212 230 255
211 230 255
211 230 255
211 230 255
211 230 255
211 230 255
211 230 255
211 230 255
211 230 255
211 230 255
211 230 255
211 230 255
211 230 255
211 230 255
211 230 255
211 230 255
211 230 255
211 230 255
211 230 255
211 230 255
211 230 255
211 230 255
211 230 255
211 230 255
211 230 255
210 230 255
210 230 255
210 229 255
210 229 255
210 229 255
210 229 255
210 229 255
210 229 255
210 229 255
210 229 255
210 229 255
210 229 255
210 229 255
210 229 255
210 229 255
210 229 255
210 229 255
210 229 255
210 229 255
210 229 255
210 229 255
210 229 255
210 229 255
210 229 255
193 211 236
78 86 98
58 65 73
57 63 72
60 66 75
59 65 74
60 66 75
59 66 75
58 65 74
57 64 73
58 64 73
57 64 73
57 64 72
57 63 71
57 64 72
58 65 74
57 63 72
57 63 72
58 65 74
55 61 70
56 61 70
57 63 72
59 65 74
54 60 68
55 62 70
59 65 74
55 61 69
55 61 69
55 61 70
58 64 72
58 65 73
55 61 69
55 61 69
57 63 72
55 61 70
56 63 71
55 61 69
59 65 74
58 64 72
58 64 72
55 62 71
54 60 68
54 61 70
57 63 72
58 65 74
58 65 74
57 63 72
57 63 71
56 62 70
57 63 72
55 61 69
56 62 71
57 63 71
57 63 71
57 63 71
58 65 74
57 64 72
56 62 70
57 63 72
54 61 69
54 60 68
58 64 72
54 60 69
57 64 73
57 64 72
57 63 72
57 63 72
56 62 71
55 62 70
58 64 72
57 64 72
59 66 74
58 65 73
55 62 70
59 66 74
52 58 66
57 63 72
57 64 72
55 61 69
55 61 69
58 64 72
57 63 71
58 64 72
57 63 71
56 62 71
57 63 72
58 64 73
56 63 71
60 67 75
58 64 72
54 60 67
57 64 72
59 66 74
59 65 74
59 66 74
59 66 75
58 64 73
55 61 70
56 63 71
58 64 72
59 66 74
56 63 72
71 78 89
186 203 227
210 229 255
210 229 255
210 229 255
210 229 255
210 229 255
210 229 255
210 229 255
210 229 255
210 229 255
210 229 255
210 229 255
210 229 255
210 229 255
210 229 255
210 229 255
210 229 255
210 229 255
210 229 255
210 229 255
210 229 255
210 229 255
210 230 255
210 230 255
210 230 255
211 230 255
211 230 255
211 230 255
211 230 255
211 230 255
211 230 255
211 230 255
211 230 255
211 230 255
211 230 255
211 230 255
211 230 255
211 230 255
211 230 255
211 230 255
211 230 255
211 230 255
211 230 255
211 230 255
211 230 255
211 230 255
211 230 255
211 230 255
211 230 255
212 230 255
212 230 255
212 230 255
212 230 255
212 230 255
212 230 255
212 230 255
212 230 255
212 230 255
212 230 255
212 230 255
212 230 255
212 230 255
212 230 255
212 230 255
212 230 255
212 230 255
212 230 255
212 231 255
212 231 255
212 231 255
212 231 255
212 231 255
212 231 255
212 231 255
213 231 255
213 231 255
213 231 255
213 231 255
213 231 255
213 231 255
213 231 255
213 231 255
213 231 255
213 231 255
213 231 255
213 231 255
213 231 255
213 231 255
213 231 255
213 231 255
213 231 255
213 231 255
213 231 255
213 231 255
213 231 255
213 231 255
213 231 255
213 231 255
213 231 255
213 231 255
213 231 255
213 231 255
213 231 255
213 231 255
214 231 255
214 231 255
214 231 255
214 231 255
214 231 255
214 231 255
214 231 255
214 231 255
214 231 255
214 231 255
214 231 255
214 231 255
214 231 255
214 231 255
214 231 255
214 231 255
214 232 255
214 232 255
214 232 255
214 232 255
214 232 255
214 232 255
214 232 255
214 232 255
214 232 255
214 232 255
214 232 255
214 232 255
214 232 255
214 232 255
214 232 255
214 232 255
214 232 255
214 232 255
215 232 255
215 232 255
215 232 255
215 232 255
215 232 255
215 232 255
215 232 255
215 232 255
215 232 255
215 232 255
215 232 255
215 232 255
215 232 255
215 232 255
215 232 255
215 232 255
215 232 255
215 232 255
215 232 255
215 232 255
215 232 255
215 232 255
215 232 255
215 232 255
215 232 255
215 232 255
215 232 255
215 232 255
214 232 255
214 232 255
214 232 255
214 232 255
214 232 255
214 232 255
214 232 255
214 232 255
214 232 255
214 232 255
214 232 255
214 232 255
214 232 255
214 232 255
214 232 255
214 232 255
214 232 255
214 232 255
214 231 255
214 231 255
214 231 255
214 231 255
214 231 255
214 231 255
214 231 255
214 231 255
214 231 255
214 231 255
214 231 255
214 231 255
214 231 255
214 231 255
214 231 255
214 231 255
214 231 255
213 231 255
213 231 255
213 231 255
213 231 255
213 231 255
213 231 255
213 231 255
213 231 255
213 231 255
213 231 255
213 231 255
213 231 255
213 231 255
213 231 255
213 231 255
213 231 255
213 231 255
213 231 255
213 231 255
213 231 255
213 231 255
213 231 255
213 231 255
213 231 255
213 231 255
213 231 255
213 231 255
213 231 255
212 231 255
212 231 255
212 231 255
212 231 255
212 231 255
212 231 255
212 231 255
212 231 255
212 230 255
212 230 255
212 230 255
212 230 255
212 230 255
212 230 255
212 230 255
212 230 255
212 230 255
212 230 255
212 230 255
212 230 255
212 230 255
212 230 255
212 230 255
212 230 255
212 230 255
212 230 255
211 230 255
211 230 255
211 230 255
211 230 255
211 230 255
211 230 255
211 230 255
211 230 255
211 230 255
211 230 255
211 230 255
211 230 255
211 230 255
211 230 255
211 230 255
211 230 255
211 230 255
211 230 255
211 230 255
211 230 255
211 230 255
211 230 255
211 230 255
211 230 255
210 230 255
210 230 255
210 230 255
210 229 255
210 229 255
210 229 255
210 229 255
210 229 255
210 229 255
210 229 255
210 229 255
210 229 255
210 229 255
210 229 255
210 229 255
210 229 255
210 229 255
202 221 246
81 89 100
59 66 76
58 65 74
58 65 73
57 63 72
58 64 73
54 60 69
60 67 76
59 66 74
56 62 70
58 65 74
59 65 73
55 61 69
57 62 70
56 62 70
56 62 70
57 64 72
60 67 76
58 64 73
58 64 73
57 63 72
57 64 72
57 64 72
55 61 70
56 63 71
56 63 71
58 64 73
58 64 72
57 63 72
56 62 70
59 65 74
54 61 69
55 61 70
55 61 69
57 63 71
56 62 70
58 64 72
56 62 70
55 62 70
56 62 70
56 63 71
55 61 69
55 60 68
55 61 69
55 62 70
56 62 71
55 61 70
56 62 70
55 61 69
57 63 72
56 62 69
56 62 70
56 62 70
56 62 70
58 65 73
54 61 69
56 62 70
57 64 72
59 65 73
53 59 67
55 61 69
57 63 72
55 61 69
56 62 71
59 65 72
56 63 72
61 67 76
58 64 72
57 63 71
57 63 71
58 64 72
54 61 69
56 63 71
56 62 70
56 62 70
55 61 70
54 60 68
58 64 73
56 62 70
58 64 73
57 63 72
57 63 72
58 64 73
57 64 72
56 62 70
60 66 74
55 61 69
58 65 74
55 62 70
59 65 74
56 62 71
58 65 74
58 64 72
57 63 72
58 64 73
56 63 72
57 64 72
57 63 72
58 65 73
56 62 71
55 61 70
56 62 71
59 65 74
96 106 119
207 226 252
210 229 255
210 229 255
210 229 255
210 229 255
210 229 255
210 229 255
210 229 255
210 229 255
210 229 255
210 229 255
210 229 255
210 229 255
210 229 255
210 229 255
210 230 255
210 230 255
210 230 255
211 230 255
211 230 255
211 230 255
211 230 255
211 230 255
211 230 255
211 230 255
211 230 255
211 230 255
211 230 255
211 230 255
211 230 255
211 230 255
211 230 255
211 230 255
211 230 255
211 230 255
211 230 255
211 230 255
211 230 255
211 230 255
211 230 255
211 230 255
211 230 255
212 230 255
212 230 255
212 230 255
212 230 255
212 230 255
212 230 255
212 230 255
212 230 255
212 230 255
212 230 255
212 230 255
212 230 255
212 230 255
212 230 255
212 230 255
212 230 255
212 230 255
212 230 255
212 231 255
212 231 255
212 231 255
212 231 255
212 231 255
212 231 255
212 231 255
212 231 255
213 231 255
213 231 255
213 231 255
213 231 255
213 231 255
213 231 255
213 231 255
213 231 255
213 231 255
213 231 255
213 231 255
213 231 255
213 231 255
213 231 255
213 231 255
213 231 255
213 231 255
213 231 255
213 231 255
213 231 255
213 231 255
213 231 255
213 231 255
213 231 255
213 231 255
213 231 255
213 231 255
213 231 255
214 231 255
214 231 255
214 231 255
214 231 255
214 231 255
214 231 255
214 231 255
214 231 255
214 231 255
214 231 255
214 231 255
214 231 255
214 231 255
214 231 255
214 231 255
214 231 255
214 231 255
214 232 255
214 232 255
214 232 255
214 232 255
214 232 255
214 232 255
214 232 255
214 232 255
214 232 255
214 232 255
214 232 255
214 232 255
214 232 255
214 232 255
214 232 255
214 232 255
214 232 255
214 232 255
215 232 255
215 232 255
215 232 255
215 232 255
215 232 255
215 232 255
215 232 255
215 232 255
215 232 255
215 232 255
215 232 255
215 232 255
215 232 255
215 232 255
215 232 255
215 232 255
215 232 255
215 232 255
215 232 255
215 232 255
215 232 255
215 232 255
215 232 255
215 232 255
215 232 255
215 232 255
215 232 255
215 232 255
215 232 255
215 232 255
215 232 255
215 232 255
215 232 255
215 232 255
215 232 255
215 232 255
215 232 255
215 232 255
215 232 255
215 232 255
214 232 255
214 232 255
214 232 255
214 232 255
214 232 255
214 232 255
214 232 255
214 232 255
214 232 255
214 232 255
214 232 255
214 232 255
214 232 255
214 232 255
214 232 255
214 232 255
214 232 255
214 232 255
214 231 255
214 231 255
214 231 255
214 231 255
214 231 255
214 231 255
214 231 255
214 231 255
214 231 255
214 231 255
214 231 255
214 231 255
214 231 255
214 231 255
214 231 255
214 231 255
214 231 255
213 231 255
213 231 255
213 231 255
213 231 255
213 231 255
213 231 255
213 231 255
213 231 255
213 231 255
213 231 255
213 231 255
213 231 255
213 231 255
213 231 255
213 231 255
213 231 255
213 231 255
213 231 255
213 231 255
213 231 255
213 231 255
213 231 255
213 231 255
213 231 255
213 231 255
213 231 255
213 231 255
213 231 255
212 231 255
212 231 255
212 231 255
212 231 255
212 231 255
212 231 255
212 231 255
212 231 255
212 230 255
212 230 255
212 230 255
212 230 255
212 230 255
212 230 255
212 230 255
212 230 255
212 230 255
212 230 255
212 230 255
212 230 255
212 230 255
212 230 255
212 230 255
212 230 255
212 230 255
212 230 255
211 230 255
211 230 255
211 230 255
211 230 255
211 230 255
211 230 255
211 230 255
211 230 255
211 230 255
211 230 255
211 230 255
211 230 255
211 230 255
211 230 255
211 230 255
211 230 255
211 230 255
211 230 255
211 230 255
211 230 255
211 230 255
211 230 255
211 230 255
211 230 255
211 230 255
210 230 255
210 230 255
210 229 255
210 229 255
210 229 255
210 229 255
210 229 255
210 229 255
210 229 255
210 229 255
121 133 149
57 64 73
59 65 74
57 63 72
60 66 76
58 65 74
57 64 72
56 63 72
57 63 71
56 62 70
54 60 69
56 62 71
55 61 69
56 62 71
54 60 69
57 63 71
57 63 72
56 61 69
57 63 71
57 64 73
59 66 74
55 61 70
56 61 69
53 59 67
58 64 72
54 60 69
57 63 72
56 62 70
54 60 69
57 63 72
57 63 72
56 62 69
59 66 74
55 61 69
58 64 72
56 62 71
57 63 72
57 64 72
56 62 70
55 61 69
54 61 69
54 60 69
57 63 72
54 61 69
57 63 72
55 61 69
57 63 71
57 64 72
57 63 72
55 61 69
53 59 67
55 61 70
58 64 72
56 61 69
56 62 71
57 64 73
56 63 72
53 59 67
57 63 71
59 66 74
55 61 70
54 60 67
57 64 72
56 62 70
58 64 73
55 61 69
58 64 72
55 61 69
58 64 72
56 61 69
58 64 72
56 63 71
57 63 72
56 62 70
57 63 72
57 63 71
57 63 71
56 63 71
55 62 70
57 63 72
56 62 70
58 64 73
57 63 71
57 63 72
57 63 71
56 63 72
58 65 73
56 62 71
55 61 70
56 62 70
55 61 70
56 62 71
58 65 74
56 62 71
58 65 74
58 64 72
57 63 71
56 62 70
56 62 70
57 63 71
60 67 76
61 67 76
56 62 71
56 62 71
59 65 74
130 142 158
210 229 255
210 229 255
210 229 255
210 229 255
210 229 255
210 229 255
210 229 255
210 229 255
210 230 255
210 230 255
211 230 255
211 230 255
211 230 255
211 230 255
211 230 255
211 230 255
211 230 255
211 230 255
211 230 255
211 230 255
211 230 255
211 230 255
211 230 255
211 230 255
211 230 255
211 230 255
211 230 255
211 230 255
211 230 255
211 230 255
211 230 255
211 230 255
211 230 255
211 230 255
211 230 255
212 230 255
212 230 255
212 230 255
212 230 255
212 230 255
212 230 255
212 230 255
212 230 255
212 230 255
212 230 255
212 230 255
212 230 255
212 230 255
212 230 255
212 230 255
212 230 255
212 230 255
212 230 255
212 231 255
212 231 255
212 231 255
212 231 255
212 231 255
212 231 255
212 231 255
212 231 255
213 231 255
213 231 255
213 231 255
213 231 255
213 231 255
213 231 255
213 231 255
213 231 255
213 231 255
213 231 255
213 231 255
213 231 255
213 231 255
213 231 255
213 231 255
213 231 255
213 231 255
213 231 255
213 231 255
213 231 255
213 231 255
213 231 255
213 231 255
213 231 255
213 231 255
213 231 255
213 231 255
213 231 255
213 231 255
214 231 255
214 231 255
214 231 255
214 231 255
214 231 255
214 231 255
214 231 255
214 231 255
214 231 255
214 231 255
214 231 255
214 231 255
214 231 255
214 231 255
214 231 255
214 231 255
214 232 255
214 232 255
214 232 255
214 232 255
214 232 255
214 232 255
214 232 255
214 232 255
214 232 255
214 232 255
214 232 255
214 232 255
214 232 255
214 232 255
214 232 255
214 232 255
214 232 255
215 232 255
215 232 255
215 232 255
215 232 255
215 232 255
215 232 255
215 232 255
215 232 255
215 232 255
215 232 255
215 232 255
215 232 255
215 232 255
215 232 255
215 232 255
215 232 255
215 232 255
215 232 255
215 232 255
215 232 255
215 232 255
215 232 255
215 232 255
215 232 255
215 232 255
215 232 255
215 232 255
215 232 255
215 232 255
215 232 255
215 232 255
215 232 255
215 232 255
215 232 255
215 232 255
215 232 255
215 232 255
215 232 255
215 232 255
215 232 255
215 232 255
215 232 255
215 232 255
215 232 255
215 232 255
215 232 255
215 232 255
215 232 255
215 232 255
215 232 255
215 232 255
215 232 255
215 232 255
215 232 255
214 232 255
214 232 255
214 232 255
214 232 255
214 232 255
214 232 255
214 232 255
214 232 255
214 232 255
214 232 255
214 232 255
214 232 255
214 232 255
214 232 255
214 232 255
214 232 255
214 232 255
214 231 255
214 231 255
214 231 255
214 231 255
214 231 255
214 231 255
214 231 255
214 231 255
214 231 255
214 231 255
214 231 255
214 231 255
214 231 255
214 231 255
214 231 255
214 231 255
214 231 255
213 231 255
213 231 255
213 231 255
213 231 255
213 231 255
213 231 255
213 231 255
213 231 255
213 231 255
213 231 255
213 231 255
213 231 255
213 231 255
213 231 255
213 231 255
213 231 255
213 231 255
213 231 255
213 231 255
213 231 255
213 231 255
213 231 255
213 231 255
213 231 255
213 231 255
213 231 255
213 231 255
213 231 255
212 231 255
212 231 255
212 231 255
212 231 255
212 231 255
212 231 255
212 231 255
212 231 255
212 230 255
212 230 255
212 230 255
212 230 255
212 230 255
212 230 255
212 230 255
212 230 255
212 230 255
212 230 255
212 230 255
212 230 255
212 230 255
212 230 255
212 230 255
212 230 255
212 230 255
212 230 255
211 230 255
211 230 255
211 230 255
211 230 255
211 230 255
211 230 255
211 230 255
211 230 255
211 230 255
211 230 255
211 230 255
211 230 255
211 230 255
211 230 255
211 230 255
211 230 255
211 230 255
211 230 255
211 230 255
211 230 255
211 230 255
211 230 255
211 230 255
211 230 255
211 230 255
211 230 255
210 230 255
210 230 255
163 178 199
60 67 76
58 64 73
58 65 73
57 64 73
57 64 72
56 63 72
55 61 70
57 63 72
57 63 71
53 60 68
56 62 71
57 63 72
54 60 68
58 64 73
55 62 70
54 60 68
56 61 69
56 63 71
57 63 71
58 65 73
57 63 72
58 64 72
55 61 69
55 61 69
56 63 72
56 62 71
56 61 69
57 64 73
55 61 69
56 62 70
57 64 72
58 64 72
57 63 71
58 64 73
58 64 72
58 65 74
53 59 67
57 64 72
57 64 72
56 62 71
57 63 71
55 62 70
56 62 71
57 63 72
55 61 68
56 63 72
55 61 69
58 64 72
56 63 71
57 64 72
58 65 73
53 59 67
57 63 71
55 61 70
55 61 69
53 59 67
57 63 71
53 60 68
57 63 72
57 63 71
58 64 72
57 64 72
54 61 69
56 63 72
56 63 71
56 63 71
55 61 69
56 62 70
54 60 68
56 62 70
56 62 69
55 62 70
57 63 72
57 63 72
55 62 70
59 65 74
58 65 74
57 63 72
56 62 71
55 61 69
54 61 69
59 65 74
54 60 68
56 63 71
56 62 70
56 62 70
55 61 69
55 61 70
56 63 71
55 62 70
55 61 69
57 63 72
56 62 70
56 62 71
56 62 71
59 66 74
57 63 71
58 64 73
55 61 70
58 64 73
54 60 69
55 61 70
57 63 72
55 61 70
57 63 72
58 64 73
169 185 206
210 230 255
210 230 255
211 230 255
211 230 255
211 230 255
211 230 255
211 230 255
211 230 255
211 230 255
211 230 255
211 230 255
211 230 255
211 230 255
211 230 255
211 230 255
211 230 255
211 230 255
211 230 255
211 230 255
211 230 255
211 230 255
211 230 255
211 230 255
211 230 255
211 230 255
211 230 255
211 230 255
211 230 255
212 230 255
212 230 255
212 230 255
212 230 255
212 230 255
212 230 255
212 230 255
212 230 255
212 230 255
212 230 255
212 230 255
212 230 255
212 230 255
212 230 255
212 230 255
212 230 255
212 230 255
212 230 255
212 231 255
212 231 255
212 231 255
212 231 255
212 231 255
212 231 255
212 231 255
212 231 255
213 231 255
213 231 255
213 231 255
213 231 255
213 231 255
213 231 255
213 231 255
213 231 255
213 231 255
213 231 255
213 231 255
213 231 255
213 231 255
213 231 255
213 231 255
213 231 255
213 231 255
213 231 255
213 231 255
213 231 255
213 231 255
213 231 255
213 231 255
213 231 255
213 231 255
213 231 255
213 231 255
213 231 255
214 231 255
214 231 255
214 231 255
214 231 255
214 231 255
214 231 255
214 231 255
214 231 255
214 231 255
214 231 255
214 231 255
214 231 255
214 231 255
214 231 255
214 231 255
214 231 255
214 231 255
214 232 255
214 232 255
214 232 255
214 232 255
214 232 255
214 232 255
214 232 255
214 232 255
214 232 255
214 232 255
214 232 255
214 232 255
214 232 255
214 232 255
214 232 255
214 232 255
214 232 255
215 232 255
215 232 255
215 232 255
215 232 255
215 232 255
215 232 255
215 232 255
215 232 255
215 232 255
215 232 255
215 232 255
215 232 255
215 232 255
215 232 255
215 232 255
215 232 255
215 232 255
215 232 255
215 232 255
215 232 255
215 232 255
215 232 255
215 232 255
215 232 255
215 232 255
215 232 255
215 232 255
215 232 255
215 232 255
215 232 255
215 232 255
215 232 255
215 232 255
215 232 255
215 232 255
215 232 255
215 232 255
215 232 255
215 232 255
215 232 255
215 232 255
215 232 255
215 232 255
215 232 255
215 232 255
215 232 255
215 232 255
215 232 255
215 232 255
215 232 255
215 232 255
215 232 255
215 232 255
215 232 255
215 232 255
215 232 255
215 232 255
215 232 255
215 232 255
215 232 255
215 232 255
215 232 255
215 232 255
215 232 255
215 232 255
215 232 255
215 232 255
214 232 255
214 232 255
214 232 255
214 232 255
214 232 255
214 232 255
214 232 255
214 232 255
214 232 255
214 232 255
214 232 255
214 232 255
214 232 255
214 232 255
214 232 255
214 232 255
214 232 255
214 231 255
214 231 255
214 231 255
214 231 255
214 231 255
214 231 255
214 231 255
214 231 255
214 231 255
214 231 255
214 231 255
214 231 255
214 231 255
214 231 255
214 231 255
214 231 255
213 231 255
213 231 255
213 231 255
213 231 255
213 231 255
213 231 255
213 231 255
213 231 255
213 231 255
213 231 255
213 231 255
213 231 255
213 231 255
213 231 255
213 231 255
213 231 255
213 231 255
213 231 255
213 231 255
213 231 255
213 231 255
213 231 255
213 231 255
213 231 255
213 231 255
213 231 255
213 231 255
213 231 255
212 231 255
212 231 255
212 231 255
212 231 255
212 231 255
212 231 255
212 231 255
212 231 255
212 230 255
212 230 255
212 230 255
212 230 255
212 230 255
212 230 255
212 230 255
212 230 255
212 230 255
212 230 255
212 230 255
212 230 255
212 230 255
212 230 255
212 230 255
212 230 255
212 230 255
212 230 255
212 230 255
211 230 255
211 230 255
211 230 255
211 230 255
211 230 255
211 230 255
211 230 255
211 230 255
211 230 255
211 230 255
211 230 255
211 230 255
211 230 255
211 230 255
211 230 255
211 230 255
211 230 255
211 230 255
211 230 255
211 230 255
204 222 247
88 96 108
56 63 71
57 63 72
58 64 72
58 64 72
58 64 72
55 61 69
54 60 68
58 64 73
57 63 71
54 60 69
57 63 72
57 63 71
56 63 71
55 61 69
58 64 73
57 63 71
56 62 69
58 64 73
57 64 72
55 61 68
57 63 72
56 63 71
56 62 70
56 62 70
55 61 70
58 64 72
56 62 70
56 62 70
55 61 69
56 62 71
56 62 71
53 59 67
59 65 74
56 63 72
59 66 74
56 62 70
55 61 69
57 63 71
59 66 74
56 61 69
54 60 68
58 64 72
54 60 67
59 65 73
57 63 72
54 60 68
55 62 70
58 65 74
56 62 70
58 64 72
55 61 69
53 60 68
53 59 67
57 64 72
56 62 71
56 62 70
53 60 68
56 62 69
54 60 69
57 63 71
55 61 69
53 59 68
54 60 68
56 62 70
56 62 71
57 63 71
57 64 73
54 59 67
59 65 73
53 59 67
58 64 73
57 63 71
57 63 72
57 63 72
59 66 74
56 63 72
55 62 70
58 64 73
54 60 69
57 64 72
54 61 69
57 63 72
57 63 72
58 64 73
58 64 73
53 59 67
55 62 70
56 63 71
56 63 71
57 63 71
57 64 72
57 64 73
57 63 71
59 65 74
56 62 71
56 62 70
57 63 72
55 61 69
58 64 72
58 65 74
56 63 72
59 65 74
60 66 75
57 63 71
57 63 72
59 65 74
78 86 97
204 222 247
211 230 255
211 230 255
211 230 255
211 230 255
211 230 255
211 230 255
211 230 255
211 230 255
211 230 255
211 230 255
211 230 255
211 230 255
211 230 255
211 230 255
211 230 255
211 230 255
211 230 255
211 230 255
211 230 255
211 230 255
212 230 255
212 230 255
212 230 255
212 230 255
212 230 255
212 230 255
212 230 255
212 230 255
212 230 255
212 230 255
212 230 255
212 230 255
212 230 255
212 230 255
212 230 255
212 230 255
212 230 255
212 230 255
212 230 255
212 231 255
212 231 255
212 231 255
212 231 255
212 231 255
212 231 255
212 231 255
212 231 255
213 231 255
213 231 255
213 231 255
213 231 255
213 231 255
213 231 255
213 231 255
213 231 255
213 231 255
213 231 255
213 231 255
213 231 255
213 231 255
213 231 255
213 231 255
213 231 255
213 231 255
213 231 255
213 231 255
213 231 255
213 231 255
213 231 255
213 231 255
213 231 255
213 231 255
213 231 255
213 231 255
213 231 255
214 231 255
214 231 255
214 231 255
214 231 255
214 231 255
214 231 255
214 231 255
214 231 255
214 231 255
214 231 255
214 231 255
214 231 255
214 231 255
214 231 255
214 231 255
214 231 255
214 232 255
214 232 255
214 232 255
214 232 255
214 232 255
214 232 255
214 232 255
214 232 255
214 232 255
214 232 255
214 232 255
214 232 255
214 232 255
214 232 255
214 232 255
214 232 255
214 232 255
215 232 255
215 232 255
215 232 255
215 232 255
215 232 255
215 232 255
215 232 255
215 232 255
215 232 255
215 232 255
215 232 255
215 232 255
215 232 255
215 232 255
215 232 255
215 232 255
215 232 255
215 232 255
215 232 255
215 232 255
215 232 255
215 232 255
215 232 255
215 232 255
215 232 255
215 232 255
215 232 255
215 232 255
215 232 255
215 232 255
215 232 255
215 232 255
215 232 255
215 232 255
215 232 255
215 232 255
215 232 255
216 232 255
216 232 255
216 232 255
215 232 255
215 232 255
215 232 255
215 232 255
215 232 255
215 232 255
215 232 255
215 232 255
215 232 255
215 232 255
215 232 255
215 232 255
215 232 255
215 232 255
215 232 255
215 232 255
215 232 255
215 232 255
215 232 255
215 232 255
215 232 255
215 232 255
215 232 255
215 232 255
215 232 255
215 232 255
215 232 255
215 232 255
215 232 255
215 232 255
215 232 255
215 232 255
215 232 255
215 232 255
215 232 255
215 232 255
215 232 255
215 232 255
215 232 255
215 232 255
215 232 255
214 232 255
214 232 255
214 232 255
214 232 255
214 232 255
214 232 255
214 232 255
214 232 255
214 232 255
214 232 255
214 232 255
214 232 255
214 232 255
214 232 255
214 232 255
214 232 255
214 231 255
214 231 255
214 231 255
214 231 255
214 231 255
214 231 255
214 231 255
214 231 255
214 231 255
214 231 255
214 231 255
214 231 255
214 231 255
214 231 255
214 231 255
214 231 255
213 231 255
213 231 255
213 231 255
213 231 255
213 231 255
213 231 255
213 231 255
213 231 255
213 231 255
213 231 255
213 231 255
213 231 255
213 231 255
213 231 255
213 231 255
213 231 255
213 231 255
213 231 255
213 231 255
213 231 255
213 231 255
213 231 255
213 231 255
213 231 255
213 231 255
213 231 255
213 231 255
213 231 255
213 231 255
212 231 255
212 231 255
212 231 255
212 231 255
212 231 255
212 231 255
212 231 255
212 231 255
212 230 255
212 230 255
212 230 255
212 230 255
212 230 255
212 230 255
212 230 255
212 230 255
212 230 255
212 230 255
212 230 255
212 230 255
212 230 255
212 230 255
212 230 255
212 230 255
212 230 255
212 230 255
212 230 255
211 230 255
211 230 255
211 230 255
211 230 255
211 230 255
211 230 255
211 230 255
211 230 255
211 230 255
211 230 255
211 230 255
211 230 255
211 230 255
101 110 123
56 63 71
57 63 71
59 66 74
57 64 72
56 63 71
56 62 70
57 63 72
58 64 73
54 60 68
54 60 67
57 63 72
57 63 71
58 64 72
55 61 70
55 62 70
56 62 71
56 62 71
55 61 70
56 62 70
55 61 69
55 61 69
57 63 71
57 63 71
53 59 67
58 64 73
55 61 69
59 65 74
55 61 68
53 59 68
56 62 70
54 60 67
56 62 70
55 61 70
56 62 70
58 64 72
58 64 72
56 62 70
55 62 70
51 57 64
53 59 67
56 63 71
57 63 71
54 60 68
58 64 73
56 62 70
54 59 67
56 62 70
55 61 69
56 62 70
53 59 67
55 61 69
57 63 71
53 59 67
56 62 70
55 61 70
54 60 68
58 64 72
56 62 70
55 62 71
55 61 69
57 63 71
58 64 72
55 61 70
55 61 69
58 64 72
56 61 69
56 63 71
55 61 69
57 63 71
53 59 67
55 62 70
55 61 70
57 64 72
57 63 71
57 64 72
54 60 69
55 61 69
56 62 70
56 62 70
55 61 69
58 64 72
53 59 67
56 62 71
57 63 72
56 62 70
56 62 70
54 60 69
55 61 69
58 64 73
55 62 70
57 63 72
55 61 69
55 61 69
55 61 69
55 61 69
56 62 71
56 62 71
58 64 72
57 64 72
53 58 66
56 62 70
57 63 71
59 65 73
58 65 74
56 62 71
58 64 73
53 59 68
59 65 74
120 131 146
211 230 255
211 230 255
211 230 255
211 230 255
211 230 255
211 230 255
211 230 255
211 230 255
211 230 255
211 230 255
211 230 255
211 230 255
211 230 255
212 230 255
212 230 255
212 230 255
212 230 255
212 230 255
212 230 255
212 230 255
212 230 255
212 230 255
212 230 255
212 230 255
212 230 255
212 230 255
212 230 255
212 230 255
212 230 255
212 230 255
212 230 255
212 230 255
212 230 255
212 231 255
212 231 255
212 231 255
212 231 255
212 231 255
212 231 255
212 231 255
213 231 255
213 231 255
213 231 255
213 231 255
213 231 255
213 231 255
213 231 255
213 231 255
213 231 255
213 231 255
213 231 255
213 231 255
213 231 255
213 231 255
213 231 255
213 231 255
213 231 255
213 231 255
213 231 255
213 231 255
213 231 255
213 231 255
213 231 255
213 231 255
213 231 255
213 231 255
213 231 255
213 231 255
213 231 255
214 231 255
214 231 255
214 231 255
214 231 255
214 231 255
214 231 255
214 231 255
214 231 255
214 231 255
214 231 255
214 231 255
214 231 255
214 231 255
214 231 255
214 231 255
214 231 255
214 232 255
214 232 255
214 232 255
214 232 255
214 232 255
214 232 255
214 232 255
214 232 255
214 232 255
214 232 255
214 232 255
214 232 255
214 232 255
214 232 255
214 232 255
214 232 255
215 232 255
215 232 255
215 232 255
215 232 255
215 232 255
215 232 255
215 232 255
215 232 255
215 232 255
215 232 255
215 232 255
215 232 255
215 232 255
215 232 255
215 232 255
215 232 255
215 232 255
215 232 255
215 232 255
215 232 255
215 232 255
215 232 255
215 232 255
215 232 255
215 232 255
215 232 255
215 232 255
215 232 255
215 232 255
215 232 255
215 232 255
215 232 255
215 232 255
215 232 255
215 232 255
215 232 255
215 232 255
215 232 255
215 232 255
215 232 255
215 232 255
216 232 255
216 232 255
216 232 255
216 232 255
216 232 255
216 232 255
216 232 255
216 232 255
216 232 255
216 232 255
216 232 255
216 232 255
216 232 255
215 232 255
215 232 255
215 232 255
215 232 255
215 232 255
215 232 255
215 232 255
215 232 255
215 232 255
215 232 255
215 232 255
215 232 255
215 232 255
215 232 255
215 232 255
215 232 255
215 232 255
215 232 255
215 232 255
215 232 255
215 232 255
215 232 255
215 232 255
215 232 255
215 232 255
215 232 255
215 232 255
215 232 255
215 232 255
215 232 255
215 232 255
215 232 255
215 232 255
215 232 255
215 232 255
215 232 255
215 232 255
215 232 255
215 232 255
215 232 255
214 232 255
214 232 255
214 232 255
214 232 255
214 232 255
214 232 255
214 232 255
214 232 255
214 232 255
214 232 255
214 232 255
214 232 255
214 232 255
214 232 255
214 232 255
214 232 255
214 232 255
214 231 255
214 231 255
214 231 255
214 231 255
214 231 255
214 231 255
214 231 255
214 231 255
214 231 255
214 231 255
214 231 255
214 231 255
214 231 255
214 231 255
214 231 255
213 231 255
213 231 255
213 231 255
213 231 255
213 231 255
213 231 255
213 231 255
213 231 255
213 231 255
213 231 255
213 231 255
213 231 255
213 231 255
213 231 255
213 231 255
213 231 255
213 231 255
213 231 255
213 231 255
213 231 255
213 231 255
213 231 255
213 231 255
213 231 255
213 231 255
213 231 255
213 231 255
213 231 255
213 231 255
212 231 255
212 231 255
212 231 255
212 231 255
212 231 255
212 231 255
212 231 255
212 231 255
212 230 255
212 230 255
212 230 255
212 230 255
212 230 255
212 230 255
212 230 255
212 230 255
212 230 255
212 230 255
212 230 255
212 230 255
212 230 255
212 230 255
212 230 255
212 230 255
212 230 255
212 230 255
212 230 255
212 230 255
212 230 255
211 230 255
211 230 255
211 230 255
211 230 255
176 192 213
58 65 73
59 65 74
59 66 74
59 65 74
57 63 72
55 61 69
56 62 70
58 64 72
56 62 71
57 64 72
57 63 72
59 65 74
56 62 70
55 61 69
54 61 69
58 64 73
57 62 70
55 61 69
56 62 70
55 62 70
56 63 71
56 62 70
52 58 65
56 63 71
56 62 71
55 61 69
57 63 71
57 63 72
55 60 68
54 60 68
58 65 73
54 60 68
55 61 69
57 63 72
54 60 68
59 65 73
59 65 73
58 64 72
56 62 70
58 65 74
53 60 68
55 61 69
56 62 70
55 61 70
52 57 65
54 61 69
57 63 72
54 60 68
54 60 67
55 60 68
56 62 70
55 61 69
53 59 67
54 60 68
55 61 69
55 61 69
54 60 69
57 64 72
53 59 68
52 58 66
55 62 70
57 63 71
56 62 71
55 62 70
57 63 72
57 63 71
54 60 67
55 61 69
54 59 67
56 62 70
55 61 70
56 63 71
56 63 71
58 64 72
57 64 72
57 62 70
54 60 68
55 61 69
57 63 71
54 60 69
54 61 69
55 61 70
56 63 71
57 63 71
56 62 71
56 62 70
56 63 72
56 63 71
56 63 71
56 63 71
57 64 72
56 63 71
57 63 72
56 62 70
57 63 71
56 62 70
59 65 74
57 63 72
54 60 67
58 64 72
57 64 72
57 63 72
55 61 70
56 62 71
56 62 71
54 60 69
56 63 72
56 62 70
56 62 72
58 65 73
176 192 213
211 230 255
211 230 255
211 230 255
211 230 255
211 230 255
212 230 255
212 230 255
212 230 255
212 230 255
212 230 255
212 230 255
212 230 255
212 230 255
212 230 255
212 230 255
212 230 255
212 230 255
212 230 255
212 230 255
212 230 255
212 230 255
212 230 255
212 230 255
212 230 255
212 230 255
212 231 255
212 231 255
212 231 255
212 231 255
212 231 255
212 231 255
212 231 255
212 231 255
213 231 255
213 231 255
213 231 255
213 231 255
213 231 255
213 231 255
213 231 255
213 231 255
213 231 255
213 231 255
213 231 255
213 231 255
213 231 255
213 231 255
213 231 255
213 231 255
213 231 255
213 231 255
213 231 255
213 231 255
213 231 255
213 231 255
213 231 255
213 231 255
213 231 255
213 231 255
213 231 255
213 231 255
214 231 255
214 231 255
214 231 255
214 231 255
214 231 255
214 231 255
214 231 255
214 231 255
214 231 255
214 231 255
214 231 255
214 231 255
214 231 255
214 231 255
214 231 255
214 231 255
214 232 255
214 232 255
214 232 255
214 232 255
214 232 255
214 232 255
214 232 255
214 232 255
214 232 255
214 232 255
214 232 255
214 232 255
214 232 255
214 232 255
214 232 255
214 232 255
214 232 255
215 232 255
215 232 255
215 232 255
215 232 255
215 232 255
215 232 255
215 232 255
215 232 255
215 232 255
215 232 255
215 232 255
215 232 255
215 232 255
215 232 255
215 232 255
215 232 255
215 232 255
215 232 255
215 232 255
215 232 255
215 232 255
215 232 255
215 232 255
215 232 255
215 232 255
215 232 255
215 232 255
215 232 255
215 232 255
215 232 255
215 232 255
215 232 255
215 232 255
215 232 255
215 232 255
215 232 255
215 232 255
215 232 255
215 232 255
215 232 255
216 232 255
216 232 255
216 232 255
216 232 255
216 232 255
216 232 255
216 232 255
216 232 255
216 232 255
216 232 255
216 233 255
216 233 255
216 233 255
216 232 255
216 232 255
216 232 255
216 232 255
216 232 255
216 232 255
216 232 255
216 232 255
216 232 255
216 232 255
216 232 255
216 232 255
216 232 255
216 232 255
216 232 255
215 232 255
215 232 255
215 232 255
215 232 255
215 232 255
215 232 255
215 232 255
215 232 255
215 232 255
215 232 255
215 232 255
215 232 255
215 232 255
215 232 255
215 232 255
215 232 255
215 232 255
215 232 255
215 232 255
215 232 255
215 232 255
215 232 255
215 232 255
215 232 255
215 232 255
215 232 255
215 232 255
215 232 255
215 232 255
215 232 255
215 232 255
215 232 255
215 232 255
215 232 255
215 232 255
215 232 255
215 232 255
215 232 255
215 232 255
215 232 255
214 232 255
214 232 255
214 232 255
214 232 255
214 232 255
214 232 255
214 232 255
214 232 255
214 232 255
214 232 255
214 232 255
214 232 255
214 232 255
214 232 255
214 232 255
214 232 255
214 231 255
214 231 255
214 231 255
214 231 255
214 231 255
214 231 255
214 231 255
214 231 255
214 231 255
214 231 255
214 231 255
214 231 255
214 231 255
214 231 255
214 231 255
214 231 255
213 231 255
213 231 255
213 231 255
213 231 255
213 231 255
213 231 255
213 231 255
213 231 255
213 231 255
213 231 255
213 231 255
213 231 255
213 231 255
213 231 255
213 231 255
213 231 255
213 231 255
213 231 255
213 231 255
213 231 255
213 231 255
213 231 255
213 231 255
213 231 255
213 231 255
213 231 255
213 231 255
213 231 255
212 231 255
212 231 255
212 231 255
212 231 255
212 231 255
212 231 255
212 231 255
212 231 255
212 230 255
212 230 255
212 230 255
212 230 255
212 230 255
212 230 255
212 230 255
212 230 255
212 230 255
212 230 255
212 230 255
212 230 255
212 230 255
212 230 255
212 230 255
212 230 255
212 230 255
203 220 245
96 105 117
58 64 72
57 63 72
54 61 70
56 62 70
54 61 69
54 60 68
55 61 69
59 66 74
56 62 70
53 59 67
54 60 69
54 60 69
55 61 70
55 60 68
57 63 71
52 58 66
57 63 72
55 61 69
56 62 70
56 63 71
56 62 70
56 62 70
55 61 70
55 60 68
57 63 72
56 63 71
53 59 67
56 62 70
54 60 68
56 62 70
58 64 73
57 63 71
54 60 67
56 62 70
55 61 69
55 61 69
55 61 69
56 63 71
56 62 70
55 61 69
56 62 71
55 61 69
57 63 72
58 64 72
55 60 68
55 61 70
54 60 68
56 62 70
55 62 70
55 61 69
54 60 67
55 61 70
57 64 72
51 56 64
58 64 72
56 62 70
55 61 69
56 62 69
55 61 69
55 61 69
54 60 68
56 62 70
56 63 71
57 63 72
53 59 67
57 63 72
56 62 70
57 63 72
53 59 67
57 63 71
56 62 71
55 60 68
57 63 72
56 62 70
57 63 72
58 64 72
53 59 66
59 65 74
58 65 73
56 62 70
58 64 72
58 64 73
55 61 70
58 64 72
57 63 71
53 59 66
50 56 64
54 60 68
56 62 70
56 62 70
58 65 74
59 65 74
54 60 68
55 61 69
58 64 72
57 63 72
56 62 70
57 63 71
56 62 71
56 62 70
57 63 72
56 63 71
56 62 70
56 62 70
57 63 72
58 64 72
59 66 75
56 63 71
55 61 69
56 62 71
90 98 110
207 225 250
212 230 255
212 230 255
212 230 255
212 230 255
212 230 255
212 230 255
212 230 255
212 230 255
212 230 255
212 230 255
212 230 255
212 230 255
212 230 255
212 230 255
212 230 255
212 230 255
212 230 255
212 231 255
212 231 255
212 231 255
212 231 255
212 231 255
212 231 255
212 231 255
212 231 255
213 231 255
213 231 255
213 231 255
213 231 255
213 231 255
213 231 255
213 231 255
213 231 255
213 231 255
213 231 255
213 231 255
213 231 255
213 231 255
213 231 255
213 231 255
213 231 255
213 231 255
213 231 255
213 231 255
213 231 255
213 231 255
213 231 255
213 231 255
213 231 255
213 231 255
213 231 255
213 231 255
213 231 255
214 231 255
214 231 255
214 231 255
214 231 255
214 231 255
214 231 255
214 231 255
214 231 255
214 231 255
214 231 255
214 231 255
214 231 255
214 231 255
214 231 255
214 231 255
214 231 255
214 231 255
214 232 255
214 232 255
214 232 255
214 232 255
214 232 255
214 232 255
214 232 255
214 232 255
214 232 255
214 232 255
214 232 255
214 232 255
214 232 255
214 232 255
214 232 255
214 232 255
215 232 255
215 232 255
215 232 255
215 232 255
215 232 255
215 232 255
215 232 255
215 232 255
215 232 255
215 232 255
215 232 255
215 232 255
215 232 255
215 232 255
215 232 255
215 232 255
215 232 255
215 232 255
215 232 255
215 232 255
215 232 255
215 232 255
215 232 255
215 232 255
215 232 255
215 232 255
215 232 255
215 232 255
215 232 255
215 232 255
215 232 255
215 232 255
215 232 255
215 232 255
215 232 255
215 232 255
215 232 255
215 232 255
215 232 255
216 232 255
216 232 255
216 232 255
216 232 255
216 232 255
216 232 255
216 232 255
216 232 255
216 232 255
216 232 255
216 232 255
216 232 255
216 232 255
216 232 255
216 232 255
216 233 255
216 233 255
216 233 255
216 233 255
216 233 255
216 233 255
216 233 255
216 233 255
216 233 255
216 233 255
216 233 255
216 233 255
216 233 255
216 233 255
216 233 255
216 232 255
216 232 255
216 232 255
216 232 255
216 232 255
216 232 255
216 232 255
216 232 255
216 232 255
216 232 255
216 232 255
216 232 255
216 232 255
216 232 255
215 232 255
215 232 255
215 232 255
215 232 255
215 232 255
215 232 255
215 232 255
215 232 255
215 232 255
215 232 255
215 232 255
215 232 255
215 232 255
215 232 255
215 232 255
215 232 255
215 232 255
215 232 255
215 232 255
215 232 255
215 232 255
215 232 255
215 232 255
215 232 255
215 232 255
215 232 255
215 232 255
215 232 255
215 232 255
215 232 255
215 232 255
215 232 255
215 232 255
215 232 255
215 232 255
215 232 255
215 232 255
215 232 255
214 232 255
214 232 255
214 232 255
214 232 255
214 232 255
214 232 255
214 232 255
214 232 255
214 232 255
214 232 255
214 232 255
214 232 255
214 232 255
214 232 255
214 232 255
214 232 255
214 232 255
214 231 255
214 231 255
214 231 255
214 231 255
214 231 255
214 231 255
214 231 255
214 231 255
214 231 255
214 231 255
214 231 255
214 231 255
214 231 255
214 231 255
214 231 255
213 231 255
213 231 255
213 231 255
213 231 255
213 231 255
213 231 255
213 231 255
213 231 255
213 231 255
213 231 255
213 231 255
213 231 255
213 231 255
213 231 255
213 231 255
213 231 255
213 231 255
213 231 255
213 231 255
213 231 255
213 231 255
213 231 255
213 231 255
213 231 255
213 231 255
213 231 255
213 231 255
213 231 255
213 231 255
213 231 255
212 231 255
212 231 255
212 231 255
212 231 255
212 231 255
212 231 255
212 231 255
212 231 255
212 230 255
212 230 255
212 230 255
212 230 255
212 230 255
212 230 255
212 230 255
212 230 255
212 230 255
152 166 184
57 64 72
56 63 71
55 61 70
56 63 72
55 61 69
56 62 70
57 63 71
58 64 73
53 59 66
57 63 72
54 60 69
53 59 66
52 58 66
54 60 68
56 62 71
58 65 73
55 61 69
58 64 72
53 59 67
55 62 70
57 63 71
59 65 74
54 60 69
55 61 69
56 62 70
57 63 71
53 59 67
54 59 67
57 63 71
57 63 72
57 62 70
52 58 66
56 62 70
56 62 70
58 64 72
57 63 71
55 62 70
55 61 69
55 61 69
56 62 70
54 60 68
58 65 73
57 64 72
56 62 70
57 63 71
54 60 68
58 64 72
53 59 67
57 63 71
55 61 69
54 60 67
54 60 67
56 62 70
55 62 70
57 63 72
55 61 68
54 60 68
54 60 68
53 59 66
54 60 68
56 62 70
55 61 69
57 63 71
57 63 71
54 60 67
55 61 69
54 60 68
58 64 73
55 60 68
55 61 69
56 62 71
56 62 71
52 57 65
55 61 70
54 60 68
57 63 71
54 60 68
55 62 70
58 64 72
56 62 69
55 61 69
58 63 71
56 62 70
58 64 72
57 63 72
56 62 70
56 63 71
54 60 69
54 60 68
55 62 70
58 64 73
54 60 68
58 64 73
58 64 72
56 62 70
57 63 72
56 62 70
53 59 67
56 63 71
55 61 69
56 62 70
55 61 69
55 61 69
58 64 72
55 62 70
58 64 73
55 61 70
58 64 73
58 64 73
57 63 72
59 65 74
57 64 72
147 160 178
212 230 255
212 230 255
212 230 255
212 230 255
212 230 255
212 230 255
212 230 255
212 230 255
212 230 255
212 231 255
212 231 255
212 231 255
212 231 255
212 231 255
212 231 255
212 231 255
212 231 255
213 231 255
213 231 255
213 231 255
213 231 255
213 231 255
213 231 255
213 231 255
213 231 255
213 231 255
213 231 255
213 231 255
213 231 255
213 231 255
213 231 255
213 231 255
213 231 255
213 231 255
213 231 255
213 231 255
213 231 255
213 231 255
213 231 255
213 231 255
213 231 255
213 231 255
213 231 255
213 231 255
213 231 255
213 231 255
213 231 255
214 231 255
214 231 255
214 231 255
214 231 255
214 231 255
214 231 255
214 231 255
214 231 255
214 231 255
214 231 255
214 231 255
214 231 255
214 231 255
214 231 255
214 231 255
214 231 255
214 232 255
214 232 255
214 232 255
214 232 255
214 232 255
214 232 255
214 232 255
214 232 255
214 232 255
214 232 255
214 232 255
214 232 255
214 232 255
214 232 255
214 232 255
215 232 255
215 232 255
215 232 255
215 232 255
215 232 255
215 232 255
215 232 255
215 232 255
215 232 255
215 232 255
215 232 255
215 232 255
215 232 255
215 232 255
215 232 255
215 232 255
215 232 255
215 232 255
215 232 255
215 232 255
215 232 255
215 232 255
215 232 255
215 232 255
215 232 255
215 232 255
215 232 255
215 232 255
215 232 255
215 232 255
215 232 255
215 232 255
215 232 255
215 232 255
215 232 255
215 232 255
215 232 255
215 232 255
215 232 255
216 232 255
216 232 255
216 232 255
216 232 255
216 232 255
216 232 255
216 232 255
216 232 255
216 232 255
216 232 255
216 232 255
216 232 255
216 232 255
216 232 255
216 232 255
216 233 255
216 233 255
216 233 255
216 233 255
216 233 255
216 233 255
216 233 255
216 233 255
216 233 255
216 233 255
216 233 255
216 233 255
216 233 255
216 233 255
216 233 255
216 233 255
216 233 255
216 233 255
216 233 255
216 233 255
216 233 255
216 233 255
216 233 255
216 233 255
216 233 255
216 233 255
216 233 255
216 233 255
216 233 255
216 233 255
216 232 255
216 232 255
216 232 255
216 232 255
216 232 255
216 232 255
216 232 255
216 232 255
216 232 255
216 232 255
216 232 255
216 232 255
216 232 255
216 232 255
216 232 255
215 232 255
215 232 255
215 232 255
215 232 255
215 232 255
215 232 255
215 232 255
215 232 255
215 232 255
215 232 255
215 232 255
215 232 255
215 232 255
215 232 255
215 232 255
215 232 255
215 232 255
215 232 255
215 232 255
215 232 255
215 232 255
215 232 255
215 232 255
215 232 255
215 232 255
215 232 255
215 232 255
215 232 255
215 232 255
215 232 255
215 232 255
215 232 255
215 232 255
215 232 255
215 232 255
215 232 255
215 232 255
215 232 255
214 232 255
214 232 255
214 232 255
214 232 255
214 232 255
214 232 255
214 232 255
214 232 255
214 232 255
214 232 255
214 232 255
214 232 255
214 232 255
214 232 255
214 232 255
214 232 255
214 231 255
214 231 255
214 231 255
214 231 255
214 231 255
214 231 255
214 231 255
214 231 255
214 231 255
214 231 255
214 231 255
214 231 255
214 231 255
214 231 255
214 231 255
213 231 255
213 231 255
213 231 255
213 231 255
213 231 255
213 231 255
213 231 255
213 231 255
213 231 255
213 231 255
213 231 255
213 231 255
213 231 255
213 231 255
213 231 255
213 231 255
213 231 255
213 231 255
213 231 255
213 231 255
213 231 255
213 231 255
213 231 255
213 231 255
213 231 255
213 231 255
213 231 255
213 231 255
213 231 255
213 231 255
212 231 255
212 231 255
212 231 255
212 231 255
212 231 255
212 231 255
212 231 255
212 231 255
212 231 255
204 222 246
66 74 83
54 60 68
58 64 73
54 60 67
56 62 71
58 65 73
57 63 71
54 60 68
54 61 69
57 63 71
56 62 71
56 62 70
56 62 71
54 60 68
56 62 70
56 62 70
56 62 70
56 62 70
52 58 66
58 64 73
59 65 74
56 62 70
57 63 71
55 60 68
55 61 70
56 62 70
56 62 69
58 64 73
55 61 69
55 62 70
53 59 67
54 61 69
55 62 70
56 62 70
56 63 71
54 60 69
57 63 72
55 61 69
57 63 71
54 60 69
57 63 71
54 60 67
53 59 68
58 64 72
57 63 72
55 61 70
56 62 69
56 62 70
56 62 70
58 64 72
56 62 70
55 61 69
57 63 72
53 59 67
51 56 64
58 64 72
57 63 71
57 63 70
56 62 70
55 62 70
53 59 67
56 62 71
55 61 69
55 62 70
53 59 66
58 64 72
55 61 69
54 60 67
54 59 67
56 62 70
54 60 68
56 62 70
56 62 70
57 63 71
57 63 72
55 61 70
55 61 68
57 63 72
56 62 71
55 61 69
54 60 68
55 61 69
55 61 69
54 60 68
56 63 71
55 61 69
57 62 70
56 62 70
55 61 70
52 58 66
55 61 69
55 61 70
58 64 72
58 65 74
55 61 69
57 63 72
55 61 69
55 61 69
55 61 69
55 61 69
54 60 68
55 61 68
57 63 71
55 61 69
55 61 69
58 64 72
57 63 72
57 63 72
55 61 69
53 59 66
58 65 74
56 63 72
56 63 71
67 73 82
194 211 234
212 231 255
212 231 255
212 231 255
212 231 255
212 231 255
212 231 255
212 231 255
212 231 255
213 231 255
213 231 255
213 231 255
213 231 255
213 231 255
213 231 255
213 231 255
213 231 255
213 231 255
213 231 255
213 231 255
213 231 255
213 231 255
213 231 255
213 231 255
213 231 255
213 231 255
213 231 255
213 231 255
213 231 255
213 231 255
213 231 255
213 231 255
213 231 255
213 231 255
213 231 255
213 231 255
213 231 255
213 231 255
213 231 255
214 231 255
214 231 255
214 231 255
214 231 255
214 231 255
214 231 255
214 231 255
214 231 255
214 231 255
214 231 255
214 231 255
214 231 255
214 231 255
214 231 255
214 231 255
214 231 255
214 232 255
214 232 255
214 232 255
214 232 255
214 232 255
214 232 255
214 232 255
214 232 255
214 232 255
214 232 255
214 232 255
214 232 255
214 232 255
214 232 255
214 232 255
214 232 255
214 232 255
215 232 255
215 232 255
215 232 255
215 232 255
215 232 255
215 232 255
215 232 255
215 232 255
215 232 255
215 232 255
215 232 255
215 232 255
215 232 255
215 232 255
215 232 255
215 232 255
215 232 255
215 232 255
215 232 255
215 232 255
215 232 255
215 232 255
215 232 255
215 232 255
215 232 255
215 232 255
215 232 255
215 232 255
215 232 255
215 232 255
215 232 255
215 232 255
215 232 255
215 232 255
215 232 255
215 232 255
215 232 255
216 232 255
216 232 255
216 232 255
216 232 255
216 232 255
216 232 255
216 232 255
216 232 255
216 232 255
216 232 255
216 232 255
216 232 255
216 232 255
216 232 255
216 232 255
216 233 255
216 233 255
216 233 255
216 233 255
216 233 255
216 233 255
216 233 255
216 233 255
216 233 255
216 233 255
216 233 255
216 233 255
216 233 255
216 233 255
216 233 255
216 233 255
216 233 255
216 233 255
216 233 255
216 233 255
216 233 255
216 233 255
216 233 255
216 233 255
216 233 255
216 233 255
216 233 255
216 233 255
216 233 255
216 233 255
216 233 255
216 233 255
216 233 255
216 233 255
216 233 255
216 233 255
216 233 255
216 233 255
216 233 255
216 233 255
216 233 255
216 233 255
216 233 255
216 233 255
216 233 255
216 233 255
216 232 255
216 232 255
216 232 255
216 232 255
216 232 255
216 232 255
216 232 255
216 232 255
216 232 255
216 232 255
216 232 255
216 232 255
216 232 255
216 232 255
215 232 255
215 232 255
215 232 255
215 232 255
215 232 255
215 232 255
215 232 255
215 232 255
215 232 255
215 232 255
215 232 255
215 232 255
215 232 255
215 232 255
215 232 255
215 232 255
215 232 255
215 232 255
215 232 255
215 232 255
215 232 255
215 232 255
215 232 255
215 232 255
215 232 255
215 232 255
215 232 255
215 232 255
215 232 255
215 232 255
215 232 255
215 232 255
215 232 255
215 232 255
215 232 255
215 232 255
215 232 255
215 232 255
214 232 255
214 232 255
214 232 255
214 232 255
214 232 255
214 232 255
214 232 255
214 232 255
214 232 255
214 232 255
214 232 255
214 232 255
214 232 255
214 232 255
214 232 255
214 232 255
214 231 255
214 231 255
214 231 255
214 231 255
214 231 255
214 231 255
214 231 255
214 231 255
214 231 255
214 231 255
214 231 255
214 231 255
214 231 255
214 231 255
214 231 255
214 231 255
213 231 255
213 231 255
213 231 255
213 231 255
213 231 255
213 231 255
213 231 255
213 231 255
213 231 255
213 231 255
213 231 255
213 231 255
213 231 255
213 231 255
213 231 255
213 231 255
213 231 255
213 231 255
213 231 255
213 231 255
213 231 255
213 231 255
213 231 255
213 231 255
213 231 255
213 231 255
213 231 255
213 231 255
213 231 255
213 231 255
213 231 255
146 158 176
56 63 72
55 61 69
55 61 69
55 61 69
55 61 69
57 63 71
54 60 68
55 61 70
56 62 69
58 64 73
59 64 72
54 60 69
55 61 69
54 59 67
58 65 73
55 62 70
56 62 70
57 62 70
56 61 69
55 61 69
56 62 70
57 64 72
55 62 70
54 60 68
54 60 68
56 62 70
52 58 66
54 60 67
56 62 70
55 61 69
54 60 68
55 60 68
55 61 70
56 62 71
53 58 66
54 60 68
58 63 72
55 60 68
51 58 66
55 62 70
56 62 70
50 55 62
55 61 69
55 60 68
55 61 70
57 62 70
58 65 73
54 60 68
55 61 70
54 60 68
54 60 69
55 62 70
57 63 71
54 60 68
57 63 71
52 58 66
55 61 69
56 61 69
55 61 69
56 62 70
55 60 68
54 60 67
55 61 69
56 62 70
55 61 69
55 61 69
53 59 67
55 61 69
58 64 72
56 63 71
58 65 73
53 59 67
56 62 71
53 59 67
55 61 69
57 63 71
53 59 67
56 62 70
55 61 69
57 63 72
56 62 69
58 64 73
57 63 70
55 61 69
56 62 69
56 61 69
55 60 68
53 59 67
58 64 73
58 64 73
54 60 68
58 64 73
54 60 68
56 62 70
56 62 70
57 63 71
55 61 68
53 59 67
56 62 70
56 62 70
52 58 66
56 62 70
55 61 70
55 61 70
55 61 68
57 63 72
55 61 69
56 63 71
57 64 72
58 64 72
55 62 70
55 62 70
58 64 72
56 62 70
146 158 176
213 231 255
213 231 255
213 231 255
213 231 255
213 231 255
213 231 255
213 231 255
213 231 255
213 231 255
213 231 255
213 231 255
213 231 255
213 231 255
213 231 255
213 231 255
213 231 255
213 231 255
213 231 255
213 231 255
213 231 255
213 231 255
213 231 255
213 231 255
213 231 255
213 231 255
213 231 255
213 231 255
213 231 255
213 231 255
213 231 255
213 231 255
214 231 255
214 231 255
214 231 255
214 231 255
214 231 255
214 231 255
214 231 255
214 231 255
214 231 255
214 231 255
214 231 255
214 231 255
214 231 255
214 231 255
214 231 255
214 231 255
214 232 255
214 232 255
214 232 255
214 232 255
214 232 255
214 232 255
214 232 255
214 232 255
214 232 255
214 232 255
214 232 255
214 232 255
214 232 255
214 232 255
214 232 255
214 232 255
215 232 255
215 232 255
215 232 255
215 232 255
215 232 255
215 232 255
215 232 255
215 232 255
215 232 255
215 232 255
215 232 255
215 232 255
215 232 255
215 232 255
215 232 255
215 232 255
215 232 255
215 232 255
215 232 255
215 232 255
215 232 255
215 232 255
215 232 255
215 232 255
215 232 255
215 232 255
215 232 255
215 232 255
215 232 255
215 232 255
215 232 255
215 232 255
215 232 255
215 232 255
215 232 255
215 232 255
215 232 255
215 232 255
216 232 255
216 232 255
216 232 255
216 232 255
216 232 255
216 232 255
216 232 255
216 232 255
216 232 255
216 232 255
216 232 255
216 232 255
216 232 255
216 232 255
216 233 255
216 233 255
216 233 255
216 233 255
216 233 255
216 233 255
216 233 255
216 233 255
216 233 255
216 233 255
216 233 255
216 233 255
216 233 255
216 233 255
216 233 255
216 233 255
216 233 255
216 233 255
216 233 255
216 233 255
216 233 255
216 233 255
216 233 255
216 233 255
216 233 255
216 233 255
216 233 255
217 233 255
216 233 255
216 233 255
216 233 255
216 233 255
216 233 255
216 233 255
216 233 255
216 233 255
216 233 255
216 233 255
216 233 255
216 233 255
216 233 255
216 233 255
216 233 255
216 233 255
216 233 255
216 233 255
216 233 255
216 233 255
216 233 255
216 233 255
216 233 255
216 233 255
216 233 255
216 233 255
216 233 255
216 233 255
216 233 255
216 233 255
216 233 255
216 233 255
216 233 255
216 233 255
216 233 255
216 232 255
216 232 255
216 232 255
216 232 255
216 232 255
216 232 255
216 232 255
216 232 255
216 232 255
216 232 255
216 232 255
216 232 255
216 232 255
215 232 255
215 232 255
215 232 255
215 232 255
215 232 255
215 232 255
215 232 255
215 232 255
215 232 255
215 232 255
215 232 255
215 232 255
215 232 255
215 232 255
215 232 255
215 232 255
215 232 255
215 232 255
215 232 255
215 232 255
215 232 255
215 232 255
215 232 255
215 232 255
215 232 255
215 232 255
215 232 255
215 232 255
215 232 255
215 232 255
215 232 255
215 232 255
215 232 255
215 232 255
215 232 255
215 232 255
215 232 255
215 232 255
214 232 255
214 232 255
214 232 255
214 232 255
214 232 255
214 232 255
214 232 255
214 232 255
214 232 255
214 232 255
214 232 255
214 232 255
214 232 255
214 232 255
214 232 255
214 231 255
214 231 255
214 231 255
214 231 255
214 231 255
214 231 255
214 231 255
214 231 255
214 231 255
214 231 255
214 231 255
214 231 255
214 231 255
214 231 255
214 231 255
214 231 255
214 231 255
213 231 255
213 231 255
213 231 255
213 231 255
213 231 255
213 231 255
213 231 255
213 231 255
213 231 255
213 231 255
213 231 255
213 231 255
213 231 255
213 231 255
213 231 255
213 231 255
213 231 255
213 231 255
213 231 255
213 231 255
213 231 255
213 231 255
201 219 242
65 72 82
55 61 69
54 60 68
53 59 68
57 63 71
55 62 70
55 62 70
55 61 69
56 62 71
56 63 71
56 63 71
56 62 71
58 65 73
58 64 72
56 62 70
58 64 72
58 64 72
55 61 70
56 62 70
56 63 71
55 61 69
54 60 68
58 64 73
54 60 68
55 61 69
58 64 72
57 63 72
56 62 70
55 61 69
56 62 70
55 60 68
52 58 65
52 57 65
56 62 70
54 60 68
55 62 70
56 62 70
54 60 67
56 62 71
58 65 73
55 61 69
57 63 71
56 62 70
58 64 72
57 63 71
53 59 66
56 62 69
57 63 71
55 62 70
57 63 72
53 58 66
54 60 68
55 60 68
55 61 68
55 62 70
54 61 69
55 61 69
56 62 70
58 64 72
55 62 70
56 62 69
55 61 70
54 59 67
56 63 71
56 62 70
56 62 70
55 61 69
56 62 70
55 61 69
53 59 67
56 61 69
53 59 67
54 60 68
54 60 68
54 60 69
54 60 68
55 61 70
57 63 71
55 61 69
54 60 69
57 63 72
55 61 68
53 59 66
52 58 67
53 59 67
55 60 68
57 63 71
55 61 69
54 60 68
53 59 67
53 59 67
55 61 69
55 61 69
59 66 74
55 61 69
53 59 67
55 61 68
55 61 69
55 62 70
55 61 68
53 60 68
57 63 72
57 63 71
55 61 69
57 63 71
58 64 72
57 63 70
56 63 71
56 62 70
55 61 69
54 61 69
56 62 71
55 61 69
56 62 70
58 64 72
58 64 72
196 213 236
213 231 255
213 231 255
213 231 255
213 231 255
213 231 255
213 231 255
213 231 255
213 231 255
213 231 255
213 231 255
213 231 255
213 231 255
213 231 255
213 231 255
213 231 255
213 231 255
213 231 255
213 231 255
213 231 255
213 231 255
213 231 255
214 231 255
214 231 255
214 231 255
214 231 255
214 231 255
214 231 255
214 231 255
214 231 255
214 231 255
214 231 255
214 231 255
214 231 255
214 231 255
214 231 255
214 231 255
214 231 255
214 231 255
214 231 255
214 232 255
214 232 255
214 232 255
214 232 255
214 232 255
214 232 255
214 232 255
214 232 255
214 232 255
214 232 255
214 232 255
214 232 255
214 232 255
214 232 255
214 232 255
215 232 255
215 232 255
215 232 255
215 232 255
215 232 255
215 232 255
215 232 255
215 232 255
215 232 255
215 232 255
215 232 255
215 232 255
215 232 255
215 232 255
215 232 255
215 232 255
215 232 255
215 232 255
215 232 255
215 232 255
215 232 255
215 232 255
215 232 255
215 232 255
215 232 255
215 232 255
215 232 255
215 232 255
215 232 255
215 232 255
215 232 255
215 232 255
215 232 255
215 232 255
215 232 255
215 232 255
215 232 255
215 232 255
216 232 255
216 232 255
216 232 255
216 232 255
216 232 255
216 232 255
216 232 255
216 232 255
216 232 255
216 232 255
216 232 255
216 232 255
216 232 255
216 233 255
216 233 255
216 233 255
216 233 255
216 233 255
216 233 255
216 233 255
216 233 255
216 233 255
216 233 255
216 233 255
216 233 255
216 233 255
216 233 255
216 233 255
216 233 255
216 233 255
216 233 255
216 233 255
216 233 255
216 233 255
216 233 255
216 233 255
216 233 255
216 233 255
216 233 255
216 233 255
216 233 255
216 233 255
216 233 255
216 233 255
216 233 255
216 233 255
216 233 255
216 233 255
217 233 255
217 233 255
217 233 255
217 233 255
217 233 255
217 233 255
217 233 255
217 233 255
217 233 255
217 233 255
217 233 255
216 233 255
216 233 255
216 233 255
216 233 255
216 233 255
216 233 255
216 233 255
216 233 255
216 233 255
216 233 255
216 233 255
216 233 255
216 233 255
216 233 255
216 233 255
216 233 255
216 233 255
216 233 255
216 233 255
216 233 255
216 233 255
216 233 255
216 233 255
216 233 255
216 233 255
216 233 255
216 233 255
216 233 255
216 233 255
216 233 255
216 233 255
216 233 255
216 233 255
216 233 255
216 232 255
216 232 255
216 232 255
216 232 255
216 232 255
216 232 255
216 232 255
216 232 255
216 232 255
216 232 255
216 232 255
216 232 255
216 232 255
216 232 255
215 232 255
215 232 255
215 232 255
215 232 255
215 232 255
215 232 255
215 232 255
215 232 255
215 232 255
215 232 255
215 232 255
215 232 255
215 232 255
215 232 255
215 232 255
215 232 255
215 232 255
215 232 255
215 232 255
215 232 255
215 232 255
215 232 255
215 232 255
215 232 255
215 232 255
215 232 255
215 232 255
215 232 255
215 232 255
215 232 255
215 232 255
215 232 255
215 232 255
215 232 255
215 232 255
215 232 255
214 232 255
214 232 255
214 232 255
214 232 255
214 232 255
214 232 255
214 232 255
214 232 255
214 232 255
214 232 255
214 232 255
214 232 255
214 232 255
214 232 255
214 232 255
214 232 255
214 231 255
214 231 255
214 231 255
214 231 255
214 231 255
214 231 255
214 231 255
214 231 255
214 231 255
214 231 255
214 231 255
214 231 255
214 231 255
214 231 255
214 231 255
214 231 255
214 231 255
213 231 255
213 231 255
213 231 255
213 231 255
213 231 255
213 231 255
213 231 255
213 231 255
213 231 255
213 231 255
213 231 255
213 231 255
213 231 255
213 231 255
141 153 170
58 64 73
55 62 70
56 62 71
57 63 72
56 62 70
56 62 70
54 60 68
55 61 69
54 60 68
55 61 69
56 62 70
55 61 69
55 60 68
52 58 66
55 60 68
54 60 67
58 64 72
52 58 66
55 61 69
58 64 72
55 61 68
57 63 72
58 64 72
55 61 69
56 61 69
56 62 70
55 61 69
55 61 68
52 57 65
55 60 68
59 65 74
51 56 64
54 60 69
55 61 70
55 61 70
55 61 69
56 62 70
53 59 66
59 65 74
55 61 68
53 59 67
56 61 69
53 59 66
53 59 66
55 60 68
53 59 67
53 59 67
53 58 66
54 59 67
55 61 69
56 62 70
55 60 68
53 60 68
54 60 68
56 62 70
55 61 69
55 61 69
54 60 67
54 60 67
53 59 66
57 63 72
53 59 67
52 58 66
53 59 67
55 61 68
53 59 66
56 62 69
55 61 68
57 62 70
53 59 66
54 60 68
56 62 70
54 60 67
56 62 69
56 63 71
56 62 70
53 59 67
56 62 71
54 60 68
55 61 69
55 61 69
55 61 70
56 62 70
55 61 69
54 59 67
55 61 69
56 63 71
56 62 70
55 61 70
52 58 66
53 58 66
57 63 71
56 62 70
55 62 70
56 62 70
55 61 70
57 63 72
55 61 69
55 61 68
56 62 70
55 61 69
54 60 68
54 60 68
57 63 72
58 64 72
56 62 70
56 63 71
56 62 70
56 62 70
53 58 66
55 61 69
55 61 70
57 63 72
59 65 74
57 63 71
57 63 71
142 155 172
213 231 255
213 231 255
213 231 255
213 231 255
213 231 255
213 231 255
213 231 255
213 231 255
213 231 255
213 231 255
213 231 255
213 231 255
213 231 255
213 231 255
214 231 255
214 231 255
214 231 255
214 231 255
214 231 255
214 231 255
214 231 255
214 231 255
214 231 255
214 231 255
214 231 255
214 231 255
214 231 255
214 231 255
214 231 255
214 231 255
214 232 255
214 232 255
214 232 255
214 232 255
214 232 255
214 232 255
214 232 255
214 232 255
214 232 255
214 232 255
214 232 255
214 232 255
214 232 255
214 232 255
214 232 255
214 232 255
215 232 255
215 232 255
215 232 255
215 232 255
215 232 255
215 232 255
215 232 255
215 232 255
215 232 255
215 232 255
215 232 255
215 232 255
215 232 255
215 232 255
215 232 255
215 232 255
215 232 255
215 232 255
215 232 255
215 232 255
215 232 255
215 232 255
215 232 255
215 232 255
215 232 255
215 232 255
215 232 255
215 232 255
215 232 255
215 232 255
215 232 255
215 232 255
215 232 255
215 232 255
215 232 255
215 232 255
215 232 255
215 232 255
216 232 255
216 232 255
216 232 255
216 232 255
216 232 255
216 232 255
216 232 255
216 232 255
216 232 255
216 232 255
216 232 255
216 232 255
216 232 255
216 233 255
216 233 255
216 233 255
216 233 255
216 233 255
216 233 255
216 233 255
216 233 255
216 233 255
216 233 255
216 233 255
216 233 255
216 233 255
216 233 255
216 233 255
216 233 255
216 233 255
216 233 255
216 233 255
216 233 255
216 233 255
216 233 255
216 233 255
216 233 255
216 233 255
216 233 255
216 233 255
216 233 255
216 233 255
216 233 255
216 233 255
216 233 255
216 233 255
216 233 255
217 233 255
217 233 255
217 233 255
217 233 255
217 233 255
217 233 255
217 233 255
217 233 255
217 233 255
217 233 255
217 233 255
217 233 255
217 233 255
217 233 255
217 233 255
217 233 255
217 233 255
217 233 255
217 233 255
217 233 255
217 233 255
217 233 255
217 233 255
217 233 255
217 233 255
217 233 255
217 233 255
217 233 255
217 233 255
217 233 255
216 233 255
216 233 255
216 233 255
216 233 255
216 233 255
216 233 255
216 233 255
216 233 255
216 233 255
216 233 255
216 233 255
216 233 255
216 233 255
216 233 255
216 233 255
216 233 255
216 233 255
216 233 255
216 233 255
216 233 255
216 233 255
216 233 255
216 233 255
216 233 255
216 233 255
216 233 255
216 233 255
216 233 255
216 233 255
216 233 255
216 233 255
216 233 255
216 233 255
216 232 255
216 232 255
216 232 255
216 232 255
216 232 255
216 232 255
216 232 255
216 232 255
216 232 255
216 232 255
216 232 255
216 232 255
215 232 255
215 232 255
215 232 255
215 232 255
215 232 255
215 232 255
215 232 255
215 232 255
215 232 255
215 232 255
215 232 255
215 232 255
215 232 255
215 232 255
215 232 255
215 232 255
215 232 255
215 232 255
215 232 255
215 232 255
215 232 255
215 232 255
215 232 255
215 232 255
215 232 255
215 232 255
215 232 255
215 232 255
215 232 255
215 232 255
215 232 255
215 232 255
215 232 255
215 232 255
215 232 255
215 232 255
215 232 255
215 232 255
214 232 255
214 232 255
214 232 255
214 232 255
214 232 255
214 232 255
214 232 255
214 232 255
214 232 255
214 232 255
214 232 255
214 232 255
214 232 255
214 232 255
214 232 255
214 232 255
214 231 255
214 231 255
214 231 255
214 231 255
214 231 255
214 231 255
214 231 255
214 231 255
214 231 255
214 231 255
214 231 255
214 231 255
214 231 255
214 231 255
214 231 255
214 231 255
214 231 255
214 231 255
213 231 255
213 231 255
213 231 255
206 224 247
72 79 89
56 62 70
57 63 72
54 60 69
53 59 66
56 62 69
54 60 67
59 65 73
56 62 70
53 59 67
54 60 67
56 61 69
53 58 66
55 61 69
56 61 69
55 61 69
52 58 66
60 66 74
54 60 68
55 60 68
53 59 67
55 61 69
51 57 65
56 62 70
55 61 69
53 59 67
54 60 68
56 61 69
56 62 71
52 58 65
53 59 67
53 59 67
52 58 66
55 61 69
53 58 66
54 59 67
54 60 67
52 57 65
55 61 69
54 60 67
53 59 67
52 58 65
52 59 67
54 60 67
53 58 66
53 59 67
54 59 67
55 60 68
53 59 66
56 62 69
53 59 67
52 58 65
56 62 70
54 60 67
58 64 72
52 57 65
55 60 68
54 60 68
57 63 71
54 60 69
55 61 68
54 60 68
56 62 70
54 60 68
54 60 68
56 62 70
53 60 68
55 61 69
57 63 71
52 57 65
55 61 69
56 62 70
56 62 70
54 59 67
55 61 69
55 61 68
54 60 67
54 60 67
56 62 70
53 59 67
56 62 70
56 62 70
54 60 68
54 60 68
56 62 70
56 62 70
54 59 67
58 64 72
53 59 66
57 64 72
56 62 70
56 62 70
54 60 67
53 58 66
57 63 71
53 59 67
54 60 68
56 62 69
53 59 67
57 63 72
54 60 68
56 62 70
54 59 67
57 63 71
55 62 70
55 61 69
55 61 69
55 61 69
54 60 67
55 61 69
56 62 71
51 57 65
59 65 73
54 61 69
56 62 70
55 61 69
54 60 68
60 67 76
201 218 241
213 231 255
213 231 255
213 231 255
214 231 255
214 231 255
214 231 255
214 231 255
214 231 255
214 231 255
214 231 255
214 231 255
214 231 255
214 231 255
214 231 255
214 231 255
214 231 255
214 231 255
214 231 255
214 231 255
214 231 255
214 231 255
214 232 255
214 232 255
214 232 255
214 232 255
214 232 255
214 232 255
214 232 255
214 232 255
214 232 255
214 232 255
214 232 255
214 232 255
214 232 255
214 232 255
214 232 255
214 232 255
214 232 255
215 232 255
215 232 255
215 232 255
215 232 255
215 232 255
215 232 255
215 232 255
215 232 255
215 232 255
215 232 255
215 232 255
215 232 255
215 232 255
215 232 255
215 232 255
215 232 255
215 232 255
215 232 255
215 232 255
215 232 255
215 232 255
215 232 255
215 232 255
215 232 255
215 232 255
215 232 255
215 232 255
215 232 255
215 232 255
215 232 255
215 232 255
215 232 255
215 232 255
215 232 255
215 232 255
215 232 255
215 232 255
216 232 255
216 232 255
216 232 255
216 232 255
216 232 255
216 232 255
216 232 255
216 232 255
216 232 255
216 232 255
216 232 255
216 232 255
216 233 255
216 233 255
216 233 255
216 233 255
216 233 255
216 233 255
216 233 255
216 233 255
216 233 255
216 233 255
216 233 255
216 233 255
216 233 255
216 233 255
216 233 255
216 233 255
216 233 255
216 233 255
216 233 255
216 233 255
216 233 255
216 233 255
216 233 255
216 233 255
216 233 255
216 233 255
216 233 255
216 233 255
216 233 255
216 233 255
216 233 255
216 233 255
216 233 255
216 233 255
217 233 255
217 233 255
217 233 255
217 233 255
217 233 255
217 233 255
217 233 255
217 233 255
217 233 255
217 233 255
217 233 255
217 233 255
217 233 255
217 233 255
217 233 255
217 233 255
217 233 255
217 233 255
217 233 255
217 233 255
217 233 255
217 233 255
217 233 255
217 233 255
217 233 255
217 233 255
217 233 255
217 233 255
217 233 255
217 233 255
217 233 255
217 233 255
217 233 255
217 233 255
217 233 255
217 233 255
217 233 255
217 233 255
217 233 255
217 233 255
217 233 255
217 233 255
217 233 255
217 233 255
217 233 255
217 233 255
217 233 255
217 233 255
216 233 255
216 233 255
216 233 255
216 233 255
216 233 255
216 233 255
216 233 255
216 233 255
216 233 255
216 233 255
216 233 255
216 233 255
216 233 255
216 233 255
216 233 255
216 233 255
216 233 255
216 233 255
216 233 255
216 233 255
216 233 255
216 233 255
216 233 255
216 233 255
216 233 255
216 233 255
216 233 255
216 233 255
216 233 255
216 233 255
216 233 255
216 233 255
216 232 255
216 232 255
216 232 255
216 232 255
216 232 255
216 232 255
216 232 255
216 232 255
216 232 255
216 232 255
216 232 255
216 232 255
216 232 255
215 232 255
215 232 255
215 232 255
215 232 255
215 232 255
215 232 255
215 232 255
215 232 255
215 232 255
215 232 255
215 232 255
215 232 255
215 232 255
215 232 255
215 232 255
215 232 255
215 232 255
215 232 255
215 232 255
215 232 255
215 232 255
215 232 255
215 232 255
215 232 255
215 232 255
215 232 255
215 232 255
215 232 255
215 232 255
215 232 255
215 232 255
215 232 255
215 232 255
215 232 255
215 232 255
215 232 255
215 232 255
214 232 255
214 232 255
214 232 255
214 232 255
214 232 255
214 232 255
214 232 255
214 232 255
214 232 255
214 232 255
214 232 255
214 232 255
214 232 255
214 232 255
214 232 255
214 232 255
214 232 255
214 232 255
214 231 255
214 231 255
214 231 255
214 231 255
214 231 255
214 231 255
214 231 255
214 231 255
214 231 255
214 231 255
214 231 255
157 171 189
55 60 68
55 61 69
56 61 69
55 62 70
55 61 69
53 59 66
54 60 69
55 61 69
57 63 72
55 61 69
57 63 71
57 63 71
54 60 67
53 59 67
54 60 68
55 61 69
52 58 65
55 61 69
54 59 67
55 61 69
53 58 66
54 60 67
55 61 68
57 62 70
54 60 68
54 60 67
56 61 69
54 61 69
52 58 65
54 60 68
49 55 63
53 59 67
54 60 67
57 62 70
55 61 69
54 59 67
53 59 67
54 59 66
52 58 66
58 65 74
54 60 68
55 61 69
55 61 69
55 60 68
53 59 66
56 62 71
55 61 69
53 59 66
56 62 69
54 60 68
55 61 69
53 59 66
55 61 69
53 59 67
56 62 70
52 57 65
54 60 68
54 60 67
52 58 65
53 59 67
52 58 66
54 59 67
52 57 64
53 59 67
58 64 73
54 60 68
57 63 72
55 61 68
54 60 68
55 61 69
56 62 70
50 55 62
52 58 66
55 61 68
54 60 69
53 58 66
52 58 65
57 62 70
51 56 64
53 58 66
57 63 71
56 62 70
54 60 68
56 62 70
54 60 68
53 59 66
54 60 69
53 59 67
54 60 68
53 59 67
55 61 68
52 58 66
55 61 69
55 62 70
54 60 68
55 62 70
58 64 72
52 58 67
55 61 69
54 61 69
54 59 67
56 62 71
54 59 67
57 63 72
57 63 71
57 64 72
53 59 68
55 61 70
55 61 69
54 60 68
54 60 68
55 60 68
58 64 72
56 62 70
58 64 73
54 60 68
56 61 69
58 64 73
157 171 189
214 231 255
214 231 255
214 231 255
214 231 255
214 231 255
214 231 255
214 231 255
214 231 255
214 231 255
214 231 255
214 231 255
214 231 255
214 232 255
214 232 255
214 232 255
214 232 255
214 232 255
214 232 255
214 232 255
214 232 255
214 232 255
214 232 255
214 232 255
214 232 255
214 232 255
214 232 255
214 232 255
214 232 255
214 232 255
215 232 255
215 232 255
215 232 255
215 232 255
215 232 255
215 232 255
215 232 255
215 232 255
215 232 255
215 232 255
215 232 255
215 232 255
215 232 255
215 232 255
215 232 255
215 232 255
215 232 255
215 232 255
215 232 255
215 232 255
215 232 255
215 232 255
215 232 255
215 232 255
215 232 255
215 232 255
215 232 255
215 232 255
215 232 255
215 232 255
215 232 255
215 232 255
215 232 255
215 232 255
215 232 255
215 232 255
215 232 255
216 232 255
216 232 255
216 232 255
216 232 255
216 232 255
216 232 255
216 232 255
216 232 255
216 232 255
216 232 255
216 232 255
216 232 255
216 232 255
216 233 255
216 233 255
216 233 255
216 233 255
216 233 255
216 233 255
216 233 255
216 233 255
216 233 255
216 233 255
216 233 255
216 233 255
216 233 255
216 233 255
216 233 255
216 233 255
216 233 255
216 233 255
216 233 255
216 233 255
216 233 255
216 233 255
216 233 255
216 233 255
216 233 255
216 233 255
216 233 255
216 233 255
216 233 255
216 233 255
216 233 255
216 233 255
217 233 255
217 233 255
217 233 255
217 233 255
217 233 255
217 233 255
217 233 255
217 233 255
217 233 255
217 233 255
217 233 255
217 233 255
217 233 255
217 233 255
217 233 255
217 233 255
217 233 255
217 233 255
217 233 255
217 233 255
217 233 255
217 233 255
217 233 255
217 233 255
217 233 255
217 233 255
217 233 255
217 233 255
217 233 255
217 233 255
217 233 255
217 233 255
217 233 255
217 233 255
217 233 255
217 233 255
217 233 255
217 233 255
217 233 255
217 233 255
217 233 255
217 233 255
217 233 255
217 233 255
217 233 255
217 233 255
217 233 255
217 233 255
217 233 255
217 233 255
217 233 255
217 233 255
217 233 255
217 233 255
217 233 255
217 233 255
217 233 255
217 233 255
217 233 255
217 233 255
217 233 255
217 233 255
217 233 255
217 233 255
217 233 255
217 233 255
217 233 255
216 233 255
216 233 255
216 233 255
216 233 255
216 233 255
216 233 255
216 233 255
216 233 255
216 233 255
216 233 255
216 233 255
216 233 255
216 233 255
216 233 255
216 233 255
216 233 255
216 233 255
216 233 255
216 233 255
216 233 255
216 233 255
216 233 255
216 233 255
216 233 255
216 233 255
216 233 255
216 233 255
216 233 255
216 233 255
216 233 255
216 233 255
216 233 255
216 232 255
216 232 255
216 232 255
216 232 255
216 232 255
216 232 255
216 232 255
216 232 255
216 232 255
216 232 255
216 232 255
216 232 255
216 232 255
215 232 255
215 232 255
215 232 255
215 232 255
215 232 255
215 232 255
215 232 255
215 232 255
215 232 255
215 232 255
215 232 255
215 232 255
215 232 255
215 232 255
215 232 255
215 232 255
215 232 255
215 232 255
215 232 255
215 232 255
215 232 255
215 232 255
215 232 255
215 232 255
215 232 255
215 232 255
215 232 255
215 232 255
215 232 255
215 232 255
215 232 255
215 232 255
215 232 255
215 232 255
215 232 255
215 232 255
215 232 255
215 232 255
214 232 255
214 232 255
214 232 255
214 232 255
214 232 255
214 232 255
214 232 255
214 232 255
214 232 255
214 232 255
214 232 255
214 232 255
214 232 255
214 232 255
214 232 255
214 232 255
214 232 255
214 231 255
210 227 251
77 84 94
57 63 72
55 61 69
57 63 71
54 60 69
55 60 68
54 60 68
55 61 70
51 57 65
57 64 72
55 61 70
57 64 72
54 59 67
55 60 68
54 60 67
56 62 69
55 61 69
55 61 69
57 63 71
55 61 69
53 59 67
55 61 69
54 60 67
54 60 68
53 59 66
57 63 71
55 60 68
55 61 69
55 60 68
54 59 67
52 58 65
57 64 72
57 63 71
55 61 69
56 62 70
53 59 67
55 61 69
54 60 67
51 56 64
49 55 62
52 58 66
54 60 67
54 60 68
52 57 64
54 59 66
53 58 66
56 62 71
54 60 69
55 60 68
53 58 66
55 61 69
57 63 71
54 60 67
54 59 67
53 59 66
55 60 68
55 61 69
55 61 69
53 59 67
55 61 68
54 60 68
58 64 72
56 62 70
55 61 69
53 59 67
57 63 71
50 55 63
54 60 68
56 62 69
55 61 70
57 63 71
54 60 67
52 58 66
57 63 70
54 60 69
56 62 70
56 62 70
56 62 70
52 57 64
54 60 68
56 62 70
52 57 65
54 59 67
54 59 67
54 60 68
57 63 70
56 62 70
53 59 67
56 61 69
54 59 67
57 63 70
56 62 71
57 63 71
57 63 71
56 61 69
57 62 70
58 64 72
56 62 71
55 60 68
55 61 69
52 58 66
56 62 70
57 62 69
53 59 66
52 58 66
53 58 66
55 62 70
57 63 72
54 60 68
55 60 68
53 59 66
56 62 70
54 60 67
54 60 69
55 61 69
54 61 69
55 61 69
56 63 71
54 60 68
88 97 108
210 227 251
214 232 255
214 232 255
214 232 255
214 232 255
214 232 255
214 232 255
214 232 255
214 232 255
214 232 255
214 232 255
214 232 255
214 232 255
214 232 255
214 232 255
214 232 255
214 232 255
214 232 255
214 232 255
215 232 255
215 232 255
215 232 255
215 232 255
215 232 255
215 232 255
215 232 255
215 232 255
215 232 255
215 232 255
215 232 255
215 232 255
215 232 255
215 232 255
215 232 255
215 232 255
215 232 255
215 232 255
215 232 255
215 232 255
215 232 255
215 232 255
215 232 255
215 232 255
215 232 255
215 232 255
215 232 255
215 232 255
215 232 255
215 232 255
215 232 255
215 232 255
215 232 255
215 232 255
215 232 255
215 232 255
215 232 255
215 232 255
216 232 255
216 232 255
216 232 255
216 232 255
216 232 255
216 232 255
216 232 255
216 232 255
216 232 255
216 232 255
216 232 255
216 232 255
216 233 255
216 233 255
216 233 255
216 233 255
216 233 255
216 233 255
216 233 255
216 233 255
216 233 255
216 233 255
216 233 255
216 233 255
216 233 255
216 233 255
216 233 255
216 233 255
216 233 255
216 233 255
216 233 255
216 233 255
216 233 255
216 233 255
216 233 255
216 233 255
216 233 255
216 233 255
216 233 255
216 233 255
216 233 255
216 233 255
216 233 255
216 233 255
216 233 255
217 233 255
217 233 255
217 233 255
217 233 255
217 233 255
217 233 255
217 233 255
217 233 255
217 233 255
217 233 255
217 233 255
217 233 255
217 233 255
217 233 255
217 233 255
217 233 255
217 233 255
217 233 255
217 233 255
217 233 255
217 233 255
217 233 255
217 233 255
217 233 255
217 233 255
217 233 255
217 233 255
217 233 255
217 233 255
217 233 255
217 233 255
217 233 255
217 233 255
217 233 255
217 233 255
217 233 255
217 233 255
217 233 255
217 233 255
217 233 255
217 233 255
217 233 255
217 233 255
217 233 255
217 233 255
217 233 255
217 233 255
217 233 255
217 233 255
217 233 255
217 233 255
217 233 255
217 233 255
217 233 255
217 233 255
217 233 255
217 233 255
217 233 255
217 233 255
217 233 255
217 233 255
217 233 255
217 233 255
217 233 255
217 233 255
217 233 255
217 233 255
217 233 255
217 233 255
217 233 255
217 233 255
217 233 255
217 233 255
217 233 255
217 233 255
217 233 255
217 233 255
217 233 255
217 233 255
217 233 255
217 233 255
217 233 255
217 233 255
217 233 255
217 233 255
216 233 255
216 233 255
216 233 255
216 233 255
216 233 255
216 233 255
216 233 255
216 233 255
216 233 255
216 233 255
216 233 255
216 233 255
216 233 255
216 233 255
216 233 255
216 233 255
216 233 255
216 233 255
216 233 255
216 233 255
216 233 255
216 233 255
216 233 255
216 233 255
216 233 255
216 233 255
216 233 255
216 233 255
216 233 255
216 233 255
216 233 255
216 233 255
216 233 255
216 232 255
216 232 255
216 232 255
216 232 255
216 232 255
216 232 255
216 232 255
216 232 255
216 232 255
216 232 255
216 232 255
216 232 255
215 232 255
215 232 255
215 232 255
215 232 255
215 232 255
215 232 255
215 232 255
215 232 255
215 232 255
215 232 255
215 232 255
215 232 255
215 232 255
215 232 255
215 232 255
215 232 255
215 232 255
215 232 255
215 232 255
215 232 255
215 232 255
215 232 255
215 232 255
215 232 255
215 232 255
215 232 255
215 232 255
215 232 255
215 232 255
215 232 255
215 232 255
215 232 255
215 232 255
215 232 255
215 232 255
215 232 255
215 232 255
215 232 255
215 232 255
214 232 255
214 232 255
214 232 255
214 232 255
214 232 255
214 232 255
214 232 255
214 232 255
168 182 201
58 64 73
55 62 70
57 63 71
54 60 68
55 61 69
52 57 65
53 59 67
54 60 68
54 59 66
54 60 68
56 62 69
55 62 70
53 58 66
53 59 67
56 61 69
55 61 69
55 61 69
54 60 67
54 60 68
56 63 71
55 61 69
53 59 66
53 59 67
55 61 69
56 62 69
52 58 66
54 61 69
54 60 67
57 63 71
52 58 66
55 61 69
54 59 67
56 62 70
54 60 68
53 59 67
56 61 69
58 65 73
51 57 64
53 58 66
52 58 66
53 59 66
52 58 66
55 61 69
52 58 66
54 60 67
54 60 68
55 60 68
53 59 67
53 59 67
53 59 66
54 60 68
54 59 67
54 60 68
55 60 68
57 63 72
53 59 67
57 63 71
54 60 67
55 60 68
54 60 68
53 58 66
54 60 67
52 58 66
53 58 66
52 57 64
55 61 69
56 62 71
53 59 67
53 59 67
54 60 67
53 59 66
54 60 67
54 60 68
55 61 69
55 61 69
53 59 67
56 62 70
52 57 65
52 57 65
55 61 69
54 60 68
53 59 66
53 59 67
55 61 69
56 63 71
55 60 68
54 60 68
55 61 69
54 60 68
55 60 68
52 58 65
55 61 68
54 60 67
54 60 68
53 59 66
54 60 68
55 61 69
54 60 68
53 59 67
54 60 68
55 61 69
55 61 69
53 59 66
56 62 70
53 59 66
54 60 68
56 62 69
55 61 68
55 61 68
55 61 69
55 61 69
54 60 68
55 61 69
53 59 67
54 60 67
53 59 67
54 60 69
57 64 72
53 59 67
54 61 69
178 193 213
214 232 255
214 232 255
214 232 255
214 232 255
214 232 255
214 232 255
214 232 255
214 232 255
215 232 255
215 232 255
215 232 255
215 232 255
215 232 255
215 232 255
215 232 255
215 232 255
215 232 255
215 232 255
215 232 255
215 232 255
215 232 255
215 232 255
215 232 255
215 232 255
215 232 255
215 232 255
215 232 255
215 232 255
215 232 255
215 232 255
215 232 255
215 232 255
215 232 255
215 232 255
215 232 255
215 232 255
215 232 255
215 232 255
215 232 255
215 232 255
215 232 255
215 232 255
215 232 255
215 232 255
215 232 255
215 232 255
215 232 255
216 232 255
216 232 255
216 232 255
216 232 255
216 232 255
216 232 255
216 232 255
216 232 255
216 232 255
216 232 255
216 232 255
216 232 255
216 232 255
216 233 255
216 233 255
216 233 255
216 233 255
216 233 255
216 233 255
216 233 255
216 233 255
216 233 255
216 233 255
216 233 255
216 233 255
216 233 255
216 233 255
216 233 255
216 233 255
216 233 255
216 233 255
216 233 255
216 233 255
216 233 255
216 233 255
216 233 255
216 233 255
216 233 255
216 233 255
216 233 255
216 233 255
216 233 255
216 233 255
216 233 255
217 233 255
217 233 255
217 233 255
217 233 255
217 233 255
217 233 255
217 233 255
217 233 255
217 233 255
217 233 255
217 233 255
217 233 255
217 233 255
217 233 255
217 233 255
217 233 255
217 233 255
217 233 255
217 233 255
217 233 255
217 233 255
217 233 255
217 233 255
217 233 255
217 233 255
217 233 255
217 233 255
217 233 255
217 233 255
217 233 255
217 233 255
217 233 255
217 233 255
217 233 255
217 233 255
217 233 255
217 233 255
217 233 255
217 233 255
217 233 255
217 233 255
217 233 255
217 233 255
217 233 255
217 233 255
217 233 255
217 233 255
217 233 255
217 233 255
217 233 255
217 233 255
217 233 255
217 233 255
217 233 255
217 233 255
217 233 255
217 233 255
217 233 255
217 233 255
217 233 255
217 233 255
217 233 255
217 233 255
217 233 255
217 233 255
217 233 255
217 233 255
217 233 255
217 233 255
217 233 255
217 233 255
217 233 255
217 233 255
217 233 255
217 233 255
217 233 255
217 233 255
217 233 255
217 233 255
217 233 255
217 233 255
217 233 255
217 233 255
217 233 255
217 233 255
217 233 255
217 233 255
217 233 255
217 233 255
217 233 255
217 233 255
217 233 255
217 233 255
217 233 255
217 233 255
217 233 255
217 233 255
217 233 255
217 233 255
217 233 255
217 233 255
217 233 255
217 233 255
217 233 255
217 233 255
217 233 255
216 233 255
216 233 255
216 233 255
216 233 255
216 233 255
216 233 255
216 233 255
216 233 255
216 233 255
216 233 255
216 233 255
216 233 255
216 233 255
216 233 255
216 233 255
216 233 255
216 233 255
216 233 255
216 233 255
216 233 255
216 233 255
216 233 255
216 233 255
216 233 255
216 233 255
216 233 255
216 233 255
216 233 255
216 233 255
216 233 255
216 233 255
216 232 255
216 232 255
216 232 255
216 232 255
216 232 255
216 232 255
216 232 255
216 232 255
216 232 255
216 232 255
216 232 255
216 232 255
216 232 255
215 232 255
215 232 255
215 232 255
215 232 255
215 232 255
215 232 255
215 232 255
215 232 255
215 232 255
215 232 255
215 232 255
215 232 255
215 232 255
215 232 255
215 232 255
215 232 255
215 232 255
215 232 255
215 232 255
215 232 255
215 232 255
215 232 255
215 232 255
215 232 255
215 232 255
215 232 255
215 232 255
215 232 255
215 232 255
215 232 255
215 232 255
215 232 255
215 232 255
215 232 255
215 232 255
215 232 255
215 232 255
124 135 149
54 61 69
55 61 68
55 60 68
53 58 66
56 62 70
56 62 70
55 61 69
52 58 66
58 64 72
57 63 70
54 59 67
55 61 69
53 59 66
53 58 66
55 61 70
53 58 66
55 60 67
52 58 66
51 57 65
54 59 67
52 57 65
54 60 69
52 58 65
53 59 66
55 61 69
53 59 67
53 58 66
51 57 65
56 62 70
55 61 69
52 58 66
54 60 68
57 62 70
56 61 69
53 59 67
53 59 66
51 56 64
54 60 67
56 61 69
51 56 64
54 60 68
54 59 67
55 61 69
56 62 70
54 60 68
56 62 70
57 63 71
56 61 70
54 60 68
58 64 72
53 59 67
53 59 67
52 58 66
56 62 70
51 57 64
55 61 69
52 58 66
54 59 67
53 59 66
53 59 67
51 57 64
54 59 67
51 57 64
58 64 72
54 60 67
54 60 68
53 58 66
52 57 65
55 61 69
56 61 68
53 58 66
54 59 67
53 59 67
53 59 66
52 57 65
55 61 69
55 61 69
53 58 66
54 60 68
52 57 65
55 60 68
53 58 66
56 62 70
53 59 66
55 61 68
56 63 71
57 63 72
53 59 67
52 57 64
53 58 66
56 62 70
55 61 69
55 60 68
53 59 67
57 63 71
54 59 67
53 58 66
56 62 70
50 56 63
58 64 72
56 62 69
56 62 70
56 62 69
54 59 67
51 57 64
54 60 67
56 63 71
57 62 70
53 59 67
51 56 64
55 61 69
52 57 65
57 63 71
55 61 69
54 59 67
56 61 69
56 62 71
54 60 67
55 61 69
53 59 66
121 131 145
215 232 255
215 232 255
215 232 255
215 232 255
215 232 255
215 232 255
215 232 255
215 232 255
215 232 255
215 232 255
215 232 255
215 232 255
215 232 255
215 232 255
215 232 255
215 232 255
215 232 255
215 232 255
215 232 255
215 232 255
215 232 255
215 232 255
215 232 255
215 232 255
215 232 255
215 232 255
215 232 255
215 232 255
215 232 255
215 232 255
215 232 255
215 232 255
215 232 255
215 232 255
215 232 255
215 232 255
215 232 255
216 232 255
216 232 255
216 232 255
216 232 255
216 232 255
216 232 255
216 232 255
216 232 255
216 232 255
216 232 255
216 232 255
216 232 255
216 232 255
216 233 255
216 233 255
216 233 255
216 233 255
216 233 255
216 233 255
216 233 255
216 233 255
216 233 255
216 233 255
216 233 255
216 233 255
216 233 255
216 233 255
216 233 255
216 233 255
216 233 255
216 233 255
216 233 255
216 233 255
216 233 255
216 233 255
216 233 255
216 233 255
216 233 255
216 233 255
216 233 255
216 233 255
216 233 255
216 233 255
216 233 255
217 233 255
217 233 255
217 233 255
217 233 255
217 233 255
217 233 255
217 233 255
217 233 255
217 233 255
217 233 255
217 233 255
217 233 255
217 233 255
217 233 255
217 233 255
217 233 255
217 233 255
217 233 255
217 233 255
217 233 255
217 233 255
217 233 255
217 233 255
217 233 255
217 233 255
217 233 255
217 233 255
217 233 255
217 233 255
217 233 255
217 233 255
217 233 255
217 233 255
217 233 255
217 233 255
217 233 255
217 233 255
217 233 255
217 233 255
217 233 255
217 233 255
217 233 255
217 233 255
217 233 255
217 233 255
217 233 255
217 233 255
217 233 255
217 233 255
217 233 255
217 233 255
217 233 255
217 233 255
217 233 255
217 233 255
217 233 255
217 233 255
217 233 255
218 234 255
218 234 255
218 234 255
218 233 255
218 233 255
218 233 255
218 233 255
218 233 255
218 233 255
218 233 255
217 233 255
217 233 255
217 233 255
217 233 255
217 233 255
217 233 255
217 233 255
217 233 255
217 233 255
217 233 255
217 233 255
217 233 255
217 233 255
217 233 255
217 233 255
217 233 255
217 233 255
217 233 255
217 233 255
217 233 255
217 233 255
217 233 255
217 233 255
217 233 255
217 233 255
217 233 255
217 233 255
217 233 255
217 233 255
217 233 255
217 233 255
217 233 255
217 233 255
217 233 255
217 233 255
217 233 255
217 233 255
217 233 255
217 233 255
217 233 255
217 233 255
217 233 255
217 233 255
217 233 255
217 233 255
217 233 255
217 233 255
217 233 255
217 233 255
217 233 255
217 233 255
217 233 255
217 233 255
217 233 255
217 233 255
217 233 255
217 233 255
217 233 255
217 233 255
216 233 255
216 233 255
216 233 255
216 233 255
216 233 255
216 233 255
216 233 255
216 233 255
216 233 255
216 233 255
216 233 255
216 233 255
216 233 255
216 233 255
216 233 255
216 233 255
216 233 255
216 233 255
216 233 255
216 233 255
216 233 255
216 233 255
216 233 255
216 233 255
216 233 255
216 233 255
216 233 255
216 233 255
216 233 255
216 233 255
216 233 255
216 232 255
216 232 255
216 232 255
216 232 255
216 232 255
216 232 255
216 232 255
216 232 255
216 232 255
216 232 255
216 232 255
216 232 255
215 232 255
215 232 255
215 232 255
215 232 255
215 232 255
215 232 255
215 232 255
215 232 255
215 232 255
215 232 255
215 232 255
215 232 255
215 232 255
215 232 255
215 232 255
215 232 255
215 232 255
215 232 255
215 232 255
215 232 255
215 232 255
215 232 255
215 232 255
215 232 255
215 232 255
215 232 255
193 208 230
56 62 70
54 60 68
55 61 69
56 62 70
54 60 67
57 63 71
54 60 68
54 60 68
55 61 69
54 59 67
52 58 65
54 60 68
56 62 71
53 59 66
52 57 65
54 60 67
50 56 63
55 60 68
54 60 68
52 58 65
52 58 66
55 61 69
54 60 67
53 59 67
56 62 70
53 59 66
54 60 68
51 57 64
52 57 65
55 60 68
53 58 66
52 58 66
53 59 66
55 61 69
53 59 67
53 59 67
56 62 70
55 61 69
54 60 68
54 60 67
55 61 69
54 61 69
55 61 69
55 61 69
54 60 68
53 59 66
54 60 67
53 58 66
57 62 70
56 62 69
57 63 72
53 59 66
55 61 69
55 60 68
55 61 69
53 59 67
55 61 69
54 60 68
55 61 69
53 59 66
55 61 69
58 64 72
54 60 68
54 60 67
53 59 66
55 61 69
53 58 66
54 60 68
54 59 67
52 58 66
52 58 66
55 61 69
54 60 67
57 63 71
52 58 66
54 60 68
51 57 64
54 60 67
56 62 70
54 60 68
49 55 63
51 57 64
57 63 71
53 59 67
53 59 66
56 62 70
52 58 65
54 60 67
52 58 65
53 59 67
56 62 70
55 61 69
52 58 66
54 60 68
53 59 66
54 60 68
56 62 70
53 59 66
51 57 64
53 59 67
53 59 66
54 60 68
56 62 70
55 60 68
54 59 67
56 62 70
54 60 68
53 58 66
53 59 67
53 59 67
54 60 68
57 63 71
53 59 67
54 60 68
52 58 66
53 59 66
56 62 70
57 63 71
54 59 67
56 62 71
57 63 71
53 59 67
197 213 234
215 232 255
215 232 255
215 232 255
215 232 255
215 232 255
215 232 255
215 232 255
215 232 255
215 232 255
215 232 255
215 232 255
215 232 255
215 232 255
215 232 255
215 232 255
215 232 255
215 232 255
215 232 255
215 232 255
215 232 255
215 232 255
215 232 255
215 232 255
215 232 255
215 232 255
216 232 255
216 232 255
216 232 255
216 232 255
216 232 255
216 232 255
216 232 255
216 232 255
216 232 255
216 232 255
216 232 255
216 232 255
216 232 255
216 232 255
216 233 255
216 233 255
216 233 255
216 233 255
216 233 255
216 233 255
216 233 255
216 233 255
216 233 255
216 233 255
216 233 255
216 233 255
216 233 255
216 233 255
216 233 255
216 233 255
216 233 255
216 233 255
216 233 255
216 233 255
216 233 255
216 233 255
216 233 255
216 233 255
216 233 255
216 233 255
216 233 255
216 233 255
216 233 255
216 233 255
216 233 255
217 233 255
217 233 255
217 233 255
217 233 255
217 233 255
217 233 255
217 233 255
217 233 255
217 233 255
217 233 255
217 233 255
217 233 255
217 233 255
217 233 255
217 233 255
217 233 255
217 233 255
217 233 255
217 233 255
217 233 255
217 233 255
217 233 255
217 233 255
217 233 255
217 233 255
217 233 255
217 233 255
217 233 255
217 233 255
217 233 255
217 233 255
217 233 255
217 233 255
217 233 255
217 233 255
217 233 255
217 233 255
217 233 255
217 233 255
217 233 255
217 233 255
217 233 255
217 233 255
217 233 255
217 233 255
217 233 255
217 233 255
217 233 255
217 233 255
217 233 255
217 233 255
217 233 255
217 233 255
217 233 255
217 233 255
217 233 255
217 233 255
218 233 255
218 233 255
218 233 255
218 233 255
218 233 255
218 233 255
218 233 255
218 233 255
218 234 255
218 234 255
218 234 255
218 234 255
218 234 255
218 234 255
218 234 255
218 234 255
218 234 255
218 234 255
218 234 255
218 234 255
218 234 255
218 234 255
218 234 255
218 234 255
218 234 255
218 234 255
218 234 255
218 233 255
218 233 255
218 233 255
218 233 255
218 233 255
218 233 255
217 233 255
217 233 255
217 233 255
217 233 255
217 233 255
217 233 255
217 233 255
217 233 255
217 233 255
217 233 255
217 233 255
217 233 255
217 233 255
217 233 255
217 233 255
217 233 255
217 233 255
217 233 255
217 233 255
217 233 255
217 233 255
217 233 255
217 233 255
217 233 255
217 233 255
217 233 255
217 233 255
217 233 255
217 233 255
217 233 255
217 233 255
217 233 255
217 233 255
217 233 255
217 233 255
217 233 255
217 233 255
217 233 255
217 233 255
217 233 255
217 233 255
217 233 255
217 233 255
217 233 255
217 233 255
217 233 255
217 233 255
217 233 255
217 233 255
217 233 255
217 233 255
217 233 255
217 233 255
217 233 255
217 233 255
217 233 255
216 233 255
216 233 255
216 233 255
216 233 255
216 233 255
216 233 255
216 233 255
216 233 255
216 233 255
216 233 255
216 233 255
216 233 255
216 233 255
216 233 255
216 233 255
216 233 255
216 233 255
216 233 255
216 233 255
216 233 255
216 233 255
216 233 255
216 233 255
216 233 255
216 233 255
216 233 255
216 233 255
216 233 255
216 233 255
216 233 255
216 233 255
216 233 255
216 232 255
216 232 255
216 232 255
216 232 255
216 232 255
216 232 255
216 232 255
216 232 255
216 232 255
216 232 255
216 232 255
216 232 255
216 232 255
215 232 255
215 232 255
215 232 255
215 232 255
215 232 255
215 232 255
215 232 255
215 232 255
215 232 255
215 232 255
215 232 255
215 232 255
215 232 255
215 232 255
215 232 255
164 177 195
55 61 69
55 61 70
55 61 69
57 63 72
57 63 70
52 58 66
53 58 66
56 62 70
55 61 69
53 60 68
55 61 70
51 57 64
56 62 70
56 62 70
55 60 68
56 61 69
56 61 69
54 60 68
56 62 71
54 59 67
54 60 67
52 57 64
51 56 64
53 58 66
50 56 64
54 60 68
55 61 69
57 63 72
54 59 67
52 57 65
56 61 69
53 59 67
56 62 70
56 62 70
54 60 67
52 58 65
53 58 65
52 57 65
53 58 65
56 62 70
55 61 69
53 58 66
53 59 66
55 61 68
53 59 67
55 61 69
55 61 69
49 55 63
55 60 68
55 61 69
52 58 65
55 61 69
51 57 65
51 56 64
57 64 72
55 61 69
54 60 67
54 60 67
55 61 68
55 61 69
55 60 68
54 60 68
53 58 66
54 60 68
53 59 66
55 61 69
54 60 68
53 58 66
56 62 70
56 62 70
54 60 68
56 62 70
54 60 68
54 60 69
54 60 68
55 61 69
54 60 67
53 58 65
53 59 67
53 59 67
54 59 67
52 57 65
51 56 64
54 60 68
52 58 66
56 62 70
57 63 71
50 56 63
56 62 71
54 60 68
51 57 65
51 57 65
50 55 62
52 58 65
53 59 67
55 61 69
52 57 65
53 59 67
50 55 62
57 63 71
53 59 66
54 59 67
53 58 66
54 59 67
51 56 64
54 59 66
56 62 70
54 59 66
54 60 68
53 59 67
54 60 68
56 62 69
55 61 69
53 59 67
54 59 67
54 59 67
57 63 72
54 60 68
57 63 71
54 60 68
54 60 67
55 61 68
156 168 185
215 232 255
215 232 255
215 232 255
215 232 255
215 232 255
215 232 255
215 232 255
215 232 255
215 232 255
215 232 255
215 232 255
215 232 255
215 232 255
215 232 255
215 232 255
216 232 255
216 232 255
216 232 255
216 232 255
216 232 255
216 232 255
216 232 255
216 232 255
216 232 255
216 232 255
216 232 255
216 232 255
216 232 255
216 232 255
216 233 255
216 233 255
216 233 255
216 233 255
216 233 255
216 233 255
216 233 255
216 233 255
216 233 255
216 233 255
216 233 255
216 233 255
216 233 255
216 233 255
216 233 255
216 233 255
216 233 255
216 233 255
216 233 255
216 233 255
216 233 255
216 233 255
216 233 255
216 233 255
216 233 255
216 233 255
216 233 255
216 233 255
216 233 255
216 233 255
216 233 255
217 233 255
217 233 255
217 233 255
217 233 255
217 233 255
217 233 255
217 233 255
217 233 255
217 233 255
217 233 255
217 233 255
217 233 255
217 233 255
217 233 255
217 233 255
217 233 255
217 233 255
217 233 255
217 233 255
217 233 255
217 233 255
217 233 255
217 233 255
217 233 255
217 233 255
217 233 255
217 233 255
217 233 255
217 233 255
217 233 255
217 233 255
217 233 255
217 233 255
217 233 255
217 233 255
217 233 255
217 233 255
217 233 255
217 233 255
217 233 255
217 233 255
217 233 255
217 233 255
217 233 255
217 233 255
217 233 255
217 233 255
217 233 255
217 233 255
217 233 255
217 233 255
217 233 255
217 233 255
217 233 255
217 233 255
217 233 255
218 233 255
218 233 255
218 233 255
218 233 255
218 233 255
218 233 255
218 233 255
218 234 255
218 234 255
218 234 255
218 234 255
218 234 255
218 234 255
218 234 255
218 234 255
218 234 255
218 234 255
218 234 255
218 234 255
218 234 255
218 234 255
218 234 255
218 234 255
218 234 255
218 234 255
218 234 255
218 234 255
218 234 255
218 234 255
218 234 255
218 234 255
218 234 255
218 234 255
218 234 255
218 234 255
218 234 255
218 234 255
218 234 255
218 234 255
218 234 255
218 234 255
218 234 255
218 234 255
218 234 255
218 234 255
218 234 255
218 234 255
218 234 255
218 234 255
218 234 255
218 233 255
218 233 255
218 233 255
218 233 255
218 233 255
218 233 255
217 233 255
217 233 255
217 233 255
217 233 255
217 233 255
217 233 255
217 233 255
217 233 255
217 233 255
217 233 255
217 233 255
217 233 255
217 233 255
217 233 255
217 233 255
217 233 255
217 233 255
217 233 255
217 233 255
217 233 255
217 233 255
217 233 255
217 233 255
217 233 255
217 233 255
217 233 255
217 233 255
217 233 255
217 233 255
217 233 255
217 233 255
217 233 255
217 233 255
217 233 255
217 233 255
217 233 255
217 233 255
217 233 255
217 233 255
217 233 255
217 233 255
217 233 255
217 233 255
217 233 255
217 233 255
217 233 255
217 233 255
217 233 255
217 233 255
217 233 255
217 233 255
217 233 255
217 233 255
217 233 255
217 233 255
217 233 255
216 233 255
216 233 255
216 233 255
216 233 255
216 233 255
216 233 255
216 233 255
216 233 255
216 233 255
216 233 255
216 233 255
216 233 255
216 233 255
216 233 255
216 233 255
216 233 255
216 233 255
216 233 255
216 233 255
216 233 255
216 233 255
216 233 255
216 233 255
216 233 255
216 233 255
216 233 255
216 233 255
216 233 255
216 233 255
216 233 255
216 233 255
216 232 255
216 232 255
216 232 255
216 232 255
216 232 255
216 232 255
216 232 255
216 232 255
216 232 255
216 232 255
216 232 255
216 232 255
216 232 255
215 232 255
215 232 255
215 232 255
215 232 255
116 126 139
55 61 69
56 62 70
53 59 66
53 59 66
52 58 66
53 59 67
53 59 67
54 59 67
56 62 70
58 64 72
54 60 68
52 58 66
54 60 67
53 59 67
52 58 65
51 56 64
52 58 65
56 62 71
52 58 66
57 63 72
54 59 67
54 60 68
56 61 69
55 60 68
58 63 71
55 61 69
56 62 70
54 60 68
52 58 65
53 59 66
52 58 66
57 62 70
53 59 66
53 59 66
55 60 68
54 60 67
56 62 70
53 58 66
53 59 67
57 63 71
50 55 63
58 64 71
53 59 67
54 60 67
54 59 66
52 57 64
54 59 67
54 60 68
52 58 65
54 60 68
53 59 66
55 61 69
53 59 66
52 58 66
55 61 68
51 56 63
52 57 64
53 59 67
54 60 67
53 58 66
57 63 71
54 60 68
54 60 68
52 58 66
55 61 69
53 59 67
56 62 69
53 59 67
55 61 69
54 59 67
49 55 62
53 59 67
53 59 66
53 59 66
55 61 69
57 63 70
55 60 68
54 59 67
57 63 71
55 61 69
54 60 67
50 56 64
54 59 67
53 59 67
56 62 70
51 56 64
52 58 65
53 59 67
55 60 67
55 60 68
51 56 64
56 62 69
52 58 65
52 57 65
55 61 69
55 61 69
56 62 70
55 60 68
53 59 67
52 57 65
56 61 69
54 59 66
54 60 67
55 61 69
55 60 68
53 59 67
56 62 69
56 62 70
53 59 66
56 62 70
53 59 67
54 60 67
55 61 69
56 62 70
53 59 67
53 58 65
54 59 67
57 62 70
56 62 70
55 61 69
55 61 69
54 60 68
107 116 128
215 232 255
215 232 255
216 232 255
216 232 255
216 232 255
216 232 255
216 232 255
216 232 255
216 232 255
216 232 255
216 232 255
216 232 255
216 232 255
216 232 255
216 232 255
216 232 255
216 232 255
216 233 255
216 233 255
216 233 255
216 233 255
216 233 255
216 233 255
216 233 255
216 233 255
216 233 255
216 233 255
216 233 255
216 233 255
216 233 255
216 233 255
216 233 255
216 233 255
216 233 255
216 233 255
216 233 255
216 233 255
216 233 255
216 233 255
216 233 255
216 233 255
216 233 255
216 233 255
216 233 255
216 233 255
216 233 255
216 233 255
216 233 255
217 233 255
217 233 255
217 233 255
217 233 255
217 233 255
217 233 255
217 233 255
217 233 255
217 233 255
217 233 255
217 233 255
217 233 255
217 233 255
217 233 255
217 233 255
217 233 255
217 233 255
217 233 255
217 233 255
217 233 255
217 233 255
217 233 255
217 233 255
217 233 255
217 233 255
217 233 255
217 233 255
217 233 255
217 233 255
217 233 255
217 233 255
217 233 255
217 233 255
217 233 255
217 233 255
217 233 255
217 233 255
217 233 255
217 233 255
217 233 255
217 233 255
217 233 255
217 233 255
217 233 255
217 233 255
217 233 255
217 233 255
217 233 255
217 233 255
217 233 255
217 233 255
217 233 255
217 233 255
217 233 255
217 233 255
217 233 255
218 233 255
218 233 255
218 233 255
218 233 255
218 233 255
218 233 255
218 233 255
218 234 255
218 234 255
218 234 255
218 234 255
218 234 255
218 234 255
218 234 255
218 234 255
218 234 255
218 234 255
218 234 255
218 234 255
218 234 255
218 234 255
218 234 255
218 234 255
218 234 255
218 234 255
218 234 255
218 234 255
218 234 255
218 234 255
218 234 255
218 234 255
218 234 255
218 234 255
218 234 255
218 234 255
218 234 255
218 234 255
218 234 255
218 234 255
218 234 255
218 234 255
218 234 255
218 234 255
218 234 255
218 234 255
218 234 255
218 234 255
218 234 255
218 234 255
218 234 255
218 234 255
218 234 255
218 234 255
218 234 255
218 234 255
218 234 255
218 234 255
218 234 255
218 234 255
218 234 255
218 234 255
218 234 255
218 234 255
218 234 255
218 234 255
218 234 255
218 234 255
218 234 255
218 234 255
218 234 255
218 234 255
218 234 255
218 234 255
218 233 255
218 233 255
218 233 255
218 233 255
218 233 255
218 233 255
218 233 255
217 233 255
217 233 255
217 233 255
217 233 255
217 233 255
217 233 255
217 233 255
217 233 255
217 233 255
217 233 255
217 233 255
217 233 255
217 233 255
217 233 255
217 233 255
217 233 255
217 233 255
217 233 255
217 233 255
217 233 255
217 233 255
217 233 255
217 233 255
217 233 255
217 233 255
217 233 255
217 233 255
217 233 255
217 233 255
217 233 255
217 233 255
217 233 255
217 233 255
217 233 255
217 233 255
217 233 255
217 233 255
217 233 255
217 233 255
217 233 255
217 233 255
217 233 255
217 233 255
217 233 255
217 233 255
217 233 255
217 233 255
217 233 255
217 233 255
217 233 255
217 233 255
217 233 255
217 233 255
217 233 255
217 233 255
216 233 255
216 233 255
216 233 255
216 233 255
216 233 255
216 233 255
216 233 255
216 233 255
216 233 255
216 233 255
216 233 255
216 233 255
216 233 255
216 233 255
216 233 255
216 233 255
216 233 255
216 233 255
216 233 255
216 233 255
216 233 255
216 233 255
216 233 255
216 233 255
216 233 255
216 233 255
216 233 255
216 233 255
216 233 255
216 233 255
216 233 255
216 233 255
216 233 255
216 232 255
216 232 255
216 232 255
200 215 237
56 62 71
55 61 69
57 63 70
52 57 65
54 60 68
51 57 64
56 62 70
53 59 66
55 61 69
54 60 67
54 60 67
55 61 69
55 61 69
53 58 66
53 59 67
58 64 72
51 56 64
51 57 64
55 61 69
51 56 63
56 62 69
52 57 65
51 56 64
53 58 66
54 59 67
53 59 67
54 59 66
55 61 69
56 61 69
57 64 72
55 61 68
56 62 70
53 58 65
50 55 62
55 60 68
56 62 70
53 58 66
54 60 67
56 62 69
53 58 65
52 58 65
58 64 72
58 65 73
51 57 65
54 59 67
52 58 65
53 59 67
55 60 68
55 60 68
55 61 70
52 58 65
55 61 69
53 58 65
50 56 63
54 60 68
54 59 67
52 58 65
52 57 65
53 59 66
57 62 70
54 59 67
54 60 68
54 60 68
52 58 66
55 61 69
52 57 65
53 59 66
56 62 70
53 59 66
56 62 70
54 59 67
55 61 68
50 55 62
54 60 68
53 59 66
54 60 67
51 57 65
53 59 67
56 63 71
53 58 66
53 58 66
54 59 67
56 63 71
52 57 65
50 56 64
53 59 67
52 58 65
52 58 65
54 59 67
52 58 66
54 59 67
55 61 69
52 58 65
51 57 64
54 60 67
52 58 65
55 61 69
53 59 67
52 57 65
53 59 66
56 62 70
55 61 69
55 61 69
53 59 67
54 59 66
55 61 68
58 63 71
55 61 69
56 61 69
53 59 68
55 61 69
53 59 67
52 58 65
56 61 69
55 61 69
51 56 63
52 58 65
55 62 70
57 63 70
52 57 65
51 57 65
53 59 67
51 56 63
55 61 69
201 216 238
216 232 255
216 232 255
216 232 255
216 233 255
216 233 255
216 233 255
216 233 255
216 233 255
216 233 255
216 233 255
216 233 255
216 233 255
216 233 255
216 233 255
216 233 255
216 233 255
216 233 255
216 233 255
216 233 255
216 233 255
216 233 255
216 233 255
216 233 255
216 233 255
216 233 255
216 233 255
216 233 255
216 233 255
216 233 255
216 233 255
216 233 255
216 233 255
216 233 255
216 233 255
216 233 255
216 233 255
217 233 255
217 233 255
217 233 255
217 233 255
217 233 255
217 233 255
217 233 255
217 233 255
217 233 255
217 233 255
217 233 255
217 233 255
217 233 255
217 233 255
217 233 255
217 233 255
217 233 255
217 233 255
217 233 255
217 233 255
217 233 255
217 233 255
217 233 255
217 233 255
217 233 255
217 233 255
217 233 255
217 233 255
217 233 255
217 233 255
217 233 255
217 233 255
217 233 255
217 233 255
217 233 255
217 233 255
217 233 255
217 233 255
217 233 255
217 233 255
217 233 255
217 233 255
217 233 255
217 233 255
217 233 255
217 233 255
217 233 255
217 233 255
217 233 255
217 233 255
217 233 255
217 233 255
217 233 255
217 233 255
217 233 255
218 233 255
218 233 255
218 233 255
218 233 255
218 233 255
218 233 255
218 234 255
218 234 255
218 234 255
218 234 255
218 234 255
218 234 255
218 234 255
218 234 255
218 234 255
218 234 255
218 234 255
218 234 255
218 234 255
218 234 255
218 234 255
218 234 255
218 234 255
218 234 255
218 234 255
218 234 255
218 234 255
218 234 255
218 234 255
218 234 255
218 234 255
218 234 255
218 234 255
218 234 255
218 234 255
218 234 255
218 234 255
218 234 255
218 234 255
218 234 255
218 234 255
218 234 255
218 234 255
218 234 255
218 234 255
218 234 255
218 234 255
218 234 255
218 234 255
218 234 255
218 234 255
218 234 255
218 234 255
218 234 255
218 234 255
218 234 255
218 234 255
218 234 255
218 234 255
218 234 255
218 234 255
218 234 255
218 234 255
218 234 255
218 234 255
218 234 255
218 234 255
218 234 255
218 234 255
218 234 255
218 234 255
218 234 255
218 234 255
218 234 255
218 234 255
218 234 255
218 234 255
218 234 255
218 234 255
218 234 255
218 234 255
218 234 255
218 234 255
218 234 255
218 234 255
218 234 255
218 234 255
218 234 255
218 234 255
218 234 255
218 234 255
218 234 255
218 234 255
218 234 255
218 234 255
218 234 255
218 234 255
218 234 255
218 234 255
218 233 255
218 233 255
218 233 255
218 233 255
218 233 255
218 233 255
217 233 255
217 233 255
217 233 255
217 233 255
217 233 255
217 233 255
217 233 255
217 233 255
217 233 255
217 233 255
217 233 255
217 233 255
217 233 255
217 233 255
217 233 255
217 233 255
217 233 255
217 233 255
217 233 255
217 233 255
217 233 255
217 233 255
217 233 255
217 233 255
217 233 255
217 233 255
217 233 255
217 233 255
217 233 255
217 233 255
217 233 255
217 233 255
217 233 255
217 233 255
217 233 255
217 233 255
217 233 255
217 233 255
217 233 255
217 233 255
217 233 255
217 233 255
217 233 255
217 233 255
217 233 255
217 233 255
217 233 255
217 233 255
217 233 255
217 233 255
217 233 255
217 233 255
217 233 255
217 233 255
217 233 255
216 233 255
216 233 255
216 233 255
216 233 255
216 233 255
216 233 255
216 233 255
216 233 255
216 233 255
216 233 255
216 233 255
216 233 255
216 233 255
216 233 255
216 233 255
216 233 255
216 233 255
216 233 255
216 233 255
216 233 255
216 233 255
216 233 255
216 233 255
169 182 200
54 59 67
52 58 66
53 59 66
55 61 68
51 57 65
53 58 66
56 62 69
53 59 67
51 57 64
56 61 69
53 59 67
57 63 72
53 59 66
57 62 70
51 57 65
57 63 72
53 58 66
54 60 67
55 61 69
52 58 65
55 61 68
53 58 66
55 61 69
56 62 69
54 60 67
50 56 63
51 56 63
53 58 66
50 56 63
54 60 67
51 57 64
52 59 67
53 59 66
56 61 69
54 59 67
53 59 67
53 59 67
51 56 64
54 60 68
52 58 65
53 59 66
50 55 62
54 60 68
53 58 66
51 56 63
53 58 65
50 56 63
51 56 64
55 60 68
55 61 68
54 60 67
53 58 66
55 60 68
53 59 67
54 59 67
53 59 67
52 58 65
54 59 67
52 58 65
54 60 67
53 58 65
53 58 66
54 60 68
51 56 63
53 58 65
53 58 66
56 62 70
53 58 65
53 59 67
53 59 66
53 59 67
53 58 66
53 59 67
50 56 63
56 61 69
51 56 64
52 58 65
52 57 65
53 59 66
55 61 69
53 59 66
50 56 63
55 60 68
53 58 66
54 60 68
55 61 69
53 59 67
55 61 69
53 58 66
55 60 68
54 60 68
53 59 66
52 58 65
57 63 71
53 59 67
58 64 72
53 59 66
53 58 66
53 59 66
54 59 67
53 59 67
55 61 69
55 61 69
58 64 72
55 61 68
52 58 66
53 59 66
54 60 67
56 62 69
56 61 69
52 58 66
55 61 70
52 58 66
53 58 66
52 57 64
55 61 69
53 58 66
55 61 69
51 57 64
57 63 71
52 58 65
54 60 67
54 59 67
56 62 70
181 195 214
216 233 255
216 233 255
216 233 255
216 233 255
216 233 255
216 233 255
216 233 255
216 233 255
216 233 255
216 233 255
216 233 255
216 233 255
216 233 255
216 233 255
216 233 255
216 233 255
216 233 255
216 233 255
216 233 255
216 233 255
216 233 255
216 233 255
216 233 255
216 233 255
217 233 255
217 233 255
217 233 255
217 233 255
217 233 255
217 233 255
217 233 255
217 233 255
217 233 255
217 233 255
217 233 255
217 233 255
217 233 255
217 233 255
217 233 255
217 233 255
217 233 255
217 233 255
217 233 255
217 233 255
217 233 255
217 233 255
217 233 255
217 233 255
217 233 255
217 233 255
217 233 255
217 233 255
217 233 255
217 233 255
217 233 255
217 233 255
217 233 255
217 233 255
217 233 255
217 233 255
217 233 255
217 233 255
217 233 255
217 233 255
217 233 255
217 233 255
217 233 255
217 233 255
217 233 255
217 233 255
217 233 255
217 233 255
217 233 255
217 233 255
217 233 255
217 233 255
217 233 255
217 233 255
218 233 255
218 233 255
218 233 255
218 233 255
218 233 255
218 233 255
218 233 255
218 234 255
218 234 255
218 234 255
218 234 255
218 234 255
218 234 255
218 234 255
218 234 255
218 234 255
218 234 255
218 234 255
218 234 255
218 234 255
218 234 255
218 234 255
218 234 255
218 234 255
218 234 255
218 234 255
218 234 255
218 234 255
218 234 255
218 234 255
218 234 255
218 234 255
218 234 255
218 234 255
218 234 255
218 234 255
218 234 255
218 234 255
218 234 255
218 234 255
218 234 255
218 234 255
218 234 255
218 234 255
218 234 255
218 234 255
218 234 255
218 234 255
218 234 255
218 234 255
218 234 255
218 234 255
218 234 255
218 234 255
218 234 255
218 234 255
218 234 255
218 234 255
218 234 255
218 234 255
218 234 255
218 234 255
218 234 255
218 234 255
218 234 255
218 234 255
218 234 255
218 234 255
218 234 255
218 234 255
218 234 255
218 234 255
218 234 255
218 234 255
218 234 255
218 234 255
218 234 255
218 234 255
218 234 255
218 234 255
218 234 255
218 234 255
218 234 255
218 234 255
218 234 255
218 234 255
218 234 255
218 234 255
218 234 255
218 234 255
218 234 255
218 234 255
218 234 255
218 234 255
218 234 255
218 234 255
218 234 255
218 234 255
218 234 255
218 234 255
218 234 255
218 234 255
218 234 255
218 234 255
218 234 255
218 234 255
218 234 255
218 234 255
218 234 255
218 234 255
218 234 255
218 234 255
218 234 255
218 234 255
218 234 255
218 234 255
218 234 255
218 234 255
218 234 255
218 234 255
218 234 255
218 234 255
218 234 255
218 234 255
218 234 255
218 233 255
218 233 255
218 233 255
218 233 255
218 233 255
218 233 255
217 233 255
217 233 255
217 233 255
217 233 255
217 233 255
217 233 255
217 233 255
217 233 255
217 233 255
217 233 255
217 233 255
217 233 255
217 233 255
217 233 255
217 233 255
217 233 255
217 233 255
217 233 255
217 233 255
217 233 255
217 233 255
217 233 255
217 233 255
217 233 255
217 233 255
217 233 255
217 233 255
217 233 255
217 233 255
217 233 255
217 233 255
217 233 255
217 233 255
217 233 255
217 233 255
217 233 255
217 233 255
217 233 255
217 233 255
217 233 255
217 233 255
217 233 255
217 233 255
217 233 255
217 233 255
217 233 255
217 233 255
217 233 255
217 233 255
217 233 255
217 233 255
217 233 255
217 233 255
217 233 255
216 233 255
216 233 255
216 233 255
216 233 255
216 233 255
216 233 255
216 233 255
216 233 255
216 233 255
216 233 255
216 233 255
133 144 159
52 57 65
52 58 65
53 59 66
55 60 68
55 60 68
53 58 66
55 61 69
52 57 65
55 61 69
52 57 65
55 61 69
53 58 65
54 60 67
56 62 70
56 63 71
52 58 65
52 57 65
53 58 66
52 57 65
54 60 67
52 58 65
57 62 70
54 60 67
53 58 66
55 60 68
52 58 65
54 60 67
54 60 67
52 58 66
54 59 67
49 55 62
53 59 67
54 60 68
50 56 63
55 60 68
56 62 70
53 58 66
52 57 65
55 60 68
56 61 69
55 61 69
48 54 61
53 59 66
49 55 62
55 61 69
54 59 67
50 56 63
54 60 68
53 58 66
55 61 69
54 60 68
53 58 66
51 56 64
53 59 66
52 57 64
54 59 67
51 56 64
52 57 64
54 59 66
52 58 65
54 59 66
56 62 70
47 53 59
51 56 64
55 61 69
57 63 71
52 57 64
54 59 67
50 56 62
54 60 67
53 59 66
52 58 65
55 60 68
51 57 64
53 59 67
52 57 65
53 59 66
56 62 69
52 57 65
53 59 67
53 59 67
56 63 71
52 58 65
53 59 67
52 58 65
52 58 65
54 60 68
55 61 69
52 58 65
52 58 66
52 58 65
52 57 64
54 59 67
53 59 67
56 62 70
52 57 65
53 58 65
55 61 69
51 56 63
52 58 66
54 60 68
56 62 70
55 61 69
52 57 64
56 62 70
53 59 66
52 58 66
56 62 69
54 60 67
56 62 70
55 61 69
51 56 64
52 57 65
51 56 63
51 57 65
57 63 71
56 62 71
54 60 68
52 58 65
54 59 67
53 58 66
53 59 66
52 58 66
54 60 68
130 141 155
216 233 255
216 233 255
216 233 255
216 233 255
216 233 255
216 233 255
216 233 255
216 233 255
216 233 255
216 233 255
217 233 255
217 233 255
217 233 255
217 233 255
217 233 255
217 233 255
217 233 255
217 233 255
217 233 255
217 233 255
217 233 255
217 233 255
217 233 255
217 233 255
217 233 255
217 233 255
217 233 255
217 233 255
217 233 255
217 233 255
217 233 255
217 233 255
217 233 255
217 233 255
217 233 255
217 233 255
217 233 255
217 233 255
217 233 255
217 233 255
217 233 255
217 233 255
217 233 255
217 233 255
217 233 255
217 233 255
217 233 255
217 233 255
217 233 255
217 233 255
217 233 255
217 233 255
217 233 255
217 233 255
217 233 255
217 233 255
217 233 255
217 233 255
217 233 255
217 233 255
217 233 255
217 233 255
217 233 255
217 233 255
217 233 255
218 233 255
218 233 255
218 233 255
218 233 255
218 233 255
218 233 255
218 233 255
218 234 255
218 234 255
218 234 255
218 234 255
218 234 255
218 234 255
218 234 255
218 234 255
218 234 255
218 234 255
218 234 255
218 234 255
218 234 255
218 234 255
218 234 255
218 234 255
218 234 255
218 234 255
218 234 255
218 234 255
218 234 255
218 234 255
218 234 255
218 234 255
218 234 255
218 234 255
218 234 255
218 234 255
218 234 255
218 234 255
218 234 255
218 234 255
218 234 255
218 234 255
218 234 255
218 234 255
218 234 255
218 234 255
218 234 255
218 234 255
218 234 255
218 234 255
218 234 255
218 234 255
218 234 255
218 234 255
218 234 255
218 234 255
218 234 255
218 234 255
218 234 255
218 234 255
218 234 255
218 234 255
218 234 255
218 234 255
218 234 255
218 234 255
218 234 255
218 234 255
218 234 255
218 234 255
218 234 255
218 234 255
218 234 255
219 234 255
219 234 255
219 234 255
219 234 255
219 234 255
219 234 255
219 234 255
219 234 255
219 234 255
219 234 255
219 234 255
218 234 255
218 234 255
218 234 255
218 234 255
218 234 255
218 234 255
218 234 255
218 234 255
218 234 255
218 234 255
218 234 255
218 234 255
218 234 255
218 234 255
218 234 255
218 234 255
218 234 255
218 234 255
218 234 255
218 234 255
218 234 255
218 234 255
218 234 255
218 234 255
218 234 255
218 234 255
218 234 255
218 234 255
218 234 255
218 234 255
218 234 255
218 234 255
218 234 255
218 234 255
218 234 255
218 234 255
218 234 255
218 234 255
218 234 255
218 234 255
218 234 255
218 234 255
218 234 255
218 234 255
218 234 255
218 234 255
218 234 255
218 234 255
218 234 255
218 234 255
218 234 255
218 234 255
218 234 255
218 234 255
218 234 255
218 234 255
218 234 255
218 234 255
218 234 255
218 234 255
218 234 255
218 234 255
218 234 255
218 234 255
218 234 255
218 234 255
218 234 255
218 234 255
218 234 255
218 233 255
218 233 255
218 233 255
218 233 255
218 233 255
218 233 255
217 233 255
217 233 255
217 233 255
217 233 255
217 233 255
217 233 255
217 233 255
217 233 255
217 233 255
217 233 255
217 233 255
217 233 255
217 233 255
217 233 255
217 233 255
217 233 255
217 233 255
217 233 255
217 233 255
217 233 255
217 233 255
217 233 255
217 233 255
217 233 255
217 233 255
217 233 255
217 233 255
217 233 255
217 233 255
217 233 255
217 233 255
217 233 255
217 233 255
217 233 255
217 233 255
217 233 255
217 233 255
217 233 255
217 233 255
217 233 255
217 233 255
217 233 255
217 233 255
217 233 255
217 233 255
217 233 255
217 233 255
217 233 255
217 233 255
217 233 255
217 233 255
85 93 103
53 59 66
49 54 61
53 59 67
52 57 65
54 59 67
51 57 64
55 60 67
54 59 67
55 61 68
53 59 67
51 57 64
53 58 65
52 58 65
52 58 66
52 58 65
55 61 69
53 59 66
57 63 71
50 55 62
54 60 68
54 59 67
57 63 71
51 57 64
54 59 67
51 57 64
54 59 67
54 60 68
52 58 65
51 56 64
56 62 70
54 60 67
55 61 68
53 59 67
56 61 69
51 57 64
54 60 67
57 62 70
55 61 69
55 61 69
52 57 65
55 61 68
51 56 64
50 56 63
56 62 70
54 60 67
52 57 65
48 53 60
55 60 67
55 60 68
58 64 72
51 56 63
56 62 70
56 62 70
50 55 62
51 57 64
54 60 68
53 58 66
56 62 70
51 56 64
53 59 66
53 58 65
53 59 67
55 61 69
53 58 65
54 60 68
53 59 67
52 57 65
53 58 66
53 59 66
50 56 63
51 57 64
53 59 66
55 61 68
54 59 67
50 55 63
54 59 66
54 59 66
56 62 70
52 58 65
54 59 66
55 61 69
53 58 65
55 61 69
51 57 64
55 61 69
50 55 62
55 60 68
55 61 69
52 57 65
53 59 66
52 57 65
55 60 68
52 58 65
54 59 67
55 61 68
52 57 65
53 59 67
51 56 63
54 60 68
54 60 68
55 61 69
51 57 64
58 64 72
49 54 61
53 59 67
54 59 66
52 57 64
50 56 63
49 55 62
53 58 66
53 58 65
54 60 67
54 60 67
52 58 66
52 58 66
56 62 70
54 60 68
55 61 70
53 58 66
52 57 65
52 58 66
55 61 68
56 62 69
54 60 68
81 88 98
217 233 255
217 233 255
217 233 255
217 233 255
217 233 255
217 233 255
217 233 255
217 233 255
217 233 255
217 233 255
217 233 255
217 233 255
217 233 255
217 233 255
217 233 255
217 233 255
217 233 255
217 233 255
217 233 255
217 233 255
217 233 255
217 233 255
217 233 255
217 233 255
217 233 255
217 233 255
217 233 255
217 233 255
217 233 255
217 233 255
217 233 255
217 233 255
217 233 255
217 233 255
217 233 255
217 233 255
217 233 255
217 233 255
217 233 255
217 233 255
217 233 255
217 233 255
217 233 255
217 233 255
217 233 255
217 233 255
217 233 255
217 233 255
217 233 255
217 233 255
217 233 255
217 233 255
218 233 255
218 233 255
218 233 255
218 233 255
218 233 255
218 233 255
218 234 255
218 234 255
218 234 255
218 234 255
218 234 255
218 234 255
218 234 255
218 234 255
218 234 255
218 234 255
218 234 255
218 234 255
218 234 255
218 234 255
218 234 255
218 234 255
218 234 255
218 234 255
218 234 255
218 234 255
218 234 255
218 234 255
218 234 255
218 234 255
218 234 255
218 234 255
218 234 255
218 234 255
218 234 255
218 234 255
218 234 255
218 234 255
218 234 255
218 234 255
218 234 255
218 234 255
218 234 255
218 234 255
218 234 255
218 234 255
218 234 255
218 234 255
218 234 255
218 234 255
218 234 255
218 234 255
218 234 255
218 234 255
218 234 255
218 234 255
218 234 255
218 234 255
218 234 255
218 234 255
218 234 255
218 234 255
218 234 255
218 234 255
218 234 255
218 234 255
218 234 255
218 234 255
218 234 255
218 234 255
218 234 255
218 234 255
218 234 255
218 234 255
219 234 255
219 234 255
219 234 255
219 234 255
219 234 255
219 234 255
219 234 255
219 234 255
219 234 255
219 234 255
219 234 255
219 234 255
219 234 255
219 234 255
219 234 255
219 234 255
219 234 255
219 234 255
219 234 255
219 234 255
219 234 255
219 234 255
219 234 255
219 234 255
219 234 255
219 234 255
219 234 255
219 234 255
219 234 255
219 234 255
219 234 255
219 234 255
219 234 255
219 234 255
219 234 255
219 234 255
219 234 255
219 234 255
218 234 255
218 234 255
218 234 255
218 234 255
218 234 255
218 234 255
218 234 255
218 234 255
218 234 255
218 234 255
218 234 255
218 234 255
218 234 255
218 234 255
218 234 255
218 234 255
218 234 255
218 234 255
218 234 255
218 234 255
218 234 255
218 234 255
218 234 255
218 234 255
218 234 255
218 234 255
218 234 255
218 234 255
218 234 255
218 234 255
218 234 255
218 234 255
218 234 255
218 234 255
218 234 255
218 234 255
218 234 255
218 234 255
218 234 255
218 234 255
218 234 255
218 234 255
218 234 255
218 234 255
218 234 255
218 234 255
218 234 255
218 234 255
218 234 255
218 234 255
218 234 255
218 234 255
218 234 255
218 234 255
218 234 255
218 234 255
218 234 255
218 234 255
218 234 255
218 234 255
218 234 255
218 234 255
218 234 255
218 234 255
218 234 255
218 234 255
218 234 255
218 233 255
218 233 255
218 233 255
218 233 255
218 233 255
218 233 255
217 233 255
217 233 255
217 233 255
217 233 255
217 233 255
217 233 255
217 233 255
217 233 255
217 233 255
217 233 255
217 233 255
217 233 255
217 233 255
217 233 255
217 233 255
217 233 255
217 233 255
217 233 255
217 233 255
217 233 255
217 233 255
217 233 255
217 233 255
217 233 255
217 233 255
217 233 255
217 233 255
217 233 255
217 233 255
217 233 255
217 233 255
217 233 255
217 233 255
217 233 255
217 233 255
217 233 255
187 201 221
56 62 70
54 60 67
54 59 66
55 62 70
55 61 69
57 63 71
51 57 64
52 57 64
52 58 65
54 60 68
54 59 67
52 58 65
52 58 66
53 58 66
51 57 64
56 61 69
53 59 66
56 62 70
57 62 70
53 58 65
53 58 66
54 60 67
54 60 67
49 54 61
50 55 62
53 59 66
55 60 68
54 60 68
55 61 68
53 59 66
53 58 66
51 56 63
49 54 61
56 61 69
56 62 70
51 56 64
52 57 64
54 59 67
55 60 68
52 57 65
54 59 67
52 57 64
53 59 67
49 54 61
55 60 68
55 61 69
51 56 64
53 58 66
52 57 65
50 55 63
49 54 61
55 60 68
52 57 65
53 59 66
53 58 66
53 58 66
56 61 69
53 59 66
54 60 67
55 60 68
49 54 61
55 61 69
55 61 69
53 59 66
52 57 64
54 59 67
55 60 68
52 58 65
52 58 66
52 57 65
53 58 66
54 59 67
53 58 66
55 61 69
57 63 70
55 60 68
50 55 62
54 60 67
51 56 64
53 58 66
52 58 66
51 56 64
52 58 65
56 62 70
50 55 62
53 59 67
54 59 67
52 58 66
55 61 69
54 60 67
54 59 67
55 61 69
51 57 64
56 61 69
56 61 69
54 60 67
51 57 64
53 58 66
51 57 64
56 62 70
54 59 67
49 55 62
53 59 66
52 57 65
50 55 62
52 58 66
54 60 67
50 56 63
52 58 65
52 57 64
53 59 66
54 60 68
53 59 67
52 57 65
54 59 66
52 58 66
54 60 69
52 57 65
55 60 68
55 61 69
52 57 64
55 60 68
55 61 69
54 59 67
55 60 68
50 55 62
198 212 233
217 233 255
217 233 255
217 233 255
217 233 255
217 233 255
217 233 255
217 233 255
217 233 255
217 233 255
217 233 255
217 233 255
217 233 255
217 233 255
217 233 255
217 233 255
217 233 255
217 233 255
217 233 255
217 233 255
217 233 255
217 233 255
217 233 255
217 233 255
217 233 255
217 233 255
217 233 255
217 233 255
217 233 255
217 233 255
217 233 255
217 233 255
217 233 255
217 233 255
217 233 255
217 233 255
218 233 255
218 233 255
218 233 255
218 233 255
218 233 255
218 233 255
218 233 255
218 234 255
218 234 255
218 234 255
218 234 255
218 234 255
218 234 255
218 234 255
218 234 255
218 234 255
218 234 255
218 234 255
218 234 255
218 234 255
218 234 255
218 234 255
218 234 255
218 234 255
218 234 255
218 234 255
218 234 255
218 234 255
218 234 255
218 234 255
218 234 255
218 234 255
218 234 255
218 234 255
218 234 255
218 234 255
218 234 255
218 234 255
218 234 255
218 234 255
218 234 255
218 234 255
218 234 255
218 234 255
218 234 255
218 234 255
218 234 255
218 234 255
218 234 255
218 234 255
218 234 255
218 234 255
218 234 255
218 234 255
218 234 255
218 234 255
218 234 255
218 234 255
218 234 255
218 234 255
218 234 255
218 234 255
218 234 255
218 234 255
218 234 255
218 234 255
218 234 255
218 234 255
218 234 255
218 234 255
218 234 255
218 234 255
218 234 255
219 234 255
219 234 255
219 234 255
219 234 255
219 234 255
219 234 255
219 234 255
219 234 255
219 234 255
219 234 255
219 234 255
219 234 255
219 234 255
219 234 255
219 234 255
219 234 255
219 234 255
219 234 255
219 234 255
219 234 255
219 234 255
219 234 255
219 234 255
219 234 255
219 234 255
219 234 255
219 234 255
219 234 255
219 234 255
219 234 255
219 234 255
219 234 255
219 234 255
219 234 255
219 234 255
219 234 255
219 234 255
219 234 255
219 234 255
219 234 255
219 234 255
219 234 255
219 234 255
219 234 255
219 234 255
219 234 255
219 234 255
219 234 255
219 234 255
219 234 255
219 234 255
219 234 255
219 234 255
219 234 255
219 234 255
219 234 255
219 234 255
219 234 255
219 234 255
219 234 255
219 234 255
219 234 255
219 234 255
219 234 255
219 234 255
219 234 255
219 234 255
219 234 255
219 234 255
219 234 255
219 234 255
219 234 255
218 234 255
218 234 255
218 234 255
218 234 255
218 234 255
218 234 255
218 234 255
218 234 255
218 234 255
218 234 255
218 234 255
218 234 255
218 234 255
218 234 255
218 234 255
218 234 255
218 234 255
218 234 255
218 234 255
218 234 255
218 234 255
218 234 255
218 234 255
218 234 255
218 234 255
218 234 255
218 234 255
218 234 255
218 234 255
218 234 255
218 234 255
218 234 255
218 234 255
218 234 255
218 234 255
218 234 255
218 234 255
218 234 255
218 234 255
218 234 255
218 234 255
218 234 255
218 234 255
218 234 255
218 234 255
218 234 255
218 234 255
218 234 255
218 234 255
218 234 255
218 234 255
218 234 255
218 234 255
218 234 255
218 234 255
218 234 255
218 234 255
218 234 255
218 234 255
218 234 255
218 234 255
218 234 255
218 234 255
218 234 255
218 234 255
218 234 255
218 233 255
218 233 255
218 233 255
218 233 255
218 233 255
218 233 255
218 233 255
217 233 255
217 233 255
217 233 255
217 233 255
217 233 255
217 233 255
217 233 255
217 233 255
217 233 255
217 233 255
217 233 255
217 233 255
217 233 255
217 233 255
217 233 255
217 233 255
217 233 255
217 233 255
217 233 255
177 190 208
54 61 69
49 55 62
53 59 67
54 60 68
48 54 61
53 59 67
50 56 63
53 58 66
54 60 68
51 57 65
53 59 66
51 56 63
56 62 69
54 60 67
51 56 64
48 53 59
50 56 63
56 62 70
53 59 66
56 62 69
51 57 65
53 59 67
54 59 66
52 57 64
52 58 65
54 60 68
51 57 64
51 56 63
51 56 63
51 56 63
49 55 62
52 57 64
50 55 62
53 58 66
55 60 68
55 61 69
50 55 62
54 59 66
49 54 61
54 60 67
55 60 68
52 58 65
55 60 68
51 57 64
53 58 66
53 59 66
53 59 67
55 61 69
54 60 68
56 62 70
55 60 67
53 59 66
50 55 62
53 58 65
53 59 66
54 59 67
53 58 66
55 61 69
55 61 68
52 58 65
51 56 62
51 56 63
55 60 68
51 57 64
50 56 63
52 57 65
50 56 63
50 56 63
53 59 66
55 61 69
50 56 63
53 58 65
53 58 65
50 55 62
56 62 70
53 59 66
51 56 64
47 52 59
50 56 63
50 56 63
54 59 67
53 59 66
51 57 65
53 58 66
52 57 64
55 61 69
50 55 62
52 58 65
51 56 63
50 55 62
52 58 65
54 60 68
53 59 66
54 59 66
53 58 66
50 56 63
48 53 60
54 60 67
51 56 64
51 56 63
55 61 69
50 55 63
51 57 64
54 60 68
54 59 66
54 59 67
50 55 62
51 57 64
50 55 62
51 57 64
51 57 65
51 57 64
52 58 65
53 59 67
50 55 63
56 62 70
53 58 66
52 58 65
54 60 67
54 60 67
51 56 63
53 59 66
54 60 67
50 55 63
53 58 65
53 60 68
161 173 190
217 233 255
217 233 255
217 233 255
217 233 255
217 233 255
217 233 255
217 233 255
217 233 255
217 233 255
217 233 255
217 233 255
217 233 255
217 233 255
217 233 255
217 233 255
217 233 255
217 233 255
217 233 255
217 233 255
217 233 255
218 233 255
218 233 255
218 233 255
218 233 255
218 233 255
218 234 255
218 233 255
218 234 255
218 234 255
218 234 255
218 234 255
218 234 255
218 234 255
218 234 255
218 234 255
218 234 255
218 234 255
218 234 255
218 234 255
218 234 255
218 234 255
218 234 255
218 234 255
218 234 255
218 234 255
218 234 255
218 234 255
218 234 255
218 234 255
218 234 255
218 234 255
218 234 255
218 234 255
218 234 255
218 234 255
218 234 255
218 234 255
218 234 255
218 234 255
218 234 255
218 234 255
218 234 255
218 234 255
218 234 255
218 234 255
218 234 255
218 234 255
218 234 255
218 234 255
218 234 255
218 234 255
218 234 255
218 234 255
218 234 255
218 234 255
218 234 255
218 234 255
218 234 255
218 234 255
218 234 255
218 234 255
218 234 255
218 234 255
218 234 255
218 234 255
218 234 255
218 234 255
218 234 255
218 234 255
218 234 255
218 234 255
219 234 255
219 234 255
219 234 255
219 234 255
219 234 255
219 234 255
219 234 255
219 234 255
219 234 255
219 234 255
219 234 255
219 234 255
219 234 255
219 234 255
219 234 255
219 234 255
219 234 255
219 234 255
219 234 255
219 234 255
219 234 255
219 234 255
219 234 255
219 234 255
219 234 255
219 234 255
219 234 255
219 234 255
219 234 255
219 234 255
219 234 255
219 234 255
219 234 255
219 234 255
219 234 255
219 234 255
219 234 255
219 234 255
219 234 255
219 234 255
219 234 255
219 234 255
219 234 255
219 234 255
219 234 255
219 234 255
219 234 255
219 234 255
219 234 255
219 234 255
219 234 255
219 234 255
219 234 255
219 234 255
219 234 255
219 234 255
219 234 255
219 234 255
219 234 255
219 234 255
219 234 255
219 234 255
219 234 255
219 234 255
219 234 255
219 234 255
219 234 255
219 234 255
219 234 255
219 234 255
219 234 255
219 234 255
219 234 255
219 234 255
219 234 255
219 234 255
219 234 255
219 234 255
219 234 255
219 234 255
219 234 255
219 234 255
219 234 255
219 234 255
219 234 255
219 234 255
219 234 255
219 234 255
219 234 255
219 234 255
219 234 255
219 234 255
219 234 255
219 234 255
219 234 255
219 234 255
219 234 255
219 234 255
219 234 255
219 234 255
219 234 255
219 234 255
219 234 255
219 234 255
219 234 255
219 234 255
219 234 255
218 234 255
218 234 255
218 234 255
218 234 255
218 234 255
218 234 255
218 234 255
218 234 255
218 234 255
218 234 255
218 234 255
218 234 255
218 234 255
218 234 255
218 234 255
218 234 255
218 234 255
218 234 255
218 234 255
218 234 255
218 234 255
218 234 255
218 234 255
218 234 255
218 234 255
218 234 255
218 234 255
218 234 255
218 234 255
218 234 255
218 234 255
218 234 255
218 234 255
218 234 255
218 234 255
218 234 255
218 234 255
218 234 255
218 234 255
218 234 255
218 234 255
218 234 255
218 234 255
218 234 255
218 234 255
218 234 255
218 234 255
218 234 255
218 234 255
218 234 255
218 234 255
218 234 255
218 234 255
218 234 255
218 234 255
218 234 255
218 234 255
218 234 255
218 234 255
218 234 255
218 234 255
218 234 255
218 234 255
218 234 255
218 234 255
218 233 255
218 233 255
218 233 255
218 233 255
218 233 255
218 233 255
218 233 255
218 233 255
217 233 255
136 146 161
54 59 67
54 59 67
51 56 64
53 59 66
51 56 64
52 58 65
55 60 68
50 55 63
55 61 68
52 57 65
52 57 65
56 62 69
52 58 65
52 58 65
55 60 68
56 61 69
50 55 62
53 58 66
51 56 64
56 61 68
52 57 65
54 61 69
52 57 65
49 55 62
51 56 63
55 60 68
54 60 68
53 58 66
55 60 68
55 61 69
50 56 63
51 57 65
56 61 69
54 60 67
52 57 64
51 56 64
52 57 64
52 57 65
50 56 64
55 61 69
53 58 66
50 56 63
50 56 63
51 56 63
57 63 71
54 59 67
50 55 62
52 57 65
50 56 63
51 57 64
55 60 68
53 58 65
53 58 66
50 55 62
56 62 69
55 61 69
49 55 62
52 58 65
54 59 66
55 60 68
53 59 67
51 57 65
53 58 66
53 59 66
56 61 69
53 59 66
52 57 65
51 57 64
53 59 66
53 58 66
50 55 62
51 57 64
51 56 63
54 60 68
53 58 66
52 57 64
53 58 65
53 59 66
51 57 64
54 59 67
51 56 63
53 59 67
53 58 66
49 54 61
52 57 64
49 55 62
54 59 66
54 59 67
56 61 69
54 60 67
53 59 67
54 60 68
55 60 68
52 57 64
55 60 68
52 58 66
52 58 65
53 58 66
53 59 67
51 56 63
54 59 66
52 58 65
53 59 67
52 57 64
52 57 64
53 59 66
51 56 63
51 56 63
54 60 67
52 57 65
50 55 62
54 59 66
54 60 67
53 58 66
51 56 63
48 53 60
48 53 60
53 58 66
52 57 65
53 58 65
55 61 68
53 59 67
53 59 66
55 61 69
55 61 69
53 59 67
135 146 160
217 233 255
218 233 255
218 233 255
218 233 255
218 233 255
218 233 255
218 233 255
218 233 255
218 234 255
218 234 255
218 234 255
218 234 255
218 234 255
218 234 255
218 234 255
218 234 255
218 234 255
218 234 255
218 234 255
218 234 255
218 234 255
218 234 255
218 234 255
218 234 255
218 234 255
218 234 255
218 234 255
218 234 255
218 234 255
218 234 255
218 234 255
218 234 255
218 234 255
218 234 255
218 234 255
218 234 255
218 234 255
218 234 255
218 234 255
218 234 255
218 234 255
218 234 255
218 234 255
218 234 255
218 234 255
218 234 255
218 234 255
218 234 255
218 234 255
218 234 255
218 234 255
218 234 255
218 234 255
218 234 255
218 234 255
218 234 255
218 234 255
218 234 255
218 234 255
218 234 255
218 234 255
218 234 255
218 234 255
218 234 255
218 234 255
218 234 255
218 234 255
218 234 255
218 234 255
218 234 255
218 234 255
218 234 255
218 234 255
218 234 255
218 234 255
219 234 255
219 234 255
219 234 255
219 234 255
219 234 255
219 234 255
219 234 255
219 234 255
219 234 255
219 234 255
219 234 255
219 234 255
219 234 255
219 234 255
219 234 255
219 234 255
219 234 255
219 234 255
219 234 255
219 234 255
219 234 255
219 234 255
219 234 255
219 234 255
219 234 255
219 234 255
219 234 255
219 234 255
219 234 255
219 234 255
219 234 255
219 234 255
219 234 255
219 234 255
219 234 255
219 234 255
219 234 255
219 234 255
219 234 255
219 234 255
219 234 255
219 234 255
219 234 255
219 234 255
219 234 255
219 234 255
219 234 255
219 234 255
219 234 255
219 234 255
219 234 255
219 234 255
219 234 255
219 234 255
219 234 255
219 234 255
219 234 255
219 234 255
219 234 255
219 234 255
219 234 255
219 234 255
219 234 255
219 234 255
219 234 255
219 234 255
219 234 255
219 234 255
219 234 255
219 234 255
219 234 255
219 234 255
219 234 255
219 234 255
219 234 255
219 234 255
219 234 255
219 234 255
219 234 255
219 234 255
219 234 255
219 234 255
219 234 255
219 234 255
219 234 255
219 234 255
219 234 255
219 234 255
219 234 255
219 234 255
219 234 255
219 234 255
219 234 255
219 234 255
219 234 255
219 234 255
219 234 255
219 234 255
219 234 255
219 234 255
219 234 255
219 234 255
219 234 255
219 234 255
219 234 255
219 234 255
219 234 255
219 234 255
219 234 255
219 234 255
219 234 255
219 234 255
219 234 255
219 234 255
219 234 255
219 234 255
219 234 255
219 234 255
219 234 255
219 234 255
219 234 255
219 234 255
219 234 255
219 234 255
219 234 255
219 234 255
219 234 255
219 234 255
219 234 255
219 234 255
219 234 255
219 234 255
219 234 255
219 234 255
219 234 255
219 234 255
219 234 255
219 234 255
219 234 255
219 234 255
219 234 255
218 234 255
218 234 255
218 234 255
218 234 255
218 234 255
218 234 255
218 234 255
218 234 255
218 234 255
218 234 255
218 234 255
218 234 255
218 234 255
218 234 255
218 234 255
218 234 255
218 234 255
218 234 255
218 234 255
218 234 255
218 234 255
218 234 255
218 234 255
218 234 255
218 234 255
218 234 255
218 234 255
218 234 255
218 234 255
218 234 255
218 234 255
218 234 255
218 234 255
218 234 255
218 234 255
218 234 255
218 234 255
218 234 255
218 234 255
218 234 255
218 234 255
218 234 255
218 234 255
218 234 255
218 234 255
218 234 255
218 234 255
218 234 255
218 234 255
218 234 255
218 234 255
218 234 255
218 234 255
218 234 255
218 234 255
218 234 255
105 114 125
54 60 68
53 59 66
51 56 63
54 59 67
52 57 65
52 58 65
53 59 66
59 65 73
53 58 66
54 60 68
53 58 65
55 61 69
52 57 65
55 61 69
52 57 64
54 60 68
53 59 66
50 56 63
52 57 65
54 60 67
49 54 61
51 56 64
50 56 63
52 57 65
52 58 65
54 59 67
53 58 65
50 55 62
50 55 62
56 62 70
55 61 68
52 58 65
51 56 64
52 58 65
51 56 63
53 59 66
54 60 67
51 57 65
51 57 64
51 56 64
56 62 69
51 57 64
54 59 66
49 54 61
53 59 67
54 59 66
53 59 66
51 56 63
51 56 63
54 60 67
55 60 68
55 61 68
51 56 63
51 56 63
49 54 61
53 59 66
54 60 67
52 57 64
52 57 64
52 57 65
50 55 62
52 57 64
53 59 66
56 62 70
52 57 65
48 53 60
49 54 61
53 59 66
52 57 65
50 56 62
52 57 65
53 58 66
50 55 62
51 56 63
55 61 69
51 57 64
55 60 67
52 58 65
54 60 68
55 60 68
55 61 69
52 57 64
51 56 63
55 61 69
51 56 63
55 60 68
50 56 63
52 58 66
54 60 68
51 57 64
51 57 65
51 56 63
52 57 64
51 57 64
54 60 67
53 58 65
54 60 68
52 57 65
51 57 64
48 53 59
53 58 66
53 59 67
51 57 65
52 58 66
54 59 67
52 58 65
52 57 65
51 57 65
56 62 69
56 62 70
54 59 67
53 59 67
54 59 66
55 61 68
56 62 69
52 58 65
53 58 65
53 59 66
55 61 69
50 56 63
55 60 68
55 61 69
51 57 64
51 57 64
53 57 64
51 56 64
100 108 119
218 234 255
218 234 255
218 234 255
218 234 255
218 234 255
218 234 255
218 234 255
218 234 255
218 234 255
218 234 255
218 234 255
218 234 255
218 234 255
218 234 255
218 234 255
218 234 255
218 234 255
218 234 255
218 234 255
218 234 255
218 234 255
218 234 255
218 234 255
218 234 255
218 234 255
218 234 255
218 234 255
218 234 255
218 234 255
218 234 255
218 234 255
218 234 255
218 234 255
218 234 255
218 234 255
218 234 255
218 234 255
218 234 255
218 234 255
218 234 255
218 234 255
218 234 255
218 234 255
218 234 255
218 234 255
218 234 255
218 234 255
218 234 255
218 234 255
218 234 255
218 234 255
218 234 255
218 234 255
218 234 255
218 234 255
218 234 255
218 234 255
219 234 255
219 234 255
219 234 255
219 234 255
219 234 255
219 234 255
219 234 255
219 234 255
219 234 255
219 234 255
219 234 255
219 234 255
219 234 255
219 234 255
219 234 255
219 234 255
219 234 255
219 234 255
219 234 255
219 234 255
219 234 255
219 234 255
219 234 255
219 234 255
219 234 255
219 234 255
219 234 255
219 234 255
219 234 255
219 234 255
219 234 255
219 234 255
219 234 255
219 234 255
219 234 255
219 234 255
219 234 255
219 234 255
219 234 255
219 234 255
219 234 255
219 234 255
219 234 255
219 234 255
219 234 255
219 234 255
219 234 255
219 234 255
219 234 255
219 234 255
219 234 255
219 234 255
219 234 255
219 234 255
219 234 255
219 234 255
219 234 255
219 234 255
219 234 255
219 234 255
219 234 255
219 234 255
219 234 255
219 234 255
219 234 255
219 234 255
219 234 255
219 234 255
219 234 255
219 234 255
219 234 255
219 234 255
219 234 255
219 234 255
219 234 255
219 234 255
219 234 255
219 234 255
219 234 255
219 235 255
219 235 255
219 235 255
219 235 255
219 234 255
219 235 255
219 234 255
219 234 255
219 234 255
219 234 255
219 234 255
219 234 255
219 234 255
219 234 255
219 234 255
219 234 255
219 234 255
219 234 255
219 234 255
219 234 255
219 234 255
219 234 255
219 234 255
219 234 255
219 234 255
219 234 255
219 234 255
219 234 255
219 234 255
219 234 255
219 234 255
219 234 255
219 234 255
219 234 255
219 234 255
219 234 255
219 234 255
219 234 255
219 234 255
219 234 255
219 234 255
219 234 255
219 234 255
219 234 255
219 234 255
219 234 255
219 234 255
219 234 255
219 234 255
219 234 255
219 234 255
219 234 255
219 234 255
219 234 255
219 234 255
219 234 255
219 234 255
219 234 255
219 234 255
219 234 255
219 234 255
219 234 255
219 234 255
219 234 255
219 234 255
219 234 255
219 234 255
219 234 255
219 234 255
219 234 255
219 234 255
219 234 255
219 234 255
219 234 255
219 234 255
219 234 255
219 234 255
219 234 255
219 234 255
219 234 255
219 234 255
219 234 255
219 234 255
219 234 255
219 234 255
219 234 255
219 234 255
219 234 255
219 234 255
219 234 255
219 234 255
219 234 255
219 234 255
219 234 255
219 234 255
219 234 255
219 234 255
219 234 255
219 234 255
218 234 255
218 234 255
218 234 255
218 234 255
218 234 255
218 234 255
218 234 255
218 234 255
218 234 255
218 234 255
218 234 255
218 234 255
218 234 255
218 234 255
218 234 255
218 234 255
218 234 255
218 234 255
218 234 255
218 234 255
218 234 255
218 234 255
218 234 255
218 234 255
218 234 255
218 234 255
218 234 255
218 234 255
218 234 255
218 234 255
218 234 255
218 234 255
218 234 255
218 234 255
218 234 255
218 234 255
215 231 252
55 60 67
53 58 65
55 61 69
54 60 67
53 58 66
56 62 69
51 57 64
55 60 68
51 56 62
51 56 64
51 57 64
51 56 63
53 58 65
53 58 66
56 62 69
53 58 65
53 59 66
52 58 65
52 57 64
54 60 67
52 57 65
51 56 64
53 59 67
51 57 64
54 60 68
51 57 64
53 58 65
53 59 66
51 57 64
52 57 65
52 57 65
53 58 66
53 58 65
54 59 66
53 59 66
56 62 70
50 55 62
55 61 68
52 58 65
52 58 65
54 59 66
55 60 68
55 60 67
55 61 69
52 58 65
51 57 64
51 56 64
49 54 61
54 59 67
52 57 65
52 58 65
51 56 63
50 56 63
50 55 61
51 56 64
50 55 62
53 59 67
52 58 65
55 60 68
53 59 66
50 55 62
50 56 63
54 59 66
53 58 66
53 59 66
49 54 60
51 56 63
53 59 66
49 54 61
50 55 62
51 57 65
52 57 65
49 54 61
56 62 70
50 55 62
52 57 65
52 57 65
53 59 66
52 57 64
51 56 64
55 60 68
51 56 63
52 57 65
53 58 65
53 58 66
52 57 65
53 59 67
53 58 65
52 58 65
55 61 68
51 57 64
52 58 66
53 58 65
51 57 64
54 59 66
51 56 64
52 57 65
52 57 65
51 56 63
55 60 68
51 56 63
53 59 67
49 54 61
47 52 59
53 59 66
50 55 62
52 58 66
56 61 69
52 58 65
53 58 65
52 58 65
54 60 67
51 57 64
53 59 66
52 58 65
51 57 64
52 58 65
55 61 69
55 60 68
51 57 64
52 58 65
53 59 66
53 59 67
55 60 68
53 59 66
54 60 67
53 58 65
64 71 79
216 232 253
218 234 255
218 234 255
218 234 255
218 234 255
218 234 255
218 234 255
218 234 255
218 234 255
218 234 255
218 234 255
218 234 255
218 234 255
218 234 255
218 234 255
218 234 255
218 234 255
218 234 255
218 234 255
218 234 255
218 234 255
218 234 255
218 234 255
218 234 255
218 234 255
218 234 255
218 234 255
218 234 255
218 234 255
218 234 255
218 234 255
218 234 255
218 234 255
218 234 255
218 234 255
218 234 255
219 234 255
219 234 255
219 234 255
219 234 255
219 234 255
219 234 255
219 234 255
219 234 255
219 234 255
219 234 255
219 234 255
219 234 255
219 234 255
219 234 255
219 234 255
219 234 255
219 234 255
219 234 255
219 234 255
219 234 255
219 234 255
219 234 255
219 234 255
219 234 255
219 234 255
219 234 255
219 234 255
219 234 255
219 234 255
219 234 255
219 234 255
219 234 255
219 234 255
219 234 255
219 234 255
219 234 255
219 234 255
219 234 255
219 234 255
219 234 255
219 234 255
219 234 255
219 234 255
219 234 255
219 234 255
219 234 255
219 234 255
219 234 255
219 234 255
219 234 255
219 234 255
219 234 255
219 234 255
219 234 255
219 234 255
219 234 255
219 234 255
219 234 255
219 234 255
219 234 255
219 234 255
219 234 255
219 234 255
219 234 255
219 234 255
219 234 255
219 234 255
219 234 255
219 234 255
219 234 255
219 234 255
219 234 255
219 234 255
219 234 255
219 234 255
219 234 255
219 234 255
219 234 255
219 234 255
219 234 255
219 234 255
219 234 255
219 234 255
219 234 255
219 234 255
219 234 255
219 234 255
219 234 255
219 234 255
219 234 255
219 234 255
219 234 255
219 234 255
219 234 255
219 234 255
219 234 255
219 235 255
219 235 255
219 235 255
219 235 255
220 235 255
220 235 255
220 235 255
220 235 255
220 235 255
220 235 255
220 235 255
220 235 255
220 235 255
220 235 255
220 235 255
220 235 255
220 235 255
220 235 255
220 235 255
219 235 255
219 235 255
219 235 255
219 235 255
219 235 255
219 235 255
219 235 255
219 235 255
219 235 255
219 235 255
219 235 255
219 235 255
219 235 255
219 235 255
219 234 255
219 234 255
219 234 255
219 234 255
219 234 255
219 234 255
219 234 255
219 234 255
219 234 255
219 234 255
219 234 255
219 234 255
219 234 255
219 234 255
219 234 255
219 234 255
219 234 255
219 234 255
219 234 255
219 234 255
219 234 255
219 234 255
219 234 255
219 234 255
219 234 255
219 234 255
219 234 255
219 234 255
219 234 255
219 234 255
219 234 255
219 234 255
219 234 255
219 234 255
219 234 255
219 234 255
219 234 255
219 234 255
219 234 255
219 234 255
219 234 255
219 234 255
219 234 255
219 234 255
219 234 255
219 234 255
219 234 255
219 234 255
219 234 255
219 234 255
219 234 255
219 234 255
219 234 255
219 234 255
219 234 255
219 234 255
219 234 255
219 234 255
219 234 255
219 234 255
219 234 255
219 234 255
219 234 255
219 234 255
219 234 255
219 234 255
219 234 255
219 234 255
219 234 255
219 234 255
219 234 255
219 234 255
219 234 255
219 234 255
219 234 255
219 234 255
219 234 255
219 234 255
219 234 255
219 234 255
219 234 255
219 234 255
219 234 255
219 234 255
219 234 255
219 234 255
219 234 255
219 234 255
219 234 255
219 234 255
219 234 255
219 234 255
218 234 255
218 234 255
218 234 255
218 234 255
218 234 255
218 234 255
218 234 255
218 234 255
218 234 255
218 234 255
218 234 255
218 234 255
218 234 255
218 234 255
197 211 231
52 57 64
49 54 61
52 57 65
53 59 67
55 60 67
48 53 60
53 58 65
55 60 68
50 55 62
52 58 65
52 57 65
55 60 67
51 57 64
50 55 63
53 58 65
52 57 64
48 53 60
53 58 66
50 55 63
48 53 60
52 58 65
53 58 65
52 58 65
54 59 67
51 56 63
53 59 66
50 55 62
53 58 65
54 59 66
51 57 64
53 60 68
54 59 67
51 56 64
53 59 67
52 58 65
52 57 64
52 57 65
52 57 65
52 57 64
53 59 67
52 57 64
51 56 63
51 56 63
54 60 68
50 55 62
51 57 64
54 60 68
54 60 67
51 56 63
50 55 62
50 55 62
56 62 69
52 57 64
52 58 65
51 56 62
53 58 66
54 60 67
46 51 57
47 52 59
52 58 66
54 59 66
51 57 64
53 58 65
53 58 65
50 55 62
50 55 62
49 54 61
51 56 63
52 57 65
51 56 63
47 53 60
50 55 63
54 60 67
51 56 63
51 57 64
53 59 66
53 59 66
53 59 66
50 55 62
51 56 64
53 58 66
54 60 67
50 55 62
49 54 61
52 57 64
47 52 59
52 58 66
52 57 64
54 60 67
49 53 60
54 60 67
54 61 69
52 57 64
55 61 69
53 59 66
52 57 65
50 55 62
51 56 64
54 59 66
52 57 64
51 56 63
51 56 63
55 61 68
52 58 65
54 60 68
51 56 64
49 54 61
53 58 66
54 60 67
52 57 65
53 59 67
54 60 67
52 57 63
52 57 64
52 57 65
50 55 62
55 60 68
52 57 64
50 55 62
54 60 67
53 58 66
52 58 65
51 57 64
53 58 66
52 57 64
53 59 67
52 57 64
52 57 64
204 218 239
218 234 255
218 234 255
218 234 255
218 234 255
218 234 255
218 234 255
218 234 255
218 234 255
218 234 255
218 234 255
218 234 255
218 234 255
218 234 255
218 234 255
219 234 255
219 234 255
219 234 255
219 234 255
219 234 255
219 234 255
219 234 255
219 234 255
219 234 255
219 234 255
219 234 255
219 234 255
219 234 255
219 234 255
219 234 255
219 234 255
219 234 255
219 234 255
219 234 255
219 234 255
219 234 255
219 234 255
219 234 255
219 234 255
219 234 255
219 234 255
219 234 255
219 234 255
219 234 255
219 234 255
219 234 255
219 234 255
219 234 255
219 234 255
219 234 255
219 234 255
219 234 255
219 234 255
219 234 255
219 234 255
219 234 255
219 234 255
219 234 255
219 234 255
219 234 255
219 234 255
219 234 255
219 234 255
219 234 255
219 234 255
219 234 255
219 234 255
219 234 255
219 234 255
219 234 255
219 234 255
219 234 255
219 234 255
219 234 255
219 234 255
219 234 255
219 234 255
219 234 255
219 234 255
219 234 255
219 234 255
219 234 255
219 234 255
219 234 255
219 234 255
219 234 255
219 234 255
219 234 255
219 234 255
219 234 255
219 234 255
219 234 255
219 234 255
219 234 255
219 234 255
219 234 255
219 234 255
219 234 255
219 234 255
219 234 255
219 234 255
219 234 255
219 234 255
219 234 255
219 234 255
219 235 255
219 235 255
219 235 255
219 235 255
219 235 255
219 235 255
219 235 255
219 235 255
219 235 255
219 235 255
219 235 255
219 235 255
219 235 255
219 235 255
219 235 255
219 235 255
219 235 255
220 235 255
220 235 255
220 235 255
220 235 255
220 235 255
220 235 255
220 235 255
220 235 255
220 235 255
220 235 255
220 235 255
220 235 255
220 235 255
220 235 255
220 235 255
220 235 255
220 235 255
220 235 255
220 235 255
220 235 255
220 235 255
220 235 255
220 235 255
220 235 255
220 235 255
220 235 255
220 235 255
220 235 255
220 235 255
220 235 255
220 235 255
220 235 255
220 235 255
220 235 255
220 235 255
220 235 255
220 235 255
220 235 255
220 235 255
220 235 255
220 235 255
220 235 255
220 235 255
220 235 255
220 235 255
220 235 255
220 235 255
220 235 255
220 235 255
220 235 255
220 235 255
220 235 255
220 235 255
220 235 255
220 235 255
219 235 255
219 235 255
219 235 255
219 235 255
219 235 255
219 235 255
219 235 255
219 235 255
219 235 255
219 235 255
219 235 255
219 235 255
219 235 255
219 234 255
219 235 255
219 234 255
219 234 255
219 234 255
219 234 255
219 234 255
219 234 255
219 234 255
219 234 255
219 234 255
219 234 255
219 234 255
219 234 255
219 234 255
219 234 255
219 234 255
219 234 255
219 234 255
219 234 255
219 234 255
219 234 255
219 234 255
219 234 255
219 234 255
219 234 255
219 234 255
219 234 255
219 234 255
219 234 255
219 234 255
219 234 255
219 234 255
219 234 255
219 234 255
219 234 255
219 234 255
219 234 255
219 234 255
219 234 255
219 234 255
219 234 255
219 234 255
219 234 255
219 234 255
219 234 255
219 234 255
219 234 255
219 234 255
219 234 255
219 234 255
219 234 255
219 234 255
219 234 255
219 234 255
219 234 255
219 234 255
219 234 255
219 234 255
219 234 255
219 234 255
219 234 255
219 234 255
219 234 255
219 234 255
219 234 255
219 234 255
219 234 255
219 234 255
219 234 255
219 234 255
219 234 255
219 234 255
219 234 255
219 234 255
219 234 255
219 234 255
219 234 255
219 234 255
219 234 255
219 234 255
184 197 215
51 57 64
54 60 67
52 58 66
53 58 66
52 57 65
51 57 64
55 61 68
51 56 64
56 62 70
54 60 67
50 55 62
53 58 66
51 56 63
49 55 62
51 56 64
52 57 65
49 54 61
56 62 70
51 57 65
52 58 66
55 60 68
51 57 64
52 58 65
55 60 68
52 58 65
53 59 66
52 58 65
51 56 64
54 60 67
50 56 63
53 58 65
52 57 64
54 60 68
57 63 70
48 53 59
52 57 64
52 58 65
53 59 67
53 59 66
51 57 64
53 58 66
54 59 66
53 58 66
54 59 67
54 59 67
49 54 61
52 58 65
56 62 69
51 56 64
53 58 65
53 58 66
54 60 67
51 56 63
55 61 69
55 60 68
51 56 63
52 58 66
48 54 60
54 60 68
51 56 63
49 54 61
51 57 64
49 55 62
50 55 62
50 55 62
53 59 66
57 63 71
55 61 68
49 54 61
53 59 66
55 60 68
52 57 65
52 57 65
50 55 62
53 59 66
51 56 63
50 55 62
52 58 65
53 59 66
51 57 64
52 58 65
54 60 67
53 59 66
50 55 62
54 60 67
56 62 69
50 55 62
52 57 64
50 56 63
52 57 65
50 56 63
54 59 66
51 56 63
52 57 64
52 57 65
52 57 64
49 54 61
50 55 62
55 60 68
53 59 67
53 58 65
52 58 65
55 60 67
52 58 65
53 59 66
52 58 66
53 59 66
49 54 61
50 56 64
53 58 65
53 59 66
51 56 63
50 55 62
50 55 62
51 56 63
51 57 64
54 60 68
55 60 67
49 55 62
52 57 65
52 58 65
54 60 67
53 58 66
51 56 63
52 58 66
52 57 65
51 56 63
55 60 68
195 208 228
219 234 255
219 234 255
219 234 255
219 234 255
219 234 255
219 234 255
219 234 255
219 234 255
219 234 255
219 234 255
219 234 255
219 234 255
219 234 255
219 234 255
219 234 255
219 234 255
219 234 255
219 234 255
219 234 255
219 234 255
219 234 255
219 234 255
219 234 255
219 234 255
219 234 255
219 234 255
219 234 255
219 234 255
219 234 255
219 234 255
219 234 255
219 234 255
219 234 255
219 234 255
219 234 255
219 234 255
219 234 255
219 234 255
219 234 255
219 234 255
219 234 255
219 234 255
219 234 255
219 234 255
219 234 255
219 234 255
219 234 255
219 234 255
219 234 255
219 234 255
219 234 255
219 234 255
219 234 255
219 234 255
219 234 255
219 234 255
219 234 255
219 234 255
219 234 255
219 234 255
219 234 255
219 234 255
219 234 255
219 234 255
219 234 255
219 234 255
219 234 255
219 234 255
219 234 255
219 234 255
219 234 255
219 234 255
219 234 255
219 234 255
219 234 255
219 234 255
219 234 255
219 234 255
219 234 255
219 234 255
219 235 255
219 235 255
219 235 255
219 235 255
219 235 255
219 235 255
219 235 255
219 235 255
219 235 255
219 235 255
219 235 255
219 235 255
219 235 255
219 235 255
219 235 255
220 235 255
220 235 255
220 235 255
220 235 255
220 235 255
220 235 255
220 235 255
220 235 255
220 235 255
220 235 255
220 235 255
220 235 255
220 235 255
220 235 255
220 235 255
220 235 255
220 235 255
220 235 255
220 235 255
220 235 255
220 235 255
220 235 255
220 235 255
220 235 255
220 235 255
220 235 255
220 235 255
220 235 255
220 235 255
220 235 255
220 235 255
220 235 255
220 235 255
220 235 255
220 235 255
220 235 255
220 235 255
220 235 255
220 235 255
220 235 255
220 235 255
220 235 255
220 235 255
220 235 255
220 235 255
220 235 255
220 235 255
220 235 255
220 235 255
220 235 255
220 235 255
220 235 255
220 235 255
220 235 255
220 235 255
220 235 255
220 235 255
220 235 255
220 235 255
220 235 255
220 235 255
220 235 255
220 235 255
220 235 255
220 235 255
220 235 255
220 235 255
220 235 255
220 235 255
220 235 255
220 235 255
220 235 255
220 235 255
220 235 255
220 235 255
220 235 255
220 235 255
220 235 255
220 235 255
220 235 255
220 235 255
220 235 255
220 235 255
220 235 255
220 235 255
220 235 255
220 235 255
220 235 255
220 235 255
220 235 255
220 235 255
220 235 255
220 235 255
220 235 255
220 235 255
220 235 255
220 235 255
220 235 255
220 235 255
220 235 255
220 235 255
220 235 255
220 235 255
220 235 255
220 235 255
219 235 255
220 235 255
220 235 255
219 235 255
219 235 255
219 235 255
219 235 255
219 235 255
219 235 255
219 235 255
219 235 255
219 235 255
219 235 255
219 235 255
219 235 255
219 235 255
219 234 255
219 234 255
219 234 255
219 234 255
219 234 255
219 234 255
219 234 255
219 234 255
219 234 255
219 234 255
219 234 255
219 234 255
219 234 255
219 234 255
219 234 255
219 234 255
219 234 255
219 234 255
219 234 255
219 234 255
219 234 255
219 234 255
219 234 255
219 234 255
219 234 255
219 234 255
219 234 255
219 234 255
219 234 255
219 234 255
219 234 255
219 234 255
219 234 255
219 234 255
219 234 255
219 234 255
219 234 255
219 234 255
219 234 255
219 234 255
219 234 255
219 234 255
219 234 255
219 234 255
219 234 255
219 234 255
219 234 255
219 234 255
219 234 255
219 234 255
219 234 255
219 234 255
219 234 255
219 234 255
172 184 201
50 55 62
52 58 65
50 56 63
53 58 66
49 54 61
54 60 68
54 59 67
53 59 66
51 57 64
53 58 66
54 60 67
52 57 65
52 57 64
48 54 61
50 55 63
49 54 61
53 58 66
53 58 65
50 55 62
54 60 67
50 55 62
50 55 62
53 59 66
52 57 64
53 58 65
51 57 64
53 59 66
49 55 62
51 57 64
50 55 62
52 57 64
51 56 63
50 56 63
51 56 63
54 60 67
51 57 64
50 56 63
50 55 62
51 57 65
51 56 63
53 59 66
51 56 63
54 60 67
52 57 64
51 56 63
51 56 63
52 58 65
52 58 65
52 58 65
54 60 67
50 56 63
51 56 63
49 54 61
50 55 62
51 56 63
51 56 63
49 55 61
51 56 63
51 56 64
53 58 66
50 56 63
50 55 62
49 55 62
54 60 68
53 58 66
53 58 65
52 57 64
49 54 61
53 59 66
51 57 64
54 60 67
55 61 68
56 61 69
51 57 64
49 55 62
54 60 67
50 55 62
52 57 64
54 60 67
52 58 65
52 57 65
50 55 62
51 57 64
52 58 65
54 60 67
50 55 62
51 57 64
54 60 67
50 56 63
50 55 62
50 56 63
54 59 66
51 57 64
53 58 66
52 58 66
50 56 63
48 53 60
50 55 62
51 57 64
51 57 65
52 57 64
53 58 65
52 57 64
49 54 61
50 55 63
51 57 64
50 56 63
56 62 69
54 59 67
48 52 59
52 58 65
49 54 61
50 55 61
53 59 66
53 59 66
52 57 64
49 54 61
54 59 66
56 62 69
50 55 62
55 61 68
48 53 60
54 60 67
50 56 63
52 57 63
54 60 68
53 58 66
53 58 66
157 169 184
219 234 255
219 234 255
219 234 255
219 234 255
219 234 255
219 234 255
219 234 255
219 234 255
219 234 255
219 234 255
219 234 255
219 234 255
219 234 255
219 234 255
219 234 255
219 234 255
219 234 255
219 234 255
219 234 255
219 234 255
219 234 255
219 234 255
219 234 255
219 234 255
219 234 255
219 234 255
219 234 255
219 234 255
219 234 255
219 234 255
219 234 255
219 234 255
219 234 255
219 234 255
219 234 255
219 234 255
219 234 255
219 234 255
219 234 255
219 234 255
219 234 255
219 234 255
219 234 255
219 234 255
219 234 255
219 234 255
219 234 255
219 234 255
219 234 255
219 234 255
219 234 255
219 234 255
219 234 255
219 234 255
219 235 255
219 235 255
219 235 255
219 235 255
219 235 255
219 235 255
219 235 255
219 235 255
219 235 255
219 235 255
219 235 255
219 235 255
219 235 255
219 235 255
220 235 255
220 235 255
220 235 255
220 235 255
220 235 255
220 235 255
220 235 255
220 235 255
220 235 255
220 235 255
220 235 255
220 235 255
220 235 255
220 235 255
220 235 255
220 235 255
220 235 255
220 235 255
220 235 255
220 235 255
220 235 255
220 235 255
220 235 255
220 235 255
220 235 255
220 235 255
220 235 255
220 235 255
220 235 255
220 235 255
220 235 255
220 235 255
220 235 255
220 235 255
220 235 255
220 235 255
220 235 255
220 235 255
220 235 255
220 235 255
220 235 255
220 235 255
220 235 255
220 235 255
220 235 255
220 235 255
220 235 255
220 235 255
220 235 255
220 235 255
220 235 255
220 235 255
220 235 255
220 235 255
220 235 255
220 235 255
220 235 255
220 235 255
220 235 255
220 235 255
220 235 255
220 235 255
220 235 255
220 235 255
220 235 255
220 235 255
220 235 255
220 235 255
220 235 255
220 235 255
220 235 255
220 235 255
220 235 255
220 235 255
220 235 255
220 235 255
220 235 255
220 235 255
220 235 255
220 235 255
220 235 255
220 235 255
220 235 255
220 235 255
220 235 255
220 235 255
220 235 255
220 235 255
220 235 255
220 235 255
220 235 255
220 235 255
220 235 255
220 235 255
220 235 255
220 235 255
220 235 255
220 235 255
220 235 255
220 235 255
220 235 255
220 235 255
220 235 255
220 235 255
220 235 255
220 235 255
220 235 255
220 235 255
220 235 255
220 235 255
220 235 255
220 235 255
220 235 255
220 235 255
220 235 255
220 235 255
220 235 255
220 235 255
220 235 255
220 235 255
220 235 255
220 235 255
220 235 255
220 235 255
220 235 255
220 235 255
220 235 255
220 235 255
220 235 255
220 235 255
220 235 255
220 235 255
220 235 255
220 235 255
220 235 255
220 235 255
220 235 255
220 235 255
220 235 255
220 235 255
220 235 255
220 235 255
220 235 255
220 235 255
220 235 255
220 235 255
220 235 255
220 235 255
220 235 255
220 235 255
220 235 255
220 235 255
220 235 255
220 235 255
220 235 255
220 235 255
220 235 255
220 235 255
220 235 255
220 235 255
220 235 255
220 235 255
220 235 255
220 235 255
220 235 255
219 235 255
219 235 255
219 235 255
219 235 255
219 235 255
219 235 255
219 235 255
219 235 255
219 235 255
219 235 255
219 235 255
219 235 255
219 235 255
219 234 255
219 234 255
219 234 255
219 234 255
219 234 255
219 234 255
219 234 255
219 234 255
219 234 255
219 234 255
219 234 255
219 234 255
219 234 255
219 234 255
219 234 255
219 234 255
219 234 255
219 234 255
219 234 255
219 234 255
219 234 255
219 234 255
219 234 255
219 234 255
140 150 164
48 53 60
52 57 64
51 57 64
51 57 64
55 61 69
54 59 66
53 59 67
52 57 64
53 58 66
50 55 62
52 58 66
53 58 66
57 63 71
50 55 62
48 54 60
50 55 62
50 55 62
53 58 65
55 60 68
51 57 64
55 61 68
54 59 66
52 57 64
50 55 62
53 58 66
52 58 65
52 58 65
51 57 64
49 54 61
47 53 60
50 55 62
52 58 65
53 58 66
54 59 67
52 58 65
53 59 66
50 55 62
50 55 62
52 58 65
49 54 61
51 56 63
52 58 65
53 59 66
50 56 63
51 56 63
53 58 66
49 54 61
49 54 61
52 57 63
54 59 66
51 56 64
49 55 62
54 60 67
52 57 64
51 56 63
51 56 63
51 56 64
51 56 63
49 54 61
51 57 64
50 56 63
52 58 65
49 54 60
55 60 68
51 56 64
53 59 66
53 58 66
50 55 61
51 56 63
54 60 67
51 56 63
48 53 60
49 54 61
52 58 65
51 56 63
48 53 59
50 56 63
54 59 67
50 55 62
49 54 61
52 58 65
49 54 60
54 60 68
54 60 68
50 55 62
51 57 64
52 57 65
50 56 63
53 58 65
52 57 65
49 54 61
50 56 63
54 59 66
50 55 62
52 57 64
50 55 62
50 55 62
51 56 64
49 55 62
54 59 66
43 48 54
49 55 61
49 54 61
53 58 66
51 56 63
51 56 63
51 56 64
49 54 61
51 56 63
50 56 63
52 57 65
51 56 63
52 57 64
52 57 65
52 58 65
50 56 63
53 59 66
50 55 63
50 56 63
51 56 63
52 58 65
52 57 65
49 54 61
56 62 69
49 54 61
53 58 65
51 57 64
51 56 63
153 164 179
219 234 255
219 234 255
219 234 255
219 234 255
219 234 255
219 234 255
219 234 255
219 234 255
219 234 255
219 234 255
219 234 255
219 234 255
219 234 255
219 234 255
219 234 255
219 234 255
219 234 255
219 234 255
219 234 255
219 234 255
219 234 255
219 234 255
219 234 255
219 235 255
219 235 255
219 235 255
219 235 255
219 235 255
219 235 255
219 235 255
219 235 255
219 235 255
219 235 255
219 235 255
219 235 255
219 235 255
219 235 255
219 235 255
220 235 255
220 235 255
220 235 255
220 235 255
220 235 255
220 235 255
220 235 255
220 235 255
220 235 255
220 235 255
220 235 255
220 235 255
220 235 255
220 235 255
220 235 255
220 235 255
220 235 255
220 235 255
220 235 255
220 235 255
220 235 255
220 235 255
220 235 255
220 235 255
220 235 255
220 235 255
220 235 255
220 235 255
220 235 255
220 235 255
220 235 255
220 235 255
220 235 255
220 235 255
220 235 255
220 235 255
220 235 255
220 235 255
220 235 255
220 235 255
220 235 255
220 235 255
220 235 255
220 235 255
220 235 255
220 235 255
220 235 255
220 235 255
220 235 255
220 235 255
220 235 255
220 235 255
220 235 255
220 235 255
220 235 255
220 235 255
220 235 255
220 235 255
220 235 255
220 235 255
220 235 255
220 235 255
220 235 255
220 235 255
220 235 255
220 235 255
220 235 255
220 235 255
220 235 255
220 235 255
220 235 255
220 235 255
220 235 255
220 235 255
220 235 255
220 235 255
220 235 255
220 235 255
220 235 255
220 235 255
220 235 255
220 235 255
220 235 255
220 235 255
220 235 255
220 235 255
220 235 255
220 235 255
220 235 255
220 235 255
220 235 255
220 235 255
220 235 255
220 235 255
220 235 255
220 235 255
220 235 255
220 235 255
220 235 255
220 235 255
220 235 255
220 235 255
220 235 255
220 235 255
220 235 255
220 235 255
220 235 255
220 235 255
220 235 255
220 235 255
220 235 255
220 235 255
220 235 255
220 235 255
220 235 255
220 235 255
220 235 255
220 235 255
220 235 255
220 235 255
220 235 255
220 235 255
220 235 255
220 235 255
220 235 255
220 235 255
220 235 255
220 235 255
220 235 255
220 235 255
220 235 255
220 235 255
220 235 255
220 235 255
220 235 255
220 235 255
220 235 255
220 235 255
220 235 255
220 235 255
220 235 255
220 235 255
220 235 255
220 235 255
220 235 255
220 235 255
220 235 255
220 235 255
220 235 255
220 235 255
220 235 255
220 235 255
220 235 255
220 235 255
220 235 255
220 235 255
220 235 255
220 235 255
220 235 255
220 235 255
220 235 255
220 235 255
220 235 255
220 235 255
220 235 255
220 235 255
220 235 255
220 235 255
220 235 255
220 235 255
220 235 255
220 235 255
220 235 255
220 235 255
220 235 255
220 235 255
220 235 255
220 235 255
220 235 255
220 235 255
220 235 255
220 235 255
220 235 255
220 235 255
220 235 255
220 235 255
220 235 255
220 235 255
220 235 255
220 235 255
220 235 255
220 235 255
220 235 255
220 235 255
220 235 255
220 235 255
220 235 255
220 235 255
220 235 255
220 235 255
220 235 255
220 235 255
220 235 255
220 235 255
220 235 255
220 235 255
220 235 255
220 235 255
220 235 255
220 235 255
220 235 255
220 235 255
220 235 255
220 235 255
220 235 255
220 235 255
220 235 255
220 235 255
220 235 255
220 235 255
220 235 255
220 235 255
220 235 255
220 235 255
220 235 255
220 235 255
220 235 255
220 235 255
220 235 255
220 235 255
220 235 255
220 235 255
120 129 141
53 59 66
46 51 58
52 57 65
50 55 62
51 56 63
53 58 66
53 59 66
54 60 67
54 60 68
53 58 65
49 54 61
54 60 68
51 57 64
52 57 64
52 57 64
51 57 64
49 54 61
49 54 61
50 56 63
51 56 63
52 58 65
52 57 64
51 56 63
52 58 65
52 57 64
53 58 65
50 55 62
49 54 61
48 53 60
52 57 65
55 61 68
53 59 66
54 59 66
51 56 63
51 57 64
52 57 64
50 56 62
52 57 65
53 58 66
50 55 62
52 57 65
52 58 65
49 55 62
53 58 66
52 57 64
54 60 67
50 55 62
52 58 65
52 57 65
52 57 65
51 56 63
51 57 64
49 55 62
52 58 66
53 59 66
53 58 65
51 57 64
53 59 66
51 56 64
53 58 65
54 59 67
52 57 65
50 55 62
47 52 59
52 58 65
52 58 65
48 53 60
49 54 61
51 57 64
53 59 67
49 54 61
53 59 66
52 57 65
51 56 62
50 56 62
53 59 66
50 55 62
52 57 64
52 57 65
53 59 67
53 59 66
51 56 63
53 58 66
50 55 62
50 55 62
54 59 66
49 54 61
54 59 66
55 61 69
51 56 63
50 56 63
51 57 65
49 55 62
52 57 64
51 56 63
52 58 66
52 58 65
53 59 67
51 57 64
51 56 64
51 57 64
51 56 64
52 58 65
48 53 60
52 57 64
50 55 62
51 57 64
50 56 62
47 52 59
55 61 69
50 55 62
49 54 61
51 56 64
52 57 64
50 56 63
55 60 68
55 61 68
53 59 67
51 56 63
53 59 66
51 56 63
53 58 66
48 53 60
52 58 65
50 55 61
52 58 65
51 56 63
53 58 66
134 143 157
220 235 255
219 235 255
220 235 255
220 235 255
220 235 255
220 235 255
220 235 255
220 235 255
220 235 255
220 235 255
220 235 255
220 235 255
220 235 255
220 235 255
220 235 255
220 235 255
220 235 255
220 235 255
220 235 255
220 235 255
220 235 255
220 235 255
220 235 255
220 235 255
220 235 255
220 235 255
220 235 255
220 235 255
220 235 255
220 235 255
220 235 255
220 235 255
220 235 255
220 235 255
220 235 255
220 235 255
220 235 255
220 235 255
220 235 255
220 235 255
220 235 255
220 235 255
220 235 255
220 235 255
220 235 255
220 235 255
220 235 255
220 235 255
220 235 255
220 235 255
220 235 255
220 235 255
220 235 255
220 235 255
220 235 255
220 235 255
220 235 255
220 235 255
220 235 255
220 235 255
220 235 255
220 235 255
220 235 255
220 235 255
220 235 255
220 235 255
220 235 255
220 235 255
220 235 255
220 235 255
220 235 255
220 235 255
220 235 255
220 235 255
220 235 255
220 235 255
220 235 255
220 235 255
220 235 255
220 235 255
220 235 255
220 235 255
220 235 255
220 235 255
220 235 255
220 235 255
220 235 255
220 235 255
220 235 255
220 235 255
220 235 255
220 235 255
220 235 255
220 235 255
220 235 255
220 235 255
220 235 255
220 235 255
220 235 255
220 235 255
220 235 255
220 235 255
220 235 255
220 235 255
220 235 255
220 235 255
220 235 255
220 235 255
220 235 255
220 235 255
220 235 255
220 235 255
220 235 255
220 235 255
220 235 255
220 235 255
220 235 255
220 235 255
220 235 255
220 235 255
220 235 255
220 235 255
220 235 255
220 235 255
220 235 255
220 235 255
220 235 255
220 235 255
220 235 255
220 235 255
220 235 255
220 235 255
220 235 255
220 235 255
220 235 255
220 235 255
220 235 255
220 235 255
220 235 255
220 235 255
220 235 255
220 235 255
220 235 255
220 235 255
220 235 255
220 235 255
220 235 255
220 235 255
220 235 255
220 235 255
220 235 255
220 235 255
220 235 255
220 235 255
220 235 255
220 235 255
220 235 255
220 235 255
220 235 255
220 235 255
220 235 255
220 235 255
220 235 255
220 235 255
220 235 255
220 235 255
220 235 255
220 235 255
220 235 255
220 235 255
220 235 255
220 235 255
220 235 255
220 235 255
220 235 255
220 235 255
220 235 255
220 235 255
220 235 255
220 235 255
220 235 255
220 235 255
220 235 255
220 235 255
220 235 255
220 235 255
220 235 255
220 235 255
220 235 255
220 235 255
220 235 255
220 235 255
220 235 255
220 235 255
220 235 255
220 235 255
220 235 255
220 235 255
220 235 255
220 235 255
220 235 255
220 235 255
220 235 255
220 235 255
220 235 255
220 235 255
220 235 255
220 235 255
220 235 255
220 235 255
220 235 255
220 235 255
220 235 255
220 235 255
220 235 255
220 235 255
220 235 255
220 235 255
220 235 255
220 235 255
220 235 255
220 235 255
220 235 255
220 235 255
220 235 255
220 235 255
220 235 255
220 235 255
220 235 255
220 235 255
220 235 255
220 235 255
220 235 255
220 235 255
220 235 255
220 235 255
220 235 255
220 235 255
220 235 255
220 235 255
220 235 255
220 235 255
220 235 255
220 235 255
220 235 255
220 235 255
220 235 255
220 235 255
220 235 255
220 235 255
220 235 255
220 235 255
220 235 255
220 235 255
220 235 255
220 235 255
220 235 255
220 235 255
220 235 255
220 235 255
220 235 255
220 235 255
220 235 255
220 235 255
220 235 255
220 235 255
220 235 255
220 235 255
220 235 255
220 235 255
115 123 135
50 55 62
50 55 62
51 57 64
50 55 63
50 55 62
52 57 65
49 54 61
53 58 65
54 59 66
50 55 62
51 56 63
53 58 66
54 59 67
51 57 64
52 57 64
49 54 61
54 60 67
50 55 61
50 55 62
51 57 64
52 58 66
49 54 60
50 55 62
52 57 65
53 59 66
49 55 62
51 56 63
54 59 67
49 54 61
54 59 66
52 57 65
49 54 61
56 61 69
51 56 64
50 56 63
51 56 63
49 54 61
53 58 66
49 54 61
51 57 64
52 58 65
51 56 64
51 56 64
50 55 61
54 60 67
48 53 59
56 62 70
51 56 64
49 55 62
50 55 62
50 56 63
52 57 64
49 54 61
50 55 62
51 56 63
52 57 64
53 59 67
50 55 62
52 58 65
50 55 62
51 57 64
49 55 62
52 57 64
51 56 63
52 57 64
47 52 58
51 56 63
51 57 64
50 55 62
52 57 64
53 58 66
49 54 61
51 56 63
49 54 61
52 58 65
52 58 65
49 55 62
53 58 65
50 55 62
51 56 63
53 59 67
52 58 65
51 56 63
55 60 68
52 57 64
52 57 64
55 60 68
48 53 59
50 55 62
52 58 65
52 58 66
50 54 61
52 57 64
47 52 59
56 62 69
50 55 62
51 57 64
51 56 63
50 55 62
54 60 68
53 58 65
57 62 70
49 54 61
49 54 61
53 59 66
52 57 64
52 58 66
51 57 64
52 57 64
50 55 62
49 54 61
50 55 62
51 56 63
53 58 66
51 56 63
54 60 68
53 59 66
51 56 64
51 57 64
53 58 65
53 59 66
50 55 63
50 55 62
55 60 68
56 62 69
51 56 63
49 54 61
52 58 65
121 129 142
220 235 255
220 235 255
220 235 255
220 235 255
220 235 255
220 235 255
220 235 255
220 235 255
220 235 255
220 235 255
220 235 255
220 235 255
220 235 255
220 235 255
220 235 255
220 235 255
220 235 255
220 235 255
220 235 255
220 235 255
220 235 255
220 235 255
220 235 255
220 235 255
220 235 255
220 235 255
220 235 255
220 235 255
220 235 255
220 235 255
220 235 255
220 235 255
220 235 255
220 235 255
220 235 255
220 235 255
220 235 255
220 235 255
220 235 255
220 235 255
220 235 255
220 235 255
220 235 255
220 235 255
220 235 255
220 235 255
220 235 255
220 235 255
220 235 255
220 235 255
220 235 255
220 235 255
220 235 255
220 235 255
220 235 255
220 235 255
220 235 255
220 235 255
220 235 255
220 235 255
220 235 255
220 235 255
220 235 255
220 235 255
220 235 255
220 235 255
220 235 255
220 235 255
220 235 255
220 235 255
220 235 255
220 235 255
220 235 255
220 235 255
220 235 255
220 235 255
220 235 255
220 235 255
220 235 255
220 235 255
220 235 255
220 235 255
220 235 255
220 235 255
220 235 255
220 235 255
220 235 255
220 235 255
220 235 255
220 235 255
220 235 255
220 235 255
220 235 255
220 235 255
220 235 255
220 235 255
220 235 255
220 235 255
220 235 255
220 235 255
220 235 255
220 235 255
220 235 255
220 235 255
220 235 255
220 235 255
220 235 255
220 235 255
220 235 255
220 235 255
220 235 255
220 235 255
220 235 255
220 235 255
220 235 255
220 235 255
220 235 255
220 235 255
220 235 255
220 235 255
220 235 255
220 235 255
220 235 255
220 235 255
220 235 255
220 235 255
220 235 255
220 235 255
220 235 255
220 235 255
220 235 255
220 235 255
220 235 255
220 235 255
220 235 255
221 235 255
221 235 255
221 235 255
221 235 255
221 235 255
221 235 255
221 235 255
221 235 255
221 235 255
221 235 255
221 235 255
221 235 255
221 235 255
221 235 255
221 235 255
221 235 255
221 235 255
221 235 255
221 235 255
221 235 255
221 235 255
221 235 255
220 235 255
220 235 255
220 235 255
220 235 255
220 235 255
220 235 255
220 235 255
220 235 255
220 235 255
220 235 255
220 235 255
220 235 255
220 235 255
220 235 255
220 235 255
220 235 255
220 235 255
220 235 255
220 235 255
220 235 255
220 235 255
220 235 255
220 235 255
220 235 255
220 235 255
220 235 255
220 235 255
220 235 255
220 235 255
220 235 255
220 235 255
220 235 255
220 235 255
220 235 255
220 235 255
220 235 255
220 235 255
220 235 255
220 235 255
220 235 255
220 235 255
220 235 255
220 235 255
220 235 255
220 235 255
220 235 255
220 235 255
220 235 255
220 235 255
220 235 255
220 235 255
220 235 255
220 235 255
220 235 255
220 235 255
220 235 255
220 235 255
220 235 255
220 235 255
220 235 255
220 235 255
220 235 255
220 235 255
220 235 255
220 235 255
220 235 255
220 235 255
220 235 255
220 235 255
220 235 255
220 235 255
220 235 255
220 235 255
220 235 255
220 235 255
220 235 255
220 235 255
220 235 255
220 235 255
220 235 255
220 235 255
220 235 255
220 235 255
220 235 255
220 235 255
220 235 255
220 235 255
220 235 255
220 235 255
220 235 255
220 235 255
220 235 255
220 235 255
220 235 255
220 235 255
220 235 255
220 235 255
220 235 255
220 235 255
220 235 255
220 235 255
220 235 255
220 235 255
220 235 255
220 235 255
220 235 255
220 235 255
220 235 255
220 235 255
220 235 255
220 235 255
220 235 255
220 235 255
100 107 118
49 54 61
48 53 60
49 55 62
53 58 65
51 56 62
52 58 65
53 59 66
52 58 66
50 55 62
51 56 63
51 56 63
54 59 66
53 58 65
54 60 67
50 55 62
52 58 65
53 59 66
52 58 66
50 56 63
56 61 69
52 57 64
47 53 60
52 57 64
51 56 63
54 59 66
50 55 62
50 55 62
52 58 66
51 57 65
49 54 61
53 58 65
52 57 64
51 56 63
51 56 62
48 53 60
48 53 60
49 54 61
49 55 62
51 56 63
51 57 64
51 56 63
52 57 64
55 60 67
53 58 66
53 58 66
48 53 60
49 54 61
52 57 65
49 54 60
51 56 63
54 60 67
49 54 61
51 57 64
50 55 62
50 55 62
54 59 66
51 57 64
52 57 64
53 59 66
47 52 59
51 56 63
49 55 62
50 55 62
50 55 62
50 55 62
53 59 66
49 54 61
49 55 62
53 59 66
50 55 62
53 58 66
52 57 64
53 59 66
51 56 64
53 59 66
52 57 65
48 52 58
53 58 65
52 57 65
53 58 65
51 56 63
51 57 64
48 53 60
53 58 65
50 56 63
53 58 66
52 57 65
52 58 65
50 55 61
51 57 64
51 56 63
49 54 61
48 53 60
50 55 62
52 58 65
49 54 61
49 54 61
51 56 63
53 59 66
52 57 64
50 55 62
51 56 63
50 55 62
53 58 66
51 56 63
50 55 62
53 59 66
51 56 63
50 54 61
51 56 62
52 58 65
48 53 60
50 55 62
50 55 62
54 59 67
52 57 65
51 57 64
51 56 63
51 56 63
53 58 66
52 57 65
50 55 62
47 52 58
49 54 60
49 54 61
53 58 66
49 54 60
51 57 64
109 117 128
220 235 255
220 235 255
220 235 255
220 235 255
220 235 255
220 235 255
220 235 255
220 235 255
220 235 255
220 235 255
220 235 255
220 235 255
220 235 255
220 235 255
220 235 255
220 235 255
220 235 255
220 235 255
220 235 255
220 235 255
220 235 255
220 235 255
220 235 255
220 235 255
220 235 255
220 235 255
220 235 255
220 235 255
220 235 255
220 235 255
220 235 255
220 235 255
220 235 255
220 235 255
220 235 255
220 235 255
220 235 255
220 235 255
220 235 255
220 235 255
220 235 255
220 235 255
220 235 255
220 235 255
220 235 255
220 235 255
220 235 255
220 235 255
220 235 255
220 235 255
220 235 255
220 235 255
220 235 255
220 235 255
220 235 255
220 235 255
220 235 255
220 235 255
220 235 255
220 235 255
220 235 255
220 235 255
220 235 255
220 235 255
220 235 255
220 235 255
220 235 255
220 235 255
220 235 255
220 235 255
220 235 255
220 235 255
220 235 255
220 235 255
220 235 255
220 235 255
220 235 255
220 235 255
220 235 255
220 235 255
220 235 255
220 235 255
220 235 255
220 235 255
220 235 255
220 235 255
220 235 255
220 235 255
220 235 255
220 235 255
220 235 255
220 235 255
220 235 255
220 235 255
220 235 255
220 235 255
220 235 255
220 235 255
220 235 255
220 235 255
220 235 255
220 235 255
220 235 255
220 235 255
220 235 255
220 235 255
220 235 255
220 235 255
220 235 255
220 235 255
220 235 255
221 235 255
221 235 255
220 235 255
221 235 255
221 235 255
221 235 255
221 235 255
221 235 255
221 235 255
221 235 255
221 235 255
221 235 255
221 235 255
221 235 255
221 235 255
221 235 255
221 235 255
221 235 255
221 235 255
221 235 255
221 235 255
221 235 255
221 235 255
221 235 255
221 235 255
221 235 255
221 235 255
221 235 255
221 235 255
221 235 255
221 235 255
221 235 255
221 235 255
221 235 255
221 235 255
221 235 255
221 235 255
221 235 255
221 235 255
221 235 255
221 235 255
221 235 255
221 235 255
221 235 255
221 235 255
221 235 255
221 235 255
221 235 255
221 235 255
221 235 255
221 235 255
221 235 255
221 235 255
221 235 255
221 235 255
221 235 255
221 235 255
221 235 255
221 235 255
221 235 255
221 235 255
221 235 255
221 235 255
221 235 255
221 235 255
221 235 255
221 235 255
221 235 255
221 235 255
221 235 255
221 235 255
221 235 255
221 235 255
221 235 255
221 235 255
221 235 255
221 235 255
221 235 255
221 235 255
221 235 255
221 235 255
221 235 255
221 235 255
221 235 255
221 235 255
221 235 255
221 235 255
221 235 255
221 235 255
221 235 255
221 235 255
221 235 255
221 235 255
221 235 255
221 235 255
221 235 255
221 235 255
221 235 255
221 235 255
221 235 255
221 235 255
221 235 255
221 235 255
221 235 255
221 235 255
221 235 255
221 235 255
221 235 255
221 235 255
221 235 255
221 235 255
221 235 255
221 235 255
221 235 255
221 235 255
220 235 255
220 235 255
220 235 255
220 235 255
220 235 255
220 235 255
220 235 255
220 235 255
220 235 255
220 235 255
220 235 255
220 235 255
220 235 255
220 235 255
220 235 255
220 235 255
220 235 255
220 235 255
220 235 255
220 235 255
220 235 255
220 235 255
220 235 255
220 235 255
220 235 255
220 235 255
220 235 255
220 235 255
220 235 255
220 235 255
220 235 255
220 235 255
220 235 255
220 235 255
220 235 255
220 235 255
220 235 255
220 235 255
220 235 255
220 235 255
220 235 255
220 235 255
220 235 255
220 235 255
90 97 107
54 59 67
53 58 65
49 54 61
49 54 61
50 55 62
45 50 57
52 57 65
52 57 64
51 57 64
53 58 65
52 58 65
50 55 61
45 50 57
55 61 68
52 58 65
50 54 61
48 53 60
51 56 63
54 59 67
54 59 66
52 57 65
53 58 65
53 58 65
49 54 61
49 55 61
50 55 62
52 57 64
55 61 68
51 56 63
54 60 67
51 56 63
52 57 64
52 57 64
50 55 62
49 54 61
50 55 63
51 56 64
49 55 61
51 56 63
50 56 63
52 58 65
53 58 65
51 55 62
53 58 65
54 59 66
52 57 65
53 58 65
53 59 66
48 53 60
53 58 66
49 54 61
53 59 66
51 56 63
49 54 61
49 54 61
53 58 66
53 58 65
50 55 62
49 54 61
55 60 67
49 54 61
52 58 65
51 56 64
49 54 62
50 55 62
49 54 61
51 56 63
50 56 63
50 55 62
50 56 63
49 55 62
52 58 65
51 57 63
50 55 62
50 55 61
50 55 61
53 59 66
49 54 61
51 56 63
52 58 65
51 56 63
51 57 64
51 57 64
52 57 65
57 62 70
52 57 64
48 53 59
52 57 64
49 54 60
49 54 61
51 56 63
50 55 61
51 56 63
48 54 61
52 57 65
52 57 64
49 54 60
50 55 62
53 59 67
49 54 61
51 56 63
51 57 64
52 57 64
49 54 61
51 56 63
51 56 63
53 58 65
48 53 60
53 59 65
52 57 64
54 60 68
50 55 62
49 54 60
49 54 61
51 56 63
51 56 63
52 58 65
51 57 64
49 54 61
50 55 62
52 57 64
51 57 64
52 57 64
49 54 61
48 53 60
50 56 63
50 55 62
51 56 64
100 107 118
220 235 255
220 235 255
220 235 255
220 235 255
220 235 255
220 235 255
220 235 255
220 235 255
220 235 255
220 235 255
220 235 255
220 235 255
220 235 255
220 235 255
220 235 255
220 235 255
220 235 255
220 235 255
220 235 255
220 235 255
220 235 255
220 235 255
220 235 255
220 235 255
220 235 255
220 235 255
220 235 255
220 235 255
220 235 255
220 235 255
220 235 255
220 235 255
220 235 255
220 235 255
220 235 255
220 235 255
220 235 255
220 235 255
220 235 255
220 235 255
220 235 255
220 235 255
220 235 255
220 235 255
221 235 255
221 235 255
221 235 255
221 235 255
221 235 255
221 235 255
221 235 255
221 235 255
221 235 255
221 235 255
221 235 255
221 235 255
221 235 255
221 235 255
221 235 255
221 235 255
221 235 255
221 235 255
221 235 255
221 235 255
221 235 255
221 235 255
221 235 255
221 235 255
221 235 255
221 235 255
221 235 255
221 235 255
221 235 255
221 235 255
221 235 255
221 235 255
221 235 255
221 235 255
221 235 255
221 235 255
221 235 255
221 235 255
221 235 255
221 235 255
221 235 255
221 235 255
221 235 255
221 235 255
221 235 255
221 235 255
221 235 255
221 235 255
221 235 255
221 235 255
221 235 255
221 235 255
221 235 255
221 235 255
221 235 255
221 235 255
221 235 255
221 235 255
221 235 255
221 235 255
221 235 255
221 235 255
221 235 255
221 235 255
221 235 255
221 235 255
221 235 255
221 235 255
221 235 255
221 235 255
221 235 255
221 235 255
221 235 255
221 235 255
221 235 255
221 235 255
221 235 255
221 235 255
221 235 255
221 235 255
221 235 255
221 235 255
221 235 255
221 235 255
221 235 255
221 235 255
221 235 255
221 235 255
221 235 255
221 235 255
221 235 255
221 235 255
221 235 255
221 235 255
221 235 255
221 235 255
221 235 255
221 235 255
221 235 255
221 235 255
221 235 255
221 235 255
221 235 255
221 235 255
221 235 255
221 235 255
221 235 255
221 235 255
221 235 255
221 235 255
221 235 255
221 235 255
221 235 255
221 235 255
221 235 255
221 235 255
221 235 255
221 235 255
221 235 255
221 235 255
221 235 255
221 235 255
221 235 255
221 235 255
221 235 255
221 235 255
221 235 255
221 235 255
221 235 255
221 235 255
221 235 255
221 235 255
221 235 255
221 235 255
221 235 255
221 235 255
221 235 255
221 235 255
221 235 255
221 235 255
221 235 255
221 235 255
221 235 255
221 235 255
221 235 255
221 235 255
221 235 255
221 235 255
221 235 255
221 235 255
221 235 255
221 235 255
221 235 255
221 235 255
221 235 255
221 235 255
221 235 255
221 235 255
221 235 255
221 235 255
221 235 255
221 235 255
221 235 255
221 235 255
221 235 255
221 235 255
221 235 255
221 235 255
221 235 255
221 235 255
221 235 255
221 235 255
221 235 255
221 235 255
221 235 255
221 235 255
221 235 255
221 235 255
221 235 255
221 235 255
221 235 255
221 235 255
221 235 255
221 235 255
221 235 255
221 235 255
221 235 255
221 235 255
221 235 255
221 235 255
221 235 255
221 235 255
221 235 255
221 235 255
221 235 255
221 235 255
221 235 255
221 235 255
221 235 255
221 235 255
221 235 255
221 235 255
221 235 255
221 235 255
221 235 255
221 235 255
221 235 255
221 235 255
221 235 255
221 235 255
221 235 255
221 235 255
221 235 255
221 235 255
221 235 255
221 235 255
221 235 255
221 235 255
221 235 255
221 235 255
221 235 255
221 235 255
221 235 255
221 235 255
221 235 255
221 235 255
91 98 108
51 56 63
48 53 60
49 54 60
52 57 64
54 60 67
51 56 64
52 57 64
53 58 65
52 57 65
53 58 66
50 55 62
52 58 66
51 56 63
51 57 64
50 56 63
52 58 65
50 55 62
51 57 64
54 60 67
50 55 62
51 57 63
53 58 66
46 52 58
51 56 63
48 53 59
49 54 61
47 52 58
52 57 64
51 57 64
51 57 64
51 56 63
47 52 59
52 57 65
50 55 62
49 55 62
52 57 64
49 54 60
49 54 60
54 59 67
50 55 63
51 56 62
51 57 64
52 58 65
49 54 61
52 57 65
50 55 63
50 56 63
57 62 70
48 53 60
52 57 65
53 59 66
50 55 62
51 56 63
50 56 63
48 54 60
53 58 66
48 54 60
50 55 63
51 56 63
53 58 66
50 55 61
51 56 63
51 56 63
51 56 63
52 57 64
51 57 64
50 55 62
54 59 67
51 56 63
49 54 61
51 56 63
51 56 63
48 53 60
50 56 63
54 60 67
52 58 65
51 56 63
51 56 63
50 55 62
53 58 65
48 53 60
51 56 63
51 56 63
50 55 62
52 58 65
53 59 66
53 59 66
50 55 62
48 53 60
49 54 61
54 59 67
51 56 63
49 55 62
47 51 57
52 57 64
50 55 62
49 55 62
51 56 63
48 53 60
50 55 62
48 53 60
52 57 64
48 53 60
54 59 67
53 59 66
51 56 63
48 53 60
49 53 60
52 58 65
55 60 68
53 58 64
52 58 66
52 57 63
58 64 72
49 54 61
51 56 63
51 56 63
53 59 66
51 57 64
51 56 63
52 58 65
49 54 61
49 54 61
53 59 66
51 56 62
52 58 66
50 56 62
48 53 60
68 73 81
221 235 255
221 235 255
221 235 255
221 235 255
221 235 255
221 235 255
221 235 255
221 235 255
221 235 255
221 235 255
221 235 255
221 235 255
221 235 255
221 235 255
221 235 255
221 235 255
221 235 255
221 235 255
221 235 255
221 235 255
221 235 255
221 235 255
221 235 255
221 235 255
221 235 255
221 235 255
221 235 255
221 235 255
221 235 255
221 235 255
221 235 255
221 235 255
221 235 255
221 235 255
221 235 255
221 235 255
221 235 255
221 235 255
221 235 255
221 235 255
221 235 255
221 235 255
221 235 255
221 235 255
221 235 255
221 235 255
221 235 255
221 235 255
221 235 255
221 235 255
221 235 255
221 235 255
221 235 255
221 235 255
221 235 255
221 235 255
221 235 255
221 235 255
221 235 255
221 235 255
221 235 255
221 235 255
221 235 255
221 235 255
221 235 255
221 235 255
221 235 255
221 235 255
221 235 255
221 235 255
221 235 255
221 235 255
221 235 255
221 235 255
221 235 255
221 235 255
221 235 255
221 235 255
221 235 255
221 235 255
221 235 255
221 235 255
221 235 255
221 235 255
221 235 255
221 235 255
221 235 255
221 235 255
221 235 255
221 235 255
221 235 255
221 235 255
221 235 255
221 235 255
221 235 255
221 235 255
221 235 255
221 235 255
221 235 255
221 235 255
221 235 255
221 235 255
221 235 255
221 235 255
221 235 255
221 235 255
221 235 255
221 235 255
221 235 255
221 235 255
221 235 255
221 235 255
221 235 255
221 235 255
221 235 255
221 235 255
221 235 255
221 235 255
221 235 255
221 235 255
221 235 255
221 235 255
221 235 255
221 235 255
221 235 255
221 235 255
221 235 255
221 235 255
221 235 255
221 235 255
221 235 255
221 235 255
221 235 255
221 235 255
221 235 255
221 235 255
221 235 255
221 235 255
221 235 255
221 235 255
221 235 255
221 235 255
221 235 255
221 235 255
221 235 255
221 235 255
221 235 255
221 235 255
221 235 255
221 235 255
221 235 255
221 235 255
221 235 255
221 235 255
221 235 255
221 235 255
221 235 255
221 235 255
221 235 255
221 235 255
221 235 255
221 235 255
221 235 255
221 235 255
221 235 255
221 235 255
221 235 255
221 235 255
221 235 255
221 235 255
221 235 255
221 235 255
221 235 255
221 235 255
221 235 255
221 235 255
221 235 255
221 235 255
221 235 255
221 235 255
221 235 255
221 235 255
221 235 255
221 235 255
221 235 255
221 235 255
221 235 255
221 235 255
221 235 255
221 235 255
221 235 255
221 235 255
221 235 255
221 235 255
221 235 255
221 235 255
221 235 255
221 235 255
221 235 255
221 235 255
221 235 255
221 235 255
221 235 255
221 235 255
221 235 255
221 235 255
221 235 255
221 235 255
221 235 255
221 235 255
221 235 255
221 235 255
221 235 255
221 235 255
221 235 255
221 235 255
221 235 255
221 235 255
221 235 255
221 235 255
221 235 255
221 235 255
221 235 255
221 235 255
221 235 255
221 235 255
221 235 255
221 235 255
221 235 255
221 235 255
221 235 255
221 235 255
221 235 255
221 235 255
221 235 255
221 235 255
221 235 255
221 235 255
221 235 255
221 235 255
221 235 255
221 235 255
221 235 255
221 235 255
221 235 255
221 235 255
221 235 255
221 235 255
221 235 255
221 235 255
221 235 255
221 235 255
221 235 255
221 235 255
221 235 255
221 235 255
221 235 255
221 235 255
221 235 255
221 235 255
221 235 255
221 235 255
221 235 255
221 235 255
221 235 255
221 235 255
221 235 255
221 235 255
221 235 255
221 235 255
80 86 95
48 53 60
55 60 67
47 52 59
52 57 64
51 56 63
52 57 65
51 56 63
50 55 62
53 58 65
48 54 61
52 57 65
50 55 62
48 53 59
55 61 69
50 55 62
51 56 63
46 51 57
54 60 67
52 58 65
49 54 61
50 55 62
50 56 63
45 50 56
53 58 66
53 59 66
51 56 63
49 54 61
51 56 63
48 53 60
50 55 62
45 50 56
52 57 64
51 56 63
51 57 63
50 56 63
50 55 62
49 54 60
52 57 64
49 54 60
52 57 65
53 58 66
52 57 64
50 55 62
51 56 63
51 56 63
48 52 58
51 56 64
49 54 61
52 57 64
52 57 64
51 56 63
54 59 66
51 56 64
50 55 62
51 56 64
51 56 63
49 54 61
51 56 63
50 55 62
52 57 64
51 56 63
48 53 59
50 55 62
51 57 64
51 56 63
54 59 66
50 55 61
52 57 64
54 59 65
53 59 66
53 58 65
52 57 64
52 58 65
53 59 66
50 55 61
51 57 64
52 58 65
50 55 62
52 57 64
51 56 63
53 58 66
50 55 62
52 57 65
48 53 60
49 54 61
52 57 64
50 55 63
55 61 68
52 58 65
51 56 63
51 56 63
54 59 67
53 58 65
51 56 63
49 54 61
49 54 61
48 54 60
49 55 62
47 51 58
51 56 63
48 53 60
48 54 60
50 55 62
49 54 60
51 56 63
51 57 64
55 61 68
49 53 60
50 56 63
51 57 64
49 55 61
51 56 64
50 55 62
48 53 59
53 59 66
47 52 59
52 57 65
51 56 64
52 57 64
53 59 66
50 55 62
52 57 64
54 59 66
49 54 60
49 54 62
49 54 61
51 56 63
49 54 61
76 82 90
221 235 255
221 235 255
221 235 255
221 235 255
221 235 255
221 235 255
221 235 255
221 235 255
221 235 255
221 235 255
221 235 255
221 235 255
221 235 255
221 235 255
221 235 255
221 235 255
221 235 255
221 235 255
221 235 255
221 235 255
221 235 255
221 235 255
221 235 255
221 235 255
221 235 255
221 235 255
221 235 255
221 235 255
221 235 255
221 235 255
221 235 255
221 235 255
221 235 255
221 235 255
221 235 255
221 235 255
221 235 255
221 235 255
221 235 255
221 235 255
221 235 255
221 235 255
221 235 255
221 235 255
221 235 255
221 235 255
221 235 255
221 235 255
221 235 255
221 235 255
221 235 255
221 235 255
221 235 255
221 235 255
221 235 255
221 235 255
221 235 255
221 235 255
221 235 255
221 235 255
221 235 255
221 235 255
221 235 255
221 235 255
221 235 255
221 235 255
221 235 255
221 235 255
221 235 255
221 235 255
221 235 255
221 235 255
221 235 255
221 235 255
221 235 255
221 235 255
221 235 255
221 235 255
221 235 255
221 235 255
221 235 255
221 235 255
221 235 255
221 235 255
221 235 255
221 235 255
221 235 255
221 235 255
221 235 255
221 235 255
221 235 255
221 235 255
221 235 255
221 235 255
221 235 255
221 235 255
221 235 255
221 235 255
221 235 255
221 235 255
221 235 255
221 235 255
221 235 255
221 235 255
221 235 255
221 235 255
221 235 255
221 235 255
221 235 255
221 235 255
221 235 255
221 235 255
221 235 255
221 235 255
221 235 255
221 235 255
221 235 255
221 235 255
221 235 255
221 235 255
221 235 255
221 235 255
221 235 255
221 235 255
221 235 255
221 235 255
221 235 255
221 235 255
221 235 255
221 235 255
221 235 255
221 235 255
221 235 255
221 235 255
221 235 255
221 236 255
221 236 255
221 236 255
221 236 255
221 236 255
221 236 255
221 236 255
221 236 255
221 236 255
221 236 255
221 236 255
221 236 255
221 236 255
221 236 255
221 236 255
221 236 255
221 236 255
221 236 255
221 236 255
221 236 255
221 236 255
221 236 255
221 236 255
221 236 255
221 236 255
221 236 255
221 236 255
221 236 255
221 236 255
221 236 255
221 236 255
221 236 255
221 236 255
221 236 255
221 236 255
221 236 255
221 236 255
221 236 255
221 236 255
221 236 255
221 236 255
221 236 255
221 236 255
221 236 255
221 236 255
221 236 255
221 236 255
221 236 255
221 236 255
221 236 255
221 236 255
221 236 255
221 236 255
221 236 255
221 236 255
221 236 255
221 236 255
221 236 255
221 236 255
221 236 255
221 236 255
221 236 255
221 236 255
221 236 255
221 236 255
221 236 255
221 236 255
221 236 255
221 236 255
221 236 255
221 236 255
221 236 255
221 236 255
221 236 255
221 236 255
221 236 255
221 236 255
221 236 255
221 236 255
221 236 255
221 236 255
221 236 255
221 236 255
221 236 255
221 236 255
221 236 255
221 236 255
221 236 255
221 236 255
221 236 255
221 236 255
221 236 255
221 236 255
221 236 255
221 236 255
221 236 255
221 236 255
221 236 255
221 236 255
221 236 255
221 236 255
221 236 255
221 236 255
221 236 255
221 236 255
221 236 255
221 236 255
221 236 255
221 236 255
221 236 255
221 236 255
221 236 255
221 236 255
221 236 255
221 236 255
221 236 255
221 236 255
221 236 255
221 236 255
221 236 255
221 236 255
221 236 255
221 236 255
221 236 255
221 236 255
221 236 255
221 236 255
221 236 255
221 236 255
221 236 255
221 236 255
221 236 255
221 236 255
221 236 255
221 236 255
60 66 73
48 53 60
52 57 64
50 55 62
50 55 62
48 52 58
50 56 63
51 56 63
51 56 62
51 57 64
51 56 64
52 58 65
52 57 64
50 55 62
47 52 59
49 54 61
52 57 64
50 54 61
56 62 69
45 49 56
54 60 67
53 59 66
52 57 64
53 58 66
51 56 63
53 58 65
51 56 63
49 54 61
49 54 61
53 58 65
51 56 63
52 57 64
47 52 58
51 56 63
54 59 66
50 55 62
51 57 64
49 54 61
53 59 66
54 59 66
48 53 60
54 59 67
52 57 64
49 54 61
50 55 61
46 51 57
52 57 64
53 58 66
49 54 61
53 58 66
50 55 62
51 56 63
51 57 64
50 55 62
50 55 61
48 53 59
51 56 63
54 60 67
53 58 65
52 58 65
48 53 60
51 56 62
51 56 63
53 58 65
49 54 61
51 56 63
48 53 60
51 57 64
49 55 61
50 55 62
51 56 62
53 58 66
52 57 64
51 56 62
50 56 63
48 53 60
52 57 64
50 56 63
53 58 66
49 54 61
44 49 55
50 55 62
48 53 59
51 56 62
49 54 61
51 56 64
49 54 60
49 54 61
51 56 62
50 55 62
48 53 60
51 57 64
49 54 60
51 56 63
52 57 64
48 53 59
50 55 62
52 58 65
50 55 62
51 56 63
47 52 59
53 58 66
49 54 61
47 51 58
54 60 67
50 54 61
49 53 60
50 55 62
49 54 60
52 57 64
51 56 63
49 54 61
51 56 63
52 57 64
54 59 66
49 55 62
52 57 64
55 60 67
48 53 59
50 56 63
48 53 60
48 53 59
52 57 64
49 54 60
47 52 58
51 56 63
51 56 63
54 59 66
48 53 59
78 84 93
221 236 255
221 236 255
221 236 255
221 236 255
221 236 255
221 236 255
221 236 255
221 236 255
221 236 255
221 236 255
221 236 255
221 236 255
221 236 255
221 236 255
221 236 255
221 236 255
221 236 255
221 236 255
221 236 255
221 236 255
221 236 255
221 236 255
221 236 255
221 236 255
221 236 255
221 236 255
221 236 255
221 236 255
221 236 255
221 236 255
221 236 255
221 236 255
221 236 255
221 236 255
221 236 255
221 236 255
221 236 255
221 236 255
221 236 255
221 236 255
221 236 255
221 236 255
221 236 255
221 236 255
221 236 255
221 236 255
221 236 255
221 236 255
221 236 255
221 236 255
221 236 255
221 236 255
221 236 255
221 236 255
221 236 255
221 236 255
221 236 255
221 236 255
221 236 255
221 236 255
221 236 255
221 236 255
221 236 255
221 236 255
221 236 255
221 236 255
221 236 255
221 236 255
221 236 255
221 236 255
221 236 255
221 236 255
221 236 255
221 236 255
221 236 255
221 236 255
221 236 255
221 236 255
221 236 255
221 236 255
221 236 255
221 236 255
221 236 255
221 236 255
221 236 255
221 236 255
221 236 255
221 236 255
221 236 255
221 236 255
221 236 255
221 236 255
221 236 255
221 236 255
221 236 255
221 236 255
221 236 255
221 236 255
221 236 255
221 236 255
221 236 255
221 236 255
221 236 255
221 236 255
221 236 255
221 236 255
221 236 255
221 236 255
221 236 255
221 236 255
221 236 255
221 236 255
221 236 255
221 236 255
221 236 255
221 236 255
221 236 255
221 236 255
221 236 255
221 236 255
221 236 255
221 236 255
221 236 255
221 236 255
221 236 255
221 236 255
221 236 255
221 236 255
221 236 255
221 236 255
221 236 255
221 236 255
221 236 255
221 236 255
221 236 255
221 236 255
221 236 255
221 236 255
221 236 255
221 236 255
221 236 255
221 236 255
221 236 255
221 236 255
221 236 255
221 236 255
221 236 255
221 236 255
221 236 255
221 236 255
221 236 255
221 236 255
221 236 255
221 236 255
221 236 255
221 236 255
221 236 255
221 236 255
221 236 255
221 236 255
221 236 255
221 236 255
221 236 255
221 236 255
221 236 255
221 236 255
221 236 255
221 236 255
221 236 255
221 236 255
221 236 255
221 236 255
221 236 255
221 236 255
221 236 255
221 236 255
221 236 255
221 236 255
221 236 255
221 236 255
221 236 255
221 236 255
221 236 255
221 236 255
221 236 255
221 236 255
221 236 255
221 236 255
221 236 255
221 236 255
221 236 255
221 236 255
221 236 255
221 236 255
221 236 255
221 236 255
221 236 255
221 236 255
221 236 255
221 236 255
221 236 255
221 236 255
221 236 255
221 236 255
221 236 255
221 236 255
221 236 255
221 236 255
221 236 255
221 236 255
221 236 255
221 236 255
221 236 255
221 236 255
221 236 255
221 236 255
221 236 255
221 236 255
221 236 255
221 236 255
221 236 255
221 236 255
221 236 255
221 236 255
221 236 255
221 236 255
221 236 255
221 236 255
221 236 255
221 236 255
221 236 255
221 236 255
221 236 255
221 236 255
221 236 255
221 236 255
221 236 255
221 236 255
221 236 255
221 236 255
221 236 255
221 236 255
221 236 255
221 236 255
221 236 255
221 236 255
221 236 255
221 236 255
221 236 255
221 236 255
221 236 255
221 236 255
221 236 255
221 236 255
221 236 255
221 236 255
221 236 255
221 236 255
221 236 255
221 236 255
221 236 255
221 236 255
221 236 255
221 236 255
221 236 255
221 236 255
221 236 255
221 236 255
221 236 255
221 236 255
69 75 83
49 54 62
52 57 64
50 56 63
53 58 65
48 53 60
51 57 64
53 57 64
52 57 65
50 55 61
43 47 53
49 54 61
50 55 62
50 55 62
49 54 61
50 55 61
50 55 62
52 57 64
50 56 63
51 56 63
52 57 64
48 53 60
53 58 66
52 57 64
50 55 62
50 55 62
52 57 64
49 54 61
47 52 58
55 60 67
51 57 64
48 53 60
52 58 65
50 55 61
51 57 64
50 55 62
52 58 65
51 57 64
54 59 66
50 55 62
53 58 65
49 54 60
48 53 60
51 56 63
52 57 64
49 54 61
54 59 66
52 57 65
52 57 64
54 60 68
48 54 60
49 54 61
52 57 64
52 58 65
54 59 66
49 55 61
51 57 65
52 58 65
52 57 64
52 57 64
53 58 66
49 54 61
51 56 63
51 56 63
50 55 61
50 55 62
48 53 59
50 55 62
51 56 62
49 54 61
48 53 60
50 55 62
50 55 61
53 58 66
49 55 61
53 58 66
54 59 66
52 57 64
51 56 63
50 55 61
48 53 59
46 51 58
54 60 67
51 56 63
53 58 65
50 55 62
51 56 63
49 53 60
49 54 60
48 53 60
52 57 64
50 55 62
48 53 60
51 56 63
50 55 62
49 54 61
45 50 56
49 54 61
50 55 63
49 55 62
49 54 60
48 53 60
50 55 62
52 57 64
50 55 62
51 56 64
53 58 66
54 59 66
54 60 68
51 56 63
54 59 66
48 53 59
50 55 62
47 52 58
50 55 62
49 54 60
49 54 60
50 55 63
48 53 60
50 55 62
51 56 63
52 58 65
52 57 64
52 57 64
49 54 61
52 57 64
52 57 64
51 56 64
48 53 60
71 77 85
222 236 255
221 236 255
221 236 255
221 236 255
221 236 255
221 236 255
221 236 255
221 236 255
221 236 255
221 236 255
221 236 255
221 236 255
221 236 255
221 236 255
221 236 255
221 236 255
221 236 255
221 236 255
221 236 255
221 236 255
221 236 255
221 236 255
221 236 255
221 236 255
221 236 255
221 236 255
221 236 255
221 236 255
221 236 255
221 236 255
221 236 255
221 236 255
221 236 255
221 236 255
221 236 255
221 236 255
221 236 255
221 236 255
221 236 255
221 236 255
221 236 255
221 236 255
221 236 255
221 236 255
221 236 255
221 236 255
221 236 255
221 236 255
221 236 255
221 236 255
221 236 255
221 236 255
221 236 255
221 236 255
221 236 255
221 236 255
221 236 255
221 236 255
221 236 255
221 236 255
221 236 255
221 236 255
221 236 255
221 236 255
221 236 255
221 236 255
221 236 255
221 236 255
221 236 255
221 236 255
221 236 255
221 236 255
221 236 255
221 236 255
221 236 255
221 236 255
221 236 255
221 236 255
221 236 255
221 236 255
221 236 255
221 236 255
221 236 255
221 236 255
221 236 255
221 236 255
221 236 255
221 236 255
221 236 255
221 236 255
221 236 255
221 236 255
221 236 255
221 236 255
221 236 255
221 236 255
221 236 255
221 236 255
221 236 255
221 236 255
221 236 255
221 236 255
221 236 255
221 236 255
221 236 255
221 236 255
221 236 255
221 236 255
221 236 255
221 236 255
221 236 255
221 236 255
221 236 255
221 236 255
221 236 255
221 236 255
221 236 255
221 236 255
221 236 255
221 236 255
221 236 255
221 236 255
221 236 255
221 236 255
221 236 255
221 236 255
221 236 255
221 236 255
221 236 255
221 236 255
221 236 255
221 236 255
221 236 255
221 236 255
221 236 255
222 236 255
222 236 255
222 236 255
222 236 255
222 236 255
222 236 255
222 236 255
222 236 255
222 236 255
222 236 255
222 236 255
222 236 255
222 236 255
222 236 255
222 236 255
222 236 255
222 236 255
222 236 255
222 236 255
222 236 255
222 236 255
222 236 255
222 236 255
222 236 255
222 236 255
222 236 255
222 236 255
222 236 255
222 236 255
222 236 255
222 236 255
222 236 255
222 236 255
222 236 255
222 236 255
222 236 255
222 236 255
222 236 255
222 236 255
222 236 255
222 236 255
222 236 255
222 236 255
222 236 255
222 236 255
222 236 255
222 236 255
222 236 255
222 236 255
222 236 255
222 236 255
222 236 255
222 236 255
222 236 255
222 236 255
222 236 255
222 236 255
222 236 255
222 236 255
222 236 255
222 236 255
222 236 255
222 236 255
222 236 255
222 236 255
222 236 255
222 236 255
222 236 255
222 236 255
222 236 255
222 236 255
222 236 255
222 236 255
222 236 255
222 236 255
222 236 255
222 236 255
222 236 255
222 236 255
222 236 255
222 236 255
222 236 255
222 236 255
222 236 255
222 236 255
222 236 255
222 236 255
222 236 255
222 236 255
222 236 255
222 236 255
222 236 255
222 236 255
222 236 255
222 236 255
222 236 255
222 236 255
222 236 255
222 236 255
222 236 255
222 236 255
222 236 255
222 236 255
222 236 255
222 236 255
222 236 255
222 236 255
222 236 255
222 236 255
222 236 255
222 236 255
222 236 255
222 236 255
222 236 255
222 236 255
222 236 255
222 236 255
222 236 255
222 236 255
222 236 255
222 236 255
222 236 255
222 236 255
222 236 255
222 236 255
222 236 255
222 236 255
222 236 255
222 236 255
222 236 255
222 236 255
222 236 255
222 236 255
222 236 255
222 236 255
93 100 109
47 53 59
50 55 62
50 55 62
53 58 65
47 52 59
48 54 60
49 54 60
48 53 59
50 56 63
47 52 59
49 55 61
50 55 61
51 56 62
46 51 57
53 58 66
49 54 60
49 54 61
53 58 65
48 53 60
50 56 63
50 55 62
52 57 64
44 49 55
48 53 60
49 53 60
47 52 59
53 58 65
48 53 59
49 54 60
48 53 60
50 55 62
50 55 62
48 52 58
49 54 61
50 55 61
52 57 64
48 53 60
50 56 63
50 55 62
48 52 59
49 54 61
46 50 56
52 57 64
50 55 62
50 55 62
52 58 65
50 55 62
53 58 66
50 55 62
50 55 61
48 53 60
44 49 55
52 58 65
51 57 64
48 53 60
47 52 59
51 56 63
49 54 60
52 57 64
52 58 65
53 58 65
51 56 63
50 55 61
52 57 65
50 55 62
50 55 61
52 57 64
49 54 61
52 57 64
50 56 63
49 54 61
49 54 61
45 50 57
52 57 64
50 55 62
48 53 59
51 56 62
50 55 61
49 54 61
47 52 58
50 55 62
49 54 61
51 57 63
49 54 61
52 57 64
46 51 57
52 58 65
47 52 59
47 52 58
47 52 58
52 57 64
47 52 59
54 59 66
52 57 63
49 54 60
53 58 65
49 54 61
51 56 63
46 50 56
52 57 64
49 54 61
53 58 65
52 58 65
47 52 59
49 54 61
52 57 65
52 57 64
51 56 63
49 54 61
49 53 60
52 57 64
48 52 59
52 58 65
47 53 60
52 57 65
50 55 62
53 59 66
51 57 64
46 51 58
49 55 62
51 56 64
49 54 61
51 56 63
48 53 59
53 58 65
51 56 63
48 52 59
53 58 66
69 74 82
222 236 255
222 236 255
222 236 255
222 236 255
222 236 255
222 236 255
222 236 255
222 236 255
222 236 255
222 236 255
222 236 255
222 236 255
222 236 255
222 236 255
222 236 255
222 236 255
222 236 255
222 236 255
222 236 255
222 236 255
222 236 255
222 236 255
222 236 255
222 236 255
222 236 255
222 236 255
222 236 255
222 236 255
222 236 255
222 236 255
222 236 255
222 236 255
222 236 255
222 236 255
222 236 255
222 236 255
222 236 255
222 236 255
222 236 255
222 236 255
222 236 255
222 236 255
222 236 255
222 236 255
222 236 255
222 236 255
222 236 255
222 236 255
222 236 255
222 236 255
222 236 255
222 236 255
222 236 255
222 236 255
222 236 255
222 236 255
222 236 255
222 236 255
222 236 255
222 236 255
222 236 255
222 236 255
222 236 255
222 236 255
222 236 255
222 236 255
222 236 255
222 236 255
222 236 255
222 236 255
222 236 255
222 236 255
222 236 255
222 236 255
222 236 255
222 236 255
222 236 255
222 236 255
222 236 255
222 236 255
222 236 255
222 236 255
222 236 255
222 236 255
222 236 255
222 236 255
222 236 255
222 236 255
222 236 255
222 236 255
222 236 255
222 236 255
222 236 255
222 236 255
222 236 255
222 236 255
222 236 255
222 236 255
222 236 255
222 236 255
222 236 255
222 236 255
222 236 255
222 236 255
222 236 255
222 236 255
222 236 255
222 236 255
222 236 255
222 236 255
222 236 255
222 236 255
222 236 255
222 236 255
222 236 255
222 236 255
222 236 255
222 236 255
222 236 255
222 236 255
222 236 255
222 236 255
222 236 255
222 236 255
222 236 255
222 236 255
222 236 255
222 236 255
222 236 255
222 236 255
222 236 255
222 236 255
222 236 255
222 236 255
222 236 255
222 236 255
222 236 255
222 236 255
222 236 255
222 236 255
222 236 255
222 236 255
222 236 255
222 236 255
222 236 255
222 236 255
222 236 255
222 236 255
222 236 255
222 236 255
222 236 255
222 236 255
222 236 255
222 236 255
222 236 255
222 236 255
222 236 255
222 236 255
222 236 255
222 236 255
222 236 255
222 236 255
222 236 255
222 236 255
222 236 255
222 236 255
222 236 255
222 236 255
222 236 255
222 236 255
222 236 255
222 236 255
222 236 255
222 236 255
222 236 255
222 236 255
222 236 255
222 236 255
222 236 255
222 236 255
222 236 255
222 236 255
222 236 255
222 236 255
222 236 255
222 236 255
222 236 255
222 236 255
222 236 255
222 236 255
222 236 255
222 236 255
222 236 255
222 236 255
222 236 255
222 236 255
222 236 255
222 236 255
222 236 255
222 236 255
222 236 255
222 236 255
222 236 255
222 236 255
222 236 255
222 236 255
222 236 255
222 236 255
222 236 255
222 236 255
222 236 255
222 236 255
222 236 255
222 236 255
222 236 255
222 236 255
222 236 255
222 236 255
222 236 255
222 236 255
222 236 255
222 236 255
222 236 255
222 236 255
222 236 255
222 236 255
222 236 255
222 236 255
222 236 255
222 236 255
222 236 255
222 236 255
222 236 255
222 236 255
222 236 255
222 236 255
222 236 255
222 236 255
222 236 255
222 236 255
222 236 255
222 236 255
222 236 255
222 236 255
222 236 255
222 236 255
222 236 255
222 236 255
222 236 255
222 236 255
222 236 255
222 236 255
222 236 255
222 236 255
222 236 255
222 236 255
222 236 255
222 236 255
222 236 255
222 236 255
222 236 255
222 236 255
222 236 255
222 236 255
222 236 255
222 236 255
222 236 255
222 236 255
222 236 255
222 236 255
84 90 99
51 56 63
53 58 65
51 56 63
50 55 62
48 53 60
52 58 65
51 57 64
51 56 63
50 55 62
52 57 63
48 54 61
47 52 58
49 54 62
53 58 65
51 56 63
50 56 62
47 51 58
48 53 60
49 54 60
48 53 60
48 53 59
51 56 63
51 57 64
50 55 62
52 57 64
48 53 60
48 53 60
53 58 65
49 54 60
49 54 60
47 52 59
48 53 60
52 57 64
50 55 62
48 53 60
50 55 62
51 57 64
47 52 59
46 51 57
46 50 56
46 51 57
53 58 65
49 54 60
49 54 61
54 60 67
49 54 60
51 56 63
50 55 62
51 56 64
46 51 57
52 57 64
52 58 65
47 52 58
52 57 64
51 57 64
46 51 57
50 55 62
49 54 61
45 49 55
51 56 63
52 57 64
47 52 58
51 57 64
51 56 63
54 60 67
49 54 60
50 55 61
48 53 60
51 56 63
49 54 60
50 55 62
52 57 64
50 55 62
53 58 65
46 51 58
55 61 68
50 55 62
50 56 63
51 56 63
51 56 62
45 50 56
49 54 61
51 56 63
51 56 63
48 53 59
54 59 66
48 53 60
50 56 63
52 57 63
48 53 60
48 53 60
50 55 62
51 57 64
51 56 62
52 58 65
49 54 61
46 51 58
46 51 57
48 53 60
52 57 65
51 56 63
49 54 60
49 54 60
52 57 64
49 54 61
50 56 62
49 54 61
49 54 61
52 57 64
50 55 62
51 56 62
45 50 57
51 56 64
52 57 64
52 57 65
51 57 63
47 52 59
51 56 63
50 55 62
50 55 62
50 55 62
52 57 64
49 54 61
49 54 61
47 51 57
49 54 61
52 57 63
51 56 63
86 92 101
222 236 255
222 236 255
222 236 255
222 236 255
222 236 255
222 236 255
222 236 255
222 236 255
222 236 255
222 236 255
222 236 255
222 236 255
222 236 255
222 236 255
222 236 255
222 236 255
222 236 255
222 236 255
222 236 255
222 236 255
222 236 255
222 236 255
222 236 255
222 236 255
222 236 255
222 236 255
222 236 255
222 236 255
222 236 255
222 236 255
222 236 255
222 236 255
222 236 255
222 236 255
222 236 255
222 236 255
222 236 255
222 236 255
222 236 255
222 236 255
222 236 255
222 236 255
222 236 255
222 236 255
222 236 255
222 236 255
222 236 255
222 236 255
222 236 255
222 236 255
222 236 255
222 236 255
222 236 255
222 236 255
222 236 255
222 236 255
222 236 255
222 236 255
222 236 255
222 236 255
222 236 255
222 236 255
222 236 255
222 236 255
222 236 255
222 236 255
222 236 255
222 236 255
222 236 255
222 236 255
222 236 255
222 236 255
222 236 255
222 236 255
222 236 255
222 236 255
222 236 255
222 236 255
222 236 255
222 236 255
222 236 255
222 236 255
222 236 255
222 236 255
222 236 255
222 236 255
222 236 255
222 236 255
222 236 255
222 236 255
222 236 255
222 236 255
222 236 255
222 236 255
222 236 255
222 236 255
222 236 255
222 236 255
222 236 255
222 236 255
222 236 255
222 236 255
222 236 255
222 236 255
222 236 255
222 236 255
222 236 255
222 236 255
222 236 255
222 236 255
222 236 255
222 236 255
222 236 255
222 236 255
222 236 255
222 236 255
222 236 255
222 236 255
222 236 255
222 236 255
222 236 255
222 236 255
222 236 255
222 236 255
222 236 255
222 236 255
222 236 255
222 236 255
222 236 255
222 236 255
222 236 255
222 236 255
222 236 255
222 236 255
222 236 255
222 236 255
222 236 255
222 236 255
222 236 255
222 236 255
222 236 255
222 236 255
222 236 255
222 236 255
222 236 255
222 236 255
222 236 255
222 236 255
222 236 255
222 236 255
222 236 255
222 236 255
222 236 255
222 236 255
222 236 255
222 236 255
222 236 255
222 236 255
222 236 255
222 236 255
222 236 255
222 236 255
222 236 255
222 236 255
222 236 255
222 236 255
222 236 255
222 236 255
222 236 255
222 236 255
222 236 255
222 236 255
222 236 255
222 236 255
222 236 255
222 236 255
222 236 255
222 236 255
222 236 255
222 236 255
222 236 255
222 236 255
222 236 255
222 236 255
222 236 255
222 236 255
222 236 255
222 236 255
222 236 255
222 236 255
222 236 255
222 236 255
222 236 255
222 236 255
222 236 255
222 236 255
222 236 255
222 236 255
222 236 255
222 236 255
222 236 255
222 236 255
222 236 255
222 236 255
222 236 255
222 236 255
222 236 255
222 236 255
222 236 255
222 236 255
222 236 255
222 236 255
222 236 255
222 236 255
222 236 255
222 236 255
222 236 255
222 236 255
222 236 255
222 236 255
222 236 255
222 236 255
222 236 255
222 236 255
222 236 255
222 236 255
222 236 255
222 236 255
222 236 255
222 236 255
222 236 255
222 236 255
222 236 255
222 236 255
222 236 255
222 236 255
222 236 255
222 236 255
222 236 255
222 236 255
222 236 255
222 236 255
222 236 255
222 236 255
222 236 255
222 236 255
222 236 255
222 236 255
222 236 255
222 236 255
222 236 255
222 236 255
222 236 255
222 236 255
222 236 255
222 236 255
222 236 255
222 236 255
222 236 255
222 236 255
222 236 255
222 236 255
222 236 255
222 236 255
222 236 255
222 236 255
222 236 255
222 236 255
222 236 255
222 236 255
93 100 109
51 56 64
49 54 60
49 54 61
51 56 63
48 53 59
50 56 63
49 54 61
49 54 61
49 54 60
49 54 61
45 50 57
48 53 60
49 54 61
49 54 60
46 50 56
52 58 65
52 57 65
48 53 60
49 54 60
46 51 57
49 54 61
49 55 62
50 55 61
46 51 58
49 54 60
49 54 61
53 58 65
49 54 61
54 58 65
51 56 63
49 55 62
53 59 66
52 57 64
50 56 63
49 54 62
49 54 61
49 54 61
48 53 60
49 54 61
51 56 63
48 52 59
51 56 64
53 58 65
50 55 62
51 55 62
49 55 61
47 51 58
48 53 60
51 56 63
52 57 64
52 58 65
48 53 60
51 56 63
51 56 63
49 54 61
51 56 64
51 56 63
48 53 60
54 60 68
49 54 61
50 55 62
47 52 59
48 53 59
46 51 57
54 60 67
51 57 64
54 60 67
52 57 64
52 57 64
51 56 63
48 53 60
48 53 59
53 59 66
49 54 61
50 55 62
47 53 59
50 55 62
50 55 63
51 57 64
49 54 60
47 52 58
52 57 63
51 56 63
49 54 61
48 53 59
49 54 60
48 53 60
48 53 59
47 52 58
49 53 60
49 53 60
51 55 61
49 54 60
46 51 58
48 54 61
51 57 64
49 54 60
50 55 61
49 54 60
51 56 63
51 56 62
50 55 63
53 58 65
50 56 64
50 55 61
46 51 57
48 53 60
51 56 64
49 53 60
46 51 57
52 57 65
50 55 61
54 60 67
52 57 65
48 53 59
50 55 62
49 54 61
46 50 56
52 57 64
48 53 60
51 56 63
51 56 63
50 55 62
49 53 60
52 57 64
52 57 64
49 54 61
50 55 62
109 116 127
222 236 255
222 236 255
222 236 255
222 236 255
222 236 255
222 236 255
222 236 255
222 236 255
222 236 255
222 236 255
222 236 255
222 236 255
222 236 255
222 236 255
222 236 255
222 236 255
222 236 255
222 236 255
222 236 255
222 236 255
222 236 255
222 236 255
222 236 255
222 236 255
222 236 255
222 236 255
222 236 255
222 236 255
222 236 255
222 236 255
222 236 255
222 236 255
222 236 255
222 236 255
222 236 255
222 236 255
222 236 255
222 236 255
222 236 255
222 236 255
222 236 255
222 236 255
222 236 255
222 236 255
222 236 255
222 236 255
222 236 255
222 236 255
222 236 255
222 236 255
222 236 255
222 236 255
222 236 255
222 236 255
222 236 255
222 236 255
222 236 255
222 236 255
222 236 255
222 236 255
222 236 255
222 236 255
222 236 255
222 236 255
222 236 255
222 236 255
222 236 255
222 236 255
222 236 255
222 236 255
222 236 255
222 236 255
222 236 255
222 236 255
222 236 255
222 236 255
222 236 255
222 236 255
222 236 255
222 236 255
222 236 255
222 236 255
222 236 255
222 236 255
222 236 255
222 236 255
222 236 255
222 236 255
222 236 255
222 236 255
222 236 255
222 236 255
222 236 255
222 236 255
222 236 255
222 236 255
222 236 255
222 236 255
222 236 255
222 236 255
222 236 255
222 236 255
222 236 255
222 236 255
222 236 255
222 236 255
222 236 255
222 236 255
222 236 255
222 236 255
222 236 255
222 236 255
222 236 255
222 236 255
222 236 255
222 236 255
222 236 255
222 236 255
222 236 255
222 236 255
222 236 255
222 236 255
222 236 255
222 236 255
222 236 255
222 236 255
222 236 255
222 236 255
222 236 255
222 236 255
222 236 255
222 236 255
222 236 255
222 236 255
222 236 255
222 236 255
222 236 255
222 236 255
222 236 255
222 236 255
222 236 255
222 236 255
222 236 255
222 236 255
222 236 255
222 236 255
222 236 255
222 236 255
222 236 255
222 236 255
222 236 255
222 236 255
222 236 255
222 236 255
222 236 255
222 236 255
222 236 255
222 236 255
222 236 255
222 236 255
222 236 255
222 236 255
222 236 255
222 236 255
222 236 255
222 236 255
222 236 255
222 236 255
222 236 255
222 236 255
222 236 255
222 236 255
222 236 255
222 236 255
222 236 255
222 236 255
222 236 255
222 236 255
222 236 255
222 236 255
222 236 255
222 236 255
222 236 255
222 236 255
222 236 255
222 236 255
222 236 255
222 236 255
222 236 255
222 236 255
222 236 255
222 236 255
222 236 255
222 236 255
222 236 255
222 236 255
222 236 255
222 236 255
222 236 255
222 236 255
222 236 255
222 236 255
222 236 255
222 236 255
222 236 255
222 236 255
222 236 255
222 236 255
222 236 255
222 236 255
222 236 255
222 236 255
222 236 255
222 236 255
222 236 255
222 236 255
222 236 255
222 236 255
222 236 255
222 236 255
222 236 255
222 236 255
222 236 255
222 236 255
222 236 255
222 236 255
222 236 255
222 236 255
222 236 255
222 236 255
222 236 255
222 236 255
222 236 255
222 236 255
222 236 255
222 236 255
222 236 255
222 236 255
222 236 255
222 236 255
222 236 255
222 236 255
222 236 255
222 236 255
222 236 255
222 236 255
222 236 255
223 236 255
223 236 255
223 236 255
223 236 255
223 236 255
223 236 255
223 236 255
223 236 255
223 236 255
223 236 255
223 236 255
223 236 255
223 236 255
223 236 255
223 236 255
223 236 255
223 236 255
223 236 255
223 236 255
223 236 255
223 236 255
223 236 255
223 236 255
113 121 131
52 56 63
48 53 60
46 51 57
50 55 62
47 52 59
48 53 59
46 50 57
51 56 63
51 57 64
51 56 63
51 56 62
50 55 61
50 55 62
52 58 65
46 51 57
52 57 63
53 58 65
51 56 62
49 54 61
48 53 59
47 52 58
50 55 62
49 55 62
48 53 60
46 51 58
53 58 65
50 55 62
47 52 59
52 57 64
50 55 62
52 57 64
53 58 65
48 53 60
47 52 58
50 55 62
49 54 61
50 55 62
49 54 60
51 56 63
52 58 65
51 56 63
49 54 60
52 57 64
53 57 64
48 53 59
48 53 59
48 53 60
50 55 61
51 56 63
47 51 57
46 51 58
48 54 60
50 55 62
49 54 60
50 55 62
52 57 64
51 56 64
50 55 62
54 59 66
47 52 59
50 55 62
51 57 64
48 53 60
52 57 64
49 54 62
47 52 58
53 58 65
49 54 60
52 57 64
49 54 60
48 53 59
51 56 63
50 56 63
47 52 59
50 55 62
50 55 61
50 55 63
48 53 59
53 58 65
50 56 63
50 55 62
52 57 64
52 57 64
48 53 60
53 58 65
47 52 58
46 51 58
53 58 66
51 57 64
52 57 64
46 51 57
50 55 62
48 53 59
49 54 61
47 52 59
52 57 64
53 59 66
46 50 57
50 56 63
47 52 59
49 54 61
51 56 63
47 52 58
52 57 64
52 57 65
51 57 64
46 51 57
50 55 62
48 53 60
51 56 62
48 53 60
50 55 61
48 54 61
49 54 60
51 56 63
49 54 60
48 53 60
52 57 64
52 57 64
51 56 62
50 55 61
51 56 63
51 56 64
48 53 59
53 58 66
54 60 67
49 54 61
52 57 64
107 114 124
223 236 255
223 236 255
223 236 255
223 236 255
223 236 255
223 236 255
223 236 255
223 236 255
223 236 255
223 236 255
223 236 255
223 236 255
223 236 255
223 236 255
223 236 255
223 236 255
223 236 255
223 236 255
223 236 255
223 236 255
222 236 255
222 236 255
223 236 255
222 236 255
222 236 255
222 236 255
222 236 255
222 236 255
222 236 255
222 236 255
222 236 255
222 236 255
222 236 255
222 236 255
222 236 255
222 236 255
222 236 255
222 236 255
222 236 255
222 236 255
222 236 255
222 236 255
222 236 255
222 236 255
222 236 255
222 236 255
222 236 255
222 236 255
222 236 255
222 236 255
222 236 255
222 236 255
222 236 255
222 236 255
222 236 255
222 236 255
222 236 255
222 236 255
222 236 255
222 236 255
222 236 255
222 236 255
222 236 255
222 236 255
222 236 255
222 236 255
222 236 255
222 236 255
222 236 255
222 236 255
222 236 255
222 236 255
222 236 255
222 236 255
222 236 255
222 236 255
222 236 255
222 236 255
222 236 255
222 236 255
222 236 255
222 236 255
222 236 255
222 236 255
222 236 255
222 236 255
222 236 255
222 236 255
222 236 255
222 236 255
222 236 255
222 236 255
222 236 255
222 236 255
222 236 255
222 236 255
222 236 255
222 236 255
222 236 255
222 236 255
222 236 255
222 236 255
222 236 255
222 236 255
222 236 255
222 236 255
222 236 255
222 236 255
222 236 255
222 236 255
222 236 255
222 236 255
222 236 255
222 236 255
222 236 255
222 236 255
222 236 255
222 236 255
222 236 255
222 236 255
222 236 255
222 236 255
222 236 255
222 236 255
222 236 255
222 236 255
222 236 255
222 236 255
222 236 255
222 236 255
222 236 255
222 236 255
222 236 255
222 236 255
222 236 255
222 236 255
222 236 255
222 236 255
222 236 255
222 236 255
222 236 255
222 236 255
222 236 255
222 236 255
222 236 255
222 236 255
222 236 255
222 236 255
222 236 255
222 236 255
222 236 255
222 236 255
222 236 255
222 236 255
222 236 255
222 236 255
222 236 255
222 236 255
222 236 255
222 236 255
222 236 255
222 236 255
222 236 255
222 236 255
222 236 255
222 236 255
222 236 255
222 236 255
222 236 255
222 236 255
222 236 255
222 236 255
222 236 255
222 236 255
222 236 255
222 236 255
222 236 255
222 236 255
222 236 255
222 236 255
222 236 255
222 236 255
222 236 255
222 236 255
222 236 255
222 236 255
222 236 255
222 236 255
222 236 255
222 236 255
222 236 255
222 236 255
222 236 255
222 236 255
222 236 255
222 236 255
222 236 255
222 236 255
222 236 255
222 236 255
222 236 255
222 236 255
222 236 255
222 236 255
222 236 255
222 236 255
222 236 255
223 236 255
222 236 255
223 236 255
223 236 255
223 236 255
223 236 255
223 236 255
223 236 255
223 236 255
223 236 255
223 236 255
223 236 255
223 236 255
223 236 255
223 236 255
223 236 255
223 236 255
223 236 255
223 236 255
223 236 255
223 236 255
223 236 255
223 236 255
223 236 255
223 236 255
223 236 255
223 236 255
223 236 255
223 236 255
223 236 255
223 236 255
223 236 255
223 236 255
223 236 255
223 236 255
223 236 255
223 236 255
223 236 255
223 236 255
223 236 255
223 236 255
223 236 255
223 236 255
223 236 255
223 236 255
223 236 255
223 236 255
223 236 255
223 236 255
223 236 255
223 236 255
223 236 255
223 236 255
223 236 255
223 236 255
223 236 255
223 236 255
223 236 255
223 236 255
223 236 255
223 236 255
223 236 255
223 236 255
144 153 166
44 49 55
52 57 64
48 53 60
46 51 58
49 54 61
48 53 59
45 49 55
45 50 56
48 53 59
47 52 58
52 57 64
50 55 62
52 57 64
50 56 63
50 55 62
50 55 62
47 52 58
47 52 59
50 55 62
47 52 58
48 54 61
48 52 59
51 56 63
50 55 61
49 54 60
51 56 63
52 57 63
46 50 57
45 50 57
47 52 59
50 55 62
48 53 60
52 57 64
55 61 68
49 54 61
49 54 61
52 57 65
48 53 60
52 57 64
47 52 58
46 51 57
51 57 64
47 52 58
48 53 59
49 54 60
50 55 62
48 53 60
51 56 63
50 55 62
51 56 63
51 57 64
50 55 62
48 53 59
47 52 59
48 53 60
45 49 55
51 56 63
48 53 60
47 52 58
52 57 64
49 54 60
49 54 60
52 57 64
50 55 62
51 56 63
55 60 67
48 53 59
48 53 59
50 55 63
52 57 65
50 55 62
45 49 55
49 54 61
53 58 65
46 51 57
50 55 62
46 51 57
50 55 61
51 57 65
52 57 64
50 55 62
49 54 60
52 57 64
49 54 61
46 51 58
48 53 59
48 53 60
45 50 56
49 54 61
49 54 61
50 55 61
53 58 65
47 52 59
52 58 65
53 59 66
49 55 61
50 55 61
47 52 59
48 53 60
52 58 65
50 56 63
49 54 60
53 58 65
53 59 66
48 53 59
48 54 60
51 56 63
52 57 64
51 56 62
48 53 60
48 53 59
51 57 64
49 54 61
49 54 61
49 54 61
47 52 58
48 53 60
48 53 59
50 55 61
52 57 65
48 53 59
52 57 63
45 49 56
53 59 66
47 52 58
50 55 62
49 54 60
45 50 56
130 138 150
223 236 255
223 236 255
223 236 255
223 236 255
223 236 255
223 236 255
223 236 255
223 236 255
223 236 255
223 236 255
223 236 255
223 236 255
223 236 255
223 236 255
223 236 255
223 236 255
223 236 255
223 236 255
223 236 255
223 236 255
223 236 255
223 236 255
223 236 255
223 236 255
223 236 255
223 236 255
223 236 255
223 236 255
223 236 255
223 236 255
223 236 255
223 236 255
223 236 255
223 236 255
223 236 255
223 236 255
223 236 255
223 236 255
223 236 255
223 236 255
223 236 255
223 236 255
223 236 255
223 236 255
223 236 255
223 236 255
223 236 255
223 236 255
223 236 255
223 236 255
223 236 255
223 236 255
223 236 255
223 236 255
223 236 255
223 236 255
223 236 255
223 236 255
223 236 255
223 236 255
223 236 255
222 236 255
222 236 255
222 236 255
222 236 255
222 236 255
222 236 255
222 236 255
222 236 255
222 236 255
222 236 255
222 236 255
222 236 255
222 236 255
222 236 255
222 236 255
222 236 255
222 236 255
222 236 255
222 236 255
222 236 255
222 236 255
222 236 255
222 236 255
222 236 255
222 236 255
222 236 255
222 236 255
222 236 255
222 236 255
222 236 255
222 236 255
222 236 255
222 236 255
222 236 255
222 236 255
222 236 255
222 236 255
222 236 255
222 236 255
222 236 255
222 236 255
222 236 255
222 236 255
222 236 255
222 236 255
222 236 255
222 236 255
222 236 255
222 236 255
222 236 255
222 236 255
222 236 255
222 236 255
222 236 255
222 236 255
222 236 255
222 236 255
222 236 255
222 236 255
222 236 255
222 236 255
222 236 255
222 236 255
222 236 255
222 236 255
222 236 255
222 236 255
222 236 255
222 236 255
222 236 255
222 236 255
222 236 255
222 236 255
222 236 255
222 236 255
222 236 255
222 236 255
222 236 255
222 236 255
222 236 255
222 236 255
222 236 255
222 236 255
222 236 255
222 236 255
222 236 255
222 236 255
222 236 255
222 236 255
222 236 255
222 236 255
222 236 255
222 236 255
222 236 255
222 236 255
222 236 255
222 236 255
222 236 255
222 236 255
222 236 255
222 236 255
222 236 255
222 236 255
222 236 255
222 236 255
222 236 255
222 236 255
222 236 255
222 236 255
223 236 255
223 236 255
223 236 255
223 236 255
223 236 255
223 236 255
223 236 255
223 236 255
223 236 255
223 236 255
223 236 255
223 236 255
223 236 255
223 236 255
223 236 255
223 236 255
223 236 255
223 236 255
223 236 255
223 236 255
223 236 255
223 236 255
223 236 255
223 236 255
223 236 255
223 236 255
223 236 255
223 236 255
223 236 255
223 236 255
223 236 255
223 236 255
223 236 255
223 236 255
223 236 255
223 236 255
223 236 255
223 236 255
223 236 255
223 236 255
223 236 255
223 236 255
223 236 255
223 236 255
223 236 255
223 236 255
223 236 255
223 236 255
223 236 255
223 236 255
223 236 255
223 236 255
223 236 255
223 236 255
223 236 255
223 236 255
223 236 255
223 236 255
223 236 255
223 236 255
223 236 255
223 236 255
223 236 255
223 236 255
223 236 255
223 236 255
223 236 255
223 237 255
223 237 255
223 237 255
223 237 255
223 237 255
223 237 255
223 237 255
223 237 255
223 237 255
223 237 255
223 237 255
223 237 255
223 237 255
223 237 255
223 237 255
223 237 255
223 237 255
223 237 255
223 237 255
223 237 255
223 237 255
223 237 255
223 237 255
223 237 255
223 237 255
223 237 255
223 237 255
223 237 255
223 237 255
223 237 255
223 237 255
223 237 255
223 237 255
150 159 173
50 55 62
46 50 56
50 55 62
44 49 55
47 52 59
51 55 62
53 58 65
48 53 60
45 49 55
52 56 63
49 55 62
48 52 59
47 52 59
49 53 60
51 56 63
49 54 60
48 53 60
52 57 64
49 54 61
46 51 57
48 53 59
45 49 55
51 56 63
53 58 65
50 55 61
49 54 61
53 58 66
50 55 61
50 55 62
49 54 60
48 53 59
50 56 63
49 54 61
50 55 62
51 56 63
50 55 62
48 53 60
51 56 63
46 51 57
48 53 60
50 55 62
47 52 58
51 56 63
48 53 60
50 55 62
52 57 64
50 55 61
50 54 61
49 54 61
48 53 59
51 57 64
52 57 64
47 52 58
48 53 60
49 55 61
49 54 61
50 55 62
48 53 60
51 56 63
52 57 64
51 57 64
53 58 65
49 54 61
52 57 65
51 56 63
51 56 63
50 55 62
51 56 62
51 56 63
47 52 58
48 52 59
48 53 59
48 53 59
50 56 63
50 56 63
48 53 59
49 54 60
45 50 56
50 55 61
49 54 60
49 54 60
48 53 59
52 57 65
53 58 65
51 56 63
52 57 64
52 57 64
49 55 62
50 55 61
47 52 58
54 59 67
47 52 59
48 53 59
51 57 64
48 52 58
50 55 62
51 56 63
50 55 62
49 54 61
47 52 59
49 54 60
49 54 61
49 53 60
50 56 63
49 54 61
48 53 60
47 52 58
46 51 57
49 54 60
50 55 62
54 59 66
51 57 64
45 50 57
49 54 61
49 54 61
49 54 60
49 54 61
50 55 62
47 51 57
50 55 62
48 53 59
46 50 57
46 51 58
48 53 59
53 58 66
50 55 61
48 53 59
52 57 64
155 165 178
223 237 255
223 237 255
223 237 255
223 237 255
223 237 255
223 237 255
223 237 255
223 237 255
223 237 255
223 237 255
223 237 255
223 237 255
223 237 255
223 237 255
223 237 255
223 237 255
223 237 255
223 237 255
223 237 255
223 237 255
223 237 255
223 237 255
223 237 255
223 237 255
223 237 255
223 237 255
223 237 255
223 237 255
223 237 255
223 237 255
223 237 255
223 236 255
223 237 255
223 236 255
223 236 255
223 236 255
223 236 255
223 236 255
223 236 255
223 236 255
223 236 255
223 236 255
223 236 255
223 236 255
223 236 255
223 236 255
223 236 255
223 236 255
223 236 255
223 236 255
223 236 255
223 236 255
223 236 255
223 236 255
223 236 255
223 236 255
223 236 255
223 236 255
223 236 255
223 236 255
223 236 255
223 236 255
223 236 255
223 236 255
223 236 255
223 236 255
223 236 255
223 236 255
223 236 255
223 236 255
223 236 255
223 236 255
223 236 255
223 236 255
223 236 255
223 236 255
223 236 255
223 236 255
223 236 255
223 236 255
223 236 255
223 236 255
223 236 255
223 236 255
223 236 255
223 236 255
223 236 255
223 236 255
223 236 255
223 236 255
223 236 255
223 236 255
223 236 255
223 236 255
223 236 255
223 236 255
223 236 255
222 236 255
223 236 255
222 236 255
222 236 255
222 236 255
222 236 255
222 236 255
222 236 255
222 236 255
222 236 255
222 236 255
222 236 255
222 236 255
222 236 255
222 236 255
222 236 255
222 236 255
222 236 255
222 236 255
222 236 255
222 236 255
222 236 255
222 236 255
222 236 255
222 236 255
222 236 255
222 236 255
222 236 255
222 236 255
222 236 255
222 236 255
222 236 255
222 236 255
222 236 255
222 236 255
222 236 255
222 236 255
222 236 255
222 236 255
222 236 255
223 236 255
223 236 255
223 236 255
223 236 255
223 236 255
223 236 255
223 236 255
223 236 255
223 236 255
223 236 255
223 236 255
223 236 255
223 236 255
223 236 255
223 236 255
223 236 255
223 236 255
223 236 255
223 236 255
223 236 255
223 236 255
223 236 255
223 236 255
223 236 255
223 236 255
223 236 255
223 236 255
223 236 255
223 236 255
223 236 255
223 236 255
223 236 255
223 236 255
223 236 255
223 236 255
223 236 255
223 236 255
223 236 255
223 236 255
223 236 255
223 236 255
223 236 255
223 236 255
223 236 255
223 236 255
223 236 255
223 236 255
223 236 255
223 236 255
223 236 255
223 236 255
223 236 255
223 236 255
223 236 255
223 236 255
223 236 255
223 236 255
223 236 255
223 236 255
223 236 255
223 236 255
223 236 255
223 236 255
223 236 255
223 236 255
223 236 255
223 236 255
223 236 255
223 236 255
223 236 255
223 236 255
223 237 255
223 237 255
223 237 255
223 237 255
223 237 255
223 237 255
223 237 255
223 237 255
223 237 255
223 237 255
223 237 255
223 237 255
223 237 255
223 237 255
223 237 255
223 237 255
223 237 255
223 237 255
223 237 255
223 237 255
223 237 255
223 237 255
223 237 255
223 237 255
223 237 255
223 237 255
223 237 255
223 237 255
223 237 255
223 237 255
223 237 255
223 237 255
223 237 255
223 237 255
223 237 255
223 237 255
223 237 255
223 237 255
223 237 255
223 237 255
223 237 255
223 237 255
223 237 255
223 237 255
223 237 255
223 237 255
223 237 255
223 237 255
223 237 255
223 237 255
223 237 255
223 237 255
223 237 255
223 237 255
223 237 255
223 237 255
223 237 255
223 237 255
223 237 255
223 237 255
223 237 255
223 237 255
166 176 191
46 51 57
48 52 59
48 52 58
49 53 60
49 54 60
52 57 64
48 53 59
48 53 59
49 54 60
50 55 61
50 56 63
47 51 58
48 53 59
48 53 60
49 54 61
49 54 60
48 53 59
51 56 63
49 54 60
47 52 59
46 50 57
43 47 53
47 51 57
48 53 59
51 56 63
52 57 64
53 58 66
50 55 62
51 55 62
52 57 64
43 48 54
51 56 62
48 53 60
48 53 60
50 55 61
48 53 59
49 54 61
52 57 64
52 57 63
46 51 57
46 51 57
50 55 61
49 53 60
47 52 58
50 55 62
50 54 61
49 54 61
49 53 60
51 56 63
45 49 56
52 58 65
53 59 66
48 53 60
50 54 61
50 55 62
48 53 59
49 53 60
48 53 59
48 53 60
44 49 56
55 60 67
53 58 65
49 54 60
50 55 62
53 58 65
45 50 57
48 53 60
47 52 58
47 51 57
49 54 60
48 53 59
48 52 59
46 51 58
50 55 62
50 55 62
50 55 62
43 47 53
49 54 61
50 55 62
50 55 62
48 53 60
45 50 56
50 55 62
47 52 58
49 55 62
46 51 57
51 56 63
54 60 67
49 54 60
53 58 65
51 56 62
50 55 62
53 59 66
50 55 62
49 54 61
52 57 64
49 54 61
51 56 63
50 55 62
51 56 63
49 54 60
49 54 61
46 51 57
50 55 61
51 56 63
48 53 60
46 50 57
51 56 63
49 54 61
45 50 56
46 51 57
44 49 56
45 49 56
48 53 60
48 53 59
48 53 60
45 50 56
46 51 57
49 54 61
49 54 61
49 55 61
48 53 59
52 57 64
49 54 61
52 57 64
51 56 63
51 56 63
46 51 57
164 174 188
223 237 255
223 237 255
223 237 255
223 237 255
223 237 255
223 237 255
223 237 255
223 237 255
223 237 255
223 237 255
223 237 255
223 237 255
223 237 255
223 237 255
223 237 255
223 237 255
223 237 255
223 237 255
223 237 255
223 237 255
223 237 255
223 237 255
223 237 255
223 237 255
223 237 255
223 237 255
223 237 255
223 237 255
223 237 255
223 237 255
223 237 255
223 237 255
223 237 255
223 237 255
223 237 255
223 237 255
223 237 255
223 237 255
223 237 255
223 237 255
223 237 255
223 237 255
223 237 255
223 237 255
223 237 255
223 237 255
223 237 255
223 237 255
223 237 255
223 237 255
223 237 255
223 237 255
223 237 255
223 237 255
223 237 255
223 237 255
223 237 255
223 237 255
223 237 255
223 237 255
223 237 255
223 237 255
223 236 255
223 236 255
223 236 255
223 236 255
223 236 255
223 236 255
223 236 255
223 236 255
223 236 255
223 236 255
223 236 255
223 236 255
223 236 255
223 236 255
223 236 255
223 236 255
223 236 255
223 236 255
223 236 255
223 236 255
223 236 255
223 236 255
223 236 255
223 236 255
223 236 255
223 236 255
223 236 255
223 236 255
223 236 255
223 236 255
223 236 255
223 236 255
223 236 255
223 236 255
223 236 255
223 236 255
223 236 255
223 236 255
223 236 255
223 236 255
223 236 255
223 236 255
223 236 255
223 236 255
223 236 255
223 236 255
223 236 255
223 236 255
223 236 255
223 236 255
223 236 255
223 236 255
223 236 255
223 236 255
223 236 255
223 236 255
223 236 255
223 236 255
223 236 255
223 236 255
223 236 255
223 236 255
223 236 255
223 236 255
223 236 255
223 236 255
223 236 255
223 236 255
223 236 255
223 236 255
222 236 255
222 236 255
222 236 255
223 236 255
223 236 255
223 236 255
223 236 255
223 236 255
223 236 255
223 236 255
223 236 255
223 236 255
223 236 255
223 236 255
223 236 255
223 236 255
223 236 255
223 236 255
223 236 255
223 236 255
223 236 255
223 236 255
223 236 255
223 236 255
223 236 255
223 236 255
223 236 255
223 236 255
223 236 255
223 236 255
223 236 255
223 236 255
223 236 255
223 236 255
223 236 255
223 236 255
223 236 255
223 236 255
223 236 255
223 236 255
223 236 255
223 236 255
223 236 255
223 236 255
223 236 255
223 236 255
223 236 255
223 236 255
223 236 255
223 237 255
223 237 255
223 237 255
223 237 255
223 237 255
223 237 255
223 237 255
223 237 255
223 237 255
223 237 255
223 237 255
223 237 255
223 237 255
223 237 255
223 237 255
223 237 255
223 237 255
223 237 255
223 237 255
223 237 255
223 237 255
223 237 255
223 237 255
223 237 255
223 237 255
223 237 255
223 237 255
223 237 255
223 237 255
223 237 255
223 237 255
223 237 255
223 237 255
223 237 255
223 237 255
223 237 255
223 237 255
223 237 255
223 237 255
223 237 255
223 237 255
223 237 255
223 237 255
223 237 255
223 237 255
223 237 255
223 237 255
223 237 255
223 237 255
223 237 255
223 237 255
223 237 255
223 237 255
223 237 255
223 237 255
223 237 255
223 237 255
223 237 255
223 237 255
223 237 255
223 237 255
223 237 255
223 237 255
223 237 255
224 237 255
224 237 255
224 237 255
224 237 255
224 237 255
224 237 255
224 237 255
224 237 255
224 237 255
224 237 255
224 237 255
224 237 255
224 237 255
224 237 255
224 237 255
224 237 255
224 237 255
224 237 255
224 237 255
224 237 255
224 237 255
224 237 255
224 237 255
224 237 255
224 237 255
186 198 213
49 54 60
48 53 60
47 51 57
50 55 62
47 52 59
48 53 60
50 55 61
51 56 63
48 53 60
50 55 61
50 55 62
45 50 57
50 56 63
48 53 59
50 55 62
51 56 62
51 56 63
45 50 56
49 54 61
49 54 60
49 54 60
51 55 62
51 56 63
48 53 59
50 55 61
50 55 61
48 53 59
48 53 60
49 54 61
52 58 65
51 56 63
49 54 61
51 56 63
46 51 57
47 52 58
51 56 62
48 53 60
49 54 60
46 51 57
50 55 62
55 60 67
52 57 64
48 53 59
50 55 62
50 55 63
48 53 59
48 53 59
51 57 64
49 54 61
47 52 57
46 50 56
48 53 59
49 54 61
46 51 57
45 50 56
49 54 61
47 52 58
54 60 67
49 55 62
51 56 62
50 55 61
48 53 59
50 55 62
46 50 57
49 54 60
52 57 64
49 54 61
48 53 60
49 54 60
50 56 63
52 57 64
50 55 62
50 55 62
46 51 57
50 55 62
47 52 58
51 56 63
45 49 55
48 52 59
46 51 57
50 55 62
49 54 61
50 55 62
49 55 62
52 57 64
51 56 63
49 54 61
46 51 57
52 57 64
51 55 62
47 52 58
48 53 59
47 52 58
49 54 61
48 53 60
48 53 60
49 54 61
47 51 58
49 54 61
46 50 57
49 53 60
47 52 58
50 55 62
49 54 61
46 51 57
46 51 58
49 54 60
46 51 58
51 56 63
49 54 60
51 56 63
49 53 60
49 54 61
49 54 61
52 57 64
48 53 60
49 54 60
48 54 60
51 56 62
48 53 60
46 51 57
47 51 58
49 54 60
49 54 61
49 54 61
50 55 62
47 51 57
49 54 61
193 204 221
224 237 255
224 237 255
224 237 255
224 237 255
224 237 255
224 237 255
224 237 255
224 237 255
224 237 255
224 237 255
224 237 255
224 237 255
224 237 255
224 237 255
224 237 255
224 237 255
224 237 255
224 237 255
224 237 255
224 237 255
224 237 255
224 237 255
224 237 255
224 237 255
223 237 255
223 237 255
223 237 255
223 237 255
223 237 255
223 237 255
223 237 255
223 237 255
223 237 255
223 237 255
223 237 255
223 237 255
223 237 255
223 237 255
223 237 255
223 237 255
223 237 255
223 237 255
223 237 255
223 237 255
223 237 255
223 237 255
223 237 255
223 237 255
223 237 255
223 237 255
223 237 255
223 237 255
223 237 255
223 237 255
223 237 255
223 237 255
223 237 255
223 237 255
223 237 255
223 237 255
223 237 255
223 237 255
223 237 255
223 237 255
223 237 255
223 237 255
223 237 255
223 237 255
223 237 255
223 237 255
223 237 255
223 237 255
223 237 255
223 237 255
223 237 255
223 237 255
223 237 255
223 237 255
223 237 255
223 237 255
223 237 255
223 237 255
223 237 255
223 237 255
223 237 255
223 237 255
223 237 255
223 237 255
223 237 255
223 236 255
223 236 255
223 236 255
223 236 255
223 236 255
223 236 255
223 236 255
223 236 255
223 236 255
223 236 255
223 236 255
223 236 255
223 236 255
223 236 255
223 236 255
223 236 255
223 236 255
223 236 255
223 236 255
223 236 255
223 236 255
223 236 255
223 236 255
223 236 255
223 236 255
223 236 255
223 236 255
223 236 255
223 236 255
223 236 255
223 236 255
223 236 255
223 236 255
223 236 255
223 236 255
223 236 255
223 236 255
223 236 255
223 236 255
223 236 255
223 236 255
223 236 255
223 236 255
223 236 255
223 236 255
223 236 255
223 236 255
223 236 255
223 236 255
223 236 255
223 236 255
223 236 255
223 236 255
223 236 255
223 236 255
223 236 255
223 236 255
223 236 255
223 236 255
223 236 255
223 236 255
223 236 255
223 236 255
223 236 255
223 236 255
223 236 255
223 237 255
223 237 255
223 237 255
223 237 255
223 237 255
223 237 255
223 237 255
223 237 255
223 237 255
223 237 255
223 237 255
223 237 255
223 237 255
223 237 255
223 237 255
223 237 255
223 237 255
223 237 255
223 237 255
223 237 255
223 237 255
223 237 255
223 237 255
223 237 255
223 237 255
223 237 255
223 237 255
223 237 255
223 237 255
223 237 255
223 237 255
223 237 255
223 237 255
223 237 255
223 237 255
223 237 255
223 237 255
223 237 255
223 237 255
223 237 255
223 237 255
223 237 255
223 237 255
223 237 255
223 237 255
223 237 255
223 237 255
223 237 255
223 237 255
223 237 255
223 237 255
223 237 255
223 237 255
223 237 255
223 237 255
223 237 255
223 237 255
223 237 255
223 237 255
223 237 255
223 237 255
223 237 255
223 237 255
223 237 255
223 237 255
223 237 255
223 237 255
224 237 255
224 237 255
224 237 255
224 237 255
224 237 255
224 237 255
224 237 255
224 237 255
224 237 255
224 237 255
224 237 255
224 237 255
224 237 255
224 237 255
224 237 255
224 237 255
224 237 255
224 237 255
224 237 255
224 237 255
224 237 255
224 237 255
224 237 255
224 237 255
224 237 255
224 237 255
224 237 255
224 237 255
224 237 255
224 237 255
224 237 255
224 237 255
224 237 255
224 237 255
224 237 255
224 237 255
224 237 255
224 237 255
224 237 255
224 237 255
224 237 255
224 237 255
224 237 255
224 237 255
224 237 255
224 237 255
224 237 255
224 237 255
202 213 230
48 53 59
48 53 59
48 53 59
48 53 59
48 53 60
46 51 57
49 54 61
46 51 58
47 52 59
48 53 59
48 53 60
49 54 60
50 55 62
46 51 57
49 54 61
49 54 61
49 54 61
48 53 60
47 52 59
48 53 59
49 54 61
50 56 63
50 54 61
51 56 63
49 54 60
48 53 59
50 55 61
53 58 64
48 53 60
48 53 60
46 51 57
49 54 60
48 53 59
49 54 60
48 53 59
49 54 61
45 50 56
52 57 64
48 53 59
50 54 61
40 45 50
52 57 64
50 55 62
49 54 60
48 52 58
50 55 62
52 57 64
50 55 61
50 55 61
43 48 54
47 52 58
51 56 63
52 57 64
50 55 62
51 56 62
54 59 66
49 54 60
51 56 63
48 53 60
47 52 59
52 56 63
48 53 60
48 53 60
48 53 60
51 56 63
48 52 59
49 53 60
45 50 56
48 53 59
46 51 57
49 53 60
50 55 61
47 52 58
53 58 65
48 53 60
44 48 55
51 57 64
50 54 61
50 55 61
52 57 64
45 50 56
49 55 62
51 56 63
49 54 60
51 56 63
49 54 61
47 52 58
46 51 57
50 55 62
50 55 62
48 53 60
49 55 61
48 53 59
49 54 61
49 54 60
51 55 62
51 56 63
45 50 56
51 56 63
50 55 62
50 55 61
50 55 61
49 54 61
51 56 63
50 55 62
47 52 58
48 53 60
48 53 59
49 54 61
46 51 57
47 52 58
49 54 61
49 54 61
46 51 58
47 52 58
49 54 61
46 51 57
50 54 60
46 51 57
50 56 63
50 55 61
47 52 58
49 54 61
53 58 65
48 53 60
49 53 60
51 56 63
47 52 58
200 212 229
224 237 255
224 237 255
224 237 255
224 237 255
224 237 255
224 237 255
224 237 255
224 237 255
224 237 255
224 237 255
224 237 255
224 237 255
224 237 255
224 237 255
224 237 255
224 237 255
224 237 255
224 237 255
224 237 255
224 237 255
224 237 255
224 237 255
224 237 255
224 237 255
224 237 255
224 237 255
224 237 255
224 237 255
224 237 255
224 237 255
224 237 255
224 237 255
224 237 255
224 237 255
224 237 255
224 237 255
224 237 255
224 237 255
224 237 255
224 237 255
224 237 255
224 237 255
224 237 255
224 237 255
224 237 255
224 237 255
224 237 255
224 237 255
223 237 255
223 237 255
223 237 255
223 237 255
223 237 255
223 237 255
223 237 255
223 237 255
223 237 255
223 237 255
223 237 255
223 237 255
223 237 255
223 237 255
223 237 255
223 237 255
223 237 255
223 237 255
223 237 255
223 237 255
223 237 255
223 237 255
223 237 255
223 237 255
223 237 255
223 237 255
223 237 255
223 237 255
223 237 255
223 237 255
223 237 255
223 237 255
223 237 255
223 237 255
223 237 255
223 237 255
223 237 255
223 237 255
223 237 255
223 237 255
223 237 255
223 237 255
223 237 255
223 237 255
223 237 255
223 237 255
223 237 255
223 237 255
223 237 255
223 237 255
223 237 255
223 237 255
223 237 255
223 237 255
223 237 255
223 237 255
223 237 255
223 237 255
223 237 255
223 237 255
223 237 255
223 237 255
223 237 255
223 237 255
223 237 255
223 237 255
223 237 255
223 236 255
223 236 255
223 236 255
223 236 255
223 236 255
223 236 255
223 236 255
223 236 255
223 236 255
223 236 255
223 236 255
223 236 255
223 236 255
223 236 255
223 236 255
223 236 255
223 236 255
223 236 255
223 236 255
223 236 255
223 237 255
223 237 255
223 237 255
223 237 255
223 237 255
223 237 255
223 237 255
223 237 255
223 237 255
223 237 255
223 237 255
223 237 255
223 237 255
223 237 255
223 237 255
223 237 255
223 237 255
223 237 255
223 237 255
223 237 255
223 237 255
223 237 255
223 237 255
223 237 255
223 237 255
223 237 255
223 237 255
223 237 255
223 237 255
223 237 255
223 237 255
223 237 255
223 237 255
223 237 255
223 237 255
223 237 255
223 237 255
223 237 255
223 237 255
223 237 255
223 237 255
223 237 255
223 237 255
223 237 255
223 237 255
223 237 255
223 237 255
223 237 255
223 237 255
223 237 255
223 237 255
223 237 255
223 237 255
223 237 255
223 237 255
223 237 255
223 237 255
223 237 255
223 237 255
223 237 255
223 237 255
223 237 255
223 237 255
223 237 255
223 237 255
224 237 255
224 237 255
224 237 255
224 237 255
224 237 255
224 237 255
224 237 255
224 237 255
224 237 255
224 237 255
224 237 255
224 237 255
224 237 255
224 237 255
224 237 255
224 237 255
224 237 255
224 237 255
224 237 255
224 237 255
224 237 255
224 237 255
224 237 255
224 237 255
224 237 255
224 237 255
224 237 255
224 237 255
224 237 255
224 237 255
224 237 255
224 237 255
224 237 255
224 237 255
224 237 255
224 237 255
224 237 255
224 237 255
224 237 255
224 237 255
224 237 255
224 237 255
224 237 255
224 237 255
224 237 255
224 237 255
224 237 255
224 237 255
224 237 255
224 237 255
224 237 255
224 237 255
224 237 255
224 237 255
224 237 255
224 237 255
224 237 255
224 237 255
224 237 255
224 237 255
224 237 255
224 237 255
224 237 255
224 237 255
224 237 255
224 237 255
224 237 255
224 237 255
224 237 255
224 237 255
222 235 253
53 58 64
52 57 63
48 53 60
51 56 63
51 56 63
50 55 61
46 51 57
45 50 56
47 52 58
49 54 60
46 51 57
49 54 60
47 52 58
48 52 59
51 56 63
48 53 60
48 52 59
49 54 61
49 54 61
51 56 63
48 53 59
53 58 65
47 52 58
48 52 59
48 53 60
50 56 63
46 50 56
46 51 57
49 55 61
48 53 59
49 53 60
45 50 57
45 50 56
49 54 60
53 58 65
49 53 60
46 51 57
47 51 58
48 53 60
51 56 63
49 54 61
48 53 59
48 53 60
46 51 57
49 54 60
51 56 62
46 51 57
50 55 62
49 54 61
51 56 63
51 56 63
48 52 59
48 53 60
51 56 62
49 53 60
48 53 60
48 53 59
49 54 60
50 55 62
50 55 61
45 50 56
47 52 59
52 57 64
48 53 59
49 54 60
49 54 61
44 49 55
48 53 59
46 50 57
49 54 60
48 53 59
48 52 59
50 55 62
50 55 62
50 54 61
48 52 59
49 54 60
48 53 60
49 54 61
48 52 59
47 52 58
47 51 57
47 52 58
47 52 58
50 55 61
48 53 59
47 52 59
47 52 58
52 57 64
51 56 62
48 52 59
53 58 64
50 55 62
48 52 59
48 53 59
49 54 60
50 56 62
48 53 59
47 51 58
52 57 64
47 52 58
51 56 63
51 56 63
47 52 58
49 54 61
46 51 57
49 54 61
50 55 62
49 53 60
50 55 61
44 49 55
47 52 59
46 51 57
45 50 56
51 56 63
48 53 59
48 54 60
49 54 60
49 54 60
51 56 63
50 55 61
50 55 62
50 55 62
50 54 60
49 53 60
47 52 58
47 52 58
61 66 74
222 235 253
224 237 255
224 237 255
224 237 255
224 237 255
224 237 255
224 237 255
224 237 255
224 237 255
224 237 255
224 237 255
224 237 255
224 237 255
224 237 255
224 237 255
224 237 255
224 237 255
224 237 255
224 237 255
224 237 255
224 237 255
224 237 255
224 237 255
224 237 255
224 237 255
224 237 255
224 237 255
224 237 255
224 237 255
224 237 255
224 237 255
224 237 255
224 237 255
224 237 255
224 237 255
224 237 255
224 237 255
224 237 255
224 237 255
224 237 255
224 237 255
224 237 255
224 237 255
224 237 255
224 237 255
224 237 255
224 237 255
224 237 255
224 237 255
224 237 255
224 237 255
224 237 255
224 237 255
224 237 255
224 237 255
224 237 255
224 237 255
224 237 255
224 237 255
224 237 255
224 237 255
224 237 255
224 237 255
224 237 255
224 237 255
224 237 255
224 237 255
224 237 255
224 237 255
224 237 255
224 237 255
223 237 255
223 237 255
223 237 255
223 237 255
223 237 255
223 237 255
223 237 255
223 237 255
223 237 255
223 237 255
223 237 255
223 237 255
223 237 255
223 237 255
223 237 255
223 237 255
223 237 255
223 237 255
223 237 255
223 237 255
223 237 255
223 237 255
223 237 255
223 237 255
223 237 255
223 237 255
223 237 255
223 237 255
223 237 255
223 237 255
223 237 255
223 237 255
223 237 255
223 237 255
223 237 255
223 237 255
223 237 255
223 237 255
223 237 255
223 237 255
223 237 255
223 237 255
223 237 255
223 237 255
223 237 255
223 237 255
223 237 255
223 237 255
223 237 255
223 237 255
223 237 255
223 237 255
223 237 255
223 237 255
223 237 255
223 237 255
223 237 255
223 237 255
223 237 255
223 237 255
223 237 255
223 237 255
223 237 255
223 237 255
223 237 255
223 237 255
223 237 255
223 237 255
223 237 255
223 237 255
223 237 255
223 237 255
223 237 255
223 237 255
223 237 255
223 237 255
223 237 255
223 237 255
223 237 255
223 237 255
223 237 255
223 237 255
223 237 255
223 237 255
223 237 255
223 237 255
223 237 255
223 237 255
223 237 255
223 237 255
223 237 255
223 237 255
223 237 255
223 237 255
223 237 255
223 237 255
223 237 255
223 237 255
223 237 255
223 237 255
223 237 255
223 237 255
223 237 255
223 237 255
223 237 255
223 237 255
223 237 255
223 237 255
223 237 255
223 237 255
223 237 255
224 237 255
224 237 255
224 237 255
224 237 255
224 237 255
224 237 255
224 237 255
224 237 255
224 237 255
224 237 255
224 237 255
224 237 255
224 237 255
224 237 255
224 237 255
224 237 255
224 237 255
224 237 255
224 237 255
224 237 255
224 237 255
224 237 255
224 237 255
224 237 255
224 237 255
224 237 255
224 237 255
224 237 255
224 237 255
224 237 255
224 237 255
224 237 255
224 237 255
224 237 255
224 237 255
224 237 255
224 237 255
224 237 255
224 237 255
224 237 255
224 237 255
224 237 255
224 237 255
224 237 255
224 237 255
224 237 255
224 237 255
224 237 255
224 237 255
224 237 255
224 237 255
224 237 255
224 237 255
224 237 255
224 237 255
224 237 255
224 237 255
224 237 255
224 237 255
224 237 255
224 237 255
224 237 255
224 237 255
224 237 255
224 237 255
224 237 255
224 237 255
224 237 255
224 237 255
224 237 255
224 237 255
224 237 255
224 237 255
224 237 255
224 237 255
224 237 255
224 237 255
224 237 255
223 236 254
218 231 248
215 227 245
207 219 236
199 211 227
196 207 224
191 202 218
181 192 207
179 190 206
174 185 200
160 170 185
148 158 171
80 86 94
52 57 63
50 55 61
47 52 58
49 54 60
45 49 55
48 53 60
48 53 59
49 53 60
49 54 61
48 53 59
49 54 60
48 53 59
45 49 55
48 52 58
49 54 61
54 59 65
48 53 60
49 54 60
47 52 58
52 57 65
47 52 58
46 51 57
49 54 60
50 55 62
49 54 60
43 47 54
46 51 57
46 51 57
46 51 57
45 50 56
44 49 55
47 52 58
51 56 63
50 55 62
48 53 59
51 56 63
46 50 56
49 54 60
47 52 58
50 55 62
49 54 61
49 53 60
50 54 61
50 55 61
47 51 57
47 51 57
49 54 61
48 53 60
46 50 56
49 54 60
51 56 63
48 53 60
48 53 60
48 53 59
50 55 62
47 52 58
45 50 57
53 58 65
48 52 58
48 53 60
46 51 57
47 52 58
49 54 61
43 48 54
46 50 57
49 54 61
49 54 61
46 51 58
46 51 57
50 55 62
49 54 61
51 56 62
49 54 61
50 55 61
44 49 55
47 52 59
51 57 64
45 50 56
49 54 60
43 48 55
50 55 62
46 51 57
50 55 61
50 55 61
47 51 57
51 56 63
50 54 61
44 48 54
49 54 60
47 52 59
49 54 61
50 54 61
47 51 58
48 53 59
47 52 59
47 52 58
48 53 59
49 54 60
49 53 60
47 51 58
50 55 62
45 50 56
49 54 60
49 53 59
43 48 54
49 54 61
46 50 57
49 54 60
50 55 62
50 55 61
48 53 60
45 50 57
51 56 63
45 49 55
49 53 60
51 56 63
49 54 61
46 51 57
47 52 58
45 49 55
46 51 57
50 55 61
48 53 60
42 47 52
43 47 53
49 54 60
72 78 86
145 154 168
157 167 181
174 185 200
177 188 203
190 201 217
186 197 213
191 202 218
201 213 230
206 218 235
216 229 246
216 229 246
224 237 255
224 237 255
224 237 255
224 237 255
224 237 255
224 237 255
224 237 255
224 237 255
224 237 255
224 237 255
224 237 255
224 237 255
224 237 255
224 237 255
224 237 255
224 237 255
224 237 255
224 237 255
224 237 255
224 237 255
224 237 255
224 237 255
224 237 255
224 237 255
224 237 255
224 237 255
224 237 255
224 237 255
224 237 255
224 237 255
224 237 255
224 237 255
224 237 255
224 237 255
224 237 255
224 237 255
224 237 255
224 237 255
224 237 255
224 237 255
224 237 255
224 237 255
224 237 255
224 237 255
224 237 255
224 237 255
224 237 255
224 237 255
224 237 255
224 237 255
224 237 255
224 237 255
224 237 255
224 237 255
224 237 255
224 237 255
224 237 255
224 237 255
224 237 255
224 237 255
224 237 255
224 237 255
224 237 255
224 237 255
224 237 255
224 237 255
224 237 255
224 237 255
224 237 255
224 237 255
224 237 255
224 237 255
224 237 255
224 237 255
224 237 255
224 237 255
224 237 255
224 237 255
224 237 255
224 237 255
223 237 255
223 237 255
223 237 255
223 237 255
223 237 255
223 237 255
223 237 255
223 237 255
223 237 255
223 237 255
223 237 255
223 237 255
223 237 255
223 237 255
223 237 255
223 237 255
223 237 255
223 237 255
223 237 255
223 237 255
223 237 255
223 237 255
223 237 255
223 237 255
223 237 255
223 237 255
223 237 255
223 237 255
223 237 255
223 237 255
223 237 255
223 237 255
223 237 255
223 237 255
223 237 255
223 237 255
223 237 255
223 237 255
223 237 255
223 237 255
223 237 255
223 237 255
223 237 255
223 237 255
223 237 255
223 237 255
223 237 255
223 237 255
223 237 255
223 237 255
223 237 255
223 237 255
223 237 255
223 237 255
223 237 255
223 237 255
223 237 255
223 237 255
223 237 255
223 237 255
223 237 255
223 237 255
223 237 255
223 237 255
223 237 255
223 237 255
223 237 255
223 237 255
223 237 255
223 237 255
223 237 255
224 237 255
224 237 255
224 237 255
224 237 255
224 237 255
224 237 255
224 237 255
224 237 255
224 237 255
224 237 255
224 237 255
224 237 255
224 237 255
224 237 255
224 237 255
224 237 255
224 237 255
224 237 255
224 237 255
224 237 255
224 237 255
224 237 255
224 237 255
224 237 255
224 237 255
224 237 255
224 237 255
224 237 255
224 237 255
224 237 255
224 237 255
224 237 255
224 237 255
224 237 255
224 237 255
224 237 255
224 237 255
224 237 255
224 237 255
224 237 255
224 237 255
224 237 255
224 237 255
224 237 255
224 237 255
224 237 255
224 237 255
224 237 255
224 237 255
224 237 255
224 237 255
224 237 255
224 237 255
224 237 255
224 237 255
224 237 255
224 237 255
224 237 255
224 237 255
224 237 255
224 237 255
224 237 255
224 237 255
224 237 255
224 237 255
224 237 255
224 237 255
224 237 255
224 237 255
224 237 255
224 237 255
224 237 255
224 237 255
224 237 255
224 237 255
224 237 255
224 237 255
224 237 255
224 237 255
224 237 255
224 237 255
224 237 255
219 232 250
214 226 244
206 218 235
201 213 230
188 200 216
188 200 216
162 172 186
176 186 201
165 175 189
140 149 163
148 158 171
135 144 157
108 117 128
101 110 121
102 110 121
72 80 90
65 73 84
61 69 80
62 70 80
61 69 80
62 70 80
61 70 80
61 70 80
62 70 80
61 70 80
62 70 80
61 70 80
61 69 80
55 61 70
47 52 58
49 54 61
46 50 56
45 49 55
48 53 59
47 52 59
46 51 57
52 57 63
53 58 65
47 52 58
51 57 64
50 55 61
49 53 60
49 54 60
49 54 60
50 55 61
46 50 56
49 53 60
46 51 57
52 57 64
52 57 64
46 51 57
47 52 58
48 53 60
49 54 61
48 53 60
48 52 58
45 50 56
50 55 61
47 52 58
50 55 61
45 49 55
50 54 61
51 56 63
46 51 57
47 52 58
46 51 57
47 52 59
48 53 59
51 56 63
51 56 63
48 53 59
49 54 61
48 53 60
48 52 58
53 58 65
47 52 58
43 48 54
50 55 61
51 55 62
46 51 57
42 46 52
52 57 63
48 53 60
48 54 60
47 51 58
49 53 60
47 51 57
47 52 58
46 51 57
51 56 63
48 53 60
47 52 59
45 50 56
51 56 63
52 56 63
50 55 62
49 54 60
45 50 56
48 52 59
46 51 57
49 54 61
49 54 61
47 52 59
48 53 60
50 55 61
48 53 59
49 53 59
42 47 53
49 53 60
47 52 58
48 53 59
49 54 60
47 52 58
47 52 59
50 55 61
47 52 58
46 51 57
48 52 59
45 50 56
46 51 57
51 56 63
50 55 61
51 56 63
46 50 57
50 55 62
46 51 57
46 51 57
49 53 60
44 48 54
48 53 60
47 51 58
49 54 61
47 52 58
44 49 55
49 54 60
45 50 55
49 54 60
43 47 53
47 51 58
50 55 62
45 49 55
46 51 57
48 53 60
48 53 60
48 53 60
45 50 56
46 51 57
47 52 58
50 55 61
46 51 58
52 58 65
48 53 60
51 56 62
48 53 60
45 49 55
55 61 70
61 69 80
61 69 80
61 69 80
62 70 80
61 70 80
62 70 80
61 70 80
61 70 80
61 70 80
61 69 80
61 70 80
68 76 87
81 89 100
101 110 121
113 121 133
120 129 141
128 137 149
137 146 159
147 156 170
156 166 180
163 173 188
160 170 185
187 198 214
188 200 216
186 197 213
201 213 230
215 227 245
220 233 251
224 237 255
224 237 255
224 237 255
224 237 255
224 237 255
224 237 255
224 237 255
224 237 255
224 237 255
224 237 255
224 237 255
224 237 255
224 237 255
224 237 255
224 237 255
224 237 255
224 237 255
224 237 255
224 237 255
224 237 255
224 237 255
224 237 255
224 237 255
224 237 255
224 237 255
224 237 255
224 237 255
224 237 255
224 237 255
224 237 255
224 237 255
224 237 255
224 237 255
224 237 255
224 237 255
224 237 255
224 237 255
224 237 255
224 237 255
224 237 255
224 237 255
224 237 255
224 237 255
224 237 255
224 237 255
224 237 255
224 237 255
224 237 255
224 237 255
224 237 255
224 237 255
224 237 255
224 237 255
224 237 255
224 237 255
224 237 255
224 237 255
224 237 255
224 237 255
224 237 255
224 237 255
224 237 255
224 237 255
224 237 255
224 237 255
224 237 255
224 237 255
224 237 255
224 237 255
224 237 255
224 237 255
224 237 255
224 237 255
224 237 255
224 237 255
224 237 255
224 237 255
224 237 255
224 237 255
224 237 255
224 237 255
224 237 255
224 237 255
223 237 255
223 237 255
223 237 255
223 237 255
223 237 255
223 237 255
223 237 255
223 237 255
223 237 255
223 237 255
223 237 255
223 237 255
223 237 255
223 237 255
223 237 255
223 237 255
223 237 255
223 237 255
223 237 255
223 237 255
223 237 255
223 237 255
223 237 255
223 237 255
223 237 255
223 237 255
223 237 255
223 237 255
223 237 255
223 237 255
223 237 255
223 237 255
224 237 255
224 237 255
224 237 255
224 237 255
224 237 255
224 237 255
224 237 255
224 237 255
224 237 255
224 237 255
224 237 255
224 237 255
224 237 255
224 237 255
224 237 255
224 237 255
224 237 255
224 237 255
224 237 255
224 237 255
224 237 255
224 237 255
224 237 255
224 237 255
224 237 255
224 237 255
224 237 255
224 237 255
224 237 255
224 237 255
224 237 255
224 237 255
224 237 255
224 237 255
224 237 255
224 237 255
224 237 255
224 237 255
224 237 255
224 237 255
224 237 255
224 237 255
224 237 255
224 237 255
224 237 255
224 237 255
224 237 255
224 237 255
224 237 255
224 237 255
224 237 255
224 237 255
224 237 255
224 237 255
224 237 255
224 237 255
224 237 255
224 237 255
224 237 255
224 237 255
224 237 255
224 237 255
224 237 255
224 237 255
224 237 255
224 237 255
224 237 255
224 237 255
224 237 255
224 237 255
224 237 255
224 237 255
224 237 255
224 237 255
224 237 255
224 237 255
224 237 255
224 237 255
224 237 255
224 237 255
224 237 255
224 237 255
224 237 255
224 237 255
224 237 255
223 236 254
217 230 247
212 224 241
204 216 233
196 207 224
181 192 207
190 201 217
174 185 200
157 167 181
159 169 183
140 149 163
133 142 155
126 135 147
101 110 121
84 92 103
65 73 84
61 70 80
61 69 80
61 70 80
61 70 80
61 69 80
61 70 80
61 70 80
61 70 80
61 69 80
61 70 80
62 70 80
61 70 80
61 70 80
61 69 80
62 70 80
61 70 80
61 69 80
61 70 80
62 70 80
62 70 80
61 70 80
61 70 80
61 70 80
61 70 80
61 70 80
61 70 80
61 70 80
62 70 80
60 67 76
48 53 60
51 56 62
44 49 55
47 51 57
47 52 58
48 52 58
49 54 60
46 50 56
46 51 57
50 55 62
47 52 59
50 55 62
47 52 59
50 55 61
51 56 63
49 54 60
52 57 63
47 52 58
50 55 62
44 49 55
49 54 60
47 51 58
49 54 61
44 49 55
48 53 60
51 56 62
48 53 60
46 51 58
48 53 59
47 52 59
48 53 59
48 53 60
51 56 62
45 50 56
51 56 62
44 49 55
44 49 55
45 50 56
46 51 57
46 51 57
51 56 62
48 53 60
50 55 62
45 50 57
47 52 59
47 51 57
46 51 57
48 53 60
46 51 57
47 52 58
49 54 60
50 55 62
48 53 59
45 49 56
44 49 55
48 53 59
49 54 60
51 56 63
45 49 56
46 50 57
51 57 64
50 55 62
49 54 61
50 55 61
48 52 59
50 55 62
47 52 58
49 54 60
45 50 56
46 51 57
48 53 60
50 55 61
45 49 55
49 54 60
43 48 54
48 53 60
48 53 59
49 54 60
51 56 63
49 54 60
50 55 61
45 50 56
53 58 65
46 50 56
49 54 60
46 51 57
51 56 64
47 52 59
47 52 58
42 47 52
50 54 60
46 51 57
52 57 63
45 49 55
53 57 64
51 56 63
46 50 56
48 52 59
50 54 61
45 50 56
49 53 60
45 49 55
49 54 60
49 53 60
49 54 61
50 55 61
51 55 62
47 52 58
49 55 62
47 51 57
48 53 60
46 51 57
46 51 57
46 51 57
46 51 57
52 57 64
46 50 57
46 51 57
40 44 49
49 54 61
48 53 59
47 51 57
47 51 57
48 53 59
46 51 57
44 49 55
57 64 74
61 70 80
62 70 80
61 69 80
62 70 80
61 69 80
62 70 80
61 69 80
62 70 80
62 70 80
61 70 80
62 70 80
61 69 80
62 70 80
61 70 80
61 69 80
61 70 80
61 70 80
61 69 80
61 69 80
61 70 80
61 70 80
61 69 80
61 70 80
61 69 80
60 69 80
62 70 80
61 70 80
62 70 80
78 86 97
94 102 114
99 107 119
118 127 139
121 129 141
138 148 161
145 154 168
177 188 203
159 169 183
179 190 206
194 206 222
203 215 231
199 211 227
211 223 240
218 231 248
223 236 254
224 237 255
224 237 255
224 237 255
224 237 255
224 237 255
224 237 255
224 237 255
224 237 255
224 237 255
224 237 255
224 237 255
224 237 255
224 237 255
224 237 255
224 237 255
224 237 255
224 237 255
224 237 255
224 237 255
224 237 255
224 237 255
224 237 255
224 237 255
224 237 255
224 237 255
224 237 255
224 237 255
224 237 255
224 237 255
224 237 255
224 237 255
224 237 255
224 237 255
224 237 255
224 237 255
224 237 255
224 237 255
224 237 255
224 237 255
224 237 255
224 237 255
224 237 255
224 237 255
224 237 255
224 237 255
224 237 255
224 237 255
224 237 255
224 237 255
224 237 255
224 237 255
224 237 255
224 237 255
224 237 255
224 237 255
224 237 255
224 237 255
224 237 255
224 237 255
224 237 255
224 237 255
224 237 255
224 237 255
224 237 255
224 237 255
224 237 255
224 237 255
224 237 255
224 237 255
224 237 255
224 237 255
224 237 255
224 237 255
224 237 255
224 237 255
224 237 255
224 237 255
224 237 255
224 237 255
224 237 255
224 237 255
224 237 255
224 237 255
224 237 255
224 237 255
223 237 255
223 237 255
223 237 255
223 237 255
223 237 255
223 237 255
223 237 255
224 237 255
224 237 255
224 237 255
224 237 255
224 237 255
224 237 255
224 237 255
224 237 255
224 237 255
224 237 255
224 237 255
224 237 255
224 237 255
224 237 255
224 237 255
224 237 255
224 237 255
224 237 255
224 237 255
224 237 255
224 237 255
224 237 255
224 237 255
224 237 255
224 237 255
224 237 255
224 237 255
224 237 255
224 237 255
224 237 255
224 237 255
224 237 255
224 237 255
224 237 255
224 237 255
224 237 255
224 237 255
224 237 255
224 237 255
224 237 255
224 237 255
224 237 255
224 237 255
224 237 255
224 237 255
224 237 255
224 237 255
224 237 255
224 237 255
224 237 255
224 237 255
224 237 255
224 237 255
224 237 255
224 237 255
224 237 255
224 237 255
224 237 255
224 237 255
224 237 255
224 237 255
224 237 255
224 237 255
224 237 255
224 237 255
224 237 255
224 237 255
224 237 255
224 237 255
224 237 255
224 237 255
224 237 255
224 237 255
224 237 255
224 237 255
224 237 255
224 237 255
224 237 255
223 236 254
222 235 253
209 222 239
209 222 239
205 217 234
178 189 204
179 190 206
173 184 198
154 164 178
154 164 178
140 149 163
116 125 137
116 125 137
99 107 119
72 80 91
61 70 80
62 70 80
61 69 80
61 69 80
61 70 80
61 70 80
61 69 80
61 69 80
62 70 80
61 69 80
61 70 80
62 70 80
61 70 80
62 70 80
62 70 80
61 70 80
62 70 80
61 69 80
61 69 80
61 70 80
61 69 80
61 69 80
61 70 80
62 70 80
61 70 80
61 69 80
61 70 80
61 69 80
62 70 80
61 69 80
61 69 80
61 70 80
61 69 80
61 69 80
61 69 80
61 70 80
61 69 80
62 70 80
61 69 80
61 69 80
61 70 80
62 70 80
61 70 80
60 68 79
49 54 61
51 56 62
49 54 60
44 49 55
46 50 56
45 49 55
46 51 58
47 52 58
47 52 59
50 55 62
48 53 59
48 53 59
48 52 59
49 54 60
45 49 55
50 55 61
46 51 57
48 52 59
48 52 58
48 52 58
46 51 57
48 53 59
44 48 54
47 52 58
51 56 63
45 49 56
47 52 58
45 49 55
48 53 59
47 52 58
49 54 61
47 52 58
47 51 57
47 52 58
50 54 61
46 50 57
52 57 64
48 53 60
45 50 56
48 53 59
47 52 58
48 53 60
51 56 64
46 51 57
45 49 55
50 55 61
49 55 62
49 54 61
48 53 59
49 54 60
54 59 66
48 53 60
46 51 57
48 53 59
46 51 58
46 51 57
45 50 56
50 55 61
49 54 60
49 54 61
47 52 58
49 53 60
44 49 55
50 55 62
46 51 57
47 51 57
49 54 60
48 52 58
47 52 58
44 48 55
43 47 53
44 49 55
46 50 56
49 54 61
48 52 58
45 50 56
45 49 55
47 51 57
47 52 59
46 51 57
46 51 57
47 52 59
48 53 59
49 54 61
48 53 60
47 52 58
49 54 61
47 51 57
48 53 59
44 48 54
51 56 62
49 54 61
49 54 61
48 53 59
49 54 60
52 58 65
47 52 58
50 55 62
47 52 58
51 55 62
48 53 59
44 48 54
45 50 56
49 54 61
47 52 59
51 56 63
50 54 61
49 54 61
45 50 56
51 56 62
49 54 60
48 52 59
45 49 55
49 54 61
48 53 60
49 54 61
45 49 56
48 53 60
45 50 56
46 51 57
45 50 56
41 45 50
48 52 59
46 50 56
45 49 55
47 51 57
59 66 76
61 70 80
61 69 80
61 70 80
61 69 80
61 70 80
61 70 80
61 69 80
61 70 80
62 70 80
61 69 80
61 69 80
61 70 80
61 69 80
61 70 80
61 70 80
62 70 80
61 69 80
61 69 80
61 69 80
61 70 80
61 70 80
61 70 80
61 70 80
61 70 80
61 70 80
61 69 80
62 70 80
61 69 80
61 70 80
61 69 80
61 70 80
62 70 80
62 70 80
61 70 80
62 70 80
62 70 80
61 70 80
62 70 80
62 70 80
61 70 80
61 70 80
61 70 80
61 70 80
69 77 87
87 95 106
108 117 128
116 125 137
150 159 173
138 148 161
163 173 188
166 176 191
178 189 204
182 193 209
194 206 222
203 215 231
213 225 242
222 235 253
225 237 255
224 237 255
224 237 255
224 237 255
224 237 255
224 237 255
224 237 255
224 237 255
224 237 255
224 237 255
224 237 255
224 237 255
224 237 255
224 237 255
224 237 255
224 237 255
224 237 255
224 237 255
224 237 255
224 237 255
224 237 255
224 237 255
224 237 255
224 237 255
224 237 255
224 237 255
224 237 255
224 237 255
224 237 255
224 237 255
224 237 255
224 237 255
224 237 255
224 237 255
224 237 255
224 237 255
224 237 255
224 237 255
224 237 255
224 237 255
224 237 255
224 237 255
224 237 255
224 237 255
224 237 255
224 237 255
224 237 255
224 237 255
224 237 255
224 237 255
224 237 255
224 237 255
224 237 255
224 237 255
224 237 255
224 237 255
224 237 255
224 237 255
224 237 255
224 237 255
224 237 255
224 237 255
224 237 255
224 237 255
224 237 255
224 237 255
224 237 255
224 237 255
224 237 255
224 237 255
224 237 255
224 237 255
224 237 255
224 237 255
224 237 255
224 237 255
224 237 255
224 237 255
224 237 255
224 237 255
224 237 255
224 237 255
224 237 255
224 237 255
224 237 255
224 237 255
224 237 255
224 237 255
224 237 255
224 237 255
224 237 255
224 237 255
224 237 255
224 237 255
224 237 255
224 237 255
224 237 255
224 237 255
224 237 255
224 237 255
224 237 255
224 237 255
224 237 255
224 237 255
224 237 255
224 237 255
224 237 255
224 237 255
224 237 255
224 237 255
224 237 255
224 237 255
224 237 255
224 237 255
224 237 255
224 237 255
224 237 255
224 237 255
224 237 255
224 237 255
224 237 255
224 237 255
224 237 255
224 237 255
224 237 255
224 237 255
224 237 255
224 237 255
224 237 255
224 237 255
224 237 255
224 237 255
224 237 255
224 237 255
224 237 255
224 237 255
224 237 255
224 237 255
224 237 255
224 237 255
224 237 255
224 237 255
225 237 255
225 237 255
223 236 254
217 230 247
212 224 241
198 210 226
186 197 213
177 188 203
174 185 200
169 179 194
151 161 175
145 155 168
130 139 151
116 125 137
86 95 106
76 83 94
61 70 80
61 69 80
61 69 80
61 70 80
61 70 80
62 70 80
61 70 80
61 69 80
61 70 80
61 70 80
61 69 80
61 70 80
62 70 80
61 70 80
61 69 80
61 70 80
61 69 80
62 70 80
61 70 80
62 70 80
61 70 80
61 69 80
62 70 80
61 70 80
61 69 80
62 70 80
61 70 80
62 70 80
61 69 80
61 70 80
61 69 80
61 69 80
62 70 80
62 70 80
61 70 80
62 70 80
62 70 80
61 70 80
61 69 80
61 70 80
61 70 80
61 70 80
61 69 80
61 69 80
62 70 80
61 70 80
61 70 80
61 70 80
61 69 80
62 70 80
61 70 80
61 69 80
61 69 80
62 70 80
61 69 80
62 70 80
61 69 80
62 70 80
51 56 63
46 51 57
49 54 61
48 53 59
47 52 58
53 58 64
44 48 54
45 49 55
47 52 59
43 48 54
48 53 59
46 51 57
48 52 59
53 58 65
49 54 61
49 54 60
49 53 60
47 51 58
46 50 56
47 52 58
49 54 60
49 54 61
49 54 61
49 54 60
48 53 59
51 56 63
50 55 61
49 54 60
47 52 58
47 52 59
48 52 59
47 51 58
51 56 63
48 53 60
48 53 59
51 56 63
47 52 59
47 51 57
46 50 56
50 55 61
48 53 59
38 42 47
49 54 61
47 52 58
51 56 63
47 51 57
46 51 58
46 50 57
51 56 63
50 55 61
49 54 60
49 54 61
49 54 61
50 54 61
48 53 59
47 52 59
48 53 59
47 52 58
48 52 58
51 56 63
50 55 62
46 50 56
49 54 61
48 53 60
44 48 54
45 49 55
48 53 59
46 51 57
46 50 56
48 53 59
50 55 62
51 56 63
46 51 57
48 53 59
49 53 60
49 54 61
48 53 60
47 52 59
49 54 61
46 51 57
48 52 59
48 53 60
45 49 55
49 54 61
49 54 60
49 54 60
47 52 58
49 54 60
51 56 63
43 48 53
48 52 58
50 56 63
49 54 60
42 47 53
49 54 61
46 50 56
49 54 60
45 49 55
45 50 56
45 50 56
48 53 59
48 53 59
48 53 60
45 50 56
44 49 55
47 52 58
49 53 59
47 52 58
45 50 56
45 50 56
47 52 58
48 52 59
48 53 60
49 53 59
45 50 56
46 50 56
45 50 56
47 53 59
41 45 51
48 53 59
49 54 61
50 55 61
46 50 56
48 53 60
44 48 54
47 52 59
61 69 80
61 70 80
61 70 80
61 69 80
61 70 80
61 69 80
62 70 80
62 70 80
61 69 80
61 70 80
61 69 80
61 69 80
61 69 80
62 70 80
62 70 80
61 69 80
61 69 80
61 70 80
62 70 80
62 70 80
62 70 80
61 69 80
62 70 80
61 70 80
61 70 80
61 69 80
61 70 80
61 69 80
61 70 80
61 70 80
61 70 80
61 70 80
61 70 80
62 70 80
62 70 80
62 70 80
61 70 80
62 70 80
62 70 80
61 70 80
61 70 80
61 70 80
62 70 80
61 70 80
61 70 80
61 69 80
61 70 80
61 70 80
62 70 80
61 69 80
61 70 80
61 70 80
61 70 80
62 70 80
62 70 80
62 70 80
61 70 80
62 70 80
75 83 94
89 97 108
108 117 128
124 133 145
150 159 173
157 167 181
169 179 194
176 186 201
177 188 203
192 204 220
191 202 218
212 224 241
219 232 250
225 237 255
225 237 255
225 237 255
224 237 255
224 237 255
224 237 255
224 237 255
224 237 255
224 237 255
224 237 255
224 237 255
224 237 255
224 237 255
224 237 255
224 237 255
224 237 255
224 237 255
224 237 255
224 237 255
224 237 255
224 237 255
224 237 255
224 237 255
224 237 255
224 237 255
224 237 255
224 237 255
224 237 255
224 237 255
224 237 255
224 237 255
224 237 255
224 237 255
224 237 255
224 237 255
224 237 255
224 237 255
224 237 255
224 237 255
224 237 255
224 237 255
224 237 255
224 237 255
224 237 255
224 237 255
224 237 255
224 237 255
224 237 255
224 237 255
224 237 255
224 237 255
224 237 255
224 237 255
224 237 255
224 237 255
224 237 255
224 237 255
224 237 255
224 237 255
224 237 255
224 237 255
224 237 255
224 237 255
224 237 255
224 237 255
224 237 255
224 237 255
224 237 255
224 237 255
224 237 255
224 237 255
224 237 255
224 237 255
224 237 255
224 237 255
224 237 255
224 237 255
224 237 255
224 237 255
224 237 255
224 237 255
224 237 255
224 237 255
224 237 255
224 237 255
224 237 255
224 237 255
224 237 255
224 237 255
224 237 255
224 237 255
224 237 255
224 237 255
224 237 255
224 237 255
224 237 255
224 237 255
224 237 255
224 237 255
224 237 255
224 237 255
224 237 255
224 237 255
224 237 255
224 237 255
224 237 255
224 237 255
224 237 255
224 237 255
224 237 255
224 237 255
224 237 255
224 237 255
224 237 255
225 237 255
225 237 255
225 237 255
225 237 255
225 237 255
217 230 247
208 221 238
200 212 229
188 200 216
169 179 194
177 188 203
181 192 207
154 164 178
122 131 143
126 135 147
104 112 124
89 97 108
69 77 87
61 69 80
62 70 80
61 70 80
62 70 80
61 69 80
61 70 80
61 70 80
62 70 80
61 69 80
60 69 80
61 69 80
62 70 80
62 70 80
61 70 80
61 70 80
61 70 80
61 69 80
61 70 80
61 70 80
61 69 80
61 69 80
61 70 80
61 69 80
61 69 80
61 69 80
62 70 80
62 70 80
61 70 80
62 70 80
62 70 80
61 69 80
61 70 80
61 69 80
61 70 80
61 69 80
61 70 80
61 69 80
61 69 80
61 69 80
61 70 80
61 69 80
62 70 80
61 70 80
61 70 80
62 70 80
61 69 80
61 69 80
62 70 80
62 70 80
62 70 80
62 70 80
61 70 80
61 70 80
61 70 80
61 69 80
62 70 80
62 70 80
61 70 80
61 69 80
62 70 80
61 70 80
61 70 80
62 70 80
61 70 80
61 69 80
62 70 80
61 69 80
61 70 80
61 70 80
61 70 80
61 70 80
52 58 66
44 48 54
48 53 59
46 50 56
45 50 56
49 53 60
42 46 51
46 51 57
45 50 56
51 56 63
44 48 54
48 53 59
45 50 56
48 53 59
48 52 59
45 50 56
47 52 58
46 50 56
46 51 57
48 52 58
50 55 61
48 53 60
47 52 59
46 50 56
47 51 57
45 50 57
48 52 58
47 51 57
48 53 59
45 50 56
46 50 56
46 50 56
51 56 63
42 47 52
51 55 62
51 56 63
50 54 61
48 53 59
52 57 64
48 52 59
46 50 57
44 48 54
48 52 59
48 52 59
49 54 61
48 53 60
45 50 56
52 57 64
50 55 61
48 52 59
48 53 59
44 48 53
50 55 61
46 50 57
45 50 56
46 52 59
45 50 56
44 49 55
51 56 63
46 51 57
49 54 60
44 48 54
49 54 61
46 50 56
47 52 58
46 51 57
48 53 59
46 50 56
46 50 56
49 54 61
46 51 58
46 50 56
48 53 60
48 53 59
50 55 62
49 54 61
46 51 57
46 50 56
49 53 60
45 49 56
48 52 58
49 54 61
46 51 57
51 56 63
46 50 56
47 52 58
46 51 57
48 53 59
49 53 60
49 54 60
48 53 59
46 51 58
47 52 58
43 48 54
47 52 58
47 52 58
46 50 56
47 52 58
44 48 54
45 49 55
46 50 56
49 54 61
45 50 56
46 51 57
50 55 61
49 54 60
47 52 59
51 56 62
49 54 61
45 50 56
48 52 59
46 50 56
50 55 62
44 48 54
49 55 61
45 50 56
43 48 53
47 51 57
46 51 57
47 52 58
44 48 54
52 57 64
50 55 61
46 50 56
46 51 57
53 58 66
62 70 80
61 69 80
61 70 80
60 69 80
61 69 80
61 69 80
61 70 80
61 69 80
61 70 80
61 69 80
62 70 80
61 70 80
62 70 80
61 70 80
61 70 80
62 70 80
61 69 80
62 70 80
62 70 80
61 69 80
61 70 80
61 70 80
61 69 80
61 69 80
61 69 80
61 69 80
61 69 80
62 70 80
61 69 80
61 70 80
62 70 80
62 70 80
61 70 80
61 70 80
61 69 80
61 70 80
61 69 80
62 70 80
61 70 80
62 70 80
62 70 80
61 70 80
61 70 80
62 70 80
62 70 80
61 69 80
61 69 80
61 69 80
61 69 80
61 69 80
61 70 80
62 70 80
62 70 80
61 70 80
62 70 80
61 70 80
61 70 80
61 69 80
61 70 80
62 70 80
61 69 80
61 69 80
61 70 80
61 69 80
61 69 80
62 70 80
62 70 80
62 70 80
61 70 80
62 70 80
62 70 80
65 73 84
87 95 106
104 112 124
124 133 145
130 139 151
163 173 188
151 161 175
186 197 213
182 193 209
192 203 220
203 215 231
215 227 245
218 231 248
225 237 255
225 237 255
225 237 255
225 237 255
224 237 255
224 237 255
224 237 255
224 237 255
224 237 255
224 237 255
224 237 255
224 237 255
224 237 255
224 237 255
224 237 255
224 237 255
224 237 255
224 237 255
224 237 255
224 237 255
224 237 255
224 237 255
224 237 255
224 237 255
224 237 255
224 237 255
224 237 255
224 237 255
224 237 255
224 237 255
224 237 255
224 237 255
224 237 255
224 237 255
224 237 255
224 237 255
224 237 255
224 237 255
224 237 255
224 237 255
224 237 255
224 237 255
224 237 255
224 237 255
224 237 255
224 237 255
224 237 255
224 237 255
224 237 255
224 237 255
224 237 255
224 237 255
224 237 255
224 237 255
224 237 255
224 237 255
224 237 255
224 237 255
224 237 255
224 237 255
224 237 255
224 237 255
224 237 255
224 237 255
224 237 255
224 237 255
224 237 255
224 237 255
224 237 255
224 237 255
224 237 255
224 237 255
224 237 255
224 237 255
224 237 255
224 237 255
224 237 255
224 237 255
224 237 255
224 237 255
224 237 255
224 237 255
224 237 255
224 237 255
224 237 255
224 237 255
224 237 255
224 237 255
224 237 255
225 237 255
225 237 255
225 237 255
225 237 255
224 236 254
219 232 250
209 222 239
206 218 235
193 205 221
177 188 203
174 185 200
159 169 183
142 151 164
132 141 153
104 112 124
72 80 91
79 86 97
61 70 80
61 70 80
61 70 80
62 70 80
62 70 80
62 70 80
62 70 80
62 70 80
61 69 80
61 70 80
61 70 80
62 70 80
61 69 80
62 70 80
62 70 80
62 70 80
61 70 80
61 69 80
61 69 80
61 70 80
61 70 80
62 70 80
61 69 80
61 69 80
61 70 80
61 69 80
62 70 80
61 70 80
61 69 80
62 70 80
62 70 80
62 70 80
61 69 80
61 70 80
61 70 80
62 70 80
62 70 80
61 70 80
61 69 80
61 70 80
61 69 80
61 70 80
61 70 80
62 70 80
61 69 80
61 69 80
61 70 80
62 70 80
61 69 80
61 69 80
61 70 80
61 69 80
61 70 80
61 69 80
61 70 80
62 70 80
61 69 80
61 70 80
61 70 80
61 70 80
61 70 80
61 70 80
61 69 80
61 69 80
61 69 80
61 69 80
61 70 80
61 69 80
62 70 80
61 70 80
62 70 80
61 70 80
61 70 80
61 69 80
61 69 80
61 69 80
62 70 80
61 70 80
61 70 80
61 70 80
62 70 80
61 69 80
61 69 80
61 69 80
54 61 70
47 51 57
43 46 52
43 47 52
46 50 56
45 49 55
47 52 58
47 52 58
46 51 57
49 54 61
48 52 59
48 52 59
48 53 59
47 52 58
50 54 60
46 51 57
47 51 58
49 54 60
43 48 54
48 53 60
47 52 58
44 49 55
48 52 59
44 48 54
46 51 57
47 51 58
47 52 58
46 51 57
47 52 58
47 52 58
47 52 58
48 52 58
44 48 54
46 51 57
43 47 53
45 50 56
47 51 58
49 54 60
47 52 58
47 51 57
44 49 55
47 52 59
43 48 55
45 49 55
44 49 56
45 49 55
50 55 62
46 50 56
46 50 56
48 53 59
48 53 59
50 55 62
45 50 56
49 54 60
46 51 57
46 51 57
44 49 56
45 49 55
45 49 56
48 53 59
49 54 60
43 47 52
46 50 56
48 53 59
47 52 59
46 51 57
47 52 59
45 50 56
47 52 58
48 52 58
43 48 54
50 55 61
50 55 61
44 48 54
44 49 55
48 53 59
50 55 61
47 51 57
49 54 60
48 53 60
52 56 63
46 51 57
49 53 59
48 53 59
48 53 60
47 52 58
44 49 55
49 54 61
51 55 62
46 50 56
47 52 59
47 52 58
47 51 58
51 56 62
49 53 60
46 51 57
47 52 59
52 57 63
50 54 61
48 53 59
46 50 57
41 45 51
47 51 57
47 51 57
45 49 55
46 50 56
44 49 55
47 51 57
48 52 59
46 50 56
43 48 53
45 50 56
48 53 60
49 53 59
44 48 54
47 52 58
49 54 60
49 53 60
46 51 57
47 51 57
46 51 57
46 50 56
48 52 58
44 48 54
50 54 60
54 61 71
62 70 80
62 70 80
61 69 80
62 70 80
61 70 80
61 69 80
62 70 80
62 70 80
61 70 80
61 70 80
61 70 80
61 70 80
61 69 80
61 69 80
61 70 80
61 70 80
61 70 80
61 69 80
61 70 80
61 69 80
61 69 80
62 70 80
61 69 80
61 69 80
61 69 80
61 70 80
61 69 80
61 70 80
61 70 80
61 70 80
61 70 80
61 70 80
61 69 80
61 69 80
61 70 80
61 70 80
61 69 80
61 70 80
61 69 80
62 70 80
62 70 80
62 70 80
62 70 80
62 70 80
61 69 80
61 69 80
61 70 80
61 70 80
61 70 80
61 69 80
61 69 80
62 70 80
61 69 80
61 70 80
61 70 80
61 69 80
62 70 80
62 70 80
61 70 80
62 70 80
62 70 80
62 70 80
61 69 80
61 69 80
61 69 80
61 69 80
62 70 80
61 70 80
62 70 80
61 69 80
61 69 80
62 70 80
61 70 80
62 70 80
62 70 80
62 70 80
61 69 80
62 70 80
62 70 80
62 70 80
61 70 80
61 70 80
62 70 80
61 69 80
75 83 94
92 100 111
116 125 137
122 131 143
130 139 151
163 173 188
169 179 194
193 205 221
193 205 221
198 210 226
208 221 238
220 233 251
225 237 255
225 237 255
225 237 255
225 237 255
225 237 255
225 237 255
224 237 255
224 237 255
224 237 255
224 237 255
224 237 255
224 237 255
224 237 255
224 237 255
224 237 255
224 237 255
224 237 255
224 237 255
224 237 255
224 237 255
224 237 255
224 237 255
224 237 255
224 237 255
224 237 255
224 237 255
224 237 255
224 237 255
224 237 255
224 237 255
224 237 255
224 237 255
224 237 255
224 237 255
224 237 255
224 237 255
224 237 255
224 237 255
224 237 255
224 237 255
224 237 255
224 237 255
224 237 255
224 237 255
224 237 255
224 237 255
224 237 255
224 237 255
224 237 255
224 237 255
224 237 255
224 237 255
224 237 255
224 237 255
224 237 255
224 237 255
224 237 255
224 237 255
224 237 255
224 237 255
224 237 255
224 237 255
224 237 255
224 237 255
225 237 255
225 237 255
225 237 255
225 237 255
225 237 255
225 237 255
219 232 250
212 224 241
193 205 221
188 200 216
170 181 195
166 176 191
148 158 171
130 139 151
142 151 164
108 116 128
96 105 116
68 77 87
62 70 80
61 70 80
61 69 80
62 70 80
62 70 80
61 70 80
62 70 80
61 70 80
61 69 80
61 70 80
61 69 80
61 70 80
62 70 80
61 70 80
61 69 80
61 69 80
61 69 80
61 69 80
61 70 80
61 70 80
61 70 80
62 70 80
61 70 80
61 69 80
62 70 80
61 69 80
61 70 80
60 69 80
61 70 80
61 70 80
61 69 80
61 70 80
62 70 80
61 69 80
62 70 80
62 70 80
61 69 80
61 70 80
61 70 80
61 69 80
62 70 80
61 70 80
61 69 80
61 69 80
61 70 80
61 69 80
61 70 80
61 69 80
61 69 80
61 69 80
62 70 80
61 69 80
61 69 80
61 70 80
62 70 80
62 70 80
61 70 80
61 70 80
61 69 80
61 69 80
61 69 80
61 69 80
62 70 80
61 69 80
61 70 80
61 69 80
62 70 80
61 70 80
61 70 80
61 70 80
61 70 80
61 70 80
61 70 80
61 70 80
61 69 80
62 70 80
62 70 80
61 70 80
61 70 80
62 70 80
61 69 80
62 70 80
61 69 80
61 69 80
61 69 80
61 69 80
61 69 80
62 70 80
61 69 80
60 69 80
61 69 80
62 70 80
61 70 80
61 69 80
61 69 80
61 69 80
59 67 78
45 49 55
41 45 51
43 48 54
48 53 60
50 55 61
48 52 58
49 53 60
45 49 55
46 50 56
46 51 57
44 48 54
50 55 62
42 46 52
48 53 59
45 50 56
47 52 58
49 54 61
47 52 59
49 54 60
46 50 56
46 51 57
43 47 53
47 51 57
44 49 55
47 52 58
44 49 55
47 52 58
46 51 57
46 51 57
50 55 61
52 56 63
46 50 56
43 48 53
47 52 58
46 51 57
47 51 58
47 51 58
50 55 62
44 49 55
49 54 61
49 54 60
45 50 56
46 51 57
45 49 55
49 54 61
48 52 58
43 47 53
45 50 57
45 50 56
46 51 57
46 51 56
48 53 60
50 54 61
46 51 57
41 46 52
47 52 58
47 52 58
47 51 58
47 52 58
46 51 57
46 50 57
44 48 54
48 53 60
49 54 60
49 54 60
46 51 57
51 56 63
49 55 61
47 51 57
48 53 59
50 54 61
50 55 61
46 51 57
48 52 58
43 47 53
45 50 57
49 53 59
47 52 58
48 53 59
46 51 58
47 52 58
48 52 58
45 49 55
49 54 61
49 54 61
48 53 59
48 53 59
48 52 58
49 54 60
46 50 56
44 49 55
46 51 57
48 53 59
43 48 54
49 54 60
47 51 57
45 50 56
48 54 61
46 51 57
46 50 56
46 51 58
50 54 61
46 50 56
44 49 55
48 53 59
49 53 60
43 48 53
46 51 57
41 45 51
46 50 57
47 51 58
47 52 58
46 50 57
50 55 62
47 51 58
47 52 58
46 51 57
49 54 60
45 49 55
48 53 60
48 54 61
48 53 59
47 51 57
49 53 60
60 68 78
61 70 80
61 69 80
61 69 80
60 69 79
61 70 80
62 70 80
61 70 80
61 70 80
61 69 80
61 70 80
61 70 80
61 70 80
61 70 80
61 70 80
61 69 80
61 69 80
61 70 80
62 70 80
61 69 80
62 70 80
61 69 80
62 70 80
61 69 80
62 70 80
61 69 80
60 69 80
62 70 80
61 69 80
61 70 80
61 69 80
62 70 80
61 69 80
61 69 80
62 70 80
61 70 80
61 70 80
61 70 80
61 69 80
62 70 80
61 69 80
62 70 80
61 69 80
62 70 80
62 70 80
61 69 80
62 70 80
61 70 80
62 70 80
61 69 80
61 69 80
61 70 80
61 70 80
61 70 80
62 70 80
61 69 80
61 70 80
61 70 80
61 70 80
61 70 80
61 70 80
61 69 80
61 70 80
62 70 80
61 69 80
61 69 80
61 70 80
61 69 80
61 69 80
61 69 80
61 69 80
61 70 80
62 70 80
61 70 80
61 69 80
62 70 80
61 69 80
61 69 80
61 70 80
61 70 80
61 70 80
61 69 80
61 70 80
62 70 80
61 70 80
61 69 80
61 69 80
62 70 80
62 70 80
61 70 80
61 69 80
61 70 80
62 70 80
61 70 80
62 70 80
61 70 80
61 70 80
65 73 84
87 95 106
104 112 124
131 141 153
130 139 151
156 166 180
177 188 203
177 188 203
190 201 217
196 207 224
208 221 238
216 229 246
224 236 254
225 237 255
225 237 255
225 237 255
225 237 255
225 237 255
225 237 255
224 237 255
224 237 255
224 237 255
224 237 255
224 237 255
224 237 255
224 237 255
224 237 255
224 237 255
224 237 255
224 237 255
224 237 255
224 237 255
224 237 255
224 237 255
224 237 255
224 237 255
224 237 255
224 237 255
224 237 255
224 237 255
224 237 255
224 237 255
224 237 255
224 237 255
224 237 255
224 237 255
224 237 255
224 237 255
224 237 255
224 237 255
225 237 255
225 237 255
225 237 255
225 237 255
225 237 255
225 237 255
225 237 255
225 237 255
215 227 245
207 219 236
196 207 224
192 203 220
165 175 189
159 169 183
166 176 191
148 158 171
120 129 141
126 135 147
84 92 103
65 73 84
61 70 80
62 70 80
62 70 80
62 70 80
60 69 80
62 70 80
61 69 80
61 69 80
61 70 80
61 70 80
61 70 80
61 70 80
61 70 80
62 70 80
61 70 80
61 69 80
61 69 80
62 70 80
61 70 80
62 70 80
62 70 80
61 69 80
61 70 80
61 70 80
61 70 80
62 70 80
61 70 80
61 70 80
61 70 80
62 70 80
61 70 80
61 70 80
61 70 80
62 70 80
62 70 80
61 70 80
61 70 80
61 70 80
61 70 80
61 69 80
61 70 80
61 70 80
61 70 80
62 70 80
62 70 80
61 69 80
61 70 80
62 70 80
61 70 80
61 69 80
61 70 80
61 70 80
61 70 80
62 70 80
61 70 80
61 69 80
61 70 80
61 70 80
61 70 80
61 70 80
62 70 80
61 70 80
61 70 80
61 70 80
61 69 80
62 70 80
62 70 80
61 69 80
61 70 80
61 70 80
61 69 80
61 70 80
61 70 80
61 70 80
61 70 80
61 69 80
61 69 80
61 69 80
62 70 80
61 70 80
61 69 80
61 69 80
61 69 80
61 69 80
61 69 80
61 69 80
61 70 80
61 69 80
61 69 80
61 69 80
61 69 80
61 69 80
61 69 80
61 70 80
60 69 79
61 70 80
61 69 80
60 69 80
61 69 80
61 69 80
61 69 80
61 69 80
62 70 80
61 69 80
62 70 80
61 69 80
61 69 80
61 69 80
61 69 80
48 53 60
48 53 59
48 53 59
44 48 54
45 50 56
43 47 53
46 51 57
43 48 54
48 52 59
49 54 60
44 49 55
47 51 57
45 50 56
46 51 57
45 49 55
49 53 60
46 51 57
50 56 63
44 48 54
50 55 61
48 53 60
50 54 60
48 53 59
46 51 57
45 49 56
48 53 60
51 56 63
47 52 58
46 50 56
45 50 56
46 50 56
45 50 56
49 54 60
49 53 60
43 47 53
48 53 59
45 49 55
47 51 57
46 51 57
46 51 57
44 48 55
44 48 55
45 49 55
47 51 58
46 50 56
47 51 58
48 52 58
48 53 59
46 50 57
46 50 56
49 53 60
45 50 56
49 54 61
48 53 59
47 51 58
45 50 56
50 55 62
43 48 53
45 50 56
51 56 63
46 51 58
46 51 57
45 49 55
42 47 53
48 52 58
44 48 55
48 53 59
47 51 58
48 52 59
45 50 56
45 49 55
45 49 56
43 47 53
42 46 52
52 57 64
47 52 58
50 55 62
49 54 60
47 52 58
44 49 55
48 52 59
47 52 59
47 52 58
46 51 57
47 52 58
48 52 59
43 48 54
48 53 59
50 54 61
51 56 63
49 54 61
46 50 56
49 53 60
51 56 63
48 52 59
44 48 55
48 52 58
47 51 57
50 54 60
49 54 60
47 52 58
47 52 58
47 51 58
50 55 62
49 54 60
44 48 54
41 45 50
43 48 54
42 47 52
41 46 52
44 49 55
45 49 56
46 51 57
45 49 55
46 50 57
46 51 57
48 53 59
49 54 60
47 51 57
45 49 55
46 51 57
46 50 56
46 51 57
46 51 58
62 70 80
61 70 80
62 70 80
61 69 80
62 70 80
61 69 80
61 69 80
61 69 80
61 69 80
61 69 80
61 69 80
61 69 80
61 70 80
61 70 80
62 70 80
61 69 80
61 69 80
61 70 80
61 69 80
62 70 80
62 70 80
61 70 80
61 70 80
62 70 80
62 70 80
61 70 80
61 69 80
62 70 80
61 70 80
62 70 80
61 70 80
61 70 80
61 70 80
61 69 80
61 70 80
61 69 80
61 70 80
61 70 80
61 69 80
61 70 80
60 69 80
61 69 80
61 69 80
61 70 80
61 69 80
60 69 80
61 70 80
61 69 80
61 69 80
62 70 80
62 70 80
61 69 80
61 69 80
62 70 80
61 70 80
60 69 80
61 70 80
61 69 80
61 69 80
62 70 80
61 69 80
61 70 80
61 70 80
61 70 80
61 69 80
62 70 80
62 70 80
62 70 80
61 70 80
61 70 80
62 70 80
61 69 80
61 69 80
61 69 80
61 70 80
61 69 80
61 70 80
61 69 80
61 70 80
61 69 80
61 70 80
61 70 80
61 70 80
61 69 80
61 69 80
61 69 80
61 70 80
61 70 80
62 70 80
62 70 80
61 70 80
61 70 80
61 70 80
62 70 80
61 70 80
61 69 80
62 70 80
62 70 80
61 70 80
61 69 80
61 69 80
61 69 80
61 70 80
61 70 80
61 69 80
61 69 80
61 69 80
62 70 80
62 70 80
65 73 84
97 105 116
110 119 131
126 135 147
133 142 155
151 161 175
176 186 201
172 182 197
196 207 224
198 210 226
215 227 245
218 231 248
225 237 255
225 237 255
225 237 255
225 237 255
225 237 255
225 237 255
225 237 255
224 237 255
224 237 255
224 237 255
224 237 255
224 237 255
224 237 255
224 237 255
224 237 255
224 237 255
224 237 255
225 237 255
225 237 255
225 237 255
225 237 255
225 237 255
224 236 254
211 223 240
202 213 230
196 207 224
179 190 206
170 181 195
162 172 186
150 159 173
144 153 166
115 123 135
91 100 111
75 83 94
61 69 80
61 70 80
61 70 80
61 69 80
61 69 80
61 70 80
62 70 80
62 70 80
61 69 80
61 69 80
62 70 80
61 70 80
61 70 80
62 70 80
62 70 80
61 69 80
61 70 80
61 70 80
61 70 80
62 70 80
62 70 80
61 70 80
61 70 80
61 70 80
61 70 80
61 70 80
61 70 80
61 70 80
61 70 80
62 70 80
61 69 80
61 70 80
61 69 80
61 69 80
61 70 80
61 70 80
61 70 80
61 69 80
62 70 80
61 70 80
61 69 80
61 70 80
61 70 80
62 70 80
61 70 80
61 69 80
61 70 80
61 70 80
61 69 80
62 70 80
61 69 80
62 70 80
61 69 80
62 70 80
62 70 80
61 70 80
61 69 80
62 70 80
61 69 80
61 69 80
61 69 80
61 70 80
62 70 80
61 70 80
61 70 80
62 70 80
61 70 80
61 69 80
62 70 80
61 69 80
62 70 80
61 69 80
62 70 80
61 70 80
61 69 80
61 69 80
62 70 80
61 70 80
61 69 80
61 69 80
62 70 80
61 69 80
61 70 80
61 70 80
61 70 80
62 70 80
61 69 80
61 70 80
62 70 80
61 70 80
61 69 80
61 70 80
61 69 80
61 69 80
61 69 80
60 69 80
62 70 80
61 70 80
61 69 80
61 69 80
61 69 80
61 70 80
61 70 80
61 69 80
62 70 80
60 69 80
61 70 80
62 70 80
61 70 80
61 69 80
61 69 80
61 69 80
62 70 80
61 69 80
61 69 80
62 70 80
61 69 80
61 70 80
61 69 80
61 69 80
61 69 80
52 59 67
43 47 53
41 45 51
45 49 55
47 52 58
48 52 58
47 52 59
47 51 58
46 51 57
46 50 56
47 52 58
47 51 57
46 50 56
43 48 54
47 51 57
45 50 56
49 53 59
50 54 61
48 53 59
50 55 61
46 51 58
42 47 52
44 48 54
47 52 58
47 51 57
47 51 58
46 50 56
44 49 55
42 47 52
46 50 56
49 54 61
50 55 62
45 49 54
47 52 58
52 57 64
46 51 57
46 50 56
42 47 52
46 50 57
48 52 58
45 50 56
47 52 58
44 49 54
50 54 61
45 49 55
44 48 54
45 49 56
45 50 56
48 53 59
44 49 55
48 53 59
44 48 54
44 48 54
47 51 57
49 54 61
44 48 55
45 50 56
45 50 56
45 50 56
51 56 63
47 52 58
45 50 56
45 50 56
46 50 56
48 52 59
50 55 61
45 49 55
46 50 57
48 52 58
48 52 59
42 46 52
41 45 51
44 48 54
45 49 55
46 50 56
49 54 61
47 52 58
45 49 55
43 48 54
43 47 53
48 53 59
45 50 56
45 50 57
44 49 55
51 56 62
46 50 56
48 53 60
38 42 47
46 50 56
45 49 55
49 54 61
46 50 57
47 52 58
46 50 57
48 52 59
47 52 58
45 50 56
50 55 61
47 52 58
46 50 56
41 45 51
47 52 58
50 55 61
43 48 54
48 53 60
45 49 55
46 51 57
48 53 59
49 53 60
49 54 61
49 53 60
47 52 58
48 53 59
47 52 58
45 50 56
50 55 61
47 51 58
44 48 54
47 51 58
47 52 58
46 51 57
47 51 58
45 49 54
53 59 68
61 69 80
61 69 80
61 70 80
61 70 80
61 69 80
61 69 80
61 69 80
61 69 80
61 69 80
61 69 80
61 70 80
62 70 80
62 70 80
61 70 80
61 70 80
61 70 80
61 70 80
61 69 80
61 70 80
61 70 80
61 70 80
61 69 80
61 69 80
61 69 80
62 70 80
61 69 80
61 69 80
61 69 80
61 70 80
61 69 80
61 69 80
61 69 80
61 69 80
61 69 80
62 70 80
61 69 80
61 69 80
61 69 80
62 70 80
62 70 80
61 70 80
61 69 80
61 69 80
61 69 80
62 70 80
61 70 80
61 70 80
61 69 80
62 70 80
62 70 80
62 70 80
61 69 80
61 69 80
61 70 80
61 70 80
61 70 80
62 70 80
62 70 80
61 70 80
62 70 80
62 70 80
61 70 80
61 70 80
61 69 80
61 70 80
61 69 80
61 70 80
61 69 80
61 69 80
61 69 80
61 69 80
61 70 80
61 69 80
61 69 80
61 70 80
62 70 80
61 69 80
61 70 80
61 70 80
62 70 80
62 70 80
61 70 80
61 69 80
61 69 80
61 70 80
62 70 80
62 70 80
62 70 80
62 70 80
62 70 80
62 70 80
62 70 80
62 70 80
62 70 80
61 70 80
61 69 80
61 69 80
62 70 80
61 70 80
61 70 80
61 70 80
61 70 80
61 70 80
61 69 80
61 70 80
62 70 80
62 70 80
61 70 80
62 70 80
62 70 80
61 69 80
62 70 80
61 69 80
62 70 80
62 70 80
61 70 80
61 70 80
62 70 80
62 70 80
61 70 80
61 70 80
81 89 100
97 105 116
104 112 124
147 156 170
140 149 163
159 169 183
170 181 195
178 189 204
190 201 217
211 223 240
213 225 242
221 234 252
225 237 255
225 237 255
225 237 255
225 237 255
225 237 255
148 158 171
147 156 170
120 129 141
102 110 121
89 97 108
61 70 80
62 70 80
61 69 80
61 70 80
61 70 80
62 70 80
61 70 80
61 69 80
62 70 80
61 69 80
61 69 80
62 70 80
61 70 80
62 70 80
61 70 80
61 69 80
62 70 80
62 70 80
62 70 80
61 70 80
61 70 80
61 69 80
61 70 80
62 70 80
61 70 80
61 69 80
61 70 80
61 70 80
62 70 80
62 70 80
61 70 80
62 70 80
61 70 80
61 70 80
62 70 80
61 70 80
62 70 80
61 69 80
61 69 80
61 69 80
61 69 80
62 70 80
61 69 80
61 70 80
62 70 80
61 70 80
61 70 80
61 70 80
62 70 80
61 70 80
61 70 80
61 69 80
61 70 80
62 70 80
61 70 80
62 70 80
61 70 80
61 69 80
62 70 80
61 69 80
61 70 80
61 69 80
61 69 80
61 69 80
61 69 80
62 70 80
61 70 80
61 70 80
61 70 80
61 69 80
61 70 80
62 70 80
61 70 80
61 69 80
62 70 80
62 70 80
61 70 80
61 69 80
62 70 80
61 70 80
62 70 80
62 70 80
61 70 80
61 70 80
61 69 80
61 69 80
62 70 80
61 70 80
61 69 80
61 69 80
61 70 80
61 69 80
62 70 80
61 70 80
61 69 80
61 70 80
61 69 80
61 69 80
61 69 80
62 70 80
61 69 80
61 69 80
61 70 80
61 69 80
61 70 80
62 70 80
61 69 80
62 70 80
61 69 80
61 69 80
62 70 80
61 70 80
61 70 80
61 69 80
61 69 80
61 69 80
60 69 80
61 69 80
61 69 80
61 69 80
61 69 80
61 69 80
61 69 80
61 69 80
61 69 80
61 69 80
61 69 80
60 69 80
60 69 79
61 69 80
61 69 80
61 69 80
61 69 80
59 67 77
44 49 55
45 50 56
47 51 58
50 55 62
43 48 54
46 51 57
43 48 53
48 52 58
48 53 59
45 50 56
45 50 56
45 49 55
48 52 59
42 46 52
46 50 56
44 49 55
45 50 56
46 50 56
44 48 54
45 49 55
46 50 56
46 50 56
43 47 52
46 51 57
46 51 57
42 46 52
44 49 55
43 48 54
43 47 53
45 49 55
45 50 56
47 52 58
45 50 56
44 49 55
48 53 59
48 52 58
44 48 54
48 52 58
46 50 56
43 47 53
48 52 59
42 47 53
45 49 55
47 52 58
48 53 59
46 50 56
49 53 60
44 49 56
44 49 55
40 44 49
49 54 60
43 47 53
47 52 58
45 49 55
45 50 57
45 50 56
44 48 54
48 53 59
47 52 58
47 51 58
46 51 57
45 49 56
48 52 58
47 52 58
46 50 56
47 51 58
43 48 53
48 52 59
45 49 55
47 51 57
46 50 56
51 56 63
43 47 53
46 51 57
43 47 53
44 48 54
49 54 60
47 51 58
45 50 56
48 53 60
49 54 60
52 56 63
48 53 59
46 50 57
47 52 58
47 51 58
44 48 54
45 49 56
45 49 55
46 51 57
47 51 57
45 49 55
44 48 54
44 48 54
47 51 57
46 50 57
47 52 58
49 54 60
46 51 57
50 55 61
49 54 60
47 52 59
50 55 62
42 47 52
47 52 58
46 51 57
45 50 56
46 51 57
47 52 58
46 51 57
43 47 53
47 52 58
48 52 58
43 47 53
46 50 56
46 51 57
48 53 59
42 46 52
43 47 52
44 48 54
47 51 57
47 52 58
59 67 77
60 68 79
61 69 80
61 69 80
61 69 80
60 69 80
61 69 80
61 69 80
61 69 80
61 69 80
61 69 80
61 69 80
61 69 80
61 69 80
61 69 80
62 70 80
62 70 80
61 70 80
62 70 80
61 69 80
61 69 80
60 69 79
61 70 80
61 70 80
62 70 80
61 69 80
61 69 80
61 69 80
61 70 80
61 70 80
62 70 80
61 69 80
62 70 80
61 69 80
61 70 80
61 69 80
60 69 79
61 69 80
61 69 80
61 69 80
61 69 80
61 69 80
61 70 80
61 70 80
61 69 80
61 69 80
62 70 80
61 70 80
61 69 80
61 69 80
61 70 80
62 70 80
62 70 80
61 69 80
61 70 80
61 69 80
61 70 80
61 69 80
61 69 80
62 70 80
61 70 80
62 70 80
61 69 80
61 70 80
61 69 80
61 69 80
61 70 80
62 70 80
61 70 80
61 70 80
61 70 80
62 70 80
61 69 80
61 70 80
62 70 80
61 69 80
61 70 80
62 70 80
61 69 80
61 70 80
62 70 80
61 70 80
61 70 80
61 70 80
61 70 80
61 69 80
61 70 80
61 70 80
61 69 80
61 70 80
61 69 80
61 70 80
61 69 80
61 69 80
61 70 80
61 69 80
61 70 80
61 70 80
61 69 80
61 70 80
61 69 80
61 70 80
62 70 80
62 70 80
61 70 80
61 70 80
61 70 80
61 70 80
61 70 80
61 69 80
61 70 80
62 70 80
61 70 80
61 70 80
62 70 80
62 70 80
61 70 80
61 69 80
61 70 80
61 70 80
61 69 80
61 69 80
61 70 80
61 70 80
61 70 80
61 69 80
61 69 80
62 70 80
61 69 80
61 69 80
61 69 80
61 70 80
61 70 80
69 77 87
90 98 108
99 107 119
108 117 128
140 150 163
153 163 176
61 70 80
61 70 80
61 70 80
61 69 80
61 69 80
61 70 80
62 70 80
62 70 80
61 70 80
61 69 80
61 70 80
62 70 80
62 70 80
61 70 80
62 70 80
62 70 80
61 69 80
61 70 80
62 70 80
62 70 80
61 69 80
62 70 80
62 70 80
61 70 80
62 70 80
62 70 80
61 69 80
61 69 80
61 69 80
62 70 80
61 70 80
61 69 80
62 70 80
61 70 80
61 70 80
61 70 80
62 70 80
61 69 80
61 69 80
62 70 80
62 70 80
61 69 80
61 69 80
61 69 80
62 70 80
61 70 80
61 69 80
62 70 80
62 70 80
62 70 80
61 70 80
61 69 80
61 70 80
61 69 80
61 69 80
62 70 80
62 70 80
62 70 80
61 69 80
61 70 80
61 70 80
61 69 80
62 70 80
61 70 80
61 70 80
62 70 80
61 69 80
61 70 80
61 70 80
61 70 80
60 69 80
61 69 80
61 70 80
61 70 80
61 69 80
61 69 80
61 69 80
62 70 80
61 70 80
61 69 80
61 70 80
62 70 80
62 70 80
61 69 80
61 69 80
62 70 80
62 70 80
62 70 80
61 70 80
61 70 80
61 69 80
62 70 80
61 69 80
61 69 80
61 69 80
62 70 80
61 69 80
62 70 80
62 70 80
62 70 80
61 69 80
61 70 80
62 70 80
61 69 80
60 69 80
61 69 80
61 69 80
61 69 80
61 69 80
61 69 80
61 70 80
61 69 80
61 69 80
60 69 80
62 70 80
62 70 80
61 69 80
61 69 80
61 69 80
61 70 80
61 69 80
61 69 80
62 70 80
61 69 80
60 69 80
61 69 80
61 69 80
60 69 80
61 69 80
61 69 80
61 69 80
61 69 80
62 70 80
62 70 80
61 70 80
61 70 80
61 69 80
61 70 80
61 70 80
51 56 63
40 44 49
48 52 59
45 49 56
48 52 59
47 52 58
41 45 50
45 49 55
46 51 57
47 51 57
48 52 59
48 53 59
47 52 58
47 51 57
47 52 58
48 52 59
47 51 57
45 49 55
45 49 55
50 54 60
48 52 59
44 48 53
48 53 60
48 53 59
51 55 62
45 49 55
49 53 59
47 52 58
45 50 56
46 50 56
51 56 63
46 51 56
44 49 55
46 51 57
50 54 61
50 55 62
46 51 57
44 49 55
45 50 56
44 48 54
48 53 60
48 53 59
46 50 56
46 51 57
42 47 53
44 49 55
45 49 55
40 45 50
45 49 55
46 51 57
48 53 59
48 53 59
43 47 53
48 52 58
46 51 57
45 49 55
48 52 58
46 51 57
45 49 55
47 51 57
49 54 61
50 55 62
46 51 58
48 53 59
44 49 55
41 45 51
44 48 55
44 49 55
51 56 62
48 52 59
47 52 59
46 51 57
44 48 54
44 48 54
50 55 61
43 47 53
47 52 58
46 51 57
48 52 59
43 48 54
48 53 59
49 54 60
45 50 56
44 49 55
43 48 54
48 53 59
50 54 61
47 52 58
46 51 57
51 56 63
48 53 59
51 56 62
40 44 50
43 48 54
48 53 59
44 48 54
42 46 52
46 50 56
46 51 57
45 50 56
46 51 57
47 52 58
48 52 59
46 51 57
44 49 55
43 47 53
42 46 52
44 49 55
46 50 56
45 49 55
48 53 60
47 51 58
43 47 53
44 48 54
45 50 56
45 49 55
42 46 51
44 48 54
45 50 56
44 49 54
45 50 56
47 53 60
61 69 80
61 69 80
61 69 80
61 69 80
61 69 80
61 69 80
62 70 80
62 70 80
61 69 80
61 69 80
61 70 80
61 70 80
60 68 79
62 70 80
61 69 80
61 69 80
62 70 80
61 69 80
60 69 80
61 69 80
61 69 80
61 69 80
61 69 80
60 69 80
61 70 80
61 69 80
62 70 80
61 69 80
61 70 80
62 70 80
61 69 80
61 70 80
61 70 80
61 69 80
62 70 80
61 69 80
61 70 80
61 69 80
62 70 80
62 70 80
61 69 80
61 69 80
61 70 80
61 69 80
62 70 80
62 70 80
61 70 80
61 70 80
61 69 80
61 70 80
61 70 80
62 70 80
62 70 80
61 70 80
61 69 80
61 70 80
60 69 80
61 70 80
62 70 80
61 69 80
61 70 80
62 70 80
61 69 80
62 70 80
61 69 80
61 69 80
61 69 80
61 69 80
62 70 80
61 69 80
62 70 80
61 69 80
61 70 80
61 70 80
61 70 80
61 70 80
61 70 80
62 70 80
61 70 80
61 69 80
61 70 80
61 69 80
61 70 80
62 70 80
62 70 80
62 70 80
60 69 80
62 70 80
61 69 80
61 70 80
61 69 80
61 70 80
62 70 80
61 70 80
61 69 80
61 70 80
61 69 80
62 70 80
61 69 80
61 69 80
62 70 80
61 69 80
62 70 80
61 70 80
61 69 80
61 69 80
61 69 80
61 70 80
61 69 80
61 70 80
61 69 80
61 70 80
61 70 80
61 69 80
62 70 80
61 70 80
61 69 80
62 70 80
61 70 80
62 70 80
62 70 80
61 70 80
61 70 80
61 70 80
62 70 80
61 70 80
61 69 80
62 70 80
61 70 80
61 69 80
61 70 80
62 70 80
61 69 80
61 69 80
62 70 80
61 69 80
61 70 80
61 70 80
62 70 80
62 70 80
62 70 80
61 70 80
61 70 80
61 70 80
61 69 80
62 70 80
61 70 80
61 70 80
61 70 80
62 70 80
61 69 80
61 69 80
62 70 80
62 70 80
62 70 80
61 70 80
61 69 80
62 70 80
61 69 80
61 69 80
61 70 80
62 70 80
61 69 80
61 70 80
62 70 80
61 70 80
61 70 80
61 70 80
61 69 80
61 69 80
62 70 80
62 70 80
62 70 80
61 70 80
61 69 80
61 70 80
62 70 80
61 69 80
61 70 80
62 70 80
62 70 80
61 70 80
61 70 80
61 70 80
61 70 80
61 70 80
61 70 80
62 70 80
62 70 80
61 69 80
62 70 80
62 70 80
61 70 80
60 69 80
62 70 80
60 69 80
62 70 80
61 70 80
61 69 80
62 70 80
61 70 80
61 70 80
61 69 80
61 70 80
61 70 80
61 70 80
62 70 80
61 70 80
61 70 80
61 70 80
61 70 80
62 70 80
61 69 80
61 69 80
61 69 80
61 70 80
61 69 80
61 69 80
61 69 80
61 69 80
61 69 80
61 69 80
61 69 80
61 69 80
61 69 80
61 69 80
61 70 80
61 69 80
61 69 80
61 70 80
62 70 80
61 69 80
61 69 80
61 69 80
62 70 80
61 69 80
61 69 80
60 69 80
61 70 80
61 69 80
61 70 80
61 69 80
61 70 80
61 69 80
61 69 80
62 70 80
61 69 80
61 70 80
61 70 80
61 69 80
61 69 80
61 69 80
61 70 80
61 69 80
61 70 80
61 70 80
61 70 80
61 69 80
61 70 80
61 70 80
61 70 80
61 70 80
61 69 80
61 69 80
61 69 80
61 70 80
61 69 80
61 69 80
61 69 80
61 70 80
61 69 80
61 69 80
61 69 80
60 68 79
61 70 80
61 69 80
61 69 80
61 69 80
55 62 72
44 48 54
44 48 54
46 51 57
43 47 53
47 51 57
43 47 52
47 51 58
48 52 59
44 49 55
45 50 56
44 48 53
45 49 55
41 45 51
43 47 52
46 50 56
43 47 53
45 50 56
47 52 58
44 48 54
49 54 60
43 47 53
48 53 59
43 48 54
44 48 54
45 50 56
43 47 53
44 49 55
43 48 53
44 49 55
42 47 53
46 51 57
44 49 56
44 48 54
48 52 58
45 50 56
44 49 55
49 54 60
42 46 51
47 51 57
49 54 61
45 49 55
47 51 57
46 50 56
48 53 59
46 51 57
44 48 54
47 52 58
48 52 59
49 53 60
45 49 55
42 46 52
51 56 62
47 51 57
46 51 56
46 50 56
45 50 55
47 52 59
46 51 57
45 50 56
44 48 54
51 55 62
48 53 59
47 52 58
43 48 54
51 56 62
46 50 56
47 51 58
49 53 60
47 52 58
48 52 58
46 51 57
45 49 55
47 52 58
46 51 56
48 53 59
46 50 57
46 51 57
46 50 56
44 49 55
45 49 55
47 51 58
48 52 58
46 50 56
45 49 55
47 51 58
43 48 54
44 48 53
47 51 57
45 50 56
46 50 56
44 49 54
46 50 56
44 48 54
43 48 53
47 52 58
46 51 57
46 51 57
46 50 57
48 53 59
45 49 55
46 51 57
49 54 60
41 45 50
47 52 58
47 51 58
45 49 55
46 50 56
45 49 55
47 51 57
47 51 58
46 50 57
47 51 57
42 46 51
48 53 59
46 51 57
41 45 50
44 48 54
42 47 52
42 47 52
42 46 52
55 62 71
60 69 80
62 70 80
62 70 80
61 69 79
61 69 80
61 69 80
60 69 80
61 69 80
61 70 80
61 70 80
62 70 80
61 70 80
60 69 80
61 69 80
61 69 80
61 69 80
61 70 80
61 69 80
61 69 80
61 69 80
60 69 80
62 70 80
61 69 80
61 70 80
61 69 80
61 69 80
61 69 80
61 69 80
61 69 80
61 70 80
61 69 80
61 69 80
61 69 80
62 70 80
61 70 80
62 70 80
61 69 80
60 69 80
61 69 80
61 69 80
61 69 80
61 69 80
61 69 80
61 69 80
60 69 80
61 69 80
61 70 80
61 70 80
61 69 80
61 69 80
61 70 80
61 70 80
61 69 80
61 69 80
61 69 80
61 70 80
61 70 80
62 70 80
61 69 80
62 70 80
61 69 80
61 70 80
61 69 80
61 70 80
61 69 80
61 70 80
61 70 80
61 70 80
61 69 80
61 69 80
61 69 80
61 69 80
61 70 80
61 70 80
62 70 80
61 70 80
61 70 80
62 70 80
61 70 80
61 70 80
62 70 80
61 69 80
61 70 80
62 70 80
61 70 80
62 70 80
61 70 80
61 70 80
61 70 80
62 70 80
61 69 80
62 70 80
61 69 80
61 69 80
61 69 80
62 70 80
62 70 80
62 70 80
61 70 80
62 70 80
61 70 80
62 70 80
61 69 80
61 69 80
61 70 80
61 69 80
61 69 80
61 69 80
62 70 80
61 70 80
61 69 80
61 70 80
61 70 80
61 69 80
61 69 80
61 69 80
61 69 80
61 70 80
61 69 80
61 70 80
61 69 80
61 70 80
62 70 80
62 70 80
62 70 80
61 70 80
61 70 80
62 70 80
61 70 80
61 70 80
61 69 80
62 70 80
61 69 80
62 70 80
61 70 80
62 70 80
62 70 80
61 70 80
61 70 80
61 70 80
62 70 80
61 70 80
62 70 80
61 70 80
62 70 80
62 70 80
61 70 80
62 70 80
61 70 80
61 69 80
61 70 80
61 69 80
61 69 80
61 69 80
61 70 80
61 69 80
61 70 80
61 69 80
61 70 80
61 70 80
62 70 80
61 70 80
61 69 80
61 70 80
61 69 80
61 70 80
62 70 80
61 70 80
61 69 80
62 70 80
62 70 80
61 69 80
61 69 80
61 69 80
61 70 80
61 69 80
60 69 80
61 69 80
62 70 80
61 70 80
61 70 80
61 70 80
61 70 80
62 70 80
62 70 80
61 70 80
61 70 80
61 69 80
61 70 80
61 70 80
61 69 80
61 69 80
61 69 80
61 69 80
61 69 80
61 70 80
61 69 80
61 70 80
61 69 80
61 70 80
61 69 80
61 70 80
62 70 80
61 69 80
61 69 80
60 69 79
61 69 80
61 70 80
61 69 80
61 69 80
61 69 80
61 70 80
61 69 80
61 70 80
62 70 80
61 69 80
62 70 80
62 70 80
61 70 80
61 69 80
61 69 80
60 69 79
61 69 80
61 70 80
61 70 80
61 69 80
61 70 80
61 69 80
61 70 80
61 69 80
61 69 80
60 69 80
61 70 80
61 69 80
61 69 80
61 69 80
61 69 80
62 70 80
61 70 80
61 69 80
62 70 80
61 69 80
61 69 80
62 70 80
61 69 80
61 69 80
61 69 80
61 70 80
61 69 80
62 70 80
61 69 79
60 69 80
61 70 80
61 69 80
61 69 80
61 69 80
61 69 80
61 69 79
61 69 80
61 69 80
60 69 80
61 69 80
61 69 80
60 69 80
61 69 80
61 69 80
61 70 80
62 70 80
61 69 80
61 69 80
61 69 80
61 69 80
60 68 79
60 68 79
59 67 78
61 69 80
60 69 79
61 69 79
60 68 79
44 49 55
39 43 48
45 49 56
41 45 51
39 43 49
41 45 51
44 49 55
46 50 56
44 48 54
45 49 55
45 49 55
44 48 54
42 46 52
41 45 50
46 51 57
44 49 55
45 49 55
43 47 53
47 51 58
47 52 58
42 46 52
44 48 54
44 48 54
45 49 55
45 49 55
44 49 55
47 52 58
45 49 56
45 49 55
46 50 56
47 51 57
46 51 57
48 52 59
48 52 59
44 49 55
44 48 54
45 49 54
45 50 56
46 51 57
50 54 60
45 49 55
43 47 53
46 51 57
40 44 49
45 49 55
45 49 55
44 49 55
48 52 59
47 52 59
46 50 56
42 46 51
44 49 55
46 51 57
44 49 55
43 48 54
45 50 56
46 50 56
46 50 56
45 49 55
45 49 55
42 46 52
47 52 58
47 52 58
47 52 58
49 54 60
43 47 53
47 52 58
43 47 52
42 47 52
45 50 56
46 51 57
43 47 53
48 53 59
42 46 52
44 48 54
48 53 59
47 52 58
47 51 57
44 49 55
47 52 58
46 50 57
46 51 58
46 50 56
41 45 51
46 51 57
47 51 58
45 49 55
48 53 59
47 52 58
48 53 60
46 50 57
45 49 55
46 51 58
43 47 53
47 51 57
44 48 55
47 52 58
43 47 53
42 46 52
48 52 58
47 51 58
48 53 59
43 47 53
45 50 56
46 50 56
45 50 56
45 49 55
45 49 55
44 49 55
42 46 52
39 43 48
43 47 52
45 50 56
41 45 51
45 50 56
50 55 61
47 51 57
43 48 54
45 50 55
45 49 55
60 68 78
61 69 80
61 69 80
61 69 80
61 69 80
61 70 80
61 69 79
61 69 80
61 69 80
61 69 80
61 69 80
61 70 80
61 70 80
61 69 80
61 70 80
61 69 80
61 69 80
61 70 80
61 69 80
61 69 80
60 68 79
61 69 79
61 69 80
61 70 80
61 69 80
61 69 79
61 69 79
60 68 79
62 70 80
61 70 80
61 69 80
62 70 80
61 69 80
61 69 80
61 69 80
61 69 80
61 69 80
61 69 80
61 69 80
62 70 80
60 69 80
61 70 80
61 70 80
61 69 80
61 69 80
61 69 80
61 69 80
61 69 80
61 69 80
61 69 80
61 69 80
61 69 80
61 69 80
61 69 80
61 69 80
61 69 80
61 69 79
61 69 80
61 70 80
61 70 80
62 70 80
61 69 80
61 69 80
61 69 80
61 69 80
61 70 80
62 70 80
61 70 80
62 70 80
62 70 80
61 69 80
61 69 80
61 69 80
61 69 80
61 70 80
62 70 80
61 69 80
61 69 80
61 69 80
61 70 80
61 69 80
61 70 80
61 69 80
61 69 80
61 69 80
61 69 80
61 69 80
61 69 80
61 69 80
61 69 80
61 69 80
62 70 80
61 69 80
61 69 80
61 70 80
62 70 80
61 70 80
61 70 80
61 70 80
61 70 80
61 70 80
62 70 80
61 70 80
61 69 80
61 69 80
61 70 80
62 70 80
61 70 80
61 70 80
61 70 80
61 70 80
61 69 80
62 70 80
61 69 80
61 69 80
61 70 80
62 70 80
62 70 80
62 70 80
62 70 80
61 69 80
61 70 80
61 70 80
62 70 80
61 70 80
62 70 80
61 69 80
61 69 80
61 69 80
61 70 80
62 70 80
61 70 80
62 70 80
61 69 80
62 70 80
61 70 80
61 70 80
62 70 80
61 70 80
62 70 80
62 70 80
61 70 80
62 70 80
62 70 80
61 70 80
61 70 80
62 70 80
62 70 80
61 70 80
62 70 80
61 70 80
62 70 80
61 70 80
62 70 80
61 69 80
62 70 80
62 70 80
61 69 80
61 70 80
61 69 80
61 70 80
61 69 80
61 69 80
61 70 80
61 70 80
61 70 80
62 70 80
61 70 80
61 69 80
62 70 80
61 70 80
61 69 80
62 70 80
61 70 80
62 70 80
62 70 80
62 70 80
61 70 80
61 69 80
61 70 80
61 70 80
61 70 80
61 69 80
61 69 80
62 70 80
61 70 80
61 69 80
62 70 80
62 70 80
61 69 80
62 70 80
62 70 80
61 70 80
61 69 80
61 70 80
61 69 80
62 70 80
61 70 80
61 69 80
61 69 80
61 70 80
61 70 80
62 70 80
61 69 80
61 70 80
61 69 80
61 70 80
62 70 80
61 69 80
61 69 80
61 70 80
61 69 80
61 69 80
60 69 80
61 69 80
61 70 80
61 69 80
61 69 80
61 70 80
61 70 80
61 70 80
61 69 80
61 70 80
61 69 80
61 70 80
61 69 80
60 69 80
61 69 80
62 70 80
61 70 80
61 69 80
61 69 80
61 69 80
61 69 80
61 69 80
61 70 80
61 69 80
61 69 80
62 70 80
61 69 80
62 70 80
61 69 80
61 70 80
61 69 80
61 69 80
61 69 80
61 70 80
61 69 80
61 70 80
61 69 80
61 69 80
61 69 80
61 69 80
61 69 80
61 70 80
61 70 80
61 69 80
60 69 80
61 69 80
61 70 80
61 70 80
61 69 80
62 70 80
60 69 79
61 69 79
61 69 80
61 70 80
61 69 79
61 70 80
61 69 80
61 69 80
61 69 80
61 69 80
61 69 80
61 69 80
61 69 80
62 70 80
61 69 80
60 69 80
61 69 79
51 58 66
45 49 55
40 44 49
42 46 52
44 48 54
38 42 47
48 52 58
44 48 54
45 49 56
45 49 55
44 48 53
37 41 46
44 49 55
47 52 58
41 45 51
44 48 54
45 49 55
43 48 54
44 49 55
47 51 58
44 48 54
43 47 52
44 49 54
44 48 54
47 51 57
44 48 54
46 50 55
46 51 57
50 55 61
45 49 55
48 53 59
38 42 47
45 49 55
48 53 59
49 54 60
42 47 52
45 49 55
47 52 59
48 53 59
50 55 61
44 48 55
47 52 58
45 49 55
48 53 59
44 48 55
46 50 56
41 45 51
50 54 61
45 49 55
50 55 62
46 51 57
46 51 57
44 48 54
48 53 59
48 53 59
41 46 52
46 51 57
47 52 58
42 46 52
44 48 54
46 50 57
43 47 53
47 52 58
46 51 57
45 49 56
48 52 59
46 50 56
47 52 58
49 54 60
45 49 56
50 54 61
45 50 56
47 51 58
46 50 56
46 50 56
47 52 59
47 52 58
41 46 51
45 50 56
47 52 58
45 49 56
50 54 60
45 49 55
48 53 59
50 55 61
45 49 55
50 55 61
46 50 56
45 49 56
40 44 49
45 50 56
46 50 56
45 49 55
44 48 53
47 51 57
46 50 56
42 46 51
50 55 61
47 52 58
45 50 56
45 50 55
46 51 57
45 50 56
40 44 50
45 50 56
49 54 60
45 50 56
45 49 55
46 51 57
49 54 61
45 49 55
47 52 58
46 50 56
51 55 62
42 46 52
41 45 51
46 50 56
44 48 54
43 47 52
51 58 67
60 68 79
61 69 80
61 69 80
61 69 80
61 70 80
61 69 80
61 69 80
61 69 80
61 69 80
61 69 80
60 68 79
61 69 80
60 69 80
61 69 80
62 70 80
61 69 80
62 70 80
60 69 79
62 70 80
61 69 79
61 69 80
61 69 80
61 69 80
60 69 80
61 70 80
61 69 79
61 70 80
61 70 80
61 69 80
61 69 80
61 69 80
61 69 80
61 69 80
61 69 80
61 69 80
61 69 80
61 69 80
62 70 80
61 69 80
61 69 80
62 70 80
61 70 80
61 69 80
61 69 80
61 69 80
61 69 80
61 69 80
61 69 80
60 69 79
62 70 80
62 70 80
61 69 80
62 70 80
61 69 80
61 69 80
61 69 80
61 69 80
61 69 80
61 70 80
61 70 80
61 70 80
62 70 80
61 69 80
61 69 80
61 69 80
61 69 80
61 69 80
60 68 79
61 70 80
60 69 80
62 70 80
61 70 80
61 70 80
61 69 80
61 69 80
61 69 80
61 69 80
61 70 80
61 70 80
61 70 80
61 70 80
61 70 80
61 70 80
61 69 80
61 70 80
61 69 80
61 69 80
61 70 80
61 69 80
61 69 80
61 70 80
62 70 80
61 69 80
61 70 80
61 70 80
61 70 80
61 69 80
62 70 80
61 69 80
61 69 80
62 70 80
61 70 80
61 69 80
61 69 80
61 69 80
61 70 80
62 70 80
62 70 80
61 70 80
61 70 80
61 69 80
61 69 80
61 69 80
62 70 80
61 70 80
62 70 80
61 70 80
62 70 80
61 69 80
61 70 80
61 69 80
61 69 80
61 69 80
62 70 80
61 70 80
61 69 80
62 70 80
61 69 80
61 70 80
62 70 80
61 69 80
62 70 80
61 69 80
61 69 80
62 70 80
61 70 80
61 70 80
62 70 80
62 70 80
62 70 80
61 70 80
61 70 80
62 70 80
62 70 80
61 70 80
61 70 80
61 70 80
61 70 80
61 70 80
61 70 80
61 69 80
61 70 80
61 69 80
61 70 80
62 70 80
62 70 80
61 69 80
62 70 80
61 70 80
61 70 80
62 70 80
61 70 80
62 70 80
62 70 80
61 70 80
61 70 80
61 69 80
61 70 80
61 69 80
62 70 80
62 70 80
61 69 80
61 70 80
61 70 80
61 69 80
62 70 80
61 69 80
61 69 80
61 70 80
61 69 80
61 70 80
61 69 80
61 69 80
61 69 80
61 70 80
62 70 80
61 70 80
62 70 80
61 69 80
61 70 80
61 70 80
61 70 80
61 70 80
61 70 80
61 70 80
61 69 80
61 69 80
61 70 80
61 69 80
61 69 80
61 70 80
61 69 80
61 69 80
62 70 80
61 69 80
61 69 80
61 70 80
61 69 80
61 69 80
61 70 80
61 69 80
61 69 80
61 69 80
61 69 80
62 70 80
61 70 80
61 69 80
61 69 80
61 69 80
61 69 80
61 69 80
61 69 80
62 70 80
61 69 80
61 69 80
61 69 80
62 70 80
61 69 80
61 69 80
61 69 80
61 69 80
62 70 80
62 70 80
61 70 80
61 69 79
61 69 80
61 69 80
62 70 80
61 69 80
61 70 80
61 69 80
62 70 80
60 68 79
60 69 80
61 69 80
61 70 80
62 70 80
61 69 80
60 68 79
60 68 79
61 69 80
61 69 80
61 70 80
61 69 80
61 70 80
61 69 80
61 69 80
61 69 80
61 70 80
61 69 80
61 69 80
61 69 80
61 69 80
61 69 80
60 69 80
61 69 80
60 68 79
61 69 80
60 69 79
60 68 79
61 69 80
61 70 80
61 69 80
61 69 80
61 69 80
60 68 79
61 69 80
60 69 79
61 69 79
60 69 80
60 67 77
42 46 51
42 46 52
47 51 57
44 48 54
49 53 60
43 47 53
44 49 55
47 52 58
45 49 55
43 47 52
45 50 56
44 48 54
43 47 53
43 47 53
43 47 53
46 51 57
44 48 53
45 50 56
44 48 54
49 54 60
47 52 58
41 45 51
45 50 55
43 47 53
45 49 55
44 48 54
45 49 55
45 50 56
49 54 60
47 52 58
40 44 50
48 52 58
46 51 57
45 50 55
45 50 56
45 50 56
43 47 53
48 53 59
50 54 61
47 52 58
44 48 54
45 50 56
45 49 55
49 54 60
42 47 53
44 48 55
43 47 53
47 52 59
51 56 62
47 52 58
44 49 55
46 51 57
42 47 52
42 47 52
42 45 50
46 51 57
40 44 49
42 46 52
48 52 58
43 47 53
47 51 57
46 50 56
45 49 55
44 49 55
45 49 56
45 50 55
47 52 58
40 45 50
45 50 57
44 49 55
47 52 58
46 51 57
45 49 55
43 48 53
47 52 58
45 49 55
42 46 52
47 51 57
45 49 55
49 53 60
44 48 54
45 49 55
45 49 55
44 49 55
42 46 51
46 50 57
46 50 56
44 48 53
47 52 58
45 50 56
40 45 50
43 48 53
46 51 57
48 52 59
42 47 53
41 45 51
43 47 53
42 46 52
47 51 58
46 51 57
43 47 53
45 50 56
45 49 55
43 47 52
50 55 61
42 46 52
45 50 55
44 48 54
45 49 55
44 49 55
43 47 53
45 50 56
44 48 53
43 48 54
49 54 60
46 50 56
44 49 55
47 51 57
59 67 77
61 69 80
62 70 80
60 68 78
60 68 79
61 69 80
60 68 78
61 69 80
60 69 80
61 69 80
60 69 79
60 68 79
60 69 80
61 69 79
61 69 80
61 69 80
61 69 80
60 69 80
61 70 80
61 69 80
61 69 80
61 69 80
61 69 80
60 69 80
62 70 80
60 69 79
61 70 80
61 69 80
61 69 80
62 70 80
61 69 80
62 70 80
62 70 80
61 69 80
62 70 80
61 69 80
61 69 79
61 69 80
61 69 80
61 70 80
61 69 80
61 69 80
62 70 80
61 69 80
62 70 80
61 70 80
61 69 80
61 70 80
62 70 80
61 69 80
62 70 80
61 69 80
62 70 80
61 70 80
61 69 80
62 70 80
61 70 80
60 68 79
61 69 80
62 70 80
61 69 80
61 70 80
61 70 80
62 70 80
61 69 80
61 69 80
61 70 80
62 70 80
61 70 80
61 69 80
61 69 80
61 69 80
61 70 80
62 70 80
61 69 80
61 70 80
62 70 80
61 70 80
60 69 80
61 70 80
61 70 80
62 70 80
61 69 80
61 70 80
62 70 80
61 70 80
62 70 80
62 70 80
61 70 80
61 69 80
61 70 80
61 69 80
61 69 80
61 69 80
61 70 80
61 70 80
61 70 80
61 70 80
62 70 80
61 70 80
61 69 80
61 69 80
62 70 80
61 69 80
61 69 80
61 70 80
61 69 80
62 70 80
62 70 80
61 69 80
61 70 80
62 70 80
61 70 80
61 69 80
61 69 80
61 69 80
62 70 80
61 70 80
61 69 80
61 70 80
61 69 80
62 70 80
61 70 80
62 70 80
61 69 80
61 70 80
61 69 80
61 69 80
62 70 80
61 70 80
62 70 80
61 69 80
62 70 80
62 70 80
61 69 80
61 70 80
61 70 80
61 69 80
62 70 80
62 70 80
61 69 80
62 70 80
62 70 80
61 70 80
62 70 80
61 69 80
62 70 80
61 69 80
61 70 80
61 70 80
62 70 80
61 69 80
61 69 80
61 69 80
61 69 80
61 69 80
61 69 80
61 69 80
62 70 80
62 70 80
61 69 80
61 69 80
61 69 80
61 70 80
61 69 80
62 70 80
61 70 80
61 69 80
61 70 80
61 70 80
61 69 80
61 70 80
61 69 80
62 70 80
61 70 80
61 70 80
61 70 80
62 70 80
61 69 80
61 70 80
62 70 80
61 69 80
61 70 80
61 70 80
61 69 80
61 70 80
61 69 80
61 69 80
61 69 80
61 70 80
61 70 80
61 70 80
62 70 80
62 70 80
62 70 80
62 70 80
61 69 80
61 69 80
61 69 80
61 69 80
61 69 80
61 70 80
62 70 80
61 69 80
61 69 80
61 70 80
61 69 80
61 69 80
61 69 79
61 69 80
61 69 80
61 69 80
61 69 80
61 69 80
62 70 80
61 70 80
61 69 80
60 69 80
61 69 80
60 69 80
61 69 80
60 68 79
61 69 80
61 70 80
61 69 80
61 70 80
61 69 80
62 70 80
61 69 80
60 68 79
61 70 80
61 69 80
61 69 80
61 69 80
61 69 80
62 70 80
61 69 80
61 69 80
61 70 80
61 69 80
60 69 80
61 69 80
61 69 80
60 69 80
61 69 80
61 70 80
61 69 80
60 69 80
62 70 80
60 68 79
61 70 80
61 70 80
61 69 80
61 69 80
61 69 80
61 69 79
61 69 80
61 69 80
61 69 80
60 69 80
60 69 80
61 69 80
61 69 80
60 69 80
60 69 80
61 69 80
61 69 80
61 69 80
61 69 80
61 69 80
61 69 80
61 69 80
60 68 79
61 69 79
60 69 80
61 69 80
61 69 80
60 68 79
61 68 78
60 68 79
60 69 80
61 69 80
51 57 64
42 46 52
45 49 55
46 50 56
46 50 56
43 47 53
43 47 53
47 51 58
42 46 52
43 48 53
45 49 55
43 48 54
46 51 57
45 49 54
44 49 55
45 50 56
47 51 57
42 46 51
45 49 55
46 50 56
45 49 55
44 48 53
45 49 54
40 44 49
44 49 55
44 49 55
47 51 57
44 48 54
46 50 56
48 52 58
45 49 55
47 52 58
45 49 55
45 49 56
43 47 52
45 49 55
42 46 51
44 48 54
43 48 53
43 48 53
47 52 58
46 51 57
42 47 52
47 52 58
40 44 49
43 48 54
44 48 54
45 50 56
43 48 54
48 53 59
47 51 58
45 50 56
46 50 57
47 51 57
42 46 52
44 49 54
43 47 52
48 52 58
48 52 58
44 49 55
43 48 53
46 50 56
44 49 54
48 52 58
42 46 52
43 47 53
44 48 54
47 51 57
48 53 59
44 48 54
47 51 58
45 49 55
45 49 55
47 52 58
47 51 57
46 50 57
46 51 57
44 48 54
47 51 58
47 51 57
45 50 56
45 49 54
48 53 59
46 50 57
45 49 55
48 52 58
45 49 55
46 51 57
44 49 54
43 47 53
44 49 55
45 49 55
43 47 53
41 46 51
43 47 53
44 48 53
46 51 57
48 52 58
42 46 52
45 50 56
41 45 50
43 48 53
47 51 57
40 44 49
44 48 54
46 51 57
44 49 55
42 46 52
45 50 56
47 51 58
47 51 57
46 51 57
46 51 57
48 52 59
42 46 52
46 50 56
42 46 51
53 59 67
60 68 79
60 68 79
60 68 79
61 69 80
60 69 79
61 69 80
60 69 80
60 68 78
61 69 79
61 69 80
61 69 80
61 69 80
61 69 80
60 68 79
61 69 79
60 68 79
61 69 80
62 70 80
61 69 80
61 69 80
61 70 80
61 69 80
61 69 79
61 69 80
60 69 80
61 69 80
60 69 80
61 69 80
61 69 79
61 69 80
62 70 80
60 69 80
61 69 80
60 68 79
61 69 80
61 69 80
61 69 79
61 69 80
61 69 80
61 70 80
61 69 80
62 70 80
61 69 80
60 69 80
61 70 80
60 69 80
61 69 80
61 69 80
62 70 80
60 69 80
61 69 80
61 69 80
62 70 80
62 69 80
61 69 80
61 69 79
61 69 80
61 69 80
62 70 80
61 69 80
61 69 80
61 70 80
61 69 80
62 70 80
61 69 80
61 70 80
61 70 80
61 69 80
61 69 80
61 69 80
61 69 80
61 70 80
61 70 80
62 70 80
61 70 80
62 70 80
61 69 80
61 70 80
61 70 80
60 69 80
61 69 80
61 70 80
61 69 80
61 70 80
62 70 80
61 69 80
61 70 80
61 69 80
61 69 80
61 70 80
61 69 80
61 69 80
61 69 80
61 69 80
61 69 80
62 70 80
61 69 80
61 70 80
62 70 80
62 70 80
61 69 80
61 70 80
62 70 80
61 69 80
61 69 80
60 69 80
62 70 80
61 70 80
62 70 80
62 70 80
61 69 80
61 70 80
61 69 80
61 70 80
61 70 80
62 70 80
62 70 80
61 70 80
61 69 80
62 70 80
61 70 80
62 70 80
61 70 80
61 70 80
61 70 80
61 69 80
61 69 80
62 70 80
61 70 80
61 70 80
61 70 80
61 70 80
61 70 80
62 70 80
62 70 80
61 69 80
62 70 80
61 69 80
61 70 80
61 69 80
61 70 80
61 70 80
61 69 80
60 69 80
61 69 80
62 70 80
61 69 80
62 70 80
62 70 80
61 70 80
61 69 80
61 69 80
61 70 80
61 69 80
62 70 80
61 69 80
61 69 80
62 70 80
61 70 80
61 69 80
61 69 80
61 69 80
61 70 80
62 70 80
61 69 80
61 70 80
61 69 80
61 70 80
61 69 80
61 69 80
61 70 80
61 69 80
61 69 80
61 70 80
61 70 80
61 69 80
61 69 80
61 69 80
61 70 80
61 69 80
61 69 80
61 70 80
61 70 80
61 69 80
61 70 80
61 70 80
61 70 80
61 70 80
61 69 80
61 69 80
62 70 80
62 70 80
61 70 80
61 69 80
61 69 80
61 69 80
61 70 80
61 69 80
61 70 80
61 69 80
61 69 80
61 69 80
61 69 80
61 69 80
62 70 80
61 69 80
62 69 80
61 69 80
61 69 80
61 69 80
61 69 80
61 69 80
61 70 80
61 69 80
61 69 80
61 70 80
61 69 80
61 70 80
60 69 80
62 70 80
62 70 80
61 69 80
62 70 80
61 69 80
61 69 80
61 69 80
62 70 80
61 69 80
61 69 80
60 69 80
60 68 79
61 70 80
61 69 80
61 69 80
61 70 80
61 69 80
61 69 80
61 69 80
61 70 80
62 70 80
61 69 79
61 69 80
61 69 80
62 70 80
61 69 80
61 69 80
61 69 80
60 68 79
60 69 79
62 70 80
62 70 80
61 70 80
61 69 79
61 69 79
61 69 80
62 70 80
59 68 79
60 68 79
61 69 80
61 69 80
61 69 80
60 68 78
61 69 80
60 68 79
61 69 79
61 69 80
60 69 80
60 68 79
61 69 80
59 68 79
61 69 80
60 69 79
61 69 80
61 69 80
61 69 80
61 69 80
61 69 80
61 69 80
60 69 80
60 68 79
61 69 80
59 67 77
58 66 76
42 46 52
44 48 54
44 48 54
47 51 57
44 48 54
41 45 50
44 48 54
42 46 51
41 45 50
42 46 52
44 48 54
45 50 56
44 48 54
44 48 54
47 52 58
42 46 51
46 50 56
48 53 59
40 43 49
42 46 52
49 53 59
43 47 53
48 53 59
45 49 55
47 51 58
45 49 55
47 51 58
44 48 54
48 52 59
45 49 56
50 54 61
45 50 56
43 47 53
41 45 51
47 52 58
47 52 58
45 49 55
41 46 51
43 47 53
42 46 52
43 47 53
40 44 50
44 49 55
46 51 56
41 45 50
46 51 57
47 51 57
48 52 59
45 49 54
49 54 60
49 54 60
46 50 56
47 52 58
44 49 55
46 51 57
44 48 54
48 52 58
44 49 55
47 51 58
49 53 59
45 49 56
46 50 56
43 48 53
47 51 57
47 52 58
47 51 58
44 48 54
44 48 55
41 45 51
47 51 57
46 50 56
45 49 56
44 49 55
45 50 56
41 45 51
46 50 56
45 49 54
46 51 57
43 47 53
45 49 55
39 43 49
48 53 60
44 48 53
45 50 56
45 49 55
42 46 52
46 50 56
44 49 54
45 49 55
41 46 51
43 47 52
44 48 54
44 48 54
45 49 55
42 46 51
44 48 54
44 49 55
45 50 56
46 51 57
41 44 50
48 53 59
41 45 50
41 45 50
42 46 52
44 49 54
45 49 54
44 48 53
47 51 57
42 46 51
46 50 56
42 46 52
42 46 52
37 41 46
43 47 52
39 43 48
42 46 51
56 63 73
59 68 78
61 69 80
60 68 79
60 68 79
60 68 79
60 68 79
59 68 78
60 68 78
60 69 79
59 67 78
61 69 79
60 69 79
61 69 80
60 68 79
60 68 79
60 69 80
61 69 80
61 69 79
61 69 80
60 68 79
61 70 80
61 69 80
60 68 78
61 69 80
61 69 80
60 69 80
61 69 80
61 69 80
62 70 80
60 69 79
61 69 80
60 68 79
61 69 80
61 69 80
60 69 79
61 69 80
61 69 80
61 69 79
61 69 80
60 68 79
61 69 80
61 69 80
61 70 80
60 68 79
61 70 80
61 69 80
61 69 80
61 69 80
61 69 80
61 69 80
61 69 80
61 70 80
62 70 80
61 69 80
61 70 80
61 69 80
61 70 80
62 70 80
61 69 80
61 69 80
61 69 80
61 69 80
61 70 80
61 69 80
61 69 80
61 69 80
61 69 80
61 70 80
61 70 80
62 70 80
61 69 80
61 69 80
61 70 80
62 70 80
61 70 80
61 69 80
61 69 80
62 70 80
61 70 80
61 70 80
61 70 80
62 70 80
61 70 80
61 70 80
62 70 80
61 70 80
60 68 79
61 70 80
61 70 80
62 70 80
61 70 80
62 70 80
61 69 80
61 69 80
61 69 80
61 70 80
62 70 80
61 69 80
62 70 80
62 70 80
61 69 80
61 70 80
61 69 80
62 70 80
61 69 80
61 69 80
61 70 80
61 70 80
61 70 80
61 69 80
61 70 80
61 69 80
61 70 80
61 70 80
61 70 80
61 70 80
61 70 80
61 70 80
62 70 80
61 69 80
61 69 80
62 70 80
61 69 80
61 70 80
61 70 80
61 70 80
61 70 80
61 69 80
61 69 80
62 70 80
61 70 80
61 69 80
62 70 80
61 70 80
62 70 80
61 70 80
61 69 80
61 69 80
61 70 80
61 70 80
62 70 80
61 70 80
61 70 80
61 70 80
61 70 80
61 70 80
61 70 80
62 70 80
61 70 80
61 70 80
61 70 80
61 69 80
61 69 80
62 70 80
61 70 80
61 70 80
61 69 80
61 69 80
61 69 80
62 70 80
62 70 80
61 69 80
62 70 80
61 69 80
61 70 80
61 70 80
62 70 80
61 70 80
61 70 80
62 70 80
61 70 80
61 70 80
62 70 80
61 69 80
61 69 80
61 69 80
62 70 80
62 70 80
62 70 80
61 70 80
61 69 80
61 70 80
61 69 80
62 70 80
61 69 80
61 69 80
62 70 80
61 69 80
62 70 80
61 70 80
62 70 80
61 70 80
61 69 80
61 69 80
61 69 80
61 70 80
62 70 80
61 70 80
61 70 80
61 69 80
61 69 80
62 70 80
61 69 80
61 70 80
61 70 80
61 69 80
61 69 80
61 69 80
61 69 80
61 69 80
62 70 80
61 69 80
61 70 80
61 69 80
61 69 80
61 69 79
60 69 80
61 69 80
61 69 80
61 69 80
61 70 80
61 70 80
61 69 80
61 69 80
61 69 80
61 69 80
62 70 80
60 68 79
60 69 80
60 69 80
61 69 80
61 69 80
61 69 80
61 70 80
60 68 79
61 69 80
61 69 80
61 69 80
62 70 80
62 70 80
61 69 79
60 69 80
61 69 79
61 69 80
61 69 80
61 69 79
62 70 80
61 69 80
61 69 80
61 69 80
60 69 80
61 69 79
61 69 80
61 69 80
61 69 79
60 69 79
60 68 79
61 69 79
59 68 78
60 68 79
62 70 80
60 68 78
60 69 80
62 70 80
60 68 79
61 69 79
60 68 79
61 69 80
60 68 78
61 69 80
60 68 78
61 69 79
61 68 79
60 68 79
61 69 80
60 68 79
60 68 79
60 68 79
60 69 80
60 68 79
60 68 79
60 69 79
59 68 78
50 56 64
42 46 52
43 47 52
39 43 48
45 49 55
43 47 52
42 47 52
47 51 57
43 48 53
44 48 54
40 44 50
46 51 57
44 48 55
42 46 51
46 50 57
44 48 54
47 51 57
46 51 57
43 47 53
40 44 49
44 48 54
43 47 52
49 54 60
42 46 51
43 48 53
42 46 52
48 52 59
42 46 52
42 46 52
42 46 52
46 51 57
44 48 54
41 45 51
43 47 53
43 48 54
43 47 52
42 46 52
44 49 55
44 48 54
45 49 55
44 49 54
46 50 56
45 49 55
45 49 55
46 51 56
43 47 52
47 51 57
47 52 58
44 48 54
46 51 57
47 51 57
46 50 56
46 50 56
44 48 53
45 49 55
45 49 55
44 49 55
48 53 59
45 50 56
41 45 51
48 52 59
47 52 58
41 45 51
43 48 54
42 47 53
48 53 59
45 49 55
43 48 54
44 48 54
46 50 56
43 47 53
39 43 49
44 48 54
43 48 53
45 50 56
45 49 55
43 48 54
42 46 52
44 48 53
44 49 55
42 46 52
46 50 57
43 47 53
44 49 54
43 48 54
45 49 55
45 50 56
45 49 55
46 50 56
43 47 53
45 50 56
44 48 54
43 47 53
48 52 59
47 51 57
46 50 56
44 48 54
46 50 56
41 45 50
41 45 50
46 50 56
41 45 50
45 49 55
41 45 50
42 46 52
43 47 53
44 48 54
44 48 54
46 50 55
41 45 51
40 44 49
41 45 51
42 46 52
42 46 52
46 50 56
49 55 63
60 68 78
60 68 79
60 68 79
59 67 78
61 69 80
60 68 79
60 69 79
60 69 79
62 70 80
61 69 80
61 69 80
61 69 79
61 70 80
61 69 80
61 69 80
60 68 79
61 69 80
60 68 79
61 69 80
61 69 80
61 69 80
61 69 80
61 69 80
62 70 80
62 70 80
61 70 80
60 69 80
60 69 80
60 68 79
60 68 79
60 69 80
61 69 80
62 69 80
61 69 80
61 69 80
61 70 80
61 69 79
60 69 79
61 69 80
61 69 79
60 68 79
60 68 79
60 68 79
61 69 80
62 70 80
60 69 79
62 70 80
61 69 79
60 68 79
61 70 80
61 69 80
61 69 80
61 69 80
61 70 80
61 70 80
60 68 79
61 69 80
61 70 80
61 69 80
61 69 80
61 70 80
62 70 80
61 69 80
61 70 80
62 70 80
61 69 80
61 70 80
61 70 80
61 69 80
62 70 80
62 70 80
61 70 80
62 70 80
62 70 80
61 70 80
61 69 80
61 69 80
61 69 80
61 69 80
61 69 80
61 70 80
61 69 80
61 70 80
62 70 80
61 69 80
61 69 80
61 70 80
61 69 80
61 69 80
61 69 80
61 69 80
61 70 80
61 69 80
61 69 80
61 70 80
62 70 80
62 70 80
60 69 80
61 70 80
61 69 80
61 69 80
61 69 80
62 70 80
62 70 80
61 69 80
61 70 80
61 70 80
61 70 80
61 70 80
62 70 80
61 70 80
61 70 80
62 70 80
61 70 80
61 70 80
61 70 80
62 70 80
61 69 80
61 70 80
61 69 80
61 70 80
61 70 80
61 69 80
61 70 80
62 70 80
61 70 80
62 70 80
61 69 80
62 70 80
62 70 80
61 70 80
62 70 80
61 70 80
61 70 80
61 70 80
62 70 80
62 70 80
61 69 80
61 70 80
61 69 80
61 69 80
61 70 80
62 70 80
61 69 80
61 70 80
61 70 80
61 70 80
61 70 80
61 70 80
61 70 80
62 70 80
61 69 80
61 69 80
61 70 80
62 70 80
61 69 80
61 70 80
61 70 80
61 69 80
61 69 80
61 69 80
61 69 80
61 70 80
61 69 80
61 69 80
61 70 80
62 70 80
62 70 80
61 69 80
61 69 80
61 69 80
61 69 80
61 69 80
61 69 80
61 70 80
61 69 80
61 70 80
62 70 80
61 69 80
62 70 80
62 70 80
61 70 80
61 69 80
61 69 80
61 69 80
61 70 80
61 70 80
61 69 80
62 70 80
61 69 80
61 69 80
61 69 80
61 69 80
61 69 80
61 69 80
62 70 80
61 69 80
61 69 80
61 69 80
62 70 80
61 70 80
61 69 80
61 70 80
61 69 80
61 69 80
60 69 80
61 69 79
62 70 80
61 69 80
61 70 80
61 69 80
61 69 80
60 68 79
61 69 79
61 70 80
61 69 80
61 69 80
61 70 80
61 70 80
61 69 80
61 69 80
61 70 80
61 69 80
61 69 80
61 70 80
61 69 79
61 69 80
61 69 80
61 70 80
61 69 80
61 70 80
61 70 80
60 69 80
60 69 80
61 69 80
61 69 80
61 69 80
61 69 80
61 69 80
61 70 80
60 69 79
61 70 80
61 69 80
61 70 80
61 69 80
60 69 79
61 69 80
61 69 80
61 69 80
61 69 79
60 69 79
61 69 79
62 70 80
61 70 80
61 69 80
61 69 80
61 69 79
60 69 79
60 68 78
60 68 78
61 69 80
61 69 80
61 69 79
59 67 78
61 69 80
60 68 78
61 69 80
60 68 79
61 69 79
60 68 78
61 69 80
60 69 79
60 68 79
60 68 79
59 67 78
60 68 78
59 68 78
59 68 78
60 69 79
60 68 79
60 68 79
60 69 79
59 67 78
59 68 78
58 66 76
42 46 51
44 48 54
46 50 56
44 49 54
41 45 50
38 42 47
41 46 51
42 46 51
43 47 53
46 50 57
46 50 56
43 48 53
41 45 51
42 46 52
46 50 56
46 51 57
44 48 54
45 49 55
45 49 55
42 46 52
42 47 52
48 52 58
44 49 54
37 41 46
46 51 57
41 45 51
45 50 56
42 46 52
46 51 58
46 51 57
43 47 53
43 48 54
48 52 58
43 47 52
47 51 57
41 46 51
41 45 50
43 48 53
44 48 54
48 52 59
41 45 50
43 47 53
45 49 55
43 47 53
42 46 51
41 45 50
45 49 55
43 48 54
46 50 56
44 48 53
43 48 54
47 52 58
45 49 55
44 49 54
43 47 53
45 50 56
47 51 58
42 46 51
50 55 61
44 48 54
42 46 52
46 50 57
48 53 59
42 46 52
46 50 56
43 48 53
48 52 58
42 47 53
46 51 57
42 46 51
42 47 52
44 49 54
44 48 54
48 52 59
43 47 53
44 48 53
45 49 55
42 46 52
44 49 55
41 45 51
43 47 53
46 50 57
47 52 58
46 51 57
45 49 55
44 48 53
42 46 51
44 49 55
46 50 56
43 47 53
49 53 59
41 45 51
43 47 53
42 46 51
44 48 54
49 53 59
42 46 51
43 47 52
41 45 50
44 49 55
47 51 57
39 43 49
43 47 53
45 49 55
43 47 52
48 53 59
41 45 51
40 44 50
44 49 54
44 48 54
42 45 51
45 50 56
45 49 55
42 46 52
59 67 77
60 69 80
59 67 77
60 69 79
59 67 77
60 68 79
61 69 80
60 68 79
59 67 78
61 69 80
60 69 80
60 68 79
59 67 78
61 69 80
61 69 79
59 67 78
61 69 79
61 69 80
60 68 79
61 69 80
61 69 80
61 68 79
60 68 79
60 69 79
60 68 79
60 69 79
61 69 80
60 68 78
61 69 80
61 69 80
61 69 80
61 69 80
60 68 79
61 69 80
60 68 79
61 69 80
60 69 79
60 68 79
60 68 79
61 69 80
61 69 80
60 68 78
61 69 80
61 69 80
61 70 80
60 69 80
61 69 80
61 69 80
60 69 79
61 69 80
61 69 80
61 69 80
61 70 80
60 68 79
61 69 80
61 69 80
61 70 80
61 69 80
61 70 80
62 70 80
61 70 80
61 69 80
61 69 80
60 69 80
60 69 80
61 70 80
62 70 80
61 69 80
61 69 80
61 69 80
61 69 80
61 69 80
62 70 80
61 70 80
61 70 80
61 69 80
61 70 80
61 70 80
61 69 80
61 69 80
61 69 79
61 69 80
61 69 80
61 69 80
61 69 80
61 70 80
62 70 80
61 69 80
61 69 80
62 70 80
61 69 80
61 70 80
61 69 80
61 69 80
61 69 80
62 70 80
61 69 80
61 70 80
61 69 80
61 69 80
61 70 80
61 70 80
61 69 80
61 69 80
62 70 80
61 69 80
61 70 80
61 69 80
60 69 80
61 70 80
61 69 80
61 69 80
61 69 80
61 70 80
61 69 80
61 69 80
61 69 80
61 69 80
61 69 80
61 69 80
62 70 80
61 70 80
61 70 80
61 70 80
62 70 80
61 69 80
62 70 80
62 70 80
62 70 80
62 70 80
62 70 80
61 70 80
62 70 80
61 70 80
61 70 80
62 70 80
62 70 80
62 70 80
61 70 80
61 69 80
61 69 80
62 70 80
61 70 80
61 70 80
62 70 80
61 70 80
61 69 80
61 69 80
61 70 80
61 69 80
62 70 80
61 69 80
62 70 80
62 70 80
61 69 80
61 69 80
61 69 80
61 69 80
61 69 80
61 69 80
61 70 80
61 69 80
62 70 80
61 69 80
61 70 80
61 69 80
62 70 80
62 70 80
61 69 80
61 69 80
61 69 80
61 69 80
61 69 80
61 69 80
61 70 80
61 69 80
62 70 80
62 70 80
61 70 80
61 69 80
61 70 80
61 69 80
61 69 80
61 69 80
61 69 80
61 70 80
61 70 80
61 70 80
61 69 80
61 69 80
61 70 80
61 69 80
61 69 80
61 69 80
61 69 79
61 69 80
61 70 80
61 70 80
61 70 80
61 70 80
62 70 80
61 69 80
61 69 80
61 69 80
61 70 80
62 70 80
61 69 80
61 70 80
61 69 80
61 70 80
61 70 80
62 70 80
61 69 80
60 69 80
61 70 80
61 70 80
60 69 80
61 69 80
61 69 80
61 69 79
61 69 80
61 70 80
61 70 80
61 69 80
60 69 80
61 69 80
60 69 80
61 69 80
61 70 80
61 69 79
61 69 80
61 70 80
62 70 80
60 69 79
61 69 80
61 69 80
61 69 80
61 69 80
61 69 80
60 68 79
61 69 80
61 69 79
60 68 79
61 69 80
61 70 80
61 69 80
61 69 80
60 68 79
60 69 79
60 68 79
60 69 79
60 68 79
61 69 80
61 70 80
61 69 79
61 69 80
60 68 79
60 68 79
60 68 79
60 68 79
60 69 80
61 69 80
60 68 79
61 69 80
61 69 79
60 68 79
60 69 79
60 69 79
60 68 79
60 68 79
60 69 79
59 68 78
59 67 77
60 68 79
60 68 79
59 68 78
59 67 78
60 68 79
59 67 78
60 68 79
60 68 79
60 68 79
61 69 80
60 68 79
60 68 79
59 67 78
50 56 64
39 43 48
45 49 55
49 54 60
40 44 50
45 49 54
47 52 58
42 46 52
43 47 52
41 45 50
46 50 56
44 48 54
46 51 57
42 46 52
43 47 53
44 49 55
48 53 59
46 50 55
43 47 52
43 47 52
40 44 50
42 47 52
45 50 56
45 49 55
36 40 45
45 49 55
45 49 54
39 43 48
42 46 51
45 50 55
43 47 53
41 45 50
45 49 55
41 46 51
44 48 55
46 50 56
44 48 53
43 47 53
41 45 51
39 43 48
45 50 56
42 46 51
45 49 55
45 50 56
45 49 55
39 42 48
43 47 53
43 47 53
41 45 51
44 49 55
44 48 54
47 52 58
43 47 53
42 46 51
45 49 55
43 47 53
42 46 51
47 52 58
41 46 51
40 44 49
47 52 58
44 48 54
44 48 54
44 49 55
49 54 61
44 48 54
46 50 56
42 46 52
44 48 54
41 45 51
39 43 48
41 46 51
43 47 52
43 48 54
47 51 57
42 47 52
43 47 53
42 46 52
42 46 52
45 49 55
44 49 55
45 49 55
44 49 55
46 50 56
46 50 56
43 48 54
46 51 56
42 46 51
46 51 57
42 47 53
42 46 52
46 50 56
43 47 52
50 55 61
43 47 52
42 46 51
39 43 48
45 49 55
47 51 57
45 49 54
43 47 53
41 45 51
44 49 54
41 45 50
44 49 55
40 43 49
46 51 57
43 47 53
42 45 51
40 44 49
46 50 56
43 47 52
41 45 51
50 57 65
59 67 78
59 67 77
59 67 77
60 68 78
60 68 79
60 68 79
60 68 79
60 68 79
60 68 79
60 69 79
60 68 79
60 68 79
60 68 79
60 69 80
59 67 77
60 68 79
59 67 78
59 68 78
61 69 80
61 69 79
60 68 78
60 68 79
60 68 78
60 68 79
60 68 79
60 68 79
61 69 80
61 69 80
60 69 80
61 69 80
60 68 79
60 69 80
61 69 80
60 68 79
60 69 80
61 69 80
61 69 80
59 68 79
61 69 80
61 69 80
61 69 80
60 69 80
61 69 80
61 69 80
61 70 80
61 69 80
61 69 80
61 69 80
61 69 79
60 68 78
60 68 79
61 70 80
61 70 80
60 69 80
61 69 80
61 69 79
60 69 80
61 69 80
61 70 80
61 69 80
61 69 80
61 69 80
61 69 80
61 69 79
61 69 80
61 70 80
60 69 79
61 69 80
61 69 80
61 70 80
61 69 80
61 69 80
61 69 80
61 69 80
60 68 79
61 69 80
60 69 80
61 69 80
61 70 80
61 70 80
61 70 80
61 69 80
61 70 80
61 69 80
61 70 80
61 69 80
61 69 80
62 70 80
61 70 80
61 69 80
62 70 80
61 70 80
61 70 80
61 69 80
61 69 80
61 70 80
62 70 80
62 70 80
61 69 80
60 69 80
61 69 80
62 70 80
61 70 80
62 70 80
61 69 80
61 69 80
61 69 80
61 69 80
61 70 80
61 69 80
61 70 80
61 70 80
62 70 80
61 69 80
61 69 80
62 70 80
61 70 80
61 70 80
62 70 80
61 70 80
61 69 80
61 70 80
61 70 80
62 70 80
61 69 80
61 70 80
61 70 80
62 70 80
61 69 80
61 69 80
61 69 80
62 70 80
62 70 80
61 69 80
61 69 80
61 69 80
61 70 80
62 70 80
62 70 80
62 70 80
61 69 80
61 69 80
61 69 80
62 70 80
62 70 80
61 69 80
61 69 80
61 70 80
61 70 80
62 70 80
61 69 80
62 70 80
61 69 80
61 69 80
62 70 80
61 69 80
61 70 80
61 69 80
61 69 80
61 69 80
60 69 79
61 70 80
61 69 80
61 70 80
61 69 80
61 69 80
62 70 80
61 70 80
61 69 80
61 69 80
61 69 80
61 69 80
61 70 80
61 70 80
61 69 80
61 69 80
61 70 80
61 70 80
61 70 80
61 69 80
61 70 80
61 69 80
61 70 80
61 70 80
61 70 80
61 70 80
60 69 80
61 69 80
61 69 80
61 70 80
61 70 80
61 69 80
62 70 80
61 69 80
61 69 80
61 70 80
61 69 80
61 69 80
61 70 80
62 70 80
61 69 80
61 69 80
61 70 80
60 69 80
61 69 80
61 69 80
61 69 80
61 69 80
62 70 80
61 69 80
61 69 80
62 70 80
61 69 80
61 69 80
61 69 79
60 68 79
62 70 80
61 69 80
61 69 80
61 69 80
61 69 80
61 69 80
61 69 80
61 70 80
61 70 80
61 69 80
61 69 80
61 69 80
62 70 80
62 70 80
62 70 80
61 70 80
61 69 80
60 69 80
61 69 80
60 68 79
60 68 79
61 69 79
61 69 79
61 69 80
61 70 80
61 69 80
61 69 80
60 69 80
60 69 80
61 70 80
61 70 80
61 69 80
61 69 80
60 68 79
60 68 78
60 69 79
61 69 80
61 69 79
60 68 79
60 68 79
61 69 80
60 68 79
60 68 79
62 70 80
61 69 80
60 69 80
61 69 80
60 68 79
61 69 80
59 67 78
61 69 79
60 68 78
60 68 79
59 68 79
59 67 77
59 68 78
60 68 79
62 70 80
58 66 77
61 69 79
60 68 79
61 69 80
61 69 80
58 66 77
60 68 79
61 69 80
59 67 78
60 68 79
59 67 78
59 67 77
59 67 77
41 46 52
37 41 45
39 43 48
45 49 55
44 49 54
42 46 51
43 47 52
40 44 49
41 45 51
41 45 51
40 44 49
43 48 53
46 50 56
47 51 58
43 47 53
43 47 52
43 47 52
42 47 52
45 49 54
40 44 49
42 46 52
45 49 55
42 46 51
46 50 56
41 46 51
38 42 47
47 52 58
45 50 55
46 50 56
46 50 56
41 45 51
36 40 45
49 54 60
46 50 56
45 49 55
44 48 54
40 44 49
44 48 54
43 47 53
49 54 60
44 48 54
44 48 53
43 47 53
41 45 51
46 50 56
48 52 59
39 43 48
46 51 57
44 48 54
46 50 56
42 46 52
41 45 50
44 48 54
43 48 54
43 48 54
44 48 54
43 47 52
46 50 56
44 49 55
44 48 54
41 46 51
46 50 56
43 47 53
45 50 56
42 46 52
46 50 56
44 48 54
43 47 52
42 46 52
43 47 53
43 47 52
40 44 50
42 46 52
39 43 48
45 50 55
41 45 51
43 47 52
46 51 57
41 45 50
43 47 52
45 49 55
45 50 56
45 49 55
47 51 58
40 44 50
43 47 53
44 48 53
46 50 56
45 49 55
42 46 52
41 45 51
45 50 56
41 45 50
43 47 53
47 51 57
44 48 53
44 48 54
43 47 52
34 38 42
41 45 50
46 51 57
43 47 52
42 46 51
44 48 54
44 48 54
39 43 48
45 49 54
41 45 50
43 47 52
41 45 51
42 47 52
44 49 55
57 65 75
59 67 77
60 68 79
60 68 78
59 68 78
61 69 80
59 67 78
60 68 78
60 68 79
61 68 79
60 68 78
59 67 78
61 69 80
60 68 79
60 68 79
59 68 78
60 68 78
59 67 78
61 69 79
61 69 80
62 70 80
60 68 78
60 69 79
60 69 80
59 67 77
60 68 79
61 69 80
61 69 80
60 68 79
60 68 78
60 68 79
59 68 78
61 69 79
61 69 80
60 69 79
61 70 80
59 68 79
61 69 80
61 69 80
59 68 79
61 69 80
60 68 78
61 69 80
61 69 80
60 68 79
61 69 80
60 69 79
61 69 80
61 70 80
60 69 80
61 69 80
61 70 80
61 69 80
60 68 79
61 69 80
61 69 79
61 69 80
61 70 80
61 70 80
61 69 80
62 69 80
62 70 80
60 69 80
60 69 80
61 69 80
61 70 80
61 69 80
61 69 80
61 69 80
61 69 80
61 69 80
61 69 80
62 70 80
61 69 80
61 69 80
61 69 80
61 69 80
61 69 80
60 69 80
61 69 80
61 69 80
61 69 80
61 69 80
61 69 80
61 70 80
61 69 80
61 69 80
61 69 80
61 69 80
61 69 80
61 69 80
61 69 80
60 68 79
61 69 80
61 70 80
61 69 80
60 69 80
62 70 80
61 69 80
61 70 80
61 70 80
61 70 80
61 69 80
61 69 80
60 69 80
61 70 80
61 69 80
62 70 80
61 69 80
61 69 80
62 70 80
61 69 80
61 69 80
61 70 80
62 70 80
61 69 80
61 69 80
62 70 80
61 69 80
61 69 80
61 70 80
61 69 80
61 69 80
61 69 80
61 69 80
61 69 80
61 70 80
61 70 80
62 70 80
62 70 80
61 70 80
62 70 80
62 70 80
61 70 80
61 69 80
62 70 80
62 70 80
61 69 80
62 70 80
62 70 80
61 69 80
61 69 80
61 70 80
61 69 80
61 69 80
61 69 80
61 70 80
62 70 80
61 69 80
62 70 80
61 70 80
61 69 80
61 70 80
62 70 80
61 69 80
61 70 80
61 70 80
61 69 80
61 69 80
61 70 80
61 70 80
61 69 80
62 70 80
60 69 80
60 69 80
62 70 80
62 70 80
61 70 80
62 70 80
61 70 80
61 69 80
61 69 80
61 69 80
61 70 80
61 69 80
61 70 80
62 70 80
61 70 80
61 69 80
61 70 80
61 69 80
62 70 80
61 69 80
61 69 80
61 70 80
61 69 80
61 69 80
61 70 80
61 69 80
60 69 80
61 69 80
61 69 80
62 70 80
61 69 80
61 69 80
61 70 80
61 69 80
61 69 80
61 70 80
60 69 80
61 70 80
61 70 80
61 70 80
62 70 80
60 68 79
61 69 80
61 69 80
61 70 80
60 68 79
62 70 80
61 69 80
61 69 80
61 69 80
60 69 80
61 70 80
61 69 80
60 69 79
60 69 80
62 70 80
61 69 80
60 69 80
61 69 80
61 70 80
61 69 80
60 68 79
61 69 80
60 68 79
61 69 80
61 70 80
61 69 80
61 69 80
60 68 79
60 68 79
62 70 80
60 69 80
60 68 79
61 69 80
60 69 80
61 69 80
61 69 80
61 69 80
60 68 79
61 69 80
60 69 79
61 69 80
61 69 80
61 69 80
61 69 80
61 69 80
61 69 80
60 68 78
60 68 79
61 69 80
61 69 80
61 69 80
61 69 79
59 67 78
61 69 80
61 69 80
61 69 80
60 68 79
61 69 80
61 69 80
61 69 80
59 67 78
61 69 80
59 67 78
60 68 79
60 68 79
60 68 79
61 69 80
61 69 79
61 69 79
59 68 79
60 69 80
60 68 78
60 69 79
60 68 79
59 67 78
60 68 78
59 67 78
61 69 79
58 66 77
59 67 78
59 67 78
59 67 78
60 68 78
59 67 78
54 61 70
40 44 50
39 42 47
40 44 49
42 46 52
40 44 50
43 48 53
48 52 58
42 46 51
41 45 51
47 51 57
43 47 53
46 50 55
43 47 53
44 48 53
40 45 50
43 47 53
43 47 53
47 52 58
40 44 50
40 43 48
40 44 49
43 47 52
42 46 51
43 48 53
44 48 54
40 44 49
47 51 57
44 48 54
45 49 55
48 52 59
46 51 57
39 43 48
41 45 50
44 49 54
42 46 51
44 48 54
44 48 53
44 48 53
38 42 47
44 48 54
44 48 54
42 46 52
47 52 59
45 50 56
44 49 54
48 53 59
43 48 54
40 44 50
45 49 55
45 49 55
47 51 57
42 46 52
40 44 50
45 49 54
43 47 52
45 50 56
45 49 54
42 46 52
44 48 54
44 48 54
44 48 54
48 52 58
40 44 50
48 52 58
44 49 55
44 48 54
44 48 53
40 44 49
43 47 53
46 50 56
45 50 56
47 52 58
43 47 52
46 50 56
48 52 58
41 45 50
46 50 56
45 49 54
43 47 53
41 45 50
44 48 53
47 51 57
43 47 53
38 42 47
46 50 56
45 50 56
41 45 51
42 46 52
41 45 51
39 43 48
40 44 49
40 44 49
43 47 53
42 46 51
45 50 55
43 47 52
47 52 58
41 45 50
41 45 50
40 44 50
42 46 51
45 49 55
44 48 54
43 48 53
41 45 51
42 46 52
43 47 53
42 46 51
43 47 53
43 47 52
52 59 68
59 67 77
58 66 76
58 66 77
58 66 77
59 67 78
60 68 79
60 68 78
59 67 78
59 67 78
60 68 79
61 69 79
60 68 79
60 68 79
59 67 78
59 67 78
60 69 80
62 70 80
61 69 80
60 68 79
60 68 79
59 67 78
60 69 80
60 68 79
60 68 79
59 67 78
60 68 79
60 69 79
60 68 79
60 69 79
60 68 79
59 67 77
60 69 79
61 69 80
60 69 80
60 68 79
60 68 79
61 69 80
60 69 80
61 69 80
60 69 79
61 69 80
60 68 79
60 68 79
60 68 79
61 69 80
61 69 80
61 69 80
61 70 80
60 68 79
60 69 79
62 70 80
61 70 80
61 69 80
61 69 80
61 69 80
61 69 80
60 69 80
60 68 79
61 69 80
61 69 80
60 69 80
61 69 80
61 69 80
61 69 80
61 69 80
61 69 79
61 69 80
61 70 80
61 69 80
61 69 80
62 70 80
60 69 80
61 69 80
60 68 79
61 69 80
61 69 80
60 68 79
61 69 80
60 69 80
61 70 80
60 68 79
61 70 80
62 70 80
61 69 80
62 70 80
60 69 80
61 69 80
61 69 80
61 69 80
61 70 80
61 69 80
60 69 80
61 69 80
61 70 80
61 69 80
61 69 80
62 70 80
61 69 80
62 70 80
61 69 80
61 69 80
61 69 80
61 69 80
61 69 80
61 70 80
61 69 80
61 69 80
61 69 80
61 69 80
60 69 80
61 69 80
62 70 80
61 69 80
61 69 79
61 69 80
61 70 80
61 70 80
61 70 80
61 69 80
61 70 80
61 70 80
61 70 80
62 70 80
62 70 80
61 69 80
61 70 80
61 69 80
61 69 80
62 70 80
61 70 80
61 69 80
61 69 80
62 70 80
61 69 80
61 70 80
61 70 80
60 69 80
61 69 80
61 70 80
61 70 80
62 70 80
61 69 80
61 69 80
62 70 80
61 70 80
61 70 80
61 69 80
61 69 80
61 69 80
61 69 80
61 69 80
61 69 80
60 69 80
61 70 80
62 70 80
61 69 80
61 69 80
61 70 80
62 70 80
61 70 80
61 69 80
61 69 80
62 70 80
62 70 80
61 70 80
61 69 80
61 69 80
61 69 80
61 70 80
61 70 80
61 69 80
61 69 80
62 70 80
61 70 80
61 69 80
61 69 80
61 69 80
62 70 80
61 70 80
61 69 80
61 69 79
61 69 80
61 69 80
62 70 80
61 69 80
61 70 80
61 70 80
61 70 80
61 69 80
61 69 80
61 70 80
61 69 80
61 70 80
61 70 80
61 69 80
61 70 80
61 70 80
62 70 80
61 69 80
61 69 80
61 70 80
61 69 80
61 69 80
61 69 80
61 69 80
62 70 80
61 70 80
61 69 80
61 69 80
60 68 79
61 69 80
61 69 80
62 70 80
62 70 80
61 70 80
61 70 80
61 69 79
61 70 80
61 70 80
61 69 80
61 69 80
60 69 80
61 70 80
61 69 80
61 69 79
61 69 80
61 69 80
61 69 80
62 70 80
61 69 80
60 69 80
61 69 80
61 69 80
60 69 79
60 69 79
61 69 80
61 69 80
60 69 80
60 69 80
61 69 80
61 69 80
61 69 80
60 69 79
61 69 80
61 69 79
60 68 79
60 68 79
60 68 78
60 68 79
60 68 79
61 69 80
60 69 79
60 69 79
60 68 79
60 69 80
58 66 76
59 67 78
60 68 79
60 69 79
58 67 77
60 68 79
61 69 79
59 67 78
60 69 79
60 68 79
59 67 78
58 66 77
60 68 78
60 68 78
59 67 77
60 68 79
59 68 78
59 68 78
60 68 79
60 68 79
60 68 78
60 68 79
59 68 79
59 67 78
59 67 78
60 68 79
58 66 77
58 67 77
59 68 78
59 67 78
60 69 79
60 68 78
59 67 77
57 65 75
49 54 61
43 47 52
38 42 47
40 44 50
40 44 49
43 47 53
40 44 49
40 44 49
43 47 53
44 48 53
44 48 54
43 47 53
44 48 53
46 50 56
40 44 49
41 46 51
40 43 48
44 48 54
43 47 52
44 48 53
44 49 55
42 46 51
40 44 49
43 47 52
45 49 55
45 50 57
44 49 54
40 44 49
44 48 54
48 52 59
42 46 51
41 45 51
42 46 52
41 45 50
43 47 53
41 45 50
43 47 52
42 46 51
45 50 56
39 43 48
43 47 53
44 48 53
47 52 58
40 44 49
43 47 53
45 49 55
48 52 58
41 45 51
45 49 55
45 50 56
42 46 52
45 49 55
45 49 54
43 47 53
45 49 55
48 52 59
42 46 52
46 51 57
43 47 53
42 46 52
41 46 51
41 45 50
44 48 54
39 42 47
45 50 56
40 44 49
43 47 53
45 49 55
41 45 51
40 44 49
41 45 51
42 46 52
45 49 54
44 49 55
47 51 58
46 50 56
42 46 52
42 47 53
44 48 54
46 50 57
41 45 50
43 47 53
44 48 54
44 48 54
40 44 49
44 49 54
42 47 52
41 45 50
42 46 52
45 49 55
41 45 51
42 46 52
44 48 54
43 47 53
48 52 58
45 49 54
38 42 47
42 46 52
43 47 52
41 45 51
42 47 52
36 39 44
44 48 54
43 48 53
40 44 49
44 48 53
44 49 54
41 44 49
39 43 48
47 52 59
58 66 77
58 66 77
60 68 78
58 66 77
60 68 79
58 66 76
58 66 76
58 66 77
60 68 78
60 68 79
58 66 77
59 68 78
59 67 78
60 68 79
61 69 80
60 68 79
59 67 78
59 67 78
60 68 78
58 66 77
59 67 78
59 67 78
59 67 78
61 69 80
60 68 79
59 68 79
61 69 80
61 69 80
61 69 79
60 68 79
60 68 79
59 68 78
60 68 78
59 67 78
60 68 79
59 67 78
60 68 79
59 68 79
60 68 79
60 68 79
59 68 79
60 68 79
59 68 79
61 69 80
61 69 80
61 69 80
60 68 79
61 69 80
60 68 79
61 69 80
60 69 79
61 69 80
61 69 80
61 69 80
60 69 79
61 69 80
61 69 80
59 68 79
61 69 79
61 69 80
62 70 80
60 68 79
61 69 80
60 68 79
61 69 80
60 68 79
61 69 79
60 69 80
61 69 80
61 69 80
62 70 80
61 70 80
61 69 80
60 68 79
61 69 80
61 69 80
61 69 80
61 69 80
61 70 80
61 69 80
61 69 80
61 69 80
61 69 79
61 70 80
62 70 80
61 69 80
61 69 80
61 70 80
61 70 80
61 69 80
61 69 80
62 70 80
61 70 80
61 69 80
61 69 80
61 69 80
61 69 80
61 69 80
61 69 80
61 69 80
61 69 80
61 69 80
61 69 80
61 69 80
61 70 80
61 69 80
60 69 80
62 70 80
61 69 80
61 69 80
62 70 80
61 69 80
61 70 80
61 69 80
62 70 80
61 70 80
61 70 80
62 70 80
61 70 80
61 69 80
61 70 80
62 70 80
61 69 80
62 70 80
60 69 80
61 69 80
61 69 80
61 69 80
61 69 80
61 69 80
61 70 80
62 70 80
62 70 80
61 69 80
62 70 80
61 69 80
62 70 80
62 70 80
61 69 80
61 70 80
61 70 80
61 70 80
61 69 80
62 70 80
61 70 80
62 70 80
61 69 80
61 69 80
61 69 80
62 70 80
62 70 80
60 69 80
61 69 80
61 70 80
62 70 80
61 70 80
60 69 80
61 69 80
61 69 80
61 69 80
60 68 79
62 70 80
62 70 80
62 70 80
62 70 80
62 70 80
61 69 80
60 68 79
61 70 80
61 70 80
61 69 80
62 70 80
61 69 79
61 70 80
61 69 80
61 69 80
61 69 80
62 70 80
62 70 80
61 69 80
61 69 80
61 69 80
61 70 80
61 70 80
61 70 80
60 69 80
62 70 80
61 69 80
60 69 80
62 70 80
61 69 80
62 70 80
61 69 80
62 70 80
62 70 80
62 70 80
61 69 80
61 69 80
60 69 80
61 69 80
61 69 80
61 70 80
60 69 80
61 69 80
61 70 80
61 69 80
61 69 80
61 70 80
61 69 80
61 69 80
61 69 80
60 69 80
62 70 80
60 69 79
60 69 80
62 70 80
61 69 79
61 69 80
61 69 80
61 69 80
60 68 79
61 69 80
60 68 78
61 69 80
61 69 80
61 69 80
60 69 79
61 69 80
60 68 79
61 69 80
61 69 80
60 69 79
61 69 80
60 69 80
61 69 80
60 69 79
61 69 80
60 68 79
59 68 79
61 69 80
60 68 79
61 69 79
61 69 79
61 69 80
61 69 79
60 68 79
60 68 79
60 68 79
59 67 77
59 68 78
59 67 78
60 69 79
60 68 79
60 69 80
59 67 78
60 68 79
60 69 80
61 69 80
60 68 78
60 69 80
59 67 77
61 69 80
60 68 79
60 69 80
60 68 78
60 69 79
58 66 76
58 67 77
60 69 80
60 68 79
61 69 80
60 68 79
60 68 79
61 69 79
59 67 78
59 68 78
60 69 79
58 66 76
59 67 78
60 68 78
59 67 77
58 67 77
58 67 78
59 67 78
61 69 79
59 67 78
58 66 76
58 66 77
56 63 73
60 68 78
57 65 75
40 44 49
42 46 52
36 40 45
45 50 56
39 43 48
41 45 50
45 49 55
35 39 43
39 43 49
35 38 43
43 47 53
43 47 52
40 44 49
44 48 53
41 45 51
45 49 55
44 48 53
40 44 49
43 47 52
37 41 46
42 46 51
45 49 55
43 47 52
45 49 54
44 48 54
40 44 49
43 48 54
46 51 57
40 44 50
42 46 51
42 46 52
44 48 54
42 46 51
46 50 56
44 49 55
45 50 55
45 49 55
45 49 55
48 52 58
43 47 53
39 43 48
40 44 50
43 47 52
45 49 56
39 43 48
48 52 58
43 47 52
39 43 49
40 43 49
47 52 57
45 49 55
41 45 51
45 49 55
46 50 56
45 49 55
44 48 54
45 49 55
39 44 49
43 47 53
46 51 56
43 48 54
40 44 49
44 48 54
43 47 53
44 48 54
45 49 55
40 44 49
42 46 52
41 46 51
47 51 57
43 47 53
40 44 49
44 48 54
44 49 54
37 40 45
38 42 47
43 47 53
40 44 49
41 44 50
40 44 49
41 45 51
43 47 52
45 49 55
43 47 52
43 47 53
48 52 58
41 45 51
41 45 50
39 43 48
45 49 55
43 47 53
44 48 54
44 48 53
43 48 54
45 50 55
43 47 53
45 49 55
42 46 51
39 43 48
40 44 50
43 47 52
44 48 54
42 46 51
42 45 51
42 46 51
41 45 50
38 42 47
43 47 53
57 65 75
57 65 75
58 66 76
60 68 79
58 66 76
58 66 77
59 67 78
60 68 78
58 66 76
60 68 79
59 67 77
60 69 79
59 67 77
59 67 78
58 66 76
60 69 79
60 68 79
60 68 79
60 68 79
60 69 79
59 67 77
58 66 77
60 68 80
60 68 78
61 69 80
60 68 79
60 69 79
60 68 78
60 69 79
59 67 78
60 68 79
60 68 79
60 68 79
60 68 79
61 69 80
60 68 79
60 68 79
61 69 80
61 69 80
60 68 79
61 69 79
60 68 78
61 69 80
59 68 79
60 68 79
60 68 79
60 68 79
60 68 79
59 68 79
61 69 79
61 69 80
61 69 79
60 68 79
61 69 80
61 69 79
61 69 80
60 68 79
60 68 79
61 69 80
60 68 79
60 69 80
60 68 79
61 69 80
61 70 80
61 69 80
61 69 80
61 69 80
60 68 79
60 68 79
61 69 80
61 69 80
61 69 80
60 69 79
61 69 80
61 70 80
61 70 80
61 69 80
61 69 79
62 70 80
62 70 80
61 69 80
60 68 79
62 70 80
60 69 79
62 70 80
62 70 80
61 70 80
60 68 79
61 69 80
61 70 80
61 70 80
61 69 80
61 70 80
60 68 79
60 69 80
61 69 80
62 70 80
61 69 80
61 69 80
61 69 80
61 69 80
61 69 80
61 69 80
61 69 80
60 69 80
61 69 80
61 69 80
61 69 80
61 69 80
61 69 80
61 69 80
61 70 80
61 70 80
62 70 80
61 70 80
61 69 79
61 70 80
61 69 79
60 68 79
61 69 80
61 69 80
61 69 80
61 69 80
61 69 80
61 69 80
61 69 80
61 69 80
61 70 80
61 69 80
61 69 80
61 69 80
61 69 80
61 70 80
62 70 80
61 70 80
61 70 80
61 69 80
61 69 80
62 70 80
61 70 80
61 69 80
62 70 80
62 70 80
62 70 80
61 69 80
62 70 80
61 69 80
61 69 80
62 70 80
62 70 80
61 70 80
61 70 80
61 69 80
62 70 80
60 69 80
61 69 80
61 69 80
62 70 80
61 69 80
62 70 80
61 70 80
61 69 80
61 69 80
61 70 80
61 70 80
62 70 80
61 69 79
61 69 80
61 69 80
62 70 80
62 70 80
61 69 80
62 70 80
61 69 80
61 69 80
61 70 80
61 69 80
61 69 80
61 69 80
61 69 80
61 69 80
61 69 80
61 69 80
61 70 80
61 70 80
62 70 80
60 69 80
61 69 80
61 69 80
61 70 80
60 69 80
61 69 80
61 69 80
61 69 79
61 69 80
61 69 80
61 69 80
60 69 80
61 69 80
61 69 80
61 69 80
61 69 80
60 69 80
61 69 80
61 69 80
61 70 80
61 69 80
62 70 80
61 69 80
61 70 80
61 69 80
60 69 79
61 69 80
60 68 79
61 70 80
60 68 79
61 69 80
62 70 80
61 69 80
61 69 80
61 70 80
61 70 80
61 69 80
61 69 80
60 68 79
60 68 78
60 68 79
61 69 80
59 68 78
60 68 79
61 69 80
61 69 80
61 69 79
60 68 79
60 69 79
61 69 80
60 68 78
61 69 80
60 68 79
60 68 79
60 68 79
60 69 80
60 68 79
61 69 80
61 69 80
60 69 79
60 69 80
61 69 80
60 68 79
60 69 80
60 69 80
60 68 78
61 69 80
61 69 80
60 69 79
61 69 80
60 68 78
59 68 79
59 67 77
60 68 79
60 68 79
61 69 80
59 67 78
59 67 78
59 67 78
60 68 79
59 68 78
59 67 78
58 66 76
60 68 78
59 67 78
60 68 78
60 69 79
58 66 77
59 67 77
60 68 79
59 67 77
59 68 78
61 69 79
59 67 77
59 67 77
57 65 76
58 66 76
59 67 77
59 67 78
58 66 76
60 68 79
59 67 78
58 66 76
59 67 77
60 68 78
57 65 75
50 56 65
44 48 53
38 41 46
43 47 53
47 51 57
42 46 51
43 48 53
39 43 48
39 43 48
38 42 47
38 42 47
45 49 55
41 45 50
35 39 44
45 49 55
39 43 49
43 47 53
40 44 50
43 47 53
43 47 53
44 48 54
41 45 51
42 47 52
42 46 51
44 48 53
44 48 54
43 47 53
42 46 52
47 51 57
42 46 52
39 43 48
43 47 52
40 44 49
40 44 49
47 51 57
41 45 50
43 47 53
44 48 53
44 48 54
44 48 54
45 49 55
43 47 52
45 49 55
39 43 48
42 46 51
46 50 56
47 52 58
42 47 53
44 48 53
43 46 52
40 44 49
41 45 51
40 44 49
42 46 51
42 46 51
44 48 54
44 48 54
45 49 55
42 46 52
45 49 55
47 51 57
45 50 56
46 50 56
44 48 54
42 47 52
44 48 54
42 46 52
44 48 54
44 48 54
45 49 54
42 46 51
45 49 55
41 45 51
42 47 52
42 46 51
44 47 53
41 45 51
42 46 51
38 42 47
40 44 49
47 51 57
38 41 47
44 48 54
39 43 48
39 43 48
39 43 48
43 47 53
47 51 57
45 49 54
40 44 49
39 43 47
44 48 53
41 46 51
44 48 54
41 45 50
39 43 48
42 47 52
38 42 47
39 44 49
42 46 51
41 45 50
41 45 50
40 44 49
40 44 49
40 44 49
41 45 50
37 40 45
54 61 70
57 65 75
59 68 78
56 64 75
58 66 76
60 68 78
58 66 77
57 65 75
58 66 76
58 66 76
58 66 76
59 67 77
60 68 79
59 67 78
59 67 77
56 64 74
59 67 77
60 67 78
59 67 78
60 68 78
59 68 78
58 67 77
58 66 77
60 69 80
60 68 79
59 67 77
61 69 80
60 68 79
59 68 79
60 69 80
59 67 78
60 68 79
60 68 78
60 69 80
60 68 79
61 70 80
60 68 79
59 68 78
60 68 79
60 68 79
61 69 80
61 69 80
61 69 80
60 68 79
61 69 80
61 69 80
60 69 79
60 69 79
61 69 80
62 70 80
61 69 80
61 69 80
59 68 78
60 69 80
60 68 78
60 69 80
60 69 80
61 69 80
60 68 79
60 69 80
61 69 80
61 69 80
59 68 79
60 69 80
61 69 80
60 68 79
61 69 80
60 68 79
60 69 80
61 70 80
61 69 80
60 68 79
61 69 80
61 69 80
61 69 80
61 70 80
61 69 80
61 69 80
61 69 80
61 69 80
60 68 79
61 69 80
61 69 80
61 69 80
61 68 79
60 69 79
61 69 80
61 69 80
62 70 80
61 69 80
61 69 80
61 69 80
61 69 80
61 69 80
61 69 80
60 69 80
61 69 80
61 69 80
61 69 80
61 69 80
61 69 80
61 69 80
61 70 80
61 69 80
61 69 80
61 69 80
60 69 80
61 69 80
61 70 80
61 69 80
61 69 80
61 69 80
61 69 80
61 69 80
62 70 80
61 69 80
60 69 80
61 70 80
61 70 80
61 70 80
61 69 80
62 70 80
62 70 80
61 69 80
61 69 80
61 69 80
61 69 80
61 70 80
61 70 80
61 69 80
61 69 80
61 69 80
61 69 80
61 69 80
61 69 80
61 69 80
61 69 80
61 70 80
61 69 80
61 70 80
61 69 80
61 70 80
62 70 80
61 69 80
61 69 80
61 70 80
61 70 80
62 70 80
61 70 80
61 70 80
62 70 80
61 69 80
61 69 80
61 69 80
61 69 80
61 69 80
61 70 80
61 69 80
61 70 80
61 69 80
61 70 80
61 69 80
61 69 80
62 70 80
61 69 80
61 69 80
61 69 80
61 69 80
62 70 80
61 69 80
61 70 80
61 70 80
62 70 80
62 70 80
61 70 80
61 70 80
61 69 80
61 69 80
61 69 80
61 69 80
61 69 80
61 69 80
61 70 80
61 69 80
61 69 80
60 69 80
61 69 80
62 70 80
61 70 80
61 69 80
61 69 80
60 68 80
60 69 80
62 70 80
61 70 80
61 69 80
61 69 80
61 69 80
61 69 80
61 69 80
61 69 80
61 70 80
60 69 80
61 69 80
61 70 80
62 70 80
61 70 80
61 69 80
61 70 80
61 69 80
61 69 80
61 69 80
61 70 80
61 69 80
60 69 80
61 70 80
61 69 80
61 69 80
60 68 79
60 69 79
60 69 79
61 69 80
61 70 80
61 69 80
60 69 80
62 70 80
60 68 79
61 69 79
60 68 78
59 67 78
61 69 80
61 69 80
62 70 80
61 69 80
61 69 80
61 69 79
60 68 79
61 69 79
60 68 79
60 68 78
59 67 77
60 68 79
59 67 78
61 69 80
59 67 78
60 69 80
61 69 80
61 69 80
60 68 79
60 68 79
59 68 78
60 68 79
61 69 79
59 67 78
60 68 79
61 69 80
60 69 79
60 68 79
60 68 79
59 67 78
60 68 79
60 68 78
59 68 78
60 68 78
60 68 78
61 69 80
60 68 79
59 67 78
60 68 79
60 68 79
60 68 78
59 67 78
59 67 77
58 65 76
58 66 76
60 68 78
59 67 78
60 68 78
58 66 77
56 63 73
60 68 78
59 67 77
57 65 76
57 65 76
58 67 78
58 66 77
56 64 74
61 69 79
57 65 76
59 67 78
57 65 75
59 66 77
58 66 76
57 65 75
47 53 60
39 43 48
40 44 49
40 44 49
38 42 47
41 45 50
41 45 50
41 46 51
41 45 51
41 44 50
43 48 53
39 43 48
43 47 53
38 42 47
40 44 49
37 41 45
43 47 52
41 45 50
45 49 55
42 46 51
42 46 51
44 48 53
42 46 51
43 47 53
43 47 52
42 46 51
42 46 51
39 42 48
44 48 53
43 47 53
44 48 53
42 46 52
44 48 54
39 43 49
42 46 52
42 46 51
44 48 54
44 48 54
44 48 53
41 45 50
39 43 48
43 48 53
41 45 50
42 46 51
40 44 49
45 49 55
42 47 52
41 45 51
41 45 51
46 50 56
46 50 56
46 50 55
46 50 56
41 45 50
46 51 57
43 47 53
42 46 51
40 44 49
42 46 51
48 53 59
43 48 53
47 51 57
41 45 50
43 46 52
46 50 56
41 45 50
44 49 55
43 47 53
41 45 50
43 47 52
45 49 55
43 47 53
45 49 55
43 47 53
43 47 52
42 46 51
44 48 53
45 50 56
40 44 50
36 40 45
42 46 52
40 44 49
40 43 49
41 45 51
45 49 55
42 46 51
46 50 56
44 48 54
43 47 52
43 48 53
41 45 50
38 42 47
41 45 50
36 40 45
42 46 51
41 45 50
42 46 52
42 46 52
42 46 51
40 44 49
42 46 51
38 42 47
39 43 48
43 47 52
40 44 49
48 53 60
58 66 77
59 66 76
60 68 78
57 65 75
58 65 76
60 68 78
57 66 76
59 67 78
59 67 77
59 67 77
58 66 76
59 67 77
58 66 77
59 67 78
59 67 77
60 68 79
57 65 75
58 66 77
60 68 79
58 65 75
59 67 77
61 69 80
59 67 78
61 69 79
59 67 78
61 69 79
60 68 79
60 68 79
58 67 77
60 68 78
59 67 78
59 68 78
61 69 80
61 69 80
60 68 79
60 68 79
59 67 78
60 68 78
60 68 79
60 68 78
60 69 80
60 68 79
60 68 78
61 69 80
60 68 79
60 68 78
60 69 79
60 68 79
60 68 79
60 68 79
60 68 79
61 69 80
61 69 79
61 69 79
61 69 80
60 68 78
60 68 78
60 68 79
60 68 79
60 68 79
61 69 79
61 69 80
61 69 80
60 69 79
61 69 80
61 69 80
61 69 80
61 69 80
61 69 79
60 69 79
60 69 79
61 69 80
60 68 79
61 69 79
61 69 80
61 69 80
61 69 79
60 68 78
61 69 80
61 69 80
62 70 80
61 70 80
61 69 80
61 69 80
61 70 80
61 69 80
61 70 80
61 69 80
61 69 80
60 69 80
61 69 80
61 69 80
62 70 80
61 70 80
61 69 80
61 70 80
61 69 80
61 69 80
60 69 79
62 70 80
62 70 80
61 69 80
61 69 80
61 69 80
61 70 80
61 69 80
61 70 80
61 69 80
61 70 80
61 69 80
61 69 80
60 68 79
61 69 80
61 70 80
61 69 80
61 69 80
62 70 80
61 70 80
61 69 80
61 69 80
61 69 80
61 69 80
61 69 80
61 69 80
62 70 80
61 69 80
61 70 80
62 70 80
61 69 80
62 70 80
61 69 80
61 69 80
61 70 80
62 70 80
61 70 80
61 69 80
61 70 80
61 70 80
62 70 80
61 70 80
60 69 80
61 69 80
61 69 80
61 69 80
61 70 80
61 70 80
62 70 80
61 70 80
61 69 80
61 70 80
61 69 80
61 70 80
61 69 80
62 70 80
62 70 80
60 68 79
61 69 80
61 69 80
61 70 80
61 69 80
61 69 80
61 69 80
61 69 80
61 70 80
61 69 80
61 70 80
62 70 80
61 69 80
62 70 80
61 69 80
62 70 80
61 69 80
61 69 80
61 70 80
61 69 79
60 68 79
61 70 80
61 69 80
61 69 80
61 69 80
61 69 80
61 70 80
61 69 80
60 69 80
61 69 80
61 69 80
61 69 79
61 69 80
62 70 80
61 70 80
61 70 80
62 70 80
61 69 80
61 69 79
62 70 80
61 70 80
61 69 80
62 70 80
60 69 80
60 69 80
61 69 80
61 70 80
61 69 80
61 69 80
61 69 80
61 69 80
61 69 80
61 70 80
61 69 80
61 69 80
61 69 80
61 69 80
61 69 80
61 69 80
61 70 80
60 69 79
61 69 80
61 69 80
61 69 80
61 69 80
61 69 80
61 69 79
59 68 79
60 69 80
60 69 80
61 69 80
61 69 80
61 69 80
61 69 79
61 69 80
61 69 79
59 67 78
61 69 80
60 68 79
61 69 80
61 69 80
59 68 79
61 69 80
61 69 80
59 68 79
60 68 79
61 69 79
60 68 78
61 69 79
59 67 78
61 69 80
61 70 80
61 69 79
60 68 79
60 68 79
60 68 79
61 69 79
60 68 79
59 67 78
61 69 80
59 67 78
59 68 79
59 66 77
59 67 78
60 68 79
59 67 78
61 69 80
59 68 78
59 67 77
60 68 78
61 69 79
59 67 78
59 67 77
60 68 79
58 66 77
60 68 79
60 68 78
61 69 80
58 66 77
58 66 77
58 66 76
59 68 78
57 65 75
59 66 77
58 66 76
58 65 76
59 67 78
59 66 77
58 65 75
58 66 77
58 66 76
57 65 75
55 63 73
57 65 75
57 65 75
58 66 76
56 64 74
57 65 76
56 64 74
57 65 75
41 46 52
40 44 49
41 45 50
43 47 52
40 44 49
40 43 48
40 44 49
38 42 46
41 45 50
43 47 53
38 42 47
39 43 48
41 45 50
39 42 47
42 46 51
42 46 51
43 47 53
40 44 49
43 47 53
40 44 50
42 46 52
39 43 49
43 48 53
44 48 54
43 48 53
37 40 45
41 45 50
40 45 50
44 48 54
44 48 53
39 42 48
43 47 53
45 49 55
44 48 54
43 47 53
43 47 53
46 51 57
39 43 48
45 49 55
45 49 54
44 48 54
42 46 52
44 48 54
43 47 52
45 49 55
38 42 47
43 47 52
45 50 56
41 45 51
45 50 55
38 42 47
45 49 54
46 51 56
44 48 54
45 49 54
43 47 53
44 48 54
43 47 53
37 41 46
42 46 52
43 47 52
46 50 55
43 47 53
47 52 58
39 43 49
42 46 52
43 48 54
37 41 46
43 47 53
42 46 52
44 48 53
41 45 51
43 47 53
47 51 57
40 44 49
44 48 54
40 43 48
45 49 55
42 46 52
39 43 48
44 48 53
41 45 51
39 43 48
41 45 51
43 47 53
38 42 47
43 47 53
42 46 51
38 42 48
42 46 52
39 43 48
39 43 48
41 45 50
45 49 55
43 47 52
40 44 49
42 46 52
41 45 50
44 48 54
42 46 51
44 49 54
35 39 44
36 39 44
39 44 49
56 63 73
57 65 76
57 65 74
57 65 76
59 67 77
53 60 69
58 65 76
58 66 76
59 67 78
58 66 76
59 67 78
57 64 74
56 64 74
60 68 78
59 67 77
60 68 78
59 67 78
59 67 77
59 67 77
59 67 78
60 68 78
58 66 77
59 67 77
59 67 77
60 68 79
59 67 78
59 67 78
59 67 78
60 68 79
59 68 79
60 69 79
57 65 75
59 67 78
60 69 80
60 68 78
60 68 79
60 68 79
60 68 78
58 66 76
58 66 77
60 68 79
60 68 79
60 69 79
60 68 79
61 69 79
60 68 79
60 68 78
61 69 80
60 68 79
60 68 78
59 67 78
61 69 79
60 68 79
60 69 79
60 68 79
61 69 80
60 69 79
60 68 79
61 69 79
61 69 80
60 68 79
61 69 80
61 69 80
61 69 80
61 69 80
61 69 80
60 68 79
60 69 79
60 69 80
60 68 79
61 69 80
61 69 80
60 68 79
60 68 79
62 70 80
61 69 80
61 70 80
61 69 80
60 69 80
61 69 80
61 70 80
61 69 80
62 70 80
61 69 80
61 69 80
61 69 80
61 69 80
61 69 80
61 69 80
61 69 80
60 68 79
61 69 80
60 68 79
61 69 80
60 69 80
61 69 80
61 69 80
60 69 80
61 69 80
61 69 80
61 69 80
61 69 80
60 68 79
60 69 80
61 69 80
61 70 80
61 69 80
61 69 80
61 69 80
61 69 80
61 70 80
62 70 80
61 70 80
61 69 80
61 69 80
61 70 80
61 69 80
62 70 80
60 69 80
61 69 80
61 69 80
61 70 80
62 70 80
61 70 80
61 69 80
60 69 80
61 69 80
60 69 79
61 69 80
61 69 80
60 69 80
61 70 80
61 70 80
62 70 80
61 69 79
61 69 80
61 69 80
61 69 80
62 70 80
61 69 80
61 70 80
61 69 80
62 70 80
61 69 80
61 69 80
62 70 80
61 70 80
62 70 80
62 70 80
61 69 80
61 69 80
61 69 80
61 69 80
61 69 80
61 69 80
62 70 80
61 70 80
61 69 80
62 70 80
61 69 80
61 69 80
61 69 80
61 69 80
61 69 80
61 69 80
61 69 80
61 69 80
60 69 80
61 69 80
61 69 80
61 69 80
61 69 80
62 70 80
61 69 79
60 69 79
61 69 80
61 69 80
61 69 80
61 70 80
60 69 80
60 68 79
61 69 80
61 69 80
62 70 80
60 69 80
61 70 80
61 69 79
61 69 80
62 70 80
61 69 80
60 68 79
61 69 80
61 69 80
61 70 80
60 69 80
61 69 80
61 69 80
62 70 80
60 69 80
61 69 80
61 69 80
60 69 79
61 69 80
60 69 79
61 69 79
61 69 80
59 68 78
61 70 80
61 70 80
61 69 80
61 70 80
60 68 79
60 68 79
61 69 80
60 68 79
61 69 80
61 69 80
61 69 80
60 68 79
59 67 78
61 69 80
61 69 79
60 68 79
60 68 79
60 68 79
60 69 80
60 68 79
61 69 80
60 68 79
61 69 80
59 67 78
60 68 79
61 69 80
59 68 78
59 67 78
60 69 80
61 69 79
61 69 80
60 68 79
60 68 79
61 69 79
60 68 79
60 68 78
61 69 80
61 69 80
60 68 79
61 69 80
60 68 79
60 68 79
60 68 78
60 68 79
60 68 79
61 69 79
60 68 79
59 67 78
60 68 78
60 68 79
60 67 77
61 69 80
60 68 79
60 68 79
60 68 79
59 68 79
58 67 77
61 69 79
57 64 74
59 67 78
58 66 77
58 66 77
60 67 78
57 65 75
59 67 78
59 66 76
60 68 78
58 66 76
59 68 78
58 66 77
58 66 76
58 65 76
59 67 78
58 66 76
59 67 77
59 67 78
58 66 76
57 65 75
57 64 74
56 64 74
57 65 75
56 63 73
55 63 74
57 65 75
57 64 74
58 65 75
56 63 73
60 68 78
57 65 75
54 61 70
39 43 48
37 40 45
38 41 46
38 42 47
35 38 43
40 44 49
39 43 48
43 47 52
38 42 47
42 46 51
40 44 49
44 48 54
42 45 51
38 41 46
40 44 49
38 42 47
39 42 48
43 47 52
44 48 54
44 48 54
41 44 50
44 48 54
39 43 48
42 46 51
45 49 55
42 46 52
43 47 52
40 44 49
41 45 50
42 46 52
42 46 52
38 42 47
43 47 52
40 44 49
42 46 51
46 50 56
38 42 47
41 45 51
39 43 48
43 47 52
45 49 55
39 43 48
35 39 44
44 48 54
45 50 55
39 43 48
46 50 56
38 42 48
41 45 50
43 47 52
45 50 56
42 46 51
44 48 53
43 47 53
41 45 51
40 44 49
44 49 54
41 45 51
41 45 51
39 43 48
40 44 49
37 41 46
42 46 52
39 43 49
43 47 53
43 47 52
42 46 52
46 50 56
45 50 55
41 45 50
42 47 52
38 41 46
39 43 48
38 41 46
43 47 52
41 45 50
41 45 51
38 42 47
43 46 52
43 47 53
42 46 52
39 43 48
44 48 54
40 44 50
39 42 47
40 43 49
40 44 49
39 43 48
41 44 49
38 41 46
39 43 48
44 49 54
40 44 49
39 43 48
42 46 51
37 41 46
40 44 49
38 41 46
34 38 42
41 45 50
37 41 46
39 43 48
51 58 67
58 66 77
58 66 76
58 66 76
55 62 72
57 65 75
56 64 74
59 67 77
58 65 76
56 64 75
57 65 76
56 63 72
56 64 74
59 67 78
58 66 76
59 67 77
57 65 75
58 66 76
58 66 77
58 66 77
57 65 75
59 67 77
57 65 75
58 67 77
59 67 77
59 67 78
59 67 78
57 66 76
59 67 78
60 68 79
59 67 78
60 69 79
60 68 78
59 67 78
60 68 78
60 68 79
60 68 78
59 68 78
60 68 79
58 67 77
59 68 79
60 69 79
61 69 80
61 69 79
60 69 80
60 68 79
59 67 78
60 68 79
60 68 79
60 68 79
60 69 80
60 69 79
61 69 79
61 69 80
61 69 80
60 69 79
60 68 78
61 69 80
61 69 80
60 68 79
61 69 80
61 69 80
61 69 80
61 69 80
61 69 79
61 69 80
61 69 79
61 69 79
61 69 80
60 69 80
61 69 80
61 69 80
60 69 79
61 69 80
61 69 80
61 69 79
60 68 78
61 69 80
60 68 79
60 69 80
60 69 80
62 70 80
61 69 80
60 69 80
60 69 80
60 69 80
61 69 80
60 68 79
61 69 80
61 69 79
61 70 80
62 70 80
61 70 80
61 69 80
61 70 80
62 70 80
61 70 80
61 69 80
61 69 80
61 69 80
62 70 80
62 70 80
61 69 80
61 69 79
61 69 80
62 70 80
61 69 80
61 69 80
61 70 80
62 70 80
61 69 80
61 70 80
61 69 80
61 69 80
61 69 80
61 69 80
61 69 80
61 69 80
61 69 80
60 69 80
60 68 79
60 69 80
61 69 80
62 70 80
61 69 80
61 69 80
61 69 80
61 70 80
61 70 80
61 69 80
61 69 80
61 69 80
61 69 80
61 69 80
61 70 80
61 70 80
61 69 80
61 70 80
61 69 80
61 69 80
61 69 80
60 69 80
61 69 79
60 69 80
61 70 80
62 70 80
61 69 80
61 69 80
61 69 80
61 70 80
60 69 80
62 70 80
61 69 80
61 69 80
61 69 80
61 69 80
62 70 80
61 69 80
62 70 80
61 69 80
61 70 80
61 69 80
61 70 80
61 70 80
60 69 80
61 70 80
61 69 80
61 69 80
61 69 80
62 70 80
61 69 80
61 69 80
61 69 80
61 69 80
61 69 79
61 69 80
61 69 80
61 70 80
61 69 80
61 69 80
61 69 80
61 69 80
60 68 79
61 70 80
60 68 79
61 70 80
62 70 80
61 69 80
60 69 80
61 69 80
61 69 80
60 69 80
61 69 80
61 69 80
61 70 80
61 69 80
62 70 80
61 69 80
61 69 80
61 69 80
61 69 80
61 69 80
61 70 80
61 69 80
61 69 80
61 69 79
61 69 80
61 69 80
61 69 80
61 69 80
61 69 80
60 68 79
61 69 80
61 70 80
60 68 79
60 69 79
60 68 79
59 67 78
60 68 79
61 70 80
61 69 80
60 68 79
60 68 79
60 68 79
60 68 79
61 69 80
61 69 80
60 68 79
61 69 80
60 68 79
61 69 79
60 69 80
60 68 79
61 69 80
60 68 79
60 69 79
60 68 79
60 68 79
60 68 79
60 68 79
59 67 78
60 68 79
60 68 79
60 68 79
60 68 79
60 68 79
60 68 79
60 68 79
60 69 79
61 69 80
60 68 78
59 68 78
59 67 77
60 68 79
59 67 78
60 68 79
59 67 78
59 67 78
60 68 78
59 67 77
59 67 77
58 66 76
60 69 79
60 68 78
57 65 75
59 67 77
58 66 77
58 66 77
60 68 79
58 67 77
60 68 79
59 68 78
58 65 76
59 67 78
60 68 79
60 68 78
58 66 76
59 67 78
58 67 77
58 66 76
58 66 76
58 66 76
57 65 76
59 67 77
56 64 74
57 64 74
57 65 75
57 64 74
58 65 75
57 64 75
57 65 75
58 66 77
57 65 75
57 65 75
57 65 75
58 66 76
55 62 72
57 64 74
53 59 67
38 42 47
38 42 47
42 46 51
43 47 53
41 45 50
41 45 50
42 46 51
42 46 52
39 43 48
46 51 56
36 39 43
42 45 51
41 45 50
40 43 48
44 48 53
37 40 45
38 42 47
42 46 51
42 46 51
41 45 50
40 44 50
44 48 54
44 48 53
42 45 51
46 50 55
42 46 52
42 46 52
39 43 48
40 44 49
42 46 52
42 47 52
42 47 52
44 48 53
38 42 47
43 47 53
41 45 50
39 42 48
41 45 51
43 47 53
40 44 49
39 43 48
45 50 55
45 49 54
44 49 54
43 47 52
41 45 50
41 45 50
47 51 57
42 46 51
43 47 52
42 46 52
41 45 50
45 49 54
44 48 54
44 48 53
39 43 48
39 43 48
42 46 51
41 45 50
43 48 54
43 47 53
42 47 52
44 48 54
40 43 49
40 44 50
42 46 52
46 50 57
42 46 52
41 45 50
40 44 49
40 44 49
45 49 54
42 46 51
42 46 51
41 46 51
38 42 46
40 44 49
43 47 52
41 45 50
41 45 50
36 40 45
38 42 47
44 48 54
39 43 48
42 46 51
39 42 48
40 45 50
40 44 49
37 41 46
37 41 47
41 45 50
44 48 53
42 46 51
44 48 53
40 44 49
40 44 49
42 46 51
40 44 50
39 43 48
43 47 52
47 53 61
56 64 74
56 64 74
56 64 73
56 63 73
57 65 75
56 64 74
57 65 75
58 66 76
57 65 75
57 65 75
57 65 76
58 66 76
57 65 76
57 65 76
58 66 76
60 68 79
58 66 76
58 66 75
60 68 79
59 66 76
58 66 77
58 66 77
60 68 78
59 68 78
59 67 78
57 65 76
59 67 78
57 65 75
60 68 79
58 66 76
59 68 79
58 66 76
59 67 77
60 69 79
59 67 78
59 67 78
60 68 79
59 67 78
60 68 78
59 67 78
59 67 78
58 66 77
60 68 78
60 68 78
59 67 78
60 68 79
60 68 79
60 68 79
60 68 78
61 69 80
59 68 79
60 68 79
60 69 79
60 68 78
60 68 78
59 68 79
60 68 78
60 69 80
61 69 80
61 69 80
61 69 80
60 68 79
61 69 79
61 69 80
60 68 79
60 68 79
60 69 80
61 69 80
61 69 80
61 69 80
61 69 80
61 69 80
61 69 80
61 69 80
60 69 79
60 68 79
60 69 80
61 69 80
60 68 79
61 69 80
61 69 80
61 69 80
61 69 80
61 70 80
60 69 80
61 69 80
60 69 80
61 69 79
61 69 80
61 69 80
61 69 80
61 69 80
61 69 80
62 70 80
61 69 80
61 69 80
61 69 80
61 69 80
61 69 80
61 69 80
60 68 79
61 69 79
62 70 80
61 69 80
62 70 80
61 69 80
60 69 80
61 69 80
61 70 80
61 69 80
61 70 80
61 69 80
61 70 80
61 69 80
62 70 80
61 69 80
60 69 79
60 69 80
62 70 80
61 69 80
61 70 80
61 69 80
61 70 80
62 70 80
61 70 80
61 69 80
61 69 79
60 68 79
60 69 80
61 69 80
61 69 80
62 70 80
62 70 80
61 69 80
60 69 80
61 69 80
61 70 80
62 70 80
61 70 80
61 69 80
61 69 80
61 69 80
61 69 80
61 69 80
60 69 79
61 69 80
61 70 80
61 69 80
61 69 80
61 69 80
61 69 80
61 70 80
61 70 80
61 69 80
60 68 79
62 70 80
61 70 80
62 70 80
61 70 80
61 70 80
61 69 80
61 69 80
61 69 80
62 70 80
61 69 80
61 69 80
62 70 80
61 69 80
61 69 80
61 69 80
61 70 80
61 70 80
60 69 80
61 69 80
61 69 80
61 70 80
61 69 80
61 70 80
61 69 80
61 69 80
61 70 80
61 69 79
61 69 80
61 69 80
62 70 80
61 69 80
61 69 80
61 70 80
62 70 80
61 70 80
61 69 80
61 69 80
60 68 79
61 69 80
61 69 80
61 70 80
61 70 80
61 69 80
61 69 80
61 69 80
60 69 80
61 69 79
60 68 79
60 69 80
60 68 79
60 69 80
61 69 80
61 69 80
60 68 79
61 69 80
61 69 80
60 68 79
61 69 80
61 69 80
60 69 79
60 69 79
61 69 80
60 69 80
60 69 80
60 68 79
61 69 80
60 68 79
60 68 79
60 68 78
59 67 78
61 69 80
61 69 80
60 69 80
61 69 80
60 69 80
60 68 79
60 68 78
61 69 80
59 68 78
60 68 79
59 68 78
61 69 80
60 68 79
60 68 79
59 67 78
60 69 79
60 68 78
60 68 79
60 67 78
60 68 79
60 68 79
61 69 80
60 68 79
59 67 78
58 66 77
60 69 80
60 68 79
58 66 77
59 67 78
60 68 79
60 68 79
60 68 79
60 68 78
58 66 76
59 67 78
58 66 77
57 65 76
59 67 78
59 67 78
61 69 80
58 66 77
60 68 79
60 68 79
59 66 76
59 67 78
58 66 76
57 65 75
59 67 77
59 67 77
58 66 76
59 67 78
60 68 78
57 65 76
59 67 77
59 67 77
57 65 76
58 66 76
58 66 76
56 63 73
57 65 75
56 63 73
56 64 74
57 65 75
57 65 75
57 65 75
57 64 74
54 62 71
56 63 73
54 62 72
55 62 72
55 63 73
56 64 74
52 59 68
54 61 71
49 54 62
41 45 50
34 37 41
39 42 48
43 47 52
35 39 44
38 41 46
44 48 53
40 44 49
41 44 50
40 44 49
42 46 51
42 46 52
37 41 46
43 47 52
45 49 54
46 50 56
41 45 51
39 43 48
44 49 55
42 46 51
42 46 52
38 42 47
43 47 52
40 44 49
43 47 52
39 43 48
42 46 51
39 42 48
47 51 57
41 45 50
43 47 52
44 49 54
46 50 56
36 40 45
41 45 50
40 44 49
40 44 49
42 46 52
44 48 54
39 43 48
38 42 47
39 43 49
39 43 48
39 43 49
36 39 44
42 46 52
40 44 49
43 46 51
44 48 53
42 47 52
39 43 48
37 41 46
41 45 50
40 44 49
45 50 56
44 48 53
39 42 47
43 47 53
43 48 53
36 40 45
36 40 44
41 45 50
39 43 48
42 46 52
36 40 45
42 46 52
42 46 51
43 48 54
38 42 47
38 41 46
43 47 53
42 47 52
40 44 49
44 48 53
43 47 52
39 43 48
43 47 53
38 42 46
40 44 49
42 46 52
42 46 52
38 41 46
45 49 55
43 47 53
38 41 46
40 44 49
42 46 52
38 41 46
43 46 52
38 42 47
43 47 52
38 42 47
40 44 49
38 42 47
41 45 50
38 42 47
38 42 47
36 40 45
47 53 61
55 63 72
56 63 73
54 62 71
53 60 69
57 65 75
58 66 77
55 63 72
55 63 73
57 65 75
59 67 78
57 64 74
58 66 76
55 63 73
58 66 76
57 65 75
58 66 76
57 65 75
58 66 76
56 64 74
58 66 77
58 66 76
57 65 75
57 65 75
57 65 75
58 66 77
59 67 78
57 65 76
58 66 76
60 68 79
57 65 76
59 67 78
60 68 79
60 68 79
58 66 77
59 67 77
59 66 77
61 69 80
58 66 76
57 65 76
60 68 79
60 68 79
60 68 78
59 67 77
59 68 78
60 68 79
60 68 78
59 68 78
60 68 78
59 67 78
60 68 79
60 68 79
59 67 77
60 67 78
58 66 77
60 69 80
61 69 80
60 68 79
59 67 78
60 68 79
60 68 78
61 69 80
60 69 80
59 67 78
60 69 79
60 68 79
60 68 79
60 68 79
61 68 79
59 67 78
61 69 80
61 69 79
60 69 80
60 69 79
60 69 79
61 69 80
60 69 79
61 69 79
60 68 79
60 69 80
61 69 80
60 68 79
60 68 79
61 69 79
60 68 79
61 69 80
61 69 80
61 69 80
61 69 80
60 69 79
61 69 80
61 69 80
62 70 80
61 69 80
60 68 79
61 69 80
61 69 80
61 69 80
61 70 80
60 69 79
61 69 80
61 69 80
61 70 80
62 70 80
60 68 79
61 69 80
61 69 80
61 69 80
62 70 80
61 70 80
61 69 80
61 69 80
61 69 79
60 69 80
60 68 79
61 69 80
61 70 80
61 69 80
61 70 80
61 70 80
61 69 80
60 69 79
61 69 80
61 70 80
61 69 80
61 69 80
61 70 80
61 70 80
60 69 79
62 70 80
61 69 80
61 69 80
60 69 80
62 70 80
60 69 80
61 69 80
61 69 80
60 69 80
61 70 80
61 70 80
61 69 80
61 69 80
60 69 80
60 69 80
62 70 80
61 69 80
61 70 80
62 70 80
61 70 80
61 69 80
62 70 80
62 70 80
61 69 80
61 69 80
60 69 80
61 70 80
61 69 80
61 69 80
61 70 80
61 70 80
61 69 80
61 70 80
61 69 80
61 69 80
61 69 80
62 70 80
60 69 80
62 70 80
61 69 80
61 69 80
61 69 79
61 69 80
61 69 80
60 69 80
61 69 80
61 69 80
61 69 80
61 69 80
61 69 80
60 69 80
61 69 79
61 69 80
61 69 80
61 69 80
61 70 80
61 69 80
62 70 80
60 69 80
61 69 80
61 69 80
61 69 80
61 69 80
62 70 80
61 69 80
61 69 80
61 69 79
60 69 80
62 70 80
61 69 80
61 69 80
60 69 80
61 69 80
61 70 80
60 68 79
61 69 80
61 70 80
61 69 79
62 70 80
62 70 80
61 69 80
60 69 80
60 69 79
61 69 80
61 69 80
60 69 79
60 68 79
60 68 79
60 69 79
60 68 79
60 68 79
61 69 80
61 69 79
60 68 79
60 69 80
60 68 79
60 68 79
60 68 79
61 69 79
61 69 80
60 68 79
60 68 79
60 68 78
60 68 79
60 68 79
59 67 78
59 68 78
61 69 80
61 69 80
61 68 79
60 68 79
60 68 79
60 69 79
60 69 79
58 67 77
61 69 79
59 67 77
61 69 79
59 68 78
62 70 80
61 69 80
60 68 79
59 68 78
60 67 78
60 69 79
60 68 79
61 69 79
61 69 79
60 68 79
60 68 79
60 69 79
58 66 76
59 67 77
60 68 78
60 68 79
60 68 79
57 65 75
59 68 78
60 68 79
58 66 76
59 67 77
59 68 78
59 67 78
58 67 77
57 65 75
58 66 76
56 64 74
59 68 78
57 66 76
57 65 76
58 66 77
57 65 76
58 66 77
58 66 77
58 66 77
56 64 74
57 64 74
57 64 74
56 64 74
57 65 75
55 62 72
54 61 71
54 62 72
57 65 76
54 61 71
57 65 75
54 61 71
55 62 71
56 63 73
57 64 74
54 61 71
56 64 74
54 61 71
43 48 54
34 37 42
39 42 47
40 43 49
38 42 47
38 42 47
39 43 49
35 39 43
39 43 48
40 44 49
37 40 45
45 49 54
40 44 49
42 46 51
42 46 51
36 39 44
43 47 53
41 45 50
35 39 44
37 41 46
38 42 47
39 43 48
42 46 51
42 46 51
40 45 50
39 42 47
39 43 48
38 41 46
39 42 48
38 42 47
43 47 53
42 47 52
45 49 55
40 44 49
44 48 54
43 47 53
36 40 45
41 45 50
38 42 47
43 47 53
41 45 50
41 45 50
41 45 50
38 42 47
38 42 47
43 47 52
38 41 46
44 47 53
43 47 52
42 46 52
40 44 49
37 41 46
42 46 51
40 44 49
42 46 51
42 46 51
45 49 55
41 44 50
42 46 52
40 43 48
41 45 50
43 47 52
36 40 45
37 41 46
43 47 52
40 44 49
41 45 51
40 44 49
43 47 52
42 46 51
42 46 51
40 44 49
39 43 48
39 43 48
41 46 51
35 39 43
38 42 47
41 45 51
44 48 54
42 47 52
41 44 49
39 43 48
41 45 51
33 37 41
41 45 50
40 44 49
42 46 51
39 43 49
39 43 48
39 43 47
43 47 52
41 45 50
37 40 45
42 46 51
33 36 40
44 48 54
40 44 49
44 49 56
54 61 71
54 61 71
55 62 72
52 60 69
56 64 74
54 61 71
55 63 73
54 61 71
56 64 74
55 63 73
55 63 73
56 63 73
57 65 74
58 66 76
57 64 74
57 65 75
54 61 71
56 64 74
57 65 75
57 65 75
57 65 76
57 65 76
58 66 77
59 67 77
56 64 74
57 65 76
55 63 73
58 65 75
59 67 77
60 68 78
59 67 78
59 67 78
59 66 77
58 66 76
59 67 78
58 66 76
58 66 77
60 68 79
60 69 80
60 68 79
59 67 78
59 67 77
59 67 77
59 68 79
59 67 77
59 68 78
59 68 78
59 68 78
59 67 77
59 67 78
59 67 78
60 69 80
60 68 78
59 67 78
59 67 78
60 68 79
59 67 78
60 68 79
61 69 80
60 68 79
62 70 80
60 68 79
60 69 80
59 67 78
60 68 79
60 69 79
61 69 80
60 68 79
61 69 80
61 69 80
60 69 79
59 68 78
61 69 80
60 68 79
60 68 79
61 69 79
61 69 80
61 69 80
60 69 79
60 69 79
61 69 80
60 68 79
61 69 80
61 69 80
61 69 79
61 69 80
61 69 80
61 69 80
61 69 80
61 69 80
61 69 79
61 69 80
60 69 79
60 68 79
62 70 80
61 69 80
60 68 79
61 70 80
60 69 80
61 69 80
61 69 80
61 69 80
60 68 79
62 70 80
61 69 79
60 68 79
61 69 80
61 70 80
61 69 80
62 70 80
61 69 80
60 68 80
60 68 79
61 69 80
61 69 80
61 69 79
60 69 80
60 68 79
61 69 80
61 69 80
62 70 80
60 69 79
61 70 80
61 69 80
61 70 80
61 70 80
61 70 80
61 69 80
61 69 80
61 69 80
61 69 80
61 69 79
61 69 80
61 69 80
61 69 80
61 69 80
61 70 80
61 70 80
61 70 80
62 70 80
62 70 80
61 69 80
61 69 80
61 69 80
61 70 80
61 69 79
61 69 80
61 70 80
61 69 80
61 69 80
61 69 80
61 69 80
62 70 80
61 69 80
61 70 80
61 70 80
61 69 80
61 69 80
61 69 80
61 69 80
61 69 80
61 69 80
61 70 80
61 69 80
62 70 80
61 70 80
61 69 80
61 69 80
61 69 80
61 69 80
61 70 80
61 69 80
60 69 79
62 70 80
61 69 80
61 69 80
61 69 80
62 70 80
61 69 80
60 69 80
61 69 80
61 69 80
61 69 80
61 70 80
61 69 79
61 69 80
61 69 80
61 69 80
62 70 80
61 70 80
60 69 79
61 69 80
61 69 80
61 69 80
60 68 79
60 68 79
62 70 80
61 69 80
61 69 80
61 69 80
61 69 80
60 68 79
60 69 80
61 69 80
60 68 78
61 69 80
61 69 80
60 68 79
60 68 79
60 69 80
61 69 80
61 69 80
60 69 79
60 69 80
60 68 79
61 69 80
61 69 79
61 69 80
61 69 80
61 69 80
60 68 79
60 68 79
61 69 79
61 69 80
60 68 79
59 67 78
61 69 80
61 69 79
60 68 79
61 69 79
61 69 80
61 69 80
61 69 80
61 69 79
61 69 79
59 67 77
59 67 77
59 67 77
60 68 79
60 68 79
61 69 79
60 68 79
61 69 80
59 67 78
61 69 79
60 68 79
61 69 80
59 68 79
61 69 80
59 68 78
60 68 79
59 67 77
59 67 78
59 67 78
60 68 79
61 69 79
58 66 76
59 67 78
58 67 78
59 67 78
59 67 78
57 65 75
59 68 78
59 67 78
60 68 79
58 66 76
60 68 78
59 67 78
58 66 76
58 66 76
57 64 74
59 67 78
59 66 77
59 67 78
56 63 73
56 64 75
59 67 77
58 66 76
57 65 75
58 66 76
55 63 73
55 63 72
57 64 74
56 63 73
56 64 73
57 65 75
57 65 76
55 63 73
58 65 76
55 63 73
56 64 74
56 64 74
56 63 74
54 62 71
55 63 72
57 65 76
56 63 73
56 63 73
55 63 72
58 66 76
56 63 73
51 59 69
56 64 73
40 44 50
38 42 47
43 47 52
39 43 48
39 43 47
38 42 47
34 37 42
34 37 42
38 42 47
39 42 47
37 41 46
36 39 44
42 46 51
39 43 48
38 41 46
34 37 42
40 44 49
38 42 47
40 44 49
38 42 48
38 41 46
41 45 51
44 49 54
40 44 49
38 42 47
41 45 50
36 40 44
40 43 48
40 44 49
40 44 49
39 42 48
39 43 48
40 43 48
41 45 50
43 47 53
40 43 48
39 43 48
41 45 50
39 43 48
41 45 50
37 41 46
39 43 48
38 42 46
39 43 47
39 43 48
38 42 47
42 46 51
34 37 42
39 43 48
41 45 50
37 41 46
41 45 50
35 39 44
38 42 47
44 48 53
42 46 51
39 43 48
38 41 46
41 45 50
38 42 47
41 45 50
41 45 51
44 48 54
43 47 52
36 39 44
43 47 53
43 47 53
39 43 48
41 45 50
42 47 52
40 44 49
41 45 51
41 44 50
42 45 50
41 45 50
42 45 51
41 44 50
42 45 51
40 44 49
39 43 48
38 41 45
43 47 53
42 45 51
42 45 50
42 46 52
40 44 49
40 43 49
38 42 47
41 44 50
40 43 48
40 44 49
42 45 51
38 42 47
37 41 46
35 39 43
46 51 57
53 60 69
55 62 71
58 66 76
54 62 72
52 58 67
55 63 72
54 62 71
56 63 73
53 60 70
55 62 72
57 65 74
58 65 75
57 65 75
55 63 73
56 64 74
55 62 72
58 66 77
57 65 76
55 63 73
57 64 74
59 67 77
56 64 74
58 66 76
57 65 75
58 66 76
58 66 76
57 65 76
58 66 76
60 68 78
57 65 75
57 65 75
57 65 76
58 66 77
58 66 76
60 68 78
58 67 77
58 66 76
58 67 77
57 65 76
59 67 77
59 67 78
59 67 78
60 68 79
60 68 79
61 69 79
59 67 78
60 68 79
60 69 79
59 67 78
60 68 79
60 68 79
60 68 78
58 66 77
59 67 78
58 66 77
60 68 79
60 68 79
59 68 78
60 69 79
60 68 79
60 68 78
60 68 79
60 69 80
59 67 77
61 70 80
61 69 79
60 68 79
61 69 80
60 68 79
60 68 79
59 67 78
60 69 80
60 68 79
59 68 79
61 69 80
60 68 78
59 67 77
60 69 80
60 69 80
61 69 80
60 68 79
61 69 80
61 69 80
61 69 80
61 70 80
61 69 80
60 68 79
61 69 80
61 69 79
61 69 80
60 68 79
61 69 80
60 68 80
61 69 80
61 69 80
61 69 80
61 69 80
60 69 79
61 69 80
61 69 80
61 69 80
62 70 80
61 69 80
60 68 79
61 69 80
60 69 79
61 69 80
60 69 79
60 69 79
59 68 79
61 69 80
59 67 78
61 69 80
60 69 80
61 69 80
61 69 80
61 69 80
60 69 80
62 70 80
61 69 80
61 70 80
60 69 80
61 69 80
62 70 80
61 69 80
61 70 80
61 69 80
61 69 80
61 69 80
61 69 80
61 69 80
60 68 79
61 69 80
62 70 80
61 70 80
61 69 80
61 69 80
61 70 80
61 69 80
62 70 80
62 70 80
61 69 80
62 70 80
61 69 80
61 69 80
61 69 80
61 70 80
61 69 80
61 69 80
61 69 80
61 69 80
60 68 79
61 69 80
61 69 80
61 69 80
61 69 80
61 69 80
61 69 80
61 69 80
61 69 80
62 70 80
61 70 80
61 69 80
61 69 80
62 70 80
61 69 80
61 69 79
61 69 80
61 69 80
61 70 80
61 69 80
60 69 80
61 69 79
61 69 80
61 69 80
61 69 79
60 69 80
61 70 80
61 69 80
61 69 80
61 69 80
61 69 80
61 69 80
60 69 79
61 70 80
61 69 80
61 70 80
61 69 80
60 68 80
61 69 80
61 69 80
61 69 80
61 69 80
61 70 80
62 70 80
61 69 80
61 69 80
61 70 80
60 68 79
61 69 80
60 68 78
61 69 80
60 69 79
61 69 79
61 69 80
61 69 80
61 69 80
61 69 80
60 68 79
61 69 79
60 68 79
60 68 79
61 69 80
60 68 79
61 69 80
61 69 79
60 68 79
61 69 80
60 68 79
60 68 79
60 69 79
61 69 80
60 69 80
61 69 79
60 69 80
60 68 79
60 68 78
60 68 79
61 69 79
60 68 79
60 68 79
60 69 80
61 69 80
59 67 78
60 68 79
59 68 78
59 67 78
60 69 79
60 68 79
60 68 79
59 67 78
58 67 77
59 67 78
59 67 78
60 68 79
59 67 77
59 67 77
61 69 80
59 67 77
60 68 78
59 67 78
60 68 78
59 67 78
60 68 79
59 67 77
60 68 79
58 66 77
58 66 77
59 67 77
60 68 79
59 66 77
59 67 77
59 66 77
60 68 78
59 67 77
58 66 76
58 66 77
59 67 78
58 66 76
59 67 78
59 67 77
59 67 77
57 65 76
60 67 77
58 66 76
55 62 72
58 66 76
56 64 74
58 66 76
57 65 76
59 67 77
57 65 75
59 67 77
58 66 76
58 66 76
56 63 73
58 66 76
58 66 76
57 65 75
56 63 72
56 64 74
56 63 74
53 60 70
54 62 72
57 65 75
56 64 73
55 62 72
54 62 72
55 62 72
55 63 72
54 61 71
55 62 71
53 60 69
51 58 67
55 62 71
39 43 49
34 38 42
42 46 51
44 48 53
42 46 51
36 39 44
41 45 50
37 41 45
41 45 51
38 41 46
39 43 48
35 39 43
42 46 52
40 43 48
40 43 48
41 45 50
40 43 48
41 45 50
38 41 46
43 47 52
40 44 49
42 46 51
38 42 47
35 39 43
40 44 50
41 45 50
42 46 51
42 45 51
41 45 51
41 45 50
39 43 48
43 47 53
44 48 54
47 51 57
42 46 52
42 46 52
38 42 47
41 45 50
43 47 53
45 49 54
35 39 43
42 45 51
43 47 52
36 40 45
41 45 50
37 41 46
42 45 50
43 46 52
40 44 49
40 44 48
41 44 50
42 46 51
41 45 50
40 44 49
37 41 46
41 45 50
39 43 49
37 41 46
40 44 49
42 46 52
39 43 48
42 46 51
36 39 44
39 43 48
41 44 49
40 44 50
43 47 53
42 45 51
43 47 53
36 39 44
40 44 49
40 44 49
40 44 49
39 42 47
43 47 53
43 47 53
36 40 45
36 40 44
39 43 48
37 40 45
38 42 47
36 39 44
36 39 44
40 43 48
43 46 52
34 37 42
42 46 51
36 40 45
39 43 48
35 39 43
37 41 46
41 44 49
39 43 47
36 40 45
53 60 69
53 60 69
55 62 72
56 64 73
52 60 69
53 60 69
56 63 73
54 61 70
57 65 75
56 64 74
57 64 74
56 64 73
55 62 72
56 63 73
54 62 71
56 63 73
55 63 73
56 64 74
56 64 74
56 64 74
55 63 73
58 66 76
57 65 75
57 64 74
58 66 76
57 65 75
57 65 75
55 63 73
59 67 78
56 64 74
59 67 77
59 67 77
59 67 78
58 67 77
59 67 78
58 66 76
59 67 78
58 66 76
58 66 77
58 66 76
59 67 78
57 65 75
60 68 79
59 67 77
58 66 77
60 68 78
60 68 79
58 66 76
59 67 78
59 67 78
59 67 77
60 68 78
60 68 79
59 67 78
60 68 78
59 67 77
61 69 80
60 69 80
59 68 78
60 68 79
60 69 80
60 68 79
60 68 79
60 68 79
60 68 78
61 69 80
60 69 79
61 69 80
60 69 79
60 68 79
60 68 79
61 69 80
61 69 79
60 68 79
60 68 79
61 69 79
61 69 79
60 69 80
60 69 79
60 68 78
61 69 80
61 69 80
61 69 79
60 68 79
61 69 80
60 69 79
60 69 80
61 69 80
60 69 80
61 69 80
60 69 80
60 68 79
61 69 80
61 70 80
61 69 80
60 68 79
60 69 80
60 69 79
60 68 79
60 69 80
60 69 80
60 68 79
61 69 80
61 69 80
61 69 80
60 68 79
60 68 79
60 69 80
61 69 80
61 69 80
60 68 79
60 68 79
62 70 80
60 69 79
61 69 80
62 70 80
61 69 80
61 69 80
62 70 80
61 69 80
61 69 80
61 69 80
61 69 80
61 69 80
61 69 80
60 68 79
61 69 80
61 69 80
61 69 80
61 69 80
62 70 80
61 69 80
61 69 80
61 70 80
61 69 80
61 69 80
61 70 80
61 69 80
62 70 80
60 69 79
60 69 80
61 69 80
61 69 80
61 69 80
61 69 80
61 69 80
61 70 80
61 69 80
61 69 79
61 69 80
61 70 80
61 69 80
61 69 80
61 69 80
61 70 80
61 70 80
61 69 80
61 69 80
61 70 80
60 69 80
60 69 80
62 70 80
62 70 80
61 69 80
61 69 80
61 69 80
61 69 80
61 69 80
61 69 80
61 70 80
61 69 80
61 70 80
61 69 80
60 69 80
60 69 79
61 69 80
62 70 80
60 69 80
61 69 80
60 68 79
60 69 79
61 69 80
61 70 80
61 69 80
61 69 80
61 69 80
61 69 80
60 68 79
61 69 80
61 68 79
61 69 79
61 70 80
61 69 80
61 69 80
60 68 79
61 69 80
61 69 80
60 68 78
61 70 80
61 69 79
60 68 79
61 69 80
61 69 80
61 69 80
61 69 80
60 68 79
61 69 80
60 68 79
60 68 79
60 68 79
61 69 79
60 68 78
60 68 79
61 69 80
61 69 80
61 69 79
62 69 80
60 69 80
61 69 79
61 69 80
60 68 79
61 69 80
60 68 79
60 68 79
60 69 79
60 68 79
60 68 78
60 68 78
61 69 80
61 69 80
60 68 79
59 67 78
61 69 80
60 68 79
60 69 80
60 68 78
60 68 79
60 68 78
60 69 80
60 68 79
60 68 78
59 67 78
59 67 77
60 69 80
60 68 79
61 69 80
60 68 79
60 68 79
59 67 78
59 68 78
60 68 79
59 67 77
58 66 77
60 68 78
58 66 76
59 67 78
60 68 79
58 67 77
60 68 79
59 67 77
57 65 75
58 66 77
59 67 77
60 69 79
59 67 77
58 66 77
56 64 73
57 65 76
59 67 78
58 66 76
56 64 74
56 64 74
58 66 77
60 68 78
60 68 78
57 65 75
58 66 77
57 64 74
57 65 75
56 64 74
57 65 75
57 65 75
57 65 75
57 65 76
57 65 75
56 63 73
57 65 75
56 63 73
56 64 74
58 66 76
54 61 70
58 66 76
57 65 75
54 61 71
57 65 74
55 62 72
54 61 71
54 61 71
53 60 70
56 63 73
53 60 70
55 62 71
54 61 71
53 60 69
52 59 68
53 60 69
48 54 62
34 38 44
35 38 42
35 38 43
37 40 45
39 42 47
42 46 52
42 46 51
40 43 49
39 43 48
38 41 47
39 42 47
37 40 45
36 40 45
41 44 50
40 44 50
43 47 52
41 46 51
41 45 50
38 42 47
39 42 47
37 41 46
39 43 48
38 41 46
42 46 51
39 42 48
39 42 47
41 45 50
45 49 54
36 40 45
41 45 50
37 41 46
40 43 48
43 47 53
37 41 46
41 45 51
35 39 44
41 45 50
40 44 49
41 44 50
36 40 45
44 48 54
40 44 49
38 42 47
40 43 49
41 45 51
37 40 45
43 47 52
43 47 52
40 44 49
40 44 49
41 45 50
40 44 49
45 49 55
41 45 50
41 44 49
34 38 42
39 43 48
43 47 53
45 49 54
39 43 48
41 45 50
42 46 51
40 44 49
39 43 48
42 46 51
37 41 45
38 42 46
40 44 50
35 39 44
42 46 51
42 46 52
40 44 49
44 47 53
38 42 47
39 43 48
31 34 38
37 40 45
42 46 51
36 40 44
43 47 53
37 40 45
41 45 50
39 43 48
35 39 43
37 40 45
41 45 50
35 38 43
38 41 46
39 42 47
42 46 51
31 34 38
41 45 50
50 56 64
53 60 70
53 60 69
55 62 72
52 60 69
53 60 69
51 57 66
51 58 67
55 62 72
52 59 68
54 61 71
56 63 73
57 65 75
55 62 71
54 61 71
56 63 72
57 65 75
57 65 75
57 65 76
58 65 75
56 64 74
54 61 70
57 65 75
56 64 74
58 66 76
58 66 76
57 65 75
56 64 74
57 64 74
57 65 76
57 65 75
55 62 72
58 66 76
56 64 74
57 65 76
58 67 77
60 68 79
56 64 74
59 68 78
57 65 76
58 66 76
58 66 76
59 67 77
59 67 78
58 66 77
59 67 78
59 67 78
58 66 77
60 68 79
59 67 78
59 67 77
59 68 78
59 67 78
57 65 75
60 68 78
60 68 79
57 65 76
59 68 78
59 67 77
59 67 77
59 67 77
60 68 79
60 68 79
60 68 79
60 68 78
60 68 79
60 68 79
60 68 79
60 68 79
59 68 78
59 68 78
60 68 79
60 68 78
60 68 79
60 69 79
60 69 79
60 68 79
61 69 80
59 67 78
59 67 78
60 68 78
60 68 79
60 69 79
61 69 80
60 68 79
61 69 80
60 68 79
61 70 80
60 69 79
59 67 77
60 68 79
61 69 79
61 69 80
60 68 79
60 68 79
62 70 80
61 69 80
60 68 79
60 69 79
60 68 79
62 70 80
61 69 80
61 69 80
61 69 80
61 69 80
61 69 80
61 69 80
61 69 80
61 70 80
61 70 80
61 69 80
61 70 80
60 69 79
61 69 80
60 69 79
61 69 80
61 69 80
61 69 80
61 69 80
60 69 79
61 69 80
61 70 80
61 69 79
61 70 80
61 70 80
61 69 80
61 69 80
61 69 80
61 69 80
61 69 80
60 69 79
61 69 80
61 69 80
61 69 80
61 69 80
61 69 80
61 69 80
61 69 80
61 69 80
62 70 80
60 69 80
61 69 79
61 69 80
61 69 80
61 69 80
60 69 79
61 69 80
61 70 80
61 69 80
61 69 80
61 69 80
61 69 80
61 70 80
61 70 80
60 69 80
60 69 80
61 69 80
61 69 80
61 69 80
61 69 80
61 70 80
61 69 80
61 70 80
61 70 80
61 69 80
61 70 80
61 69 80
61 69 80
62 70 80
61 69 80
61 69 80
61 69 80
61 69 80
61 69 80
61 69 80
62 70 80
61 69 80
61 70 80
61 69 79
61 69 80
60 68 79
60 69 79
60 69 80
61 69 80
61 69 79
61 69 80
60 69 80
61 69 80
61 69 80
62 70 80
61 69 80
60 68 80
61 69 80
62 70 80
60 69 80
61 69 79
61 69 80
61 69 80
61 69 80
61 69 80
61 69 80
60 69 79
62 70 80
62 70 80
61 69 80
62 70 80
60 69 80
61 69 80
61 69 80
61 69 80
61 69 80
61 69 80
61 69 80
60 68 78
59 67 78
59 68 78
60 68 79
61 69 80
61 69 79
60 69 79
60 68 79
59 67 78
60 68 79
61 69 80
60 68 78
61 69 79
61 69 80
61 69 79
60 68 79
61 69 80
61 69 80
61 69 79
60 68 79
59 68 78
60 68 79
58 66 77
60 68 79
59 67 77
60 68 78
60 68 79
60 67 78
59 67 77
59 67 77
60 68 79
60 68 79
59 68 79
60 68 79
59 68 78
60 68 79
60 68 79
58 66 76
58 66 77
59 68 78
59 67 77
59 67 78
58 66 76
58 66 76
59 67 78
59 67 77
58 66 77
58 66 76
58 66 76
58 66 77
58 66 77
58 66 76
58 66 76
57 65 76
57 64 75
57 65 75
59 67 78
57 65 76
57 65 75
58 66 76
58 65 76
56 64 74
56 64 74
58 66 77
58 66 76
55 62 72
58 66 77
57 64 74
56 64 74
55 62 71
55 62 73
56 63 73
56 63 73
55 63 72
55 62 73
55 63 73
55 62 71
58 65 75
56 63 73
56 64 74
55 63 74
54 61 71
56 64 74
52 60 69
55 62 72
53 60 69
53 61 70
55 62 72
54 61 71
54 62 71
49 56 64
51 58 67
53 60 69
57 64 74
53 60 69
50 57 65
37 41 46
35 39 43
41 45 50
39 43 49
38 41 46
38 41 46
40 43 48
42 46 52
37 40 45
38 42 47
39 42 47
37 40 45
37 41 46
37 40 45
44 48 53
39 43 48
39 43 48
38 42 47
39 43 48
40 44 49
41 45 50
36 40 45
41 45 50
39 42 48
38 41 46
36 40 44
40 43 48
38 41 46
35 39 43
39 43 48
33 36 41
42 46 52
38 42 47
41 45 50
41 45 50
37 41 46
38 42 47
43 47 53
41 45 50
40 44 49
40 44 49
40 44 49
37 41 46
35 39 43
39 43 48
40 44 49
41 46 51
34 38 43
33 36 41
42 46 52
39 43 47
37 41 46
38 42 47
42 46 51
40 44 49
38 42 47
38 41 46
38 42 47
41 45 50
38 42 47
41 45 51
42 46 51
40 43 49
37 40 45
41 45 50
40 43 48
37 41 46
42 46 51
39 43 48
37 41 46
38 41 46
39 43 48
37 40 45
39 43 48
40 44 49
32 35 39
40 44 49
43 46 52
34 36 41
39 43 48
40 43 48
37 40 45
45 49 54
41 44 49
34 38 42
35 38 42
37 40 45
38 41 46
34 37 41
38 43 49
50 57 66
50 56 65
53 60 70
52 59 68
52 59 68
53 60 70
54 62 71
52 59 68
55 62 71
54 61 71
52 59 69
53 61 71
56 63 73
56 64 74
50 57 66
57 65 75
55 63 73
54 62 71
57 65 74
54 61 71
55 63 73
57 65 75
57 65 75
56 63 73
56 63 73
58 66 76
56 64 74
57 65 75
57 65 75
59 67 77
56 64 74
57 64 73
56 64 74
59 66 76
55 63 73
58 66 76
58 66 76
59 68 78
59 67 77
57 65 76
58 66 77
59 67 77
60 68 79
59 67 78
57 65 75
58 66 76
57 65 76
59 66 77
58 67 78
57 65 76
58 66 77
59 67 77
60 68 79
59 67 78
59 67 78
59 67 77
59 68 78
59 68 78
59 67 78
60 68 79
58 66 77
59 67 78
59 68 78
60 68 79
59 67 77
60 68 79
61 69 80
60 68 78
60 69 80
59 67 77
59 67 77
60 68 79
59 67 78
60 68 79
60 68 79
60 68 79
59 68 78
60 68 79
61 69 80
59 67 77
61 69 80
60 69 79
59 67 78
60 68 78
60 68 79
60 69 80
60 68 79
60 69 79
59 68 78
60 68 78
60 68 79
60 68 79
61 69 80
61 69 80
60 68 78
61 69 79
60 69 79
61 69 80
61 69 80
60 68 79
61 69 80
61 69 80
60 68 79
60 68 79
61 69 80
60 68 79
61 69 80
61 69 80
61 69 80
60 68 79
60 68 79
61 69 80
61 69 80
60 69 79
61 70 80
61 69 80
61 69 80
60 68 79
61 69 80
61 69 80
60 69 80
61 69 80
61 69 80
61 69 80
60 68 79
61 69 80
59 67 78
61 69 80
60 68 79
60 69 80
61 69 80
61 69 80
61 69 80
60 69 79
61 69 80
60 69 80
60 68 79
61 69 80
61 69 79
61 70 80
62 70 80
61 69 80
61 70 80
61 69 80
61 69 80
61 69 80
61 69 80
61 69 80
61 69 80
61 69 80
61 69 80
60 69 80
61 69 80
61 69 80
60 69 79
60 69 80
61 70 80
62 70 80
62 70 80
62 70 80
61 70 80
61 70 80
61 70 80
61 69 80
61 69 80
60 69 80
61 69 80
61 69 80
61 69 80
61 69 80
61 69 80
61 70 80
61 69 80
60 69 80
60 69 80
60 69 80
61 69 80
62 70 80
61 69 80
61 69 80
61 69 80
61 70 80
62 70 80
61 69 80
59 67 78
61 69 80
61 69 80
61 69 80
61 70 80
60 69 79
62 70 80
60 69 80
61 69 80
61 69 80
62 70 80
60 69 79
60 68 79
61 69 80
61 70 80
61 69 80
61 69 80
60 68 79
61 69 80
61 69 80
62 70 80
60 69 80
61 69 80
60 68 79
61 69 80
61 70 80
60 68 79
60 69 79
61 69 80
60 68 79
61 69 80
60 68 78
60 69 79
61 69 79
62 70 80
60 68 78
60 69 80
60 68 79
61 69 79
60 68 79
61 69 80
60 68 78
60 68 79
61 69 80
60 68 78
60 68 79
59 67 78
60 68 79
60 68 79
60 68 79
60 67 78
59 67 77
61 69 80
61 69 80
60 68 79
61 69 79
60 68 78
60 68 78
60 69 79
60 68 78
57 65 75
60 68 79
59 67 77
58 66 76
59 67 78
61 69 80
59 67 78
58 66 77
60 68 78
59 68 78
59 67 78
58 66 76
59 67 78
59 67 78
58 66 76
59 67 78
58 66 76
58 66 76
58 66 77
59 67 78
58 67 77
58 66 76
59 67 78
58 65 76
59 67 78
58 67 77
60 68 78
57 65 75
57 65 75
58 66 76
58 66 77
57 64 75
58 66 77
57 65 75
57 65 76
58 65 76
55 62 72
58 65 75
58 65 75
56 64 74
53 60 69
57 64 75
55 62 72
56 64 74
55 62 71
54 61 70
55 62 72
55 63 73
54 61 70
55 63 72
55 62 72
53 60 69
55 62 72
54 61 71
54 62 71
56 64 73
53 60 69
55 61 70
53 60 70
51 58 67
50 57 66
52 58 67
50 57 65
50 56 65
50 57 66
47 53 62
44 49 57
41 46 52
35 38 43
35 38 43
35 38 42
41 44 49
37 40 45
43 47 53
41 44 50
39 43 48
42 46 51
32 36 40
37 40 45
38 41 46
39 42 47
42 45 51
36 39 44
36 39 44
36 40 45
37 41 46
37 40 45
36 40 44
40 44 49
40 44 49
36 40 45
34 37 42
38 42 47
41 45 50
37 41 45
36 39 44
38 41 46
43 47 52
45 49 54
37 41 46
35 39 43
36 40 44
40 44 49
40 44 48
36 39 44
38 42 47
41 45 50
38 41 46
40 44 49
42 45 51
40 43 49
40 44 49
40 44 49
42 46 51
41 45 51
36 40 44
38 42 47
38 41 46
41 45 50
39 43 48
40 44 49
40 43 48
41 45 50
37 40 45
39 42 47
41 45 50
40 44 50
42 46 52
38 42 47
33 36 41
42 46 52
41 45 50
38 41 46
44 48 54
39 42 47
35 39 44
36 40 44
39 43 48
38 42 47
39 43 48
38 42 47
40 44 48
41 45 50
39 42 47
37 41 46
38 41 46
38 41 46
39 42 47
35 39 44
34 38 42
37 40 45
41 45 50
38 41 46
32 35 39
36 40 46
53 59 68
52 59 69
50 56 65
50 57 66
51 57 65
54 61 71
54 61 70
51 58 68
52 59 68
50 57 67
53 60 70
50 56 65
53 60 69
53 59 69
55 62 72
55 62 72
55 63 72
54 62 71
56 64 74
56 64 74
55 63 72
56 63 73
57 65 74
55 63 72
58 66 76
55 62 72
56 63 74
57 65 75
58 66 76
57 65 75
55 63 73
58 66 76
59 67 77
59 66 77
58 66 76
55 63 73
57 65 76
56 64 74
58 66 76
58 66 76
57 66 76
57 65 75
58 66 76
57 66 76
60 68 78
58 66 77
58 66 76
58 67 77
59 67 77
59 67 78
57 65 76
58 66 77
60 68 79
58 66 77
59 67 77
59 67 78
59 67 77
58 66 77
59 68 78
58 66 77
59 67 77
57 65 76
60 68 79
58 66 77
60 69 79
59 68 78
61 69 80
60 68 79
60 68 78
59 68 78
58 66 77
60 68 79
59 67 77
61 69 80
61 69 80
60 69 79
59 67 78
60 68 79
60 68 79
59 68 79
60 68 79
60 68 79
61 69 80
60 68 78
59 68 78
59 67 78
61 69 80
59 67 78
59 67 78
61 69 80
60 68 78
60 68 79
61 69 80
60 68 79
60 68 79
61 69 80
60 69 79
60 68 79
61 69 80
61 69 80
61 69 79
60 69 80
61 69 79
60 68 79
60 68 79
61 69 79
59 67 77
61 69 80
62 70 80
61 69 79
61 69 80
61 69 79
62 70 80
60 69 80
60 69 79
61 69 80
61 69 80
61 69 80
60 69 80
60 68 79
61 69 80
61 70 80
60 69 80
60 69 80
60 68 79
61 69 80
61 69 80
61 69 80
61 69 80
60 69 80
61 69 80
61 69 80
61 69 80
61 69 80
60 68 79
61 69 79
61 69 80
61 69 80
61 69 80
61 69 80
61 69 80
60 69 80
61 70 80
61 69 80
60 68 79
61 69 80
61 69 80
60 68 79
61 69 80
61 70 80
61 70 80
60 69 80
61 69 80
61 69 80
61 69 80
61 69 80
61 69 80
60 68 79
60 68 79
62 70 80
61 69 80
61 69 80
61 70 80
61 69 80
61 70 80
60 68 79
61 69 80
61 69 80
61 70 80
61 69 80
61 69 80
61 69 80
61 69 80
61 69 80
61 69 80
61 69 80
60 68 79
61 69 80
61 69 80
60 69 80
60 69 80
61 69 80
61 70 80
61 69 80
60 68 79
61 69 80
60 69 79
61 69 79
60 69 80
61 69 80
60 68 79
60 68 79
60 68 79
61 69 80
61 69 80
59 67 78
60 68 79
61 69 80
61 69 80
61 69 80
61 69 80
61 69 79
62 70 80
60 68 78
61 69 79
60 69 80
60 68 78
61 70 80
61 69 79
61 69 80
61 69 80
62 70 80
60 69 80
60 69 80
61 69 80
59 67 78
61 69 80
60 68 79
61 69 80
60 68 79
60 69 80
60 69 80
61 69 79
60 68 78
61 69 79
61 69 80
60 68 78
60 68 79
60 68 79
61 69 80
60 68 78
59 67 78
60 68 79
60 68 79
61 69 80
58 66 76
60 68 78
60 68 79
60 68 79
60 68 79
61 69 80
60 68 78
60 68 79
60 68 78
59 67 78
60 68 78
60 68 79
60 68 78
61 70 80
61 69 79
60 68 78
58 66 77
58 66 77
59 67 78
59 67 78
59 67 78
58 65 76
59 67 77
58 66 76
59 68 79
58 66 77
58 66 76
58 65 76
59 68 78
58 65 76
58 66 76
59 67 77
59 67 78
57 65 75
57 64 74
58 66 76
58 65 75
56 64 74
57 65 75
59 67 77
56 63 74
57 65 74
58 67 77
59 67 78
57 65 76
57 64 74
55 63 73
55 63 73
57 64 74
58 66 76
56 63 74
55 63 72
57 65 75
56 63 73
57 65 76
56 63 73
56 64 74
56 63 73
51 58 67
54 62 72
54 61 71
55 62 71
52 59 68
55 62 72
53 61 71
53 60 69
52 59 68
52 59 67
51 57 66
54 61 70
52 59 69
52 58 67
53 60 69
49 56 64
52 59 68
51 58 66
49 55 63
47 53 61
39 44 50
36 39 44
34 37 41
33 36 41
38 41 46
40 43 49
43 46 52
37 41 46
36 40 44
36 40 44
40 44 49
39 43 48
39 43 48
31 35 39
37 40 45
38 42 47
36 39 44
32 35 40
40 44 49
40 44 49
45 49 55
36 39 43
40 43 48
34 37 41
39 42 47
38 42 47
37 41 46
37 41 46
40 44 48
40 44 49
39 43 48
38 42 47
37 41 46
36 40 45
42 46 51
37 40 45
37 40 45
38 42 47
43 47 52
38 42 46
38 42 47
38 41 46
37 41 46
37 40 45
39 42 47
42 46 51
40 43 48
37 40 45
36 39 44
42 45 51
38 41 46
37 41 45
40 44 48
45 49 55
37 41 46
39 43 48
41 44 49
40 44 49
42 46 51
34 37 42
39 42 47
40 44 49
38 42 47
38 42 47
39 42 47
43 47 52
41 45 51
40 44 49
37 41 46
40 43 48
39 43 48
32 35 39
38 42 47
35 39 43
41 44 49
37 40 45
42 45 50
40 44 49
36 40 44
36 40 45
39 42 47
37 40 45
31 34 38
38 42 47
32 36 40
43 48 54
46 51 59
52 59 67
52 58 66
48 55 63
49 56 65
52 60 69
51 58 67
52 59 68
53 59 69
53 60 69
54 61 70
51 58 68
55 62 71
52 59 69
55 62 72
51 58 67
50 57 67
53 60 69
55 62 71
56 63 72
55 63 73
53 61 70
57 65 74
56 64 74
54 62 72
57 64 74
56 64 74
57 65 75
56 64 74
59 67 77
52 60 69
57 65 75
54 61 70
56 63 73
58 66 76
56 64 74
56 64 74
58 65 75
56 64 74
57 65 75
57 65 75
56 63 73
58 66 76
60 67 77
59 68 78
59 67 77
57 65 75
57 65 75
57 65 75
58 66 76
58 66 77
57 65 75
59 67 78
59 67 78
61 69 79
59 66 76
60 68 78
58 66 77
60 68 78
59 67 78
59 67 77
58 66 76
59 67 77
59 67 78
60 68 78
60 68 79
60 68 78
58 66 76
59 67 77
60 68 79
60 68 78
60 68 79
59 68 78
59 67 78
61 69 80
60 68 78
60 68 79
60 67 78
61 69 80
61 69 80
60 68 79
60 68 79
59 68 78
60 68 79
60 68 79
59 67 78
59 67 78
60 68 79
60 69 79
60 68 79
59 68 79
59 68 78
60 69 80
61 69 80
60 68 79
61 69 80
60 69 79
60 68 78
61 70 80
60 68 79
59 68 78
61 69 80
60 68 79
60 69 80
61 69 80
61 69 80
61 69 80
60 69 80
61 69 80
60 69 79
60 68 79
60 69 80
61 69 80
61 69 80
61 69 80
60 69 79
60 68 79
61 70 80
61 70 80
61 69 80
61 69 80
60 69 80
60 69 80
61 70 80
60 69 80
61 69 80
61 70 80
61 69 80
61 68 79
61 70 80
61 69 79
60 68 79
61 69 80
61 70 80
60 69 79
60 69 80
61 69 80
61 69 80
61 69 80
61 69 80
61 69 80
60 69 80
62 70 80
61 69 79
60 69 79
61 69 80
61 70 80
60 68 79
61 69 80
61 69 80
61 69 79
62 70 80
61 69 79
61 69 80
61 69 80
62 70 80
61 69 80
61 70 80
60 68 79
61 69 80
61 70 80
60 69 80
61 70 80
61 69 80
61 69 80
61 70 80
61 69 80
60 69 80
62 70 80
61 69 80
60 69 79
61 69 80
61 69 80
61 70 80
61 70 80
61 69 80
60 68 79
61 69 80
61 69 80
60 68 79
61 69 80
61 69 80
60 68 79
61 69 80
60 68 79
61 69 80
60 68 78
61 69 80
60 68 79
61 69 79
60 68 79
60 69 80
61 69 80
61 69 80
60 68 79
61 69 79
61 69 79
61 69 80
60 68 79
60 68 79
60 68 78
60 69 80
61 69 80
61 69 79
61 69 80
61 69 80
60 68 79
60 68 79
61 69 80
60 69 79
60 68 79
60 68 79
60 69 79
61 69 80
61 68 79
61 69 80
59 68 78
60 68 78
60 69 80
59 68 78
60 68 79
59 68 78
60 68 79
61 69 80
60 68 79
61 69 80
61 69 80
60 68 79
59 67 78
60 68 78
58 66 77
59 67 78
59 67 78
60 68 78
61 69 79
58 66 77
60 68 79
60 68 78
60 68 78
58 66 77
59 67 78
58 66 76
59 67 77
60 68 79
59 67 77
59 67 77
58 66 76
58 66 76
57 65 76
60 68 78
60 68 79
59 67 77
58 66 76
59 67 78
59 67 77
58 66 76
59 67 77
59 67 78
59 67 78
59 67 77
58 66 77
58 66 76
60 68 79
56 64 74
58 66 76
58 66 76
57 65 75
59 66 76
57 64 75
58 66 76
59 67 77
56 64 74
58 66 77
56 64 74
58 66 76
57 64 73
56 64 74
56 64 74
58 66 76
55 63 73
56 64 74
55 62 71
57 64 74
55 63 73
57 65 75
58 65 75
56 64 74
57 64 74
56 64 73
57 64 75
56 64 74
55 62 72
54 61 71
55 62 72
56 63 73
57 65 75
52 59 68
55 62 72
55 63 72
54 61 71
53 60 69
56 63 73
54 61 70
52 59 68
51 58 67
51 58 66
49 55 63
49 55 64
52 59 68
51 58 67
50 57 66
51 58 66
48 54 63
49 56 64
46 52 60
41 46 52
34 37 42
38 41 46
34 37 41
40 43 48
36 39 43
36 39 44
34 37 41
37 40 45
39 42 47
38 41 46
37 40 45
43 47 52
35 38 43
38 41 46
40 43 48
38 42 47
45 49 54
36 39 44
37 40 45
35 38 43
40 43 48
41 44 50
40 44 49
41 44 50
36 39 43
39 42 47
40 43 48
39 43 48
36 39 44
38 41 46
42 46 51
34 38 43
38 41 46
39 42 47
41 44 49
42 45 51
43 47 53
40 43 48
41 45 50
38 42 47
38 42 47
40 44 49
37 41 45
36 39 44
38 41 46
40 44 49
40 44 49
35 38 43
35 38 42
40 44 49
36 39 44
41 44 50
37 40 45
38 42 47
34 38 42
34 37 42
42 46 51
42 46 51
38 42 47
38 42 47
36 40 45
39 43 48
41 45 50
35 38 43
32 36 40
37 40 45
41 45 50
32 36 40
37 40 45
36 40 45
41 45 50
36 39 44
40 44 49
37 40 45
37 40 45
36 39 44
33 36 41
38 41 46
36 40 45
39 43 48
36 39 44
33 37 41
43 48 54
46 52 60
49 55 63
49 55 64
49 56 64
49 55 64
50 57 66
50 56 64
50 57 66
51 57 66
51 58 67
50 56 65
51 58 67
52 59 68
53 61 70
53 60 69
52 59 67
53 60 70
54 61 70
53 60 69
54 61 71
57 65 76
52 59 69
55 63 73
57 64 74
56 63 73
54 61 70
55 63 72
57 64 74
59 66 77
57 65 75
57 64 74
56 64 74
59 67 77
56 64 74
56 64 73
58 66 76
56 63 73
57 65 76
54 62 72
56 64 74
56 63 73
58 65 76
58 66 77
57 64 74
58 65 75
57 65 75
58 66 76
57 65 75
58 66 76
58 66 76
60 68 79
58 66 76
59 67 77
58 66 76
58 66 77
59 67 78
59 67 77
60 68 78
58 66 76
60 68 78
58 66 77
58 66 77
61 69 80
60 68 79
59 67 77
60 68 78
59 67 77
59 66 77
60 67 78
59 67 77
58 66 76
60 69 80
60 68 78
58 66 77
61 69 80
59 67 78
58 66 76
59 68 78
60 68 78
60 68 79
59 68 78
60 68 79
59 67 78
60 68 79
59 67 78
60 68 78
60 68 78
59 67 77
60 68 78
59 67 78
60 68 79
60 68 78
61 69 80
59 67 78
61 69 79
60 68 79
61 69 80
60 68 79
60 68 79
60 68 79
60 68 79
60 69 79
61 69 79
60 68 78
61 69 80
60 69 79
60 68 79
61 69 80
60 69 80
61 69 80
61 69 80
61 69 80
60 69 79
60 68 79
60 69 80
60 68 79
60 69 79
60 69 79
61 69 80
61 69 80
61 70 80
61 69 80
60 69 80
61 69 80
60 69 80
61 69 80
60 69 80
60 68 79
60 69 79
60 68 79
60 68 79
61 70 80
61 70 80
60 68 79
61 69 80
62 70 80
60 69 80
60 69 80
60 68 79
61 70 80
60 69 80
60 68 79
61 70 80
61 69 80
61 69 80
60 69 79
61 69 80
61 69 80
61 69 80
61 69 80
61 70 80
61 69 80
60 69 80
61 69 80
61 69 80
61 70 80
61 69 80
61 69 80
60 69 80
61 69 80
61 69 80
60 68 79
61 69 80
61 69 80
61 69 80
61 69 79
61 69 80
61 69 80
61 70 80
61 69 80
61 69 80
61 69 80
61 69 80
61 69 80
61 69 80
61 69 80
61 69 80
60 69 80
61 69 80
61 69 80
60 69 80
61 69 80
61 70 80
61 69 80
60 68 78
61 69 80
60 68 79
61 69 80
61 69 80
61 69 80
61 69 79
61 69 80
60 68 79
60 68 79
60 68 79
60 68 79
60 69 79
61 69 80
60 68 79
61 69 80
61 69 80
60 69 80
61 69 80
60 68 79
60 69 80
60 68 78
61 69 79
59 68 79
59 68 78
61 69 80
61 69 80
60 68 79
61 69 80
60 68 79
61 69 80
60 68 79
60 68 79
61 69 79
60 68 79
60 68 79
61 69 80
61 69 80
59 67 78
60 68 79
60 68 79
60 68 79
60 68 79
60 68 79
60 68 79
60 68 79
58 66 76
59 67 78
60 67 78
61 69 80
60 68 78
60 68 79
59 67 78
60 68 79
60 68 79
59 67 77
60 68 79
60 68 78
59 68 79
59 67 78
59 67 78
59 67 78
57 65 76
59 67 77
59 67 77
58 66 77
59 67 77
59 67 77
58 65 76
59 67 78
58 66 76
59 67 78
58 66 76
58 66 76
59 67 77
58 66 77
59 67 78
57 65 76
59 67 77
58 66 76
58 66 77
58 66 76
58 66 76
58 66 77
58 66 77
58 66 76
57 65 75
57 65 75
58 66 77
60 68 79
57 65 75
58 67 77
56 63 73
56 64 74
57 65 75
56 64 74
56 64 74
56 63 73
57 64 74
55 62 72
56 64 73
58 66 76
56 64 73
55 62 71
55 63 72
57 65 75
55 62 72
53 60 69
55 63 72
51 58 67
52 59 68
55 63 73
55 62 72
53 60 70
52 59 69
57 64 73
50 56 64
53 60 70
53 61 70
52 59 69
54 62 71
53 60 69
49 55 64
49 55 64
51 58 67
52 58 67
48 54 63
49 55 63
48 54 63
48 54 62
45 51 58
43 49 56
49 55 63
41 46 52
34 37 41
35 38 42
39 42 46
35 38 43
31 34 38
36 40 45
35 39 43
37 41 45
39 43 48
36 40 44
39 42 47
38 41 46
39 43 48
39 42 47
37 40 45
37 40 44
42 46 51
36 39 44
38 41 46
37 41 46
40 43 48
35 39 43
32 35 39
43 47 52
37 40 45
40 44 49
39 43 48
38 42 47
39 43 48
39 43 49
34 37 42
39 43 48
37 41 46
38 41 46
38 42 47
36 40 45
41 45 51
39 43 48
38 41 46
38 42 47
37 41 46
40 43 48
37 40 45
39 43 49
39 42 47
35 39 44
42 46 51
39 43 48
33 36 40
41 44 49
36 40 45
36 40 45
40 43 49
41 44 49
35 39 43
43 47 52
39 43 48
40 44 49
38 41 46
44 48 54
37 40 45
36 40 44
33 36 41
36 39 44
40 43 48
41 45 50
38 42 47
37 40 45
36 40 44
37 41 45
34 37 41
35 38 43
39 42 47
41 44 49
33 36 40
36 39 44
32 35 39
34 38 42
36 39 43
33 36 40
46 51 58
47 53 61
49 55 63
47 53 60
49 55 63
49 55 63
50 57 65
49 56 64
51 57 65
51 58 68
52 58 67
51 58 67
49 56 65
51 58 67
53 59 68
53 60 69
52 59 69
51 58 67
50 57 66
53 61 70
53 60 70
55 62 71
52 59 68
55 62 71
56 63 73
53 60 70
52 59 69
52 58 67
56 63 73
55 62 72
56 64 74
56 63 73
57 64 74
54 62 72
55 63 73
56 63 73
56 64 74
56 63 73
57 65 76
57 64 74
58 66 77
57 65 75
57 65 75
56 64 74
58 66 76
58 66 76
61 69 79
58 66 77
58 66 76
57 65 75
57 65 75
59 67 77
59 66 76
57 65 75
59 67 77
58 66 76
58 66 76
58 66 76
59 67 77
58 65 76
59 67 77
58 65 76
59 68 78
59 67 77
59 67 78
59 67 78
59 67 78
59 67 78
58 66 77
58 66 77
58 66 76
59 67 78
60 68 78
60 68 79
60 68 78
58 66 77
60 68 78
59 67 77
60 68 78
60 68 78
60 68 79
60 68 78
59 67 77
60 68 79
61 69 79
60 68 79
60 68 79
61 69 79
60 68 79
60 68 79
59 67 77
60 68 79
60 69 80
60 68 78
61 69 79
61 69 80
59 67 78
59 68 78
61 69 80
60 68 79
60 68 79
60 69 79
60 69 79
61 69 80
60 68 79
60 68 79
61 69 80
61 69 80
61 69 80
61 69 80
61 69 80
61 69 80
61 69 80
61 69 80
60 68 79
61 69 79
61 69 80
60 68 79
60 69 80
61 69 80
61 69 80
60 69 79
60 67 78
62 70 80
61 69 80
59 68 79
60 68 79
61 69 79
61 69 80
60 68 79
61 70 80
61 69 80
60 69 80
61 70 80
61 70 80
61 69 80
62 70 80
61 69 80
62 70 80
61 69 80
61 69 80
61 69 79
62 70 80
61 70 80
60 68 79
59 68 78
60 69 80
61 69 80
61 69 80
60 69 80
60 68 79
61 69 80
60 69 79
61 69 80
61 69 79
61 69 80
61 69 80
61 69 80
60 69 80
61 70 80
61 69 80
60 68 79
61 69 80
61 70 80
61 69 80
60 69 79
61 70 80
62 70 80
59 68 79
61 69 80
61 69 80
61 69 80
61 69 80
61 69 80
60 69 80
61 69 80
61 69 79
60 68 79
61 69 80
61 69 80
61 70 80
61 69 80
61 69 80
61 69 80
60 68 78
60 69 80
60 68 79
61 69 80
60 69 79
61 69 80
61 69 80
61 69 80
61 69 80
60 68 79
61 69 79
61 69 80
60 68 79
60 69 80
61 69 79
59 67 78
61 69 80
61 69 80
60 69 80
61 69 79
60 68 78
61 69 80
60 68 79
60 68 79
59 67 78
60 69 79
61 69 80
61 69 80
60 68 79
61 69 80
60 68 79
60 68 78
60 68 79
60 68 79
60 68 79
60 69 79
60 68 79
60 68 79
60 68 79
60 68 79
61 69 80
60 69 79
59 67 78
60 69 79
60 68 78
60 68 78
58 67 77
60 68 78
59 67 78
59 67 78
60 67 78
60 68 78
59 67 78
60 68 79
60 68 79
59 67 78
58 67 77
60 69 79
59 67 78
59 67 78
60 68 79
60 68 79
59 68 78
59 67 78
59 67 78
59 67 77
60 68 79
60 68 79
58 65 75
58 66 77
57 65 76
60 68 79
59 67 78
58 66 77
57 65 76
58 66 77
59 67 77
58 66 77
58 66 76
58 66 76
57 65 75
59 67 78
58 65 75
57 65 75
57 64 75
57 65 74
57 65 76
57 65 76
58 66 76
58 66 76
57 65 75
57 64 74
57 64 74
55 62 72
57 65 75
56 64 74
56 63 73
57 64 74
55 62 72
54 61 71
57 65 75
56 63 73
54 61 71
53 61 70
57 64 74
57 64 74
57 64 74
53 60 70
54 62 71
55 62 72
53 60 69
53 60 69
53 61 70
53 60 69
54 62 71
51 58 67
50 57 67
50 57 66
52 59 68
50 56 64
53 60 69
50 57 65
50 57 65
50 57 66
49 55 64
50 56 64
49 56 64
46 52 60
49 55 64
46 53 61
45 51 58
50 56 65
50 56 64
52 59 67
45 51 59
42 47 55
45 50 57
36 40 45
31 34 38
33 37 41
33 36 40
35 38 43
38 42 47
36 40 45
35 38 43
31 34 38
36 39 44
37 40 45
36 40 44
39 42 47
35 38 42
38 42 47
39 43 48
36 39 44
38 41 46
41 45 50
35 38 42
35 39 43
36 39 44
40 43 48
40 44 49
39 43 48
32 35 39
39 43 48
37 40 45
36 40 44
34 37 42
38 42 47
35 39 44
38 41 46
39 43 48
38 41 46
36 39 44
37 40 45
34 37 42
36 39 44
39 43 48
36 40 45
36 40 44
38 42 47
42 46 51
36 39 44
39 42 47
43 47 52
39 43 48
36 40 45
37 40 45
35 39 44
40 43 48
37 41 45
37 41 45
36 40 45
36 39 44
40 44 49
38 42 47
34 37 41
36 39 44
34 38 43
36 39 44
34 37 42
35 39 43
37 41 45
36 40 44
36 39 44
34 37 42
43 46 51
37 40 45
35 38 42
30 33 37
35 38 43
31 34 38
36 40 44
27 30 33
35 38 42
37 41 46
37 42 48
45 51 59
46 52 60
47 53 61
48 55 63
47 53 62
50 56 65
49 55 64
47 53 61
50 56 64
49 55 64
51 57 66
50 56 65
52 59 69
48 55 63
54 61 70
52 59 67
51 58 66
51 58 67
52 59 69
52 59 68
52 59 69
54 61 71
52 59 68
52 59 68
54 61 71
56 63 73
54 62 72
55 62 71
55 62 71
54 61 71
55 62 72
57 65 75
56 64 73
55 63 73
58 65 75
55 62 71
53 60 70
57 65 75
56 64 74
55 62 72
58 66 76
53 61 71
57 65 75
57 65 74
58 65 76
59 67 77
57 65 75
56 64 74
58 66 76
58 66 77
58 66 76
58 66 76
58 66 77
57 65 75
57 65 75
59 66 76
58 65 75
58 66 77
59 67 77
58 66 76
59 67 77
58 66 76
60 68 78
58 65 75
58 66 77
59 67 77
58 65 75
58 66 76
59 67 77
59 67 78
59 67 77
59 67 78
59 67 78
60 68 79
60 68 79
59 67 78
58 66 76
58 66 77
60 68 78
59 67 78
60 68 78
59 67 78
60 68 79
59 68 78
60 68 78
60 68 78
60 68 78
59 68 78
59 67 78
61 69 80
59 67 78
60 68 79
60 68 79
62 70 80
60 68 79
59 67 78
60 68 79
59 68 79
60 68 79
60 69 79
61 69 80
61 69 79
61 69 79
59 68 79
61 69 80
60 68 78
61 69 79
60 69 80
60 69 80
60 69 80
59 67 78
61 69 79
62 70 80
60 68 78
60 69 80
61 69 80
61 69 79
60 69 80
61 69 80
61 69 80
60 68 79
61 69 80
61 69 79
60 69 80
60 69 80
61 69 80
61 69 80
59 68 79
61 69 80
59 67 78
61 69 80
61 69 80
61 69 80
60 68 78
61 69 80
61 69 80
62 70 80
60 68 79
61 69 80
61 69 80
60 68 79
60 69 80
61 69 80
61 69 80
60 68 79
61 70 80
61 69 80
61 69 80
61 69 80
62 70 80
60 69 80
61 69 80
61 70 80
61 69 80
61 69 80
61 69 80
61 69 80
60 69 80
61 69 80
61 69 80
61 69 80
61 69 80
60 68 78
60 68 79
61 69 80
61 69 80
61 69 80
61 69 80
60 69 80
61 69 80
60 69 80
60 69 80
59 67 78
61 69 80
62 70 80
61 69 80
61 69 80
61 69 80
61 69 79
61 69 80
61 69 80
61 69 80
60 69 79
60 69 80
60 69 80
61 70 80
61 69 80
60 68 79
61 69 80
61 69 80
60 69 80
60 68 79
61 69 80
62 70 80
60 68 78
60 68 79
61 69 80
59 68 79
60 68 79
61 69 79
60 68 79
60 69 80
60 68 79
60 69 80
61 69 80
61 69 80
59 67 78
61 69 80
59 67 78
60 68 78
60 69 79
61 69 79
61 69 80
60 68 79
60 68 79
61 69 80
59 67 77
60 69 79
60 68 79
60 68 78
60 68 79
60 68 79
60 68 79
60 68 79
61 69 80
61 69 80
61 69 79
60 68 79
59 67 78
60 68 79
59 67 78
60 68 78
60 68 79
59 66 76
60 68 79
59 67 77
60 68 79
59 68 79
59 68 79
60 68 79
60 68 78
59 67 78
58 66 77
59 67 77
60 68 78
58 66 77
59 67 78
58 65 76
59 67 78
60 68 78
57 65 75
59 67 77
60 68 79
58 66 76
58 66 77
59 67 77
58 66 77
58 67 77
60 68 79
59 67 78
58 66 76
59 67 78
57 65 75
59 67 78
57 65 75
57 64 74
58 66 77
58 66 76
56 64 74
58 66 76
58 65 76
56 63 73
55 63 73
57 65 75
59 67 77
56 64 74
57 65 76
58 66 76
55 62 72
55 63 73
57 64 74
56 64 74
57 64 74
55 62 72
55 63 73
55 63 73
52 58 68
54 61 71
58 66 76
57 65 74
53 60 70
55 62 72
56 63 73
55 62 72
55 63 72
54 62 71
52 59 68
53 60 69
54 61 70
53 60 70
54 61 71
53 61 70
54 61 70
52 59 67
50 57 65
51 57 66
50 57 65
51 58 67
50 56 64
50 56 64
47 53 61
47 53 62
47 53 60
50 56 64
47 53 61
48 54 63
47 53 61
43 48 56
45 50 57
43 49 56
47 53 61
47 53 60
38 42 47
37 40 45
35 38 42
27 30 34
33 36 41
37 41 45
36 39 44
38 42 47
35 38 43
36 40 45
39 43 48
36 39 44
36 39 44
35 39 43
34 38 42
32 35 39
31 34 38
38 42 47
32 35 39
39 43 47
32 35 39
37 40 45
37 40 45
37 41 46
38 41 46
36 40 45
33 36 41
39 43 47
37 41 46
35 39 43
39 43 48
38 41 46
43 47 53
36 39 44
40 43 49
38 41 46
38 41 46
40 44 49
35 38 42
36 39 44
33 36 41
39 42 47
34 38 42
36 40 44
32 36 40
35 38 43
41 44 50
41 45 50
35 38 42
37 41 46
37 40 44
34 37 41
37 41 46
35 39 43
35 39 43
36 40 44
34 37 42
37 41 46
39 42 47
42 45 50
32 35 40
38 41 45
35 38 43
36 40 44
35 38 43
33 36 40
37 40 45
37 40 45
35 38 42
30 33 37
34 37 42
41 45 50
38 41 46
35 38 42
36 40 44
42 47 53
44 50 57
42 48 54
46 52 60
45 51 58
47 53 61
46 51 59
48 55 63
47 53 60
47 53 62
47 53 61
48 55 63
48 55 64
48 54 62
49 56 64
50 57 66
52 58 67
51 58 67
51 58 68
49 56 64
51 57 66
51 58 67
49 56 64
50 57 66
54 62 71
54 61 70
52 59 68
49 55 64
55 63 72
54 61 71
54 61 70
55 63 73
55 63 73
53 61 70
56 63 74
56 64 74
55 63 73
54 62 71
56 63 73
57 64 74
57 64 74
54 62 72
57 65 75
54 61 71
56 63 73
56 64 74
54 62 72
56 64 74
56 64 75
57 65 76
58 66 76
58 65 75
60 68 79
57 65 75
58 66 76
58 66 76
56 64 74
57 65 75
57 65 76
59 66 77
58 65 76
59 67 78
58 66 77
58 66 77
59 67 78
60 67 78
56 64 74
57 64 75
59 67 78
60 68 79
60 68 78
58 66 77
58 65 76
60 68 78
59 67 77
59 67 78
60 68 78
59 67 77
60 68 78
60 69 79
58 66 76
60 68 78
60 69 79
60 68 79
59 67 78
60 68 79
59 67 78
58 66 76
59 67 78
61 69 80
61 69 79
60 68 78
60 68 79
59 68 79
61 69 79
60 69 79
60 68 79
59 67 77
59 67 77
60 67 78
60 68 79
59 67 78
60 68 79
59 67 78
59 67 78
60 68 78
61 69 80
60 68 79
60 68 78
61 69 79
60 68 79
60 68 79
59 68 78
60 68 79
61 69 80
60 68 79
60 69 80
61 69 80
61 69 80
61 69 80
61 69 80
61 69 79
60 68 79
60 68 79
59 67 77
61 69 80
60 68 79
61 69 80
60 68 79
61 69 80
60 69 79
60 69 79
61 69 80
61 69 80
61 69 80
61 69 80
61 69 80
61 70 80
61 69 80
60 68 78
60 68 79
61 69 80
61 69 80
61 69 79
60 69 80
60 68 79
61 69 80
61 69 80
61 70 80
59 67 78
61 69 80
62 70 80
60 69 79
61 69 79
61 69 80
61 69 80
60 69 80
61 69 80
60 68 79
60 69 79
61 69 80
61 69 80
61 69 80
61 69 80
60 69 79
61 69 80
61 69 80
61 69 79
61 70 80
60 68 79
61 69 80
61 69 80
61 69 80
61 69 79
61 69 80
60 69 80
61 69 79
61 69 80
60 68 79
60 69 80
61 69 80
61 69 80
61 69 80
60 69 80
62 70 80
60 69 80
61 69 80
60 69 80
61 69 80
62 70 80
61 69 80
61 69 80
61 69 80
60 68 79
61 69 80
61 69 80
60 68 79
61 70 80
61 69 80
61 69 80
60 68 79
61 69 79
61 69 80
61 69 80
59 67 78
60 68 78
60 68 79
61 69 80
60 68 79
60 68 79
60 68 79
60 68 79
60 68 79
60 69 79
60 68 79
61 69 79
60 69 80
62 70 80
60 68 79
60 69 79
61 69 80
60 68 79
59 67 78
60 68 79
59 67 78
59 67 78
58 67 78
60 68 78
60 68 79
59 68 78
59 68 79
60 68 79
61 69 79
58 66 77
60 68 79
60 68 78
61 69 79
60 68 79
59 67 77
60 68 78
59 66 77
60 68 78
60 68 79
59 68 78
60 68 78
57 65 76
59 67 77
59 67 78
59 68 78
59 68 78
58 66 77
58 66 77
57 65 76
60 68 79
58 66 77
58 65 76
58 67 77
59 67 78
59 67 77
60 68 78
57 65 75
58 65 76
60 68 78
59 66 76
58 66 76
58 65 75
58 66 76
58 65 75
58 66 76
57 65 75
56 64 74
57 64 74
56 64 74
57 65 75
58 65 75
58 65 76
59 66 77
55 63 73
57 65 75
57 64 74
55 63 73
56 64 74
58 66 76
55 63 73
55 62 72
57 65 75
55 62 72
55 62 72
55 62 72
52 59 68
54 61 71
55 62 72
55 62 72
54 62 72
54 61 70
56 63 73
56 63 73
53 60 69
50 57 66
54 61 70
51 58 67
52 59 68
53 60 68
52 60 69
48 55 64
54 62 71
51 58 66
49 56 64
53 60 69
50 57 66
47 53 61
49 56 65
49 55 63
48 54 62
49 55 63
47 53 61
50 56 65
48 54 62
45 51 58
49 55 63
41 46 53
48 54 62
45 51 58
46 51 59
40 45 51
43 48 55
38 43 49
36 40 44
35 38 43
28 31 35
31 34 38
35 38 42
36 39 44
33 36 40
36 39 44
37 40 45
37 41 45
34 37 41
33 36 40
35 38 43
37 40 45
37 41 46
33 36 41
36 39 44
39 43 48
38 41 46
38 42 47
32 36 40
37 41 46
38 41 47
35 39 43
33 36 41
35 38 43
40 43 48
35 38 43
36 39 44
37 40 44
36 40 45
32 36 41
35 38 42
38 42 47
36 39 44
37 41 46
40 43 48
39 43 48
36 39 44
37 41 45
38 42 47
39 43 47
33 36 40
45 48 54
39 43 48
38 41 46
34 37 41
38 41 46
37 40 45
33 37 41
39 42 47
37 40 45
36 39 43
40 44 48
37 40 45
31 34 38
36 39 44
36 40 44
34 37 41
38 41 46
38 42 46
32 35 39
35 38 43
36 39 44
35 38 43
39 42 47
36 40 44
32 35 39
33 36 40
35 38 42
32 35 39
35 38 42
43 49 56
45 51 58
43 48 55
46 51 59
45 51 58
45 51 59
45 51 58
49 56 64
46 52 60
51 57 66
48 54 62
44 50 58
47 54 62
49 56 64
50 56 64
49 56 64
48 54 62
49 55 63
53 60 69
50 57 66
52 59 69
52 59 68
51 59 68
53 60 69
53 60 70
53 60 70
54 61 71
52 59 68
52 59 68
53 60 69
52 59 68
53 60 69
54 61 71
52 59 69
56 63 73
52 59 69
54 61 71
55 62 71
56 64 74
56 63 73
56 64 74
54 61 70
57 65 75
55 62 72
55 63 73
56 64 74
57 65 75
58 66 76
56 63 73
57 65 75
57 65 75
55 63 74
58 65 75
58 65 75
57 65 76
56 64 74
57 65 76
58 66 76
57 65 75
58 66 76
58 65 76
58 66 76
59 67 77
58 66 76
59 67 77
57 65 76
59 67 78
58 67 77
60 68 78
60 68 78
58 66 76
59 66 77
59 67 78
59 68 78
59 67 78
60 68 78
59 67 77
59 67 77
58 66 76
58 66 76
59 66 77
60 68 79
59 67 78
58 66 77
59 68 78
59 68 79
58 66 76
60 68 79
59 66 76
59 67 78
60 68 79
60 68 79
61 69 80
59 68 79
59 67 78
58 66 77
59 67 77
60 68 79
59 68 78
59 68 79
60 68 79
60 69 80
61 69 79
61 69 80
60 68 78
60 68 78
60 68 79
60 68 79
60 68 79
60 69 79
59 68 78
60 69 79
60 68 79
60 68 79
61 69 79
60 69 80
60 68 78
60 68 79
60 68 79
61 70 80
60 68 79
61 69 80
60 68 78
60 69 79
59 68 78
61 69 80
59 67 78
61 69 79
60 69 79
60 69 79
60 68 79
61 69 80
61 69 80
60 68 79
60 68 79
61 69 80
61 69 79
61 69 80
60 68 79
61 70 80
61 69 80
61 69 80
61 69 80
61 69 79
60 69 80
61 69 80
61 69 80
61 69 80
61 69 80
61 69 79
61 69 80
61 69 79
61 69 80
60 68 79
60 68 79
61 70 80
60 69 80
62 70 80
60 69 80
61 69 80
60 69 80
61 69 80
61 69 80
61 70 80
61 69 80
61 69 80
61 69 80
61 69 80
61 69 80
61 69 80
60 68 79
61 69 80
60 69 79
61 69 80
60 69 79
61 70 80
61 70 80
61 69 80
59 68 79
60 69 80
61 69 80
61 69 80
60 68 79
61 69 80
61 69 80
61 70 80
60 68 79
61 69 80
61 69 79
60 68 79
60 69 79
60 68 79
60 68 79
60 68 79
59 68 78
61 69 80
60 69 79
60 68 78
61 69 80
60 68 79
60 68 79
61 69 80
60 68 79
60 69 80
59 67 77
60 68 78
60 68 79
59 67 78
61 69 79
59 68 79
60 69 79
60 68 78
59 67 77
61 69 80
59 67 77
59 68 79
60 68 79
60 69 80
60 68 78
59 67 78
59 67 78
60 68 78
60 68 79
59 67 78
59 67 78
60 69 80
60 68 79
59 68 79
61 69 80
60 69 79
59 67 78
60 68 78
59 68 78
59 67 77
59 67 78
59 68 79
60 68 79
60 68 79
59 67 77
60 68 78
58 66 77
58 66 76
60 68 79
60 68 78
59 67 78
58 66 77
59 67 77
61 69 79
60 68 79
57 65 76
59 67 78
59 68 78
59 67 77
59 67 78
58 66 77
59 67 77
56 64 74
59 67 78
61 69 79
59 67 78
58 66 76
57 65 75
57 65 75
58 66 77
58 66 77
59 67 77
56 64 74
58 66 76
58 66 76
55 63 73
58 66 77
58 66 77
58 66 76
56 63 73
54 61 71
56 64 74
58 67 77
57 65 75
57 65 75
58 66 76
56 64 74
55 62 72
56 63 73
56 63 73
54 62 71
56 64 74
55 63 73
54 61 71
54 61 71
55 62 72
52 59 68
55 62 72
57 65 75
55 62 71
54 62 71
55 63 73
55 62 72
52 59 69
55 62 71
55 62 71
53 60 69
48 55 64
50 57 65
52 59 68
53 60 69
52 59 68
49 55 63
52 59 67
49 56 64
52 58 67
50 57 66
49 56 64
48 55 63
49 56 64
47 53 61
46 53 61
50 56 65
49 56 65
44 49 56
44 49 57
43 48 56
45 50 58
46 51 59
43 48 54
45 50 57
43 48 55
40 45 51
43 48 55
40 44 51
34 38 42
33 36 40
35 38 43
32 35 39
33 36 40
33 36 40
33 37 41
34 38 42
35 39 43
34 38 42
37 40 44
32 35 39
33 36 40
33 36 40
33 36 40
38 41 46
36 39 43
37 41 45
34 37 42
33 37 41
37 41 45
37 40 45
36 40 44
35 38 42
36 39 44
36 39 43
38 42 46
35 38 43
34 37 41
35 38 42
39 43 48
29 32 36
39 42 47
41 44 49
36 39 44
41 45 50
38 41 46
40 43 48
32 35 39
37 40 45
36 39 44
39 42 47
42 46 51
33 36 40
30 33 37
35 38 42
34 37 42
35 38 42
35 38 42
35 39 43
31 34 38
35 38 43
37 41 46
33 36 40
37 40 44
36 39 44
33 36 41
38 41 46
35 38 43
40 43 48
29 32 36
40 44 49
36 39 43
36 40 45
32 36 40
32 36 40
35 38 42
34 37 41
34 37 41
31 34 39
40 44 51
39 43 49
40 45 51
42 48 54
44 49 56
43 48 55
46 52 60
45 51 58
45 51 58
48 54 62
46 52 60
46 52 60
47 53 60
49 55 63
47 53 61
48 54 62
52 58 67
48 54 63
49 55 64
48 54 62
50 57 66
47 54 62
49 56 64
53 59 68
51 58 66
53 60 69
54 61 70
52 59 68
49 55 63
53 61 70
55 63 73
54 61 71
52 60 69
54 62 72
54 61 71
56 63 73
53 60 69
55 62 72
55 62 72
55 62 72
56 64 74
56 63 73
56 64 74
56 64 74
56 64 74
54 62 72
56 63 73
57 65 75
54 62 71
56 64 74
56 64 74
58 66 76
55 63 73
57 65 75
55 63 73
59 66 76
59 67 78
58 66 76
58 66 76
57 65 75
58 66 76
58 66 76
56 64 74
58 66 77
58 66 76
58 66 76
58 66 76
58 65 76
60 67 78
59 67 78
58 66 77
60 68 78
59 68 78
59 66 76
58 66 76
58 65 75
59 67 77
60 68 79
58 66 77
58 65 76
59 67 78
57 65 75
58 66 76
58 66 77
59 68 79
59 67 78
58 66 77
58 66 77
59 67 78
59 67 78
61 69 79
60 68 79
60 68 79
60 68 78
59 67 78
59 67 78
60 68 78
59 67 77
59 68 78
60 68 79
60 68 79
60 68 79
60 68 79
60 68 79
60 69 80
58 67 77
61 68 79
60 68 78
60 68 79
59 67 78
60 68 78
60 68 78
60 68 78
60 68 78
60 68 79
60 69 80
61 69 79
60 68 79
61 69 80
60 69 80
60 68 78
60 68 79
61 69 80
60 68 79
60 68 79
60 68 79
60 68 79
61 69 80
60 68 78
61 69 79
59 67 78
60 68 79
60 68 79
61 69 80
60 68 79
60 69 80
60 69 79
60 69 80
61 69 80
61 69 80
60 68 79
60 69 79
61 69 80
61 69 80
60 69 80
61 69 79
59 68 78
60 69 79
61 69 80
62 70 80
60 68 78
61 69 80
61 69 80
60 69 80
61 69 80
62 70 80
62 70 80
60 68 79
62 70 80
60 69 80
61 69 80
60 69 80
60 69 80
61 69 80
61 69 80
61 69 80
60 68 79
61 69 80
61 69 80
61 69 80
60 68 79
59 68 79
61 69 80
60 68 79
61 69 80
60 69 79
60 69 80
60 68 79
60 68 79
60 69 80
60 69 79
60 69 79
60 69 79
60 68 79
61 69 80
60 68 79
60 68 79
60 69 79
61 69 80
60 68 79
61 69 79
61 69 80
61 69 80
60 68 79
61 69 80
61 69 79
61 70 80
60 68 78
60 68 79
61 69 80
60 68 79
59 68 78
60 69 80
60 68 78
60 68 78
60 68 79
61 69 80
60 69 80
59 68 79
60 69 80
60 68 79
60 69 79
61 69 79
61 69 79
59 68 78
60 68 78
61 69 80
60 68 80
60 68 79
60 68 79
60 68 79
60 68 79
60 68 78
59 67 78
59 67 78
60 68 79
60 68 79
60 68 79
60 68 78
59 67 78
59 67 78
59 67 78
61 69 80
61 69 80
60 69 80
58 65 76
59 68 79
59 68 78
59 67 78
58 66 77
59 66 77
59 67 78
59 68 78
60 68 79
58 66 77
60 68 79
58 66 77
60 68 78
60 68 78
57 64 74
59 67 78
57 65 75
60 68 79
59 67 77
59 67 78
58 66 77
58 66 76
59 67 78
58 66 76
57 65 75
59 67 77
59 67 78
57 65 75
59 67 78
59 66 77
58 66 76
58 66 77
59 67 78
59 66 77
57 66 76
59 67 77
58 66 76
57 65 76
58 65 76
55 62 72
56 63 73
56 63 73
56 64 74
56 64 74
57 65 76
57 65 75
55 63 74
56 64 74
54 61 71
53 61 70
56 64 73
56 63 74
55 62 71
55 62 72
53 60 70
56 64 74
54 62 71
54 62 71
53 60 70
55 63 73
55 62 72
55 62 71
54 61 70
52 59 68
53 61 70
54 61 70
50 57 65
54 61 70
52 59 69
51 58 67
50 57 66
51 58 67
50 57 65
50 57 65
52 58 67
54 61 70
48 55 63
49 56 65
50 56 65
48 54 62
45 51 58
48 54 62
45 51 58
45 50 58
46 52 59
45 51 58
41 47 53
46 52 59
44 49 56
45 50 58
41 47 53
44 49 56
40 45 52
42 47 53
38 43 49
36 40 46
40 45 51
30 33 37
33 36 40
33 36 40
34 37 42
33 36 40
34 37 42
33 37 41
32 35 39
34 38 42
33 36 40
38 41 46
34 38 42
32 35 40
32 36 40
35 38 43
38 41 46
33 36 41
40 44 49
34 37 42
35 38 42
36 39 44
37 41 46
34 37 42
36 39 44
38 41 46
32 35 40
33 36 40
37 40 45
37 41 46
34 37 42
39 43 48
32 35 40
39 43 47
37 40 44
31 34 38
33 36 41
39 43 47
36 40 45
38 41 46
37 40 45
35 38 42
38 41 46
36 40 44
33 36 40
34 37 42
34 37 42
34 38 42
34 37 42
36 39 44
34 37 41
35 38 43
37 40 45
35 39 43
34 37 42
33 36 40
33 36 40
37 40 44
39 43 48
32 35 39
33 36 40
34 37 41
32 35 39
35 38 43
36 40 44
30 33 37
33 36 41
39 44 50
39 43 49
40 45 51
41 46 53
39 44 50
36 41 47
44 49 56
42 48 55
47 54 62
46 51 59
46 51 59
44 50 57
46 52 59
44 50 57
49 55 63
45 51 59
50 56 65
49 56 64
48 54 63
49 56 64
48 54 62
49 56 64
51 57 66
49 56 64
50 56 64
48 54 62
51 57 66
50 57 66
55 62 71
52 59 68
53 60 69
53 60 70
54 61 70
55 62 72
53 60 69
54 62 72
54 61 70
51 58 67
50 57 66
53 60 70
53 60 70
53 60 70
54 61 71
54 61 71
53 60 70
57 64 74
57 64 74
57 65 75
57 65 75
56 64 74
56 64 74
56 64 74
57 65 75
57 64 74
58 66 76
56 64 75
58 66 77
59 67 77
56 64 74
56 64 74
57 65 76
55 62 72
57 65 75
57 65 75
58 65 76
57 65 76
57 65 75
57 64 74
58 66 76
58 66 77
58 66 76
58 66 76
59 67 78
60 67 78
59 67 77
56 64 74
58 66 76
58 66 77
57 64 75
59 67 77
57 65 75
59 67 77
59 67 78
60 67 77
59 67 78
58 66 77
61 68 79
60 68 79
60 68 79
60 68 79
60 68 79
60 68 79
59 67 78
61 69 80
58 66 76
59 67 78
60 68 79
59 67 78
60 68 79
59 67 78
59 67 78
59 67 78
58 66 76
60 68 79
61 69 79
60 68 78
60 68 79
61 69 79
59 67 77
60 69 79
60 68 79
60 68 79
60 69 79
59 67 78
59 68 78
60 69 79
60 69 79
60 69 79
61 68 79
60 68 79
60 68 79
60 68 79
60 68 79
60 69 80
61 69 79
61 69 79
60 69 79
59 67 78
61 69 80
60 68 79
61 69 80
60 68 79
61 69 80
60 68 79
60 68 79
61 69 80
61 70 80
61 69 80
60 68 78
61 69 80
61 69 80
60 68 79
61 69 80
60 68 79
60 68 79
61 69 80
61 69 79
60 69 80
61 69 80
61 69 80
60 68 78
61 69 80
61 69 80
62 70 80
60 68 79
61 69 80
61 69 80
61 69 80
60 68 79
62 70 80
61 69 80
61 69 80
61 69 80
60 68 79
61 69 80
59 68 78
60 69 80
61 69 80
59 68 78
62 70 80
60 68 79
61 69 80
61 69 80
61 69 80
61 69 80
61 69 80
61 69 80
61 69 80
61 70 80
61 69 80
60 68 79
61 68 79
60 68 79
60 68 79
60 68 79
61 69 80
61 69 80
61 69 80
60 69 80
60 68 79
60 69 79
61 69 79
61 69 80
60 68 78
60 69 80
61 69 80
60 68 79
60 69 80
60 69 79
60 68 79
60 68 79
60 69 80
61 69 80
60 68 79
61 69 80
59 67 77
61 69 80
61 69 80
59 67 78
60 68 79
60 68 79
60 68 79
59 67 78
60 68 78
61 69 80
60 68 78
60 68 78
60 68 79
59 67 78
60 68 79
60 68 79
60 68 79
60 68 79
59 68 79
60 68 79
58 67 77
59 67 78
59 67 78
61 69 80
60 68 79
60 68 78
60 68 79
59 68 78
60 68 79
60 68 78
59 68 79
60 68 78
59 67 77
60 67 78
59 67 78
60 68 78
59 68 78
58 66 76
60 68 78
60 69 79
60 67 77
58 66 77
60 68 79
60 68 79
59 67 78
60 68 78
59 67 78
58 66 76
58 67 77
60 68 78
58 66 76
58 66 77
60 68 78
60 68 78
58 66 76
59 67 77
58 66 76
58 66 76
58 65 75
56 63 74
59 68 78
56 64 74
56 64 74
55 63 73
57 65 75
57 65 76
56 63 74
58 66 76
59 67 77
55 63 73
58 66 76
55 63 73
58 66 76
55 63 72
55 62 72
55 63 72
57 64 75
56 64 74
55 63 73
53 61 70
56 64 74
57 65 75
54 62 72
55 62 72
54 61 70
56 63 73
54 61 70
53 60 69
54 61 70
53 60 70
55 63 73
53 60 70
51 57 66
53 60 70
53 60 69
52 59 68
50 57 66
48 54 62
51 58 67
48 55 63
51 58 67
51 58 67
48 55 63
50 57 66
49 56 65
49 55 64
50 57 65
51 57 65
51 58 67
47 53 61
49 55 64
51 57 65
49 55 63
45 51 59
49 55 63
45 50 58
46 52 59
45 51 58
44 50 57
43 49 56
46 51 58
44 50 57
44 50 57
44 50 57
42 47 54
41 46 52
44 48 55
45 50 57
42 47 53
38 42 48
40 44 50
33 36 40
30 33 37
31 34 37
33 36 41
31 34 39
36 40 44
32 35 39
31 34 39
29 32 36
35 38 42
36 39 44
33 36 40
37 41 45
33 37 41
36 39 43
33 36 41
35 38 43
35 38 42
32 35 39
36 39 44
30 33 37
34 38 42
33 36 41
31 34 38
29 32 37
32 35 39
38 42 47
39 42 47
35 38 43
35 38 42
33 37 41
34 37 42
34 37 41
37 41 46
37 40 45
33 36 41
37 40 44
32 35 39
37 40 45
31 33 37
31 34 38
35 39 43
33 36 41
37 41 46
34 37 42
34 37 41
36 40 44
38 41 46
36 40 44
34 37 41
30 33 37
31 34 37
37 40 44
35 38 42
35 38 42
29 32 36
32 35 39
34 37 41
32 35 40
28 31 35
22 25 28
28 31 34
34 38 43
36 40 46
33 37 42
38 42 47
38 42 48
41 46 53
45 51 58
40 45 52
39 43 49
39 44 50
43 48 55
40 45 51
45 51 58
45 51 58
47 53 60
46 52 60
48 54 62
47 53 61
48 55 63
48 55 63
48 54 62
48 54 63
50 57 65
47 53 62
49 55 64
51 58 67
49 56 65
48 54 62
52 58 67
49 56 64
50 57 66
53 60 69
53 59 68
54 61 71
53 61 70
51 57 66
53 60 69
51 57 66
53 59 68
52 59 68
57 64 74
53 60 70
55 62 71
54 61 71
54 61 70
52 60 69
57 64 74
55 62 71
56 63 73
56 64 74
55 62 72
56 64 73
58 65 76
58 66 76
56 64 74
57 64 75
57 65 75
57 65 75
57 65 75
56 65 75
59 67 77
57 65 76
58 66 76
59 67 78
57 65 75
56 64 74
56 64 74
57 65 76
60 68 79
59 67 78
57 65 75
56 64 74
58 66 76
58 66 77
58 66 76
58 66 76
58 67 77
58 66 76
58 66 77
58 66 76
59 67 78
58 66 76
58 66 77
56 64 74
58 66 77
59 66 76
59 67 78
60 68 78
59 67 78
59 67 77
60 68 78
59 67 77
59 67 77
60 68 79
60 68 78
60 68 79
60 68 79
59 67 78
59 68 78
59 67 77
59 68 78
60 68 79
59 67 78
58 66 76
60 68 79
59 67 78
60 68 79
59 67 78
59 67 78
59 67 78
60 68 79
60 68 79
60 68 78
60 68 79
61 69 80
60 68 79
61 69 80
59 67 77
60 68 79
60 68 79
60 69 80
59 68 79
61 69 80
60 68 79
60 68 79
61 70 80
60 68 79
59 67 77
60 68 79
60 69 80
61 69 80
59 67 77
60 68 79
61 69 80
59 68 78
61 69 80
61 69 80
61 69 80
60 68 79
60 69 79
61 69 80
61 69 80
60 68 79
61 69 80
61 70 80
62 70 80
60 69 80
60 68 79
60 69 79
61 69 80
60 68 78
60 69 80
61 69 80
60 69 80
60 68 79
60 68 79
62 70 80
60 68 79
62 70 80
61 69 80
60 68 79
60 68 79
61 69 79
61 68 79
61 69 80
60 69 80
61 69 80
60 68 79
61 69 80
61 69 80
61 69 80
61 69 80
61 69 80
61 69 80
61 69 79
61 69 80
61 69 80
61 69 80
61 69 80
60 68 79
61 69 80
61 69 80
61 69 80
61 69 79
61 69 80
61 69 80
61 69 80
61 69 80
62 70 80
61 69 80
60 69 80
60 69 80
61 69 79
60 69 79
61 69 80
60 69 79
60 68 79
60 69 79
60 68 78
61 69 80
60 68 79
60 68 78
59 67 78
60 68 78
60 68 78
61 69 80
61 69 80
59 68 79
60 68 79
61 69 80
61 69 80
60 69 79
59 68 79
60 68 79
61 69 80
61 69 80
61 68 79
61 69 80
60 68 78
61 69 80
59 67 78
58 65 75
60 68 79
59 67 78
60 68 78
60 68 78
60 68 79
58 66 77
59 67 78
61 69 80
58 66 77
60 67 78
60 68 79
61 69 80
58 67 78
60 68 79
59 67 77
60 68 79
58 67 77
58 66 76
60 68 78
60 68 78
60 68 79
59 67 78
60 67 78
59 67 77
59 67 78
59 67 77
59 67 77
59 67 78
59 68 78
58 66 77
60 68 78
59 67 78
58 65 76
59 67 78
59 67 77
57 65 75
58 66 77
57 65 76
58 66 76
60 68 79
57 65 76
58 66 77
59 67 77
58 66 77
56 64 74
57 65 76
57 64 74
58 65 76
56 64 74
56 64 74
58 66 76
56 64 74
57 65 75
57 64 74
56 63 73
57 65 75
58 66 76
56 63 72
58 66 76
56 64 74
56 64 74
58 66 76
57 65 74
53 60 69
55 63 72
56 63 73
55 63 73
55 63 73
55 62 72
55 62 72
56 64 74
54 61 71
54 61 71
52 59 68
53 60 69
51 58 67
55 63 73
55 62 71
54 61 71
54 61 70
52 59 68
52 58 67
52 59 68
53 59 68
55 63 72
52 59 68
49 56 65
49 55 64
50 56 64
50 57 65
51 58 67
52 58 67
50 56 64
51 57 65
50 56 65
52 59 67
45 51 58
46 52 60
51 57 66
45 51 58
47 52 60
44 50 56
44 49 56
41 46 52
45 51 58
43 48 55
44 49 56
38 43 49
42 47 54
37 41 47
38 43 49
41 46 52
39 44 50
40 44 50
36 39 44
36 40 46
35 39 44
34 38 43
28 31 35
29 32 35
32 35 39
28 31 34
33 36 41
31 34 38
29 31 35
32 35 40
32 35 40
34 37 41
31 35 39
32 35 39
32 34 38
36 39 44
33 36 40
29 31 35
34 37 42
36 39 44
34 37 41
33 36 40
36 39 43
35 38 42
36 40 44
29 31 35
38 41 46
38 41 46
37 40 45
32 34 38
31 34 37
38 41 46
36 39 43
35 39 44
37 40 45
35 38 43
34 37 41
34 37 41
31 34 38
34 37 41
32 35 40
37 40 45
38 41 46
34 37 42
29 31 35
36 39 44
31 34 38
36 40 45
34 37 41
38 42 46
34 36 41
33 36 40
31 34 38
34 38 42
27 30 33
30 32 36
30 32 36
31 34 38
31 34 38
33 36 41
35 38 43
36 40 46
42 47 54
31 35 40
39 44 50
38 42 47
40 44 50
41 45 51
40 45 51
43 48 55
42 47 54
42 47 53
42 47 53
45 51 59
41 46 53
48 54 62
42 48 55
43 49 57
44 50 58
46 52 60
45 51 58
50 56 64
51 58 67
49 56 64
48 55 63
45 51 58
52 59 68
51 57 66
48 54 62
50 57 66
49 55 63
52 59 68
52 59 68
51 57 66
52 58 67
53 60 69
49 56 64
52 59 68
52 59 67
52 59 69
55 63 72
55 62 72
54 62 71
52 59 68
56 64 74
53 61 71
53 60 69
53 60 69
56 63 73
54 60 70
55 63 73
54 62 72
54 61 71
53 61 70
55 63 73
56 64 74
57 66 76
57 65 75
55 62 72
57 65 75
58 66 76
57 65 75
55 62 72
58 65 76
57 64 74
56 64 74
56 63 73
56 64 74
57 65 76
57 65 75
58 66 76
57 65 75
60 68 79
56 64 74
58 66 76
56 64 74
57 65 75
60 68 79
59 66 77
58 65 76
59 67 77
58 66 76
57 65 75
59 67 77
58 67 77
58 66 77
57 65 74
59 68 78
60 68 78
59 67 77
59 67 78
58 66 77
60 68 79
58 67 77
58 66 77
59 67 77
58 66 76
58 66 77
59 67 78
59 67 78
57 65 75
60 68 78
59 67 77
59 67 78
59 67 78
59 68 78
60 68 78
60 68 79
59 67 78
60 69 80
59 67 78
61 69 80
61 69 79
61 69 80
61 69 80
59 67 78
57 65 75
60 68 79
60 69 80
60 68 78
59 68 79
59 67 78
60 68 79
59 67 77
60 69 80
59 67 78
59 67 78
60 68 79
60 68 78
61 69 80
57 65 75
61 69 80
60 68 79
60 68 79
60 68 79
59 67 78
61 69 80
60 68 79
60 68 79
60 68 78
61 69 80
61 69 80
60 69 80
60 68 79
62 70 80
60 68 79
61 69 80
61 70 80
60 69 79
61 69 79
61 69 79
61 69 79
60 68 79
60 68 79
61 69 80
60 69 80
61 69 80
60 69 80
62 70 80
61 69 80
60 68 79
61 69 80
60 69 80
59 68 78
61 69 80
60 68 80
61 69 80
61 69 80
61 69 80
61 69 80
61 69 80
61 69 80
61 69 80
60 69 80
60 68 79
61 69 80
61 69 79
60 68 78
62 70 80
61 69 80
61 69 80
61 69 80
61 69 79
60 69 80
59 68 78
60 68 78
61 69 80
59 68 78
61 69 80
60 68 79
60 68 78
61 69 80
60 69 80
60 68 79
61 69 80
60 68 79
60 68 78
60 68 78
60 68 79
60 69 80
60 68 79
60 68 79
61 69 80
60 68 78
60 69 80
60 68 79
61 69 79
60 69 80
59 68 78
60 68 78
60 69 79
61 69 80
60 67 78
60 68 79
60 69 79
61 69 79
60 68 79
59 67 77
60 69 79
59 67 78
61 69 80
60 68 79
59 67 78
59 67 78
59 67 77
61 69 80
61 69 80
59 68 78
60 68 79
60 68 79
59 67 78
59 67 77
59 67 77
61 69 79
58 66 77
59 67 77
59 67 78
60 68 78
60 68 78
59 67 78
59 68 79
59 67 78
59 67 78
60 68 79
58 66 77
60 68 79
59 68 78
58 66 76
60 68 78
61 69 79
60 68 79
60 69 79
57 65 76
59 67 77
57 65 75
60 69 79
58 67 77
59 67 78
59 66 77
58 66 77
59 67 78
58 66 76
57 65 75
59 67 77
57 65 76
58 66 76
59 67 78
59 67 77
59 67 77
59 68 78
59 67 77
58 65 75
57 65 75
58 66 76
57 65 76
55 63 73
57 64 74
58 66 77
59 67 78
56 64 74
58 65 75
55 62 72
54 62 72
56 64 74
53 60 69
56 63 73
55 62 72
56 64 74
58 66 76
55 62 72
55 62 72
55 63 72
55 63 73
52 59 69
55 62 72
53 61 70
53 60 69
53 60 69
52 59 68
53 60 70
54 61 70
53 60 70
54 61 70
54 61 70
51 58 66
52 58 67
50 57 65
53 60 70
52 58 67
52 59 68
54 62 71
48 54 63
49 55 63
52 59 68
50 56 65
49 56 64
49 55 64
47 53 61
47 54 62
47 53 60
51 57 66
46 52 59
47 53 61
46 52 59
46 52 59
44 49 57
45 51 59
42 47 54
45 50 58
42 48 55
42 47 54
41 46 53
40 46 53
38 43 49
43 49 55
39 44 50
32 36 41
39 43 49
36 40 45
38 42 47
37 41 46
32 36 41
35 40 45
28 31 35
32 35 39
35 38 42
32 34 38
30 33 36
32 35 40
34 37 41
29 32 35
30 32 36
25 28 32
31 34 38
35 38 42
37 41 45
36 39 43
36 40 44
35 38 43
31 33 37
33 36 40
38 41 46
32 35 39
34 38 42
33 36 40
28 31 35
29 32 36
33 36 41
32 35 39
35 38 42
33 36 40
32 36 40
33 36 41
33 36 40
34 37 42
30 33 37
36 39 43
34 38 42
35 39 43
36 39 44
31 34 38
35 38 42
29 32 36
35 38 43
31 34 38
30 32 36
36 39 43
36 39 43
34 38 42
34 37 42
29 31 35
29 32 36
30 33 37
29 32 36
30 33 37
29 32 35
31 33 37
34 37 41
29 32 36
40 45 51
36 40 46
32 35 40
42 47 53
43 47 54
38 42 48
33 38 43
39 43 49
39 43 49
43 48 54
43 47 54
44 50 57
41 46 53
46 52 60
48 54 62
44 49 56
44 50 57
44 50 57
44 49 56
45 50 58
46 52 60
43 48 56
47 53 61
45 51 59
49 56 65
48 55 63
49 56 64
49 55 63
50 57 65
51 57 66
48 55 63
51 58 67
54 60 69
52 59 68
51 58 67
54 61 70
52 59 69
51 58 67
51 58 66
53 61 70
52 59 68
51 58 67
54 62 71
53 60 69
53 60 70
55 62 72
51 58 67
54 61 71
54 62 72
53 61 70
52 59 69
56 63 73
55 63 73
54 61 71
54 61 71
55 62 72
56 63 73
54 62 71
56 64 74
59 67 77
56 63 74
54 62 71
55 63 73
55 62 71
56 64 74
55 63 73
57 64 75
56 63 73
57 65 75
58 66 76
57 65 75
58 66 76
60 67 78
57 65 76
58 66 76
56 63 73
57 65 76
59 67 77
58 66 76
58 67 77
60 68 79
59 67 77
59 66 76
57 64 74
57 65 75
59 66 76
58 65 76
58 66 77
60 69 79
60 68 79
58 65 76
60 68 78
59 68 78
58 67 77
60 68 78
58 66 76
59 67 77
60 68 78
59 67 77
60 67 78
59 67 78
56 64 74
60 68 79
60 68 79
60 68 78
59 67 78
59 67 77
59 68 78
59 67 78
59 67 78
60 68 79
62 70 80
61 69 80
60 69 80
60 68 79
58 66 77
59 67 77
60 68 79
61 70 80
60 68 78
60 68 79
59 67 78
58 66 77
60 68 78
60 68 78
60 68 78
61 69 80
60 68 79
59 67 78
60 68 79
60 68 79
61 69 79
59 67 78
60 68 79
59 68 79
60 67 78
59 67 78
60 68 79
60 69 80
59 68 79
60 68 78
60 68 79
60 68 79
60 68 79
60 68 79
61 69 80
60 68 79
60 68 79
61 69 79
60 68 79
59 68 78
60 69 80
60 69 79
61 69 80
59 67 78
61 69 80
61 69 80
60 69 80
59 68 78
60 68 78
60 69 80
61 69 80
60 69 80
61 69 79
61 69 80
61 69 80
60 69 80
60 68 79
60 69 79
61 69 80
61 69 80
61 69 80
61 69 80
61 69 80
61 69 80
60 68 79
61 69 80
60 68 79
60 68 79
61 69 80
60 68 79
61 69 79
61 69 80
59 68 79
60 68 79
60 68 79
60 68 79
59 68 79
60 68 79
61 69 80
60 68 79
60 68 79
60 68 79
59 67 78
60 69 80
60 68 79
61 69 80
60 69 79
60 68 79
60 68 79
60 68 79
61 69 80
59 67 78
60 68 79
60 68 79
60 68 78
60 68 78
60 68 79
59 67 77
60 68 78
61 69 80
59 68 79
60 69 80
61 68 79
59 67 78
61 69 79
60 68 79
59 67 78
61 69 79
60 68 79
59 67 77
59 67 77
59 67 78
61 69 80
59 68 79
59 67 78
59 67 77
59 67 78
59 67 78
60 68 78
58 66 76
61 69 80
60 68 79
59 67 78
61 68 78
58 65 76
61 68 79
61 69 80
60 68 79
60 68 79
59 67 77
60 68 78
61 69 80
59 67 77
60 69 79
59 67 78
59 67 78
60 68 78
60 68 79
58 66 76
59 67 77
58 66 77
58 66 76
59 67 78
61 69 80
56 65 75
57 65 75
57 65 76
59 67 77
59 67 78
57 65 75
57 65 76
59 66 77
57 65 75
57 65 76
57 65 75
58 66 76
59 66 76
57 65 75
57 65 75
56 64 74
57 65 76
58 66 76
57 65 75
56 64 74
56 64 74
60 68 79
57 64 74
57 65 76
56 63 73
56 64 74
55 63 73
56 63 73
57 64 74
55 62 72
54 62 72
56 63 73
57 64 75
55 62 72
57 65 76
55 62 72
53 60 70
56 62 71
54 62 72
55 62 72
54 62 71
54 62 71
53 60 69
53 60 70
51 58 67
52 59 68
53 60 70
54 61 71
52 59 69
54 61 70
50 57 65
51 58 66
53 60 70
49 56 64
51 58 67
50 56 65
50 57 65
52 58 67
48 54 62
50 57 66
50 56 65
50 57 66
51 57 66
48 54 62
48 54 62
46 52 60
48 54 63
48 54 62
46 51 59
45 51 58
45 51 58
46 52 61
44 50 57
47 53 60
43 49 56
41 46 53
43 48 55
42 47 54
36 40 46
43 48 54
35 39 45
41 45 52
31 35 39
42 46 53
36 40 45
35 39 44
39 44 49
32 36 41
38 42 48
36 40 45
31 34 39
31 34 38
33 36 40
26 28 31
33 36 40
33 36 40
30 33 37
31 34 38
31 34 38
33 36 40
37 40 45
27 29 32
32 35 39
32 35 39
36 39 43
28 31 34
32 35 39
36 39 43
33 36 40
36 40 44
32 35 39
31 34 38
32 34 38
31 34 38
34 37 41
33 36 40
27 29 33
29 32 36
33 36 40
32 35 39
36 39 43
30 33 36
31 34 39
34 37 41
36 40 44
34 37 41
32 35 39
36 39 43
35 38 43
31 34 38
28 31 35
29 32 36
32 35 38
35 38 42
30 33 37
31 34 37
32 35 39
29 31 35
33 35 39
31 34 38
29 32 36
27 30 33
31 34 39
32 36 41
37 41 47
32 36 40
35 39 44
40 44 51
33 37 42
36 40 46
39 43 49
39 43 49
40 45 51
38 42 49
38 43 49
44 49 56
40 44 51
43 48 55
42 47 54
42 46 53
40 45 52
41 46 53
46 52 59
45 51 59
45 50 58
44 50 57
50 57 66
49 55 63
44 50 57
44 50 58
47 53 61
47 54 62
49 55 63
52 59 69
51 57 66
47 53 61
48 54 63
51 58 67
50 56 64
52 59 68
53 60 69
49 55 63
51 58 67
48 54 62
55 62 72
52 59 67
53 60 69
49 56 64
52 59 68
56 63 73
53 60 69
52 60 69
53 60 70
55 62 72
57 65 75
56 63 73
54 61 70
55 62 72
55 62 72
58 66 76
54 62 71
58 66 75
57 65 75
57 65 75
57 65 75
57 65 75
57 64 74
55 62 72
55 62 72
58 66 77
56 64 74
55 63 73
57 65 76
59 66 77
57 64 74
56 64 74
58 65 76
57 65 75
57 65 75
58 66 76
58 65 75
57 65 75
57 65 75
58 66 76
57 65 75
57 65 75
57 65 76
58 65 74
59 67 78
57 65 76
59 67 77
57 65 75
57 64 75
58 66 76
57 65 76
59 67 78
59 67 77
56 63 74
58 66 77
60 68 79
59 67 78
59 67 77
59 67 78
60 68 79
60 68 78
59 67 78
59 67 78
58 66 76
60 68 78
59 68 78
59 67 77
58 66 77
59 67 77
60 69 79
60 68 79
60 68 79
58 66 77
60 68 79
59 67 78
59 67 78
58 66 77
59 67 78
59 67 78
59 67 77
60 68 79
60 68 79
58 66 77
61 69 80
60 68 79
61 68 79
60 68 79
60 68 79
61 69 79
61 69 80
60 68 79
59 68 79
60 68 78
60 67 78
59 68 79
60 68 78
60 68 78
60 68 79
59 67 78
60 68 78
61 69 80
59 67 78
60 69 79
59 67 78
62 70 80
61 69 80
60 69 80
60 68 79
61 69 80
60 69 80
60 68 79
61 69 79
61 69 80
60 69 79
60 68 79
60 68 78
60 69 80
61 69 80
60 68 79
60 69 80
61 69 80
61 69 80
60 68 79
61 69 80
60 69 79
61 69 80
61 70 80
59 68 79
61 69 80
61 69 79
61 69 80
61 69 79
61 70 80
61 69 80
61 69 80
61 69 80
60 69 80
61 69 80
61 69 80
60 69 80
61 69 80
61 69 80
61 69 80
60 68 79
61 69 80
60 68 79
61 69 80
61 69 80
61 69 80
61 69 80
60 68 78
60 69 79
61 69 80
61 69 80
60 68 79
60 69 80
60 69 80
60 69 79
60 69 79
60 68 79
60 68 79
61 69 79
60 68 78
61 69 80
60 68 79
61 69 80
60 68 78
60 68 79
60 68 79
61 69 79
59 67 77
60 68 78
59 67 78
59 67 77
61 69 80
60 68 78
60 68 79
59 67 78
60 69 80
59 68 78
60 69 79
60 68 79
61 69 79
58 66 77
59 67 77
60 68 79
59 67 77
60 68 78
58 66 76
60 69 79
59 67 78
60 68 79
59 67 78
59 67 77
60 68 78
60 68 79
61 69 80
59 67 78
58 66 77
59 68 78
59 67 77
58 66 77
59 67 77
58 66 76
57 65 76
59 67 77
57 65 75
58 66 76
59 67 78
60 68 79
59 67 78
59 67 77
58 67 77
58 66 76
58 66 76
59 68 78
58 66 77
58 65 75
58 65 76
59 67 78
58 66 77
57 64 74
58 66 76
59 67 77
59 66 77
58 66 76
57 65 75
58 66 77
58 66 76
58 66 77
58 65 76
58 66 77
56 64 74
58 66 76
58 66 76
57 65 76
55 62 72
57 65 75
56 64 74
56 64 74
56 64 74
56 63 73
55 62 72
55 63 73
56 64 74
55 63 73
57 64 74
55 63 73
54 62 72
56 64 74
53 61 71
55 62 72
55 63 72
52 60 69
54 61 71
53 61 70
53 59 68
53 60 69
50 57 66
53 60 70
53 60 69
52 60 69
51 58 68
54 61 71
54 61 70
54 61 70
51 58 67
54 61 70
52 59 68
51 58 67
54 61 70
51 58 66
46 52 60
47 53 61
48 55 63
48 54 62
50 57 65
47 53 61
50 56 64
49 55 64
45 50 58
46 53 61
42 47 55
47 53 61
48 54 62
49 55 63
47 53 60
45 51 58
44 49 56
43 49 56
42 47 54
45 50 58
45 50 57
39 43 49
40 45 51
42 47 53
36 41 46
41 46 52
40 45 51
39 44 50
37 42 48
35 39 44
33 37 42
37 42 47
37 41 47
33 36 41
28 31 35
31 35 39
32 36 40
25 28 31
29 31 35
25 27 31
29 32 35
26 28 32
28 31 34
27 30 33
27 30 34
32 35 39
31 34 37
36 40 44
33 36 40
34 38 42
33 36 41
36 39 44
31 34 38
26 28 32
35 38 42
33 36 40
28 31 34
32 35 39
32 35 39
30 33 37
31 34 38
34 37 41
35 38 42
31 34 38
31 34 38
37 40 44
34 37 42
25 28 31
30 33 37
31 34 37
28 31 35
27 30 33
30 33 37
33 35 39
32 35 39
22 24 27
32 35 39
27 29 33
27 30 33
28 31 35
29 31 35
31 34 38
28 31 34
28 31 35
32 35 39
32 35 40
33 37 42
36 39 44
30 33 37
34 38 44
37 41 47
28 31 35
38 43 49
35 39 45
35 39 44
41 46 52
37 41 47
37 42 47
40 45 51
39 43 49
42 47 54
45 50 57
41 46 52
42 47 54
42 48 55
44 50 57
44 50 57
46 52 60
46 52 60
47 52 60
47 53 61
49 55 63
45 51 58
48 54 63
47 53 61
46 52 60
48 54 62
48 54 62
50 56 65
48 54 62
52 59 67
51 57 66
53 60 69
48 54 63
48 55 63
52 58 67
51 58 67
52 59 68
52 59 68
52 59 69
52 59 68
54 61 70
54 61 71
54 61 71
55 62 72
53 61 70
54 61 71
54 62 71
56 63 73
54 62 71
52 60 69
56 63 73
52 59 68
53 61 70
56 63 73
53 60 70
57 64 74
51 58 67
56 64 74
56 64 74
56 64 74
54 62 71
57 64 73
56 63 73
57 65 76
57 65 75
58 66 76
57 65 75
56 63 73
57 65 75
57 65 75
57 65 76
58 66 77
57 65 75
58 66 76
57 65 75
58 66 77
58 65 76
59 68 79
58 66 77
56 64 74
57 65 76
58 66 76
58 66 77
58 66 76
58 67 77
58 66 76
59 67 78
57 65 76
59 67 77
58 66 76
57 65 75
59 67 77
60 68 78
58 66 76
59 68 78
58 65 76
60 68 78
59 67 78
58 67 77
58 66 76
59 67 77
58 67 77
59 67 78
59 68 78
59 66 77
59 67 78
59 68 78
60 68 79
59 67 77
60 68 78
59 67 77
60 68 78
59 67 78
61 69 80
59 67 78
60 68 78
58 66 76
61 69 79
60 68 78
59 68 79
60 68 78
58 66 76
60 68 79
61 69 79
60 68 78
60 68 79
59 67 78
60 68 78
60 69 79
61 69 80
60 69 80
60 68 79
59 67 78
60 69 80
61 69 79
60 69 80
60 68 79
60 68 79
59 67 78
58 67 77
59 67 78
60 68 78
61 69 80
61 69 79
60 68 79
62 70 80
61 69 80
61 69 80
61 69 80
60 68 79
59 67 77
61 69 79
61 69 80
60 68 79
60 68 79
61 69 80
61 69 79
61 69 80
61 69 80
61 69 80
61 69 80
61 69 80
61 69 80
61 69 79
60 68 79
61 69 80
60 69 79
60 68 79
61 69 80
61 69 79
60 69 80
60 69 80
61 69 80
61 69 80
61 69 79
60 69 80
60 69 80
61 69 80
60 69 79
60 68 79
59 68 78
60 68 79
60 69 80
60 68 79
60 68 79
61 69 80
60 69 80
60 68 79
61 69 80
61 68 79
60 68 79
61 69 80
59 67 78
60 68 79
60 68 79
61 69 80
60 68 79
60 68 79
60 68 79
61 69 80
60 68 78
60 69 79
61 69 79
60 67 78
60 68 79
61 69 80
61 69 80
61 69 79
60 68 79
60 68 78
59 68 78
60 68 79
61 68 79
60 68 79
60 68 79
60 69 80
60 69 79
61 69 80
58 66 77
58 67 77
59 67 78
59 67 78
60 68 79
59 67 77
59 67 77
60 68 79
60 68 79
60 67 78
60 67 78
60 69 80
60 68 79
59 67 78
61 69 80
59 67 78
59 67 77
59 66 77
60 68 79
57 65 75
59 67 77
58 66 77
60 68 79
60 67 78
58 66 76
59 67 77
58 66 76
59 67 78
58 66 76
59 67 77
59 66 76
58 66 77
60 68 78
57 65 75
60 68 79
59 67 77
60 68 78
59 66 77
59 67 78
58 66 76
56 64 74
59 67 78
57 65 75
58 66 76
56 64 74
57 65 76
58 67 77
56 64 74
59 67 77
56 64 74
58 66 76
58 66 76
57 65 75
57 65 75
55 62 72
58 66 77
59 67 78
58 66 76
57 65 76
56 63 73
55 63 73
53 61 70
56 64 74
57 64 74
56 64 74
55 63 73
54 61 71
55 63 73
54 61 71
54 61 71
52 59 68
54 61 70
56 64 73
55 62 71
53 60 69
50 57 66
55 62 71
53 60 70
53 60 69
53 60 69
54 61 70
50 57 65
55 62 72
50 57 66
52 59 68
53 60 69
52 59 69
54 61 70
50 57 66
53 60 69
52 59 68
50 57 65
50 56 65
49 55 63
49 55 64
47 52 60
48 54 62
47 53 61
47 53 61
49 55 63
42 47 54
46 52 59
42 47 54
48 55 63
42 48 54
43 48 55
40 45 51
45 50 57
43 48 55
47 53 61
44 50 57
44 49 56
42 47 54
38 42 48
45 50 57
36 41 47
44 49 56
39 43 49
36 41 47
37 41 47
38 41 47
29 32 36
32 36 40
34 38 43
38 42 48
26 28 32
33 37 41
32 35 40
29 32 36
26 28 32
32 35 40
25 28 31
27 30 33
24 26 29
26 29 32
28 30 34
22 24 27
29 32 35
28 30 34
30 33 36
31 34 38
30 32 36
32 34 38
32 35 39
34 37 41
33 36 40
37 40 44
29 32 36
28 30 34
30 33 37
29 32 35
31 33 37
34 37 41
31 34 38
30 33 36
32 35 39
33 36 41
25 27 31
29 32 36
32 35 39
30 33 37
31 34 37
31 34 38
34 37 41
31 34 38
28 30 34
29 31 35
30 33 37
27 29 33
29 32 35
30 33 36
27 29 33
30 33 37
30 33 37
32 35 39
34 38 43
36 39 44
36 40 46
34 38 44
35 39 44
32 35 40
37 41 47
31 35 39
39 43 49
39 44 49
42 47 53
41 46 52
45 50 57
36 40 46
41 45 52
40 45 51
43 48 55
42 47 54
43 48 55
46 52 59
46 52 59
42 47 54
45 50 58
42 47 53
44 49 56
43 48 56
46 52 60
45 51 59
44 50 57
49 55 64
51 58 67
49 56 64
48 54 62
50 56 64
51 57 66
50 56 65
49 55 64
50 57 66
52 59 68
50 57 66
49 56 64
48 54 63
55 62 71
51 58 67
50 57 67
53 60 69
52 59 68
52 59 68
50 56 65
51 58 67
52 58 67
51 58 67
53 60 69
54 61 70
52 59 69
56 64 73
55 62 72
54 62 71
56 63 72
54 61 71
52 59 68
54 61 71
54 62 72
54 62 71
56 63 72
55 63 73
57 65 75
55 62 71
57 64 74
54 61 71
55 62 72
57 65 75
57 65 75
58 65 76
56 64 75
57 64 75
56 64 74
55 63 73
57 65 75
59 66 76
57 65 75
57 66 76
57 64 74
57 64 75
57 66 76
56 64 74
55 62 72
58 66 76
58 66 76
57 65 76
57 65 76
59 67 77
60 68 79
58 66 76
59 67 77
59 67 77
59 67 78
59 67 78
60 69 79
58 66 76
58 66 77
58 67 77
57 65 76
60 68 78
60 68 78
60 68 78
59 67 78
59 67 78
59 67 78
60 68 78
60 68 78
59 67 77
59 68 79
59 67 77
59 67 77
59 66 77
58 66 77
58 66 76
59 68 78
60 69 79
59 67 77
58 66 76
61 68 79
59 67 78
60 68 79
60 68 78
59 68 79
60 68 79
59 67 77
59 67 78
60 68 78
60 68 79
60 68 79
61 69 79
61 69 80
60 68 79
59 67 78
60 68 79
61 69 80
58 66 76
59 67 78
60 68 79
59 67 77
60 68 79
61 69 80
60 68 79
60 68 79
60 68 79
60 68 79
59 67 78
60 68 78
60 69 79
60 68 79
60 68 79
59 67 78
61 69 80
59 67 78
60 68 78
60 68 79
60 68 79
60 68 79
60 69 79
61 69 80
59 67 78
60 69 80
60 68 79
60 68 79
60 68 79
61 69 80
61 69 80
60 68 78
61 69 80
61 69 80
61 69 80
61 69 80
61 69 80
60 69 79
59 68 78
60 69 80
61 69 80
61 69 80
61 69 79
61 69 80
60 69 80
60 69 80
61 69 80
60 68 79
60 69 79
60 69 80
61 69 80
61 69 79
61 69 80
61 69 80
60 68 79
60 68 78
60 68 79
60 68 78
60 68 79
60 68 79
60 68 79
60 68 79
61 69 80
60 68 79
59 67 78
61 69 80
61 69 80
59 68 78
60 69 80
60 68 79
60 68 79
60 68 79
60 68 79
60 68 78
61 69 79
59 68 78
61 69 79
60 68 79
59 67 78
59 67 78
61 69 80
60 68 78
59 67 78
60 68 78
61 68 79
59 67 78
60 69 79
59 68 78
60 68 79
59 67 78
61 69 79
60 68 79
59 67 78
60 68 79
60 68 79
60 69 79
59 67 77
60 68 79
59 67 77
59 67 77
59 68 79
61 69 80
60 68 78
60 68 78
59 67 77
60 68 78
56 64 74
59 66 77
58 66 76
60 68 79
60 68 79
60 68 79
58 65 75
60 68 78
60 68 79
57 65 76
59 67 77
59 67 78
58 66 76
57 65 75
59 67 78
58 66 77
57 65 76
59 67 77
58 65 75
59 67 77
58 66 76
56 64 74
56 64 74
58 66 76
57 65 75
58 66 76
55 62 72
59 66 76
56 63 73
56 63 73
56 64 74
55 63 73
57 64 74
56 63 73
56 64 74
55 63 73
57 64 74
56 64 74
57 65 76
53 61 70
56 64 74
56 63 73
57 65 75
56 64 74
55 62 72
54 61 71
54 61 71
54 61 70
52 59 68
54 61 71
55 61 71
54 62 72
53 60 70
53 61 71
52 59 69
50 57 66
54 62 71
54 61 71
55 63 73
50 57 66
53 60 70
51 58 67
55 63 73
54 62 71
54 61 70
51 58 67
52 59 68
53 59 68
51 58 67
54 61 71
52 59 68
49 55 64
52 58 67
49 56 64
48 54 62
50 57 65
50 56 65
53 60 69
47 54 62
42 48 55
47 53 61
47 53 61
49 55 63
46 52 59
44 49 56
42 47 54
44 50 57
46 51 58
40 45 51
44 50 57
43 48 55
41 45 52
43 48 54
40 44 51
43 48 55
39 44 50
44 49 56
36 40 46
33 37 42
38 42 48
37 42 48
36 40 45
36 40 45
35 39 45
34 38 44
36 39 44
29 32 36
34 37 42
36 40 45
32 36 40
29 32 36
29 32 35
29 32 36
26 29 32
25 27 30
25 27 31
25 28 31
22 24 27
28 31 34
24 26 29
26 29 32
26 28 32
30 32 36
26 28 31
27 30 33
27 30 33
27 30 34
31 34 38
28 30 34
28 30 34
29 32 36
35 38 43
29 32 35
27 30 33
28 31 34
26 29 32
31 34 37
32 35 39
30 33 37
22 24 27
30 33 37
30 32 36
29 31 35
27 30 33
26 28 32
26 28 31
25 27 30
29 32 35
24 26 30
29 32 36
28 31 35
27 29 33
31 34 38
26 29 33
29 32 36
26 28 32
33 36 41
33 36 41
33 36 40
35 39 44
31 34 38
32 35 40
36 40 45
41 45 51
38 42 48
39 43 49
39 44 50
42 47 53
45 51 58
39 44 50
38 42 48
38 43 49
45 51 58
38 43 49
44 50 57
42 47 54
43 48 55
43 49 56
46 52 60
45 51 58
48 53 61
43 48 55
49 55 63
47 53 61
45 51 58
50 56 65
47 53 61
45 51 59
49 55 63
48 54 62
50 56 65
50 57 65
50 56 65
54 60 69
51 58 67
49 55 64
51 57 66
55 62 71
51 58 66
51 58 67
51 58 66
52 59 68
52 58 67
50 56 65
55 62 72
52 59 68
50 56 65
52 59 68
54 61 71
56 63 73
53 60 70
55 62 72
58 66 76
54 61 71
54 61 70
49 56 65
53 60 70
57 64 74
55 63 73
57 65 75
56 63 73
57 65 75
55 62 72
57 64 74
54 61 71
55 62 72
58 65 75
57 65 75
56 64 74
57 65 75
58 66 76
57 65 75
58 66 76
59 67 77
57 64 74
58 66 76
56 63 73
57 65 76
56 64 73
58 66 77
56 64 74
58 65 76
59 67 78
57 65 75
58 66 77
56 63 73
58 66 76
57 65 75
58 66 76
57 65 75
59 67 78
57 65 75
59 67 77
57 65 75
57 65 75
58 66 77
58 66 77
60 68 78
59 67 78
59 67 77
58 66 76
59 67 77
60 68 78
59 67 78
59 67 78
60 68 78
59 67 77
59 68 78
59 68 79
59 67 78
59 67 78
59 67 78
60 68 79
60 68 79
56 64 74
59 67 78
59 68 78
60 68 78
60 68 79
60 68 79
59 67 78
60 68 78
59 68 78
60 68 79
60 68 79
61 68 79
60 69 79
60 68 79
60 68 79
61 69 80
60 68 78
60 69 79
61 69 79
60 68 79
60 68 79
60 68 79
61 69 79
60 68 79
59 67 77
60 69 80
61 69 79
60 68 79
61 69 80
60 68 79
60 68 79
60 68 79
59 68 78
60 68 79
59 68 79
61 69 80
59 67 78
61 69 80
60 69 80
61 69 80
60 68 78
60 69 80
60 68 79
60 68 79
61 69 80
61 69 80
60 68 79
60 68 79
60 68 78
60 69 79
60 68 78
60 69 80
61 69 80
61 69 80
61 69 80
61 70 80
61 69 80
60 68 79
61 69 80
60 68 79
61 69 79
61 69 80
60 68 79
60 68 79
61 69 79
60 69 80
60 68 78
60 69 79
60 68 78
61 69 80
60 68 79
60 68 79
60 68 78
61 69 80
60 68 79
60 69 80
60 69 80
60 68 79
60 68 79
61 69 80
61 69 80
60 68 79
60 68 79
60 68 78
59 67 78
59 68 78
60 68 79
59 67 78
60 68 79
59 67 77
60 68 79
61 69 80
60 69 80
60 68 79
60 68 78
60 68 79
60 67 78
59 67 78
60 68 78
60 68 79
60 68 78
59 67 78
59 67 78
60 68 79
60 68 79
60 68 79
59 67 77
59 67 78
59 66 77
60 68 79
59 67 78
60 68 79
58 66 76
58 66 76
60 68 79
60 68 78
59 67 78
59 68 78
58 66 76
58 66 76
59 67 77
60 68 79
58 65 76
59 67 77
59 67 78
58 66 77
60 68 78
59 67 77
59 67 78
57 65 76
60 68 78
59 67 78
59 67 77
59 67 78
58 66 76
58 66 76
58 66 77
59 67 77
58 66 76
58 67 77
57 64 74
59 67 78
57 65 75
57 64 75
58 66 76
57 65 75
57 65 76
57 65 75
58 66 76
57 65 75
54 62 72
56 64 74
59 66 76
56 64 74
57 65 75
57 64 74
56 64 74
58 66 76
56 63 73
55 62 72
58 65 75
58 65 75
57 65 75
56 63 73
55 63 73
54 61 71
55 62 72
57 64 75
57 65 75
54 61 70
54 61 70
51 58 68
55 62 72
53 60 70
56 64 74
56 64 74
53 60 69
52 58 67
53 61 70
52 60 69
55 63 72
53 60 69
52 59 68
51 58 66
54 61 70
50 57 66
52 59 68
52 59 68
52 59 68
49 56 65
51 58 67
53 60 69
50 56 65
52 58 67
48 54 62
51 58 68
51 57 66
49 55 64
49 56 64
49 55 63
50 56 65
47 54 62
48 54 62
48 55 63
49 55 63
47 53 60
46 52 60
46 52 59
47 53 60
46 51 59
45 50 58
48 54 62
43 48 55
45 50 58
43 49 56
41 46 52
43 48 55
40 45 52
43 48 55
43 48 55
41 45 52
38 43 49
38 43 48
39 43 48
36 40 45
38 43 48
36 40 46
38 42 49
34 38 44
31 35 40
34 38 43
33 36 41
29 32 36
36 40 45
31 34 38
31 35 39
37 41 47
34 37 42
30 34 38
23 26 29
27 30 33
31 35 39
24 27 30
26 29 32
31 34 38
25 28 31
25 27 30
21 22 25
26 28 31
26 29 32
25 27 30
31 34 38
29 31 35
28 31 34
28 31 34
30 33 36
23 25 29
24 27 30
29 31 35
26 29 32
29 32 35
30 33 37
27 30 33
21 23 26
27 29 32
26 28 32
24 26 29
24 26 29
27 29 32
24 26 29
25 27 30
24 27 30
28 31 34
25 27 30
29 32 35
20 22 25
29 33 37
23 25 28
31 34 39
29 32 36
25 28 31
34 37 42
32 36 40
34 37 42
38 42 47
31 34 39
32 36 41
31 35 40
35 39 45
38 42 48
39 43 49
35 39 44
39 43 49
38 43 49
40 44 50
46 51 58
41 46 52
41 46 52
43 48 55
41 46 53
48 53 61
37 42 48
46 52 59
45 51 59
39 44 50
46 52 59
45 51 58
47 53 61
45 50 57
48 54 62
47 54 62
50 56 65
49 55 63
48 54 62
46 52 60
49 55 63
47 52 60
48 54 62
47 53 61
49 55 63
52 59 68
52 58 67
51 57 66
52 59 69
50 56 65
51 57 66
54 61 70
50 57 67
53 60 70
54 61 70
54 61 71
55 62 72
53 60 69
54 62 71
51 59 68
53 60 70
55 62 71
54 61 70
52 59 69
55 62 71
54 62 72
53 61 70
53 61 70
56 64 75
56 64 74
54 62 72
54 62 71
53 60 70
55 62 72
58 66 76
55 62 72
56 63 74
55 62 72
54 62 72
56 64 74
57 65 75
58 66 76
57 66 76
57 64 74
57 65 75
55 63 73
57 65 75
57 65 75
58 66 76
54 62 72
57 65 75
58 66 76
57 65 74
56 63 73
58 66 76
56 64 74
58 66 76
59 67 78
60 68 78
59 67 77
57 65 76
58 66 76
57 65 76
58 66 77
57 65 75
58 66 76
59 67 77
56 64 74
58 66 76
60 68 78
60 68 79
58 66 77
59 68 79
59 67 78
60 68 79
59 68 79
60 68 79
59 66 76
60 68 79
60 68 79
59 67 77
58 66 77
60 68 78
60 68 79
61 69 80
60 68 79
58 66 76
60 68 79
58 66 76
59 67 78
59 67 78
60 69 79
59 67 78
58 66 77
60 68 78
59 67 77
60 68 79
58 67 78
60 68 78
60 69 80
58 67 78
60 69 80
60 68 79
61 69 80
59 67 77
61 69 80
60 68 78
60 68 79
61 69 80
60 68 78
60 68 78
60 68 79
61 69 80
60 68 79
60 68 79
61 69 80
60 68 79
60 68 79
60 68 79
60 69 80
60 68 79
61 69 80
60 68 79
61 69 80
61 69 80
61 69 79
61 69 80
59 67 78
61 69 79
60 68 79
60 68 79
61 69 80
61 69 80
60 68 79
60 69 80
61 69 80
60 68 79
61 69 80
60 68 79
61 69 80
60 69 79
60 68 79
61 69 80
60 68 79
61 69 80
60 69 80
61 69 80
60 69 79
60 68 79
59 67 77
60 68 79
60 68 79
61 69 80
60 68 78
61 69 80
61 69 80
60 69 79
61 69 79
60 69 80
60 68 79
60 68 79
60 68 79
60 68 79
60 69 80
60 69 80
61 69 80
61 69 80
60 68 79
60 68 79
61 69 80
60 68 78
60 68 78
60 69 80
62 70 80
59 67 77
60 68 78
59 67 78
61 69 80
60 69 79
59 67 78
60 69 79
60 68 79
60 68 79
60 68 79
60 68 79
61 69 80
59 68 79
60 69 80
59 67 78
61 69 79
60 68 78
59 67 77
58 66 77
59 67 78
60 67 78
59 67 77
60 69 79
59 68 79
59 67 78
59 67 78
59 67 78
59 67 78
59 68 78
59 66 77
59 67 77
60 68 79
59 67 77
60 68 79
59 67 77
57 65 76
57 64 74
60 68 78
60 68 78
59 67 77
58 66 76
59 66 77
59 67 77
59 67 78
58 66 77
59 67 77
58 66 77
59 68 78
59 68 78
57 65 75
59 66 77
57 65 75
58 66 77
57 65 75
57 65 76
58 67 77
56 64 74
58 66 76
58 66 76
57 65 75
56 64 74
56 63 73
58 66 76
57 65 75
56 64 74
55 62 72
57 65 75
56 63 73
57 64 74
55 62 72
57 65 75
58 66 76
56 63 73
56 63 73
55 62 72
54 61 71
54 62 72
57 65 76
56 63 73
56 64 75
54 61 71
55 62 72
55 63 72
55 63 73
53 60 69
55 62 71
53 60 70
55 62 71
54 61 70
55 62 71
53 60 70
54 61 70
54 61 71
51 58 67
53 60 69
52 58 67
50 57 66
52 58 67
52 59 68
50 57 66
49 55 64
52 59 69
52 59 68
52 58 67
50 57 65
50 57 65
51 57 65
50 56 64
49 56 64
46 52 60
48 54 62
49 55 64
49 56 64
49 55 64
49 56 64
45 50 58
47 53 61
47 53 61
50 56 64
41 46 53
46 52 59
47 53 60
42 47 54
45 50 57
46 52 59
42 48 54
43 49 56
44 50 57
38 43 49
42 47 53
39 44 50
43 48 54
42 47 53
44 50 57
41 46 52
35 39 44
37 41 47
35 39 44
34 38 43
33 36 41
39 44 49
33 36 41
37 40 46
32 35 40
38 42 47
31 35 39
36 40 45
26 28 32
30 33 37
35 38 43
31 34 39
28 31 35
29 32 36
28 31 34
29 32 35
27 30 34
26 28 31
24 26 29
23 25 28
26 29 32
20 22 24
26 29 32
20 22 25
23 25 28
24 26 29
26 29 32
23 25 28
19 21 23
22 24 27
25 27 30
23 26 29
27 30 33
23 25 28
20 22 24
22 24 27
23 25 28
18 19 22
19 21 23
18 19 22
24 26 29
20 22 24
23 25 28
30 33 37
29 32 35
32 35 40
26 29 32
27 30 33
33 36 41
36 40 45
32 35 39
33 37 41
31 34 38
34 37 42
31 35 39
34 38 43
35 39 44
35 39 44
33 36 41
36 40 45
35 39 44
33 37 42
31 34 39
40 45 51
43 48 54
43 48 55
39 44 50
42 47 53
41 46 53
45 50 57
43 49 56
47 53 60
45 50 58
47 53 60
45 50 58
46 51 59
47 52 60
50 56 65
45 50 57
44 49 56
44 50 57
49 55 64
50 56 65
48 54 62
44 50 57
51 57 66
45 51 58
48 54 62
45 52 60
51 57 66
49 56 64
48 55 63
50 57 65
52 59 68
53 59 68
48 55 63
50 57 66
51 58 67
53 60 69
52 59 68
53 60 69
52 60 69
53 61 70
53 60 70
53 60 69
53 59 68
54 61 71
51 58 67
56 64 73
54 62 72
50 56 65
52 59 68
54 61 71
53 60 70
54 61 71
54 62 72
54 62 72
53 61 70
56 63 74
56 63 73
57 65 75
57 65 76
56 63 73
58 66 77
57 65 76
58 66 76
58 65 75
57 65 75
57 65 75
57 64 74
56 64 74
55 63 73
56 64 74
57 65 76
59 67 77
55 63 73
56 64 74
58 66 76
57 65 75
58 67 77
59 67 77
57 65 76
57 64 75
59 67 78
58 67 77
58 67 78
57 66 76
56 64 75
59 67 77
57 65 75
59 67 78
57 64 74
57 65 76
57 66 77
60 68 79
58 66 76
59 67 77
59 67 78
59 67 78
58 66 76
58 65 75
58 65 76
58 66 76
58 65 76
59 67 78
60 68 79
60 68 79
59 67 77
59 67 77
59 67 77
60 68 78
57 65 75
59 67 77
60 68 79
60 69 79
60 68 79
60 68 79
59 67 77
60 68 79
60 68 78
59 68 78
59 67 78
60 69 79
60 68 79
59 68 79
60 68 78
60 69 79
59 68 78
59 67 78
60 69 79
59 68 78
59 68 79
60 68 79
60 68 78
61 69 80
59 67 78
60 68 79
59 67 78
60 69 79
60 69 79
60 68 78
59 68 79
60 68 79
61 69 80
61 69 80
61 70 80
59 67 78
61 69 79
60 68 79
59 68 79
59 67 78
60 68 79
59 67 77
60 69 80
61 69 80
59 68 79
60 68 79
60 68 78
60 69 80
61 69 79
60 68 79
60 68 78
60 69 80
60 68 79
62 70 80
61 69 80
60 69 79
61 69 79
60 69 79
61 69 80
60 68 78
60 68 79
61 69 80
60 68 79
60 68 79
60 68 79
60 68 78
61 69 80
58 66 77
59 67 78
60 68 79
61 69 80
61 69 80
61 69 80
60 68 79
61 69 80
61 69 80
60 68 78
60 68 79
60 68 79
60 68 79
61 69 79
60 68 79
60 68 79
59 67 78
60 68 79
60 69 79
59 67 78
59 67 78
58 67 77
60 69 80
60 68 79
60 68 79
61 69 80
60 68 79
59 66 76
61 69 80
60 68 79
60 68 79
60 68 79
60 69 80
60 68 79
61 69 80
60 67 78
60 68 78
59 67 78
59 67 78
60 68 79
59 67 78
61 69 79
59 67 78
59 67 78
61 69 79
60 68 78
58 66 76
60 69 79
60 68 79
59 67 77
59 66 77
60 68 78
59 67 77
59 66 76
58 66 76
58 67 77
59 67 78
60 67 78
60 68 78
59 67 77
58 66 76
57 65 76
59 67 77
58 66 77
58 66 77
57 65 76
57 64 74
59 67 77
58 66 76
57 65 75
57 65 75
58 66 76
58 66 76
58 66 76
57 65 76
58 66 76
59 67 77
57 65 75
59 67 77
57 65 76
57 64 74
56 64 74
58 66 76
56 64 74
58 66 77
56 64 74
53 61 70
57 65 75
56 63 73
56 64 74
57 64 74
57 65 75
55 62 72
58 66 76
55 62 71
55 63 73
57 65 75
57 66 76
54 62 71
56 63 73
56 64 74
55 63 73
56 64 74
56 63 72
57 65 76
54 61 71
54 61 71
53 60 70
56 64 74
55 62 72
54 62 71
52 60 69
54 61 70
52 59 68
54 61 71
53 61 70
52 59 68
53 60 69
51 58 67
53 60 70
53 60 69
51 58 67
53 60 69
52 59 68
51 58 67
51 57 66
51 57 65
50 56 65
51 58 67
50 56 64
52 59 68
49 55 63
47 53 61
48 55 63
49 55 64
48 55 63
45 51 58
49 55 63
51 58 66
45 50 58
49 56 64
45 51 58
47 52 60
48 54 63
46 52 59
49 55 63
42 47 53
46 51 59
41 46 52
43 48 56
43 49 56
42 47 54
43 49 56
41 46 53
38 42 49
41 46 52
39 43 49
39 44 50
43 48 54
36 40 46
35 40 46
36 40 45
37 41 47
30 33 38
33 36 41
32 35 40
33 37 42
39 43 48
33 36 41
24 27 30
30 33 37
33 36 41
25 28 32
33 36 40
29 31 35
29 32 36
27 30 34
26 29 33
30 33 37
24 27 30
23 25 28
28 30 34
28 30 34
28 30 34
21 23 26
27 29 33
20 22 25
24 26 29
23 25 28
20 22 24
22 24 27
20 22 24
17 19 21
26 29 32
23 25 28
23 25 28
28 30 34
22 24 27
25 28 31
27 29 32
22 24 27
23 25 28
31 34 38
24 26 29
23 25 28
29 32 36
32 35 39
27 30 33
34 38 43
29 32 36
32 35 40
34 37 41
32 35 40
37 41 46
31 34 39
30 33 37
30 33 37
38 42 47
33 37 41
34 37 42
27 30 33
38 42 47
37 41 47
35 39 44
38 42 48
37 41 47
40 44 50
43 47 54
41 45 52
43 48 55
42 47 54
45 50 57
44 49 56
44 49 56
40 45 51
48 54 62
45 51 58
43 49 56
45 51 58
45 51 58
47 53 60
46 51 59
45 51 58
47 53 61
45 50 58
46 52 60
49 55 63
48 55 63
47 53 60
50 57 66
48 54 63
47 53 61
45 51 58
50 56 64
51 58 67
50 56 65
50 57 66
50 57 66
48 55 64
50 56 65
54 61 70
54 61 70
52 59 68
54 61 70
52 59 68
49 56 65
55 62 71
52 59 69
52 59 68
55 62 71
54 61 70
55 62 71
56 64 73
53 60 70
54 61 70
55 61 70
53 60 70
55 62 72
56 63 73
55 63 73
58 65 76
57 65 75
54 61 71
56 64 74
56 63 73
56 64 74
56 64 74
54 61 70
57 64 74
55 63 72
54 61 71
56 64 74
55 63 73
58 66 76
57 64 75
56 63 73
56 64 75
58 66 77
57 65 74
56 64 74
57 65 76
57 65 76
60 68 78
56 64 74
58 66 77
57 65 75
58 65 76
59 67 77
57 65 76
59 67 78
57 65 75
57 65 76
59 67 78
58 66 76
59 67 77
60 68 78
55 63 73
58 66 76
58 66 76
59 67 77
60 68 79
58 66 77
59 67 78
59 67 78
59 67 77
58 66 76
60 68 79
59 67 78
59 67 78
57 65 76
58 66 77
60 68 79
60 68 78
59 67 78
59 67 77
59 67 78
60 68 78
59 67 77
60 68 79
59 68 79
58 66 77
60 68 79
60 67 78
59 67 78
59 67 77
60 68 79
59 67 78
59 67 77
60 68 79
59 67 78
61 69 80
60 68 79
59 67 78
59 67 77
59 68 79
60 68 79
60 68 79
60 68 79
60 68 79
59 67 78
61 69 79
60 68 78
60 68 79
60 68 79
60 68 78
60 68 79
60 69 80
59 67 78
61 69 80
60 68 78
60 68 79
59 67 78
60 68 79
61 69 80
61 69 80
60 68 78
59 67 77
60 68 78
60 68 79
61 69 79
60 68 79
61 69 80
60 68 79
60 69 80
61 69 80
59 68 78
60 68 78
60 68 79
60 69 80
60 68 80
61 69 80
61 69 80
60 68 79
60 69 80
60 68 79
60 68 79
60 69 80
60 69 80
60 69 79
61 69 80
62 70 80
62 70 80
60 68 79
61 69 80
61 69 79
60 69 79
62 70 80
60 68 79
59 67 78
60 68 78
59 68 79
61 69 80
60 69 80
59 68 78
61 69 79
60 68 78
60 68 78
59 67 77
58 66 76
60 68 79
60 68 79
60 68 79
61 69 79
60 68 79
59 67 77
60 69 80
59 67 78
60 68 78
60 68 78
59 68 78
60 68 78
60 69 79
60 68 78
59 67 77
60 68 79
58 66 76
60 68 79
60 68 79
59 67 77
59 67 78
60 68 79
59 67 78
58 66 76
60 68 78
60 68 79
59 67 77
58 65 76
59 68 78
57 65 75
60 68 79
60 68 78
59 67 77
58 66 76
57 65 75
58 66 76
59 67 77
58 66 76
58 66 76
58 65 76
60 68 79
59 67 78
60 68 78
57 65 75
58 66 76
59 66 76
59 66 76
57 65 76
60 68 79
59 66 77
57 65 75
57 65 76
59 67 77
59 67 77
58 66 76
59 67 77
57 65 75
58 66 77
56 64 74
57 65 76
56 63 73
58 65 76
55 63 73
58 65 76
60 68 78
56 64 74
56 63 73
56 63 74
57 65 75
55 62 72
57 64 75
58 66 76
56 64 74
57 65 75
55 63 73
56 63 73
59 67 77
57 65 75
55 62 72
57 64 74
54 61 71
57 64 74
56 64 74
55 62 71
54 61 71
53 61 70
55 63 73
54 62 71
56 63 72
54 61 71
53 60 70
54 61 71
51 58 67
52 58 67
55 63 73
50 57 66
54 61 70
52 58 68
50 57 66
52 59 68
51 58 66
54 61 70
52 59 68
50 57 66
51 58 67
51 57 66
50 56 65
49 55 63
53 60 69
50 57 65
49 55 64
52 58 67
49 55 64
50 56 64
51 57 66
51 57 66
51 57 66
48 54 62
48 54 63
48 54 62
44 50 58
47 53 61
45 51 59
46 52 59
45 51 59
45 51 58
42 47 54
45 51 58
44 49 56
47 53 61
40 45 51
46 52 59
43 48 55
44 49 56
39 43 49
37 42 48
41 45 51
40 44 51
38 43 49
40 45 51
33 37 42
39 44 50
37 41 47
36 40 45
40 45 50
37 41 47
34 38 43
34 38 44
34 38 43
32 35 39
31 35 39
33 36 41
32 36 41
37 40 46
32 35 40
31 34 39
26 29 33
33 37 42
26 29 32
32 35 39
23 25 28
27 30 34
19 20 23
25 28 31
29 32 35
24 26 29
29 31 35
19 21 23
26 29 32
26 28 31
30 32 36
25 28 31
21 23 25
30 32 36
22 24 27
28 31 34
27 29 33
23 25 28
26 29 32
25 28 31
25 27 30
30 33 37
30 32 36
23 25 28
31 34 38
27 29 33
28 31 34
28 31 34
29 32 36
28 31 35
31 35 39
31 34 38
31 35 39
28 31 34
34 38 43
30 34 38
36 40 45
34 38 43
31 35 39
33 37 42
36 40 46
36 40 45
34 38 44
36 40 46
42 47 53
41 45 52
36 40 46
40 45 51
40 44 50
43 48 54
45 50 57
43 49 56
42 47 54
39 44 51
44 49 56
46 51 58
45 51 58
43 49 56
47 53 60
48 54 62
47 53 60
46 51 59
46 52 60
46 52 60
43 48 56
48 54 62
47 53 61
49 55 63
48 54 63
50 56 65
49 55 63
47 53 62
48 54 62
47 53 61
47 53 61
53 60 69
52 59 68
50 57 65
52 58 67
52 59 69
46 52 60
51 58 67
49 56 64
53 60 69
53 60 69
52 59 68
54 61 70
53 60 70
53 60 69
51 58 66
55 62 72
56 63 73
54 61 70
55 62 72
56 63 73
54 61 71
54 61 71
57 64 73
54 62 72
55 63 73
53 60 70
55 63 72
55 62 72
56 63 73
55 63 73
56 64 74
55 62 72
56 63 73
56 64 74
55 63 73
56 63 73
55 63 73
55 62 72
56 64 74
59 66 76
55 63 72
55 63 72
56 64 74
58 65 76
57 65 74
56 64 74
56 63 73
55 63 73
56 64 74
56 64 74
57 64 74
56 64 74
59 67 78
57 65 76
60 68 78
58 66 77
57 64 74
57 65 76
58 66 77
57 65 76
59 67 77
60 68 78
58 66 76
57 65 75
59 67 78
59 67 77
59 67 77
58 66 76
60 68 78
59 67 78
58 66 76
59 67 78
59 67 78
60 67 78
59 67 77
59 66 77
58 65 75
59 67 77
59 67 78
57 65 76
58 67 77
58 66 76
59 67 78
61 69 80
60 68 79
59 68 79
58 66 76
59 67 78
60 69 79
58 67 77
60 68 78
60 68 79
59 67 78
59 67 78
59 67 78
60 68 79
60 68 79
59 67 78
59 67 78
58 65 76
60 68 79
59 67 78
60 68 79
59 67 78
60 68 79
59 67 77
60 68 79
60 68 78
61 69 80
59 67 78
59 67 78
59 67 78
59 68 79
60 68 79
61 69 80
60 68 79
59 68 79
60 68 79
60 68 79
59 67 77
61 69 79
61 69 80
60 69 79
60 68 78
60 69 79
60 69 79
60 68 79
60 68 78
59 68 79
60 68 78
61 69 80
61 69 80
60 69 79
60 68 79
60 69 79
61 69 80
61 69 80
60 68 79
59 68 78
60 69 80
60 69 79
59 67 78
59 68 79
60 68 79
60 68 79
60 68 79
60 68 79
60 69 80
60 68 79
60 68 78
60 69 79
60 68 79
59 67 77
61 69 80
60 68 78
60 68 79
60 68 79
60 68 78
61 69 79
61 69 79
61 69 79
61 69 80
60 69 79
59 67 78
59 66 77
60 68 78
61 69 80
59 67 78
61 69 80
60 68 79
59 68 78
60 69 79
59 67 78
61 69 80
60 68 79
60 68 78
60 68 79
61 69 80
60 68 79
58 66 76
60 68 78
59 67 77
60 68 79
60 68 78
60 69 79
60 68 78
59 68 78
59 67 78
59 68 79
60 68 79
60 68 78
59 68 78
61 69 79
59 67 77
59 67 77
59 67 77
59 67 77
57 65 75
58 66 77
59 66 77
58 66 77
60 68 78
59 67 77
57 65 76
58 67 77
59 67 77
57 65 75
58 66 77
59 67 77
60 68 78
57 64 74
58 67 77
58 66 76
58 66 76
59 67 78
57 65 75
57 65 76
57 65 75
58 66 77
57 65 76
58 66 76
58 66 77
58 66 76
59 67 77
58 66 76
57 65 76
59 66 76
57 65 76
57 65 76
58 66 77
58 66 76
58 66 76
58 66 76
55 63 73
56 64 75
57 65 76
54 61 71
58 65 76
55 63 72
57 64 74
55 63 73
53 60 70
55 63 73
56 63 73
56 64 74
57 65 76
54 61 70
54 62 71
53 61 70
53 59 68
55 62 72
52 59 68
55 63 72
54 62 71
54 61 71
54 61 70
53 60 70
55 62 71
55 62 72
54 61 71
53 60 70
52 59 69
54 61 70
55 62 71
50 57 66
55 62 72
50 57 65
51 58 66
53 60 70
54 61 70
49 55 64
52 59 68
49 55 64
48 55 63
50 56 64
50 57 65
50 57 66
47 54 62
48 54 62
51 57 66
49 55 64
49 56 64
48 54 63
47 53 62
45 51 59
45 50 57
48 54 62
45 51 58
44 49 57
50 56 64
43 49 56
43 49 56
41 46 53
41 46 53
41 46 52
39 44 50
44 50 57
45 51 58
42 47 54
41 45 52
42 47 54
40 44 51
39 44 50
38 42 48
39 44 50
37 42 47
37 41 47
36 40 45
35 39 44
31 35 39
39 43 49
37 41 46
31 34 39
36 40 45
33 37 42
31 35 39
33 37 41
29 32 36
38 42 47
31 34 39
30 33 37
31 34 38
35 38 44
31 34 38
32 36 40
25 28 31
26 29 32
29 32 36
31 35 39
29 32 36
23 26 29
30 33 37
24 26 29
25 27 30
36 39 44
26 28 31
33 37 41
30 32 36
26 28 31
23 25 28
30 33 37
25 27 30
26 29 33
22 24 27
22 24 27
25 27 31
25 27 31
32 35 39
21 24 26
26 28 31
25 28 32
30 33 38
26 29 33
33 36 40
36 40 46
36 40 45
28 31 35
27 30 34
35 39 44
30 34 38
32 35 40
34 38 43
35 39 44
31 35 39
39 43 49
33 37 42
37 41 46
42 47 53
34 38 44
43 48 54
43 48 54
38 42 47
37 41 47
39 44 50
44 50 56
42 47 53
41 46 53
42 47 53
42 47 54
44 50 57
41 46 53
42 47 54
46 52 59
44 50 57
42 47 55
45 50 57
44 49 56
45 50 58
45 51 58
48 54 62
47 53 62
49 55 63
47 52 60
44 50 58
42 48 55
47 53 60
44 50 58
50 57 65
49 55 63
51 58 67
49 56 64
50 57 66
51 58 67
49 56 64
49 56 65
54 61 70
48 54 62
52 60 69
49 56 64
49 56 64
50 56 65
53 60 69
53 60 70
52 60 69
53 61 70
53 60 69
55 62 72
55 63 72
55 63 73
53 60 69
55 62 72
53 60 69
51 58 67
56 64 74
53 60 69
56 63 73
53 60 70
54 61 71
57 65 74
55 62 72
53 61 71
57 65 76
57 64 74
55 63 73
56 64 74
57 65 75
54 61 70
57 64 74
57 65 75
57 64 74
58 66 76
59 66 76
55 63 73
55 62 72
57 64 74
57 65 75
57 65 75
57 65 75
55 63 73
58 66 76
58 66 76
58 66 77
56 64 74
56 64 74
57 65 76
59 67 77
58 66 77
56 64 74
58 66 76
58 66 76
57 65 75
56 64 73
56 64 74
57 65 75
58 66 77
60 69 79
58 66 77
57 65 75
59 68 78
59 67 78
59 67 78
57 65 76
59 67 78
59 67 77
61 69 80
59 67 77
59 67 77
59 67 77
58 66 76
59 68 78
59 67 77
59 67 77
57 65 75
58 66 76
60 68 79
59 67 77
59 67 78
59 67 77
59 67 78
59 67 78
59 67 78
60 68 78
59 68 78
60 69 80
59 67 77
59 67 77
59 67 78
59 67 78
60 68 79
59 68 79
59 67 78
60 68 79
60 68 79
60 68 78
60 68 79
60 68 79
59 67 78
61 69 80
61 69 80
60 69 80
61 68 79
60 68 79
61 69 80
60 69 80
60 68 78
61 69 79
59 68 78
60 68 79
61 69 80
60 68 79
60 68 79
61 69 80
60 69 80
60 68 78
60 68 79
60 68 79
61 69 80
61 69 80
60 69 80
60 68 79
61 69 80
61 68 79
60 68 79
61 69 80
60 68 79
60 68 79
62 70 80
61 70 80
61 69 80
60 69 79
61 69 80
60 69 80
58 66 76
60 68 79
61 69 79
61 69 80
60 68 79
60 69 79
61 69 79
61 69 80
59 67 78
60 68 79
59 68 78
60 68 79
61 69 79
60 68 78
60 68 79
59 67 78
60 68 79
60 68 79
58 66 77
60 69 79
60 68 78
61 69 79
59 67 78
60 68 79
60 69 80
60 68 79
60 68 78
59 67 77
59 67 77
60 69 79
61 69 80
59 68 79
60 68 78
60 68 79
59 67 78
60 67 78
59 68 79
57 65 76
60 68 79
59 67 77
59 67 77
59 67 78
59 67 77
58 66 76
60 69 80
60 68 79
59 67 77
58 66 77
59 67 77
59 67 78
60 68 79
60 68 78
60 68 78
59 67 78
60 68 78
58 65 75
59 67 78
57 66 76
59 67 78
59 67 77
57 65 75
59 68 78
59 67 77
59 67 77
59 67 77
60 68 79
59 67 78
58 66 76
58 66 77
58 66 76
59 67 78
58 66 77
56 65 75
57 65 75
59 67 77
57 65 75
57 65 75
58 66 76
57 66 76
57 64 75
58 66 76
57 65 75
57 65 76
58 66 76
56 64 74
58 66 76
58 65 76
56 64 74
60 68 79
58 65 75
56 64 74
57 65 75
55 63 73
56 63 73
58 66 77
54 62 71
57 65 75
55 63 72
56 64 74
54 61 71
56 64 73
54 61 70
56 64 74
55 63 73
58 66 76
53 60 69
57 64 74
53 60 69
55 62 72
53 60 69
54 61 71
55 62 72
57 64 73
52 59 68
53 61 70
53 60 69
51 58 67
53 60 69
51 58 66
52 58 67
53 60 69
53 60 70
55 62 71
50 57 66
53 60 70
51 57 66
49 56 65
49 56 64
52 58 67
50 57 66
48 54 62
48 55 63
50 56 65
47 54 62
48 54 62
50 57 65
49 55 64
50 57 65
48 55 63
47 53 61
47 53 61
43 49 56
48 54 61
43 49 57
45 50 58
44 50 57
47 53 61
44 49 57
45 51 59
42 47 54
39 44 50
47 53 61
43 49 56
40 45 51
39 43 50
41 46 53
42 47 53
42 47 53
39 44 50
42 47 54
41 45 51
36 41 47
35 40 46
34 38 44
43 48 54
41 45 51
39 43 49
33 37 42
34 39 44
37 41 46
41 45 51
34 38 43
31 35 40
37 41 46
34 37 42
35 39 45
34 38 42
35 38 43
37 40 46
35 39 44
27 30 34
31 34 38
30 33 37
30 33 37
30 33 37
31 34 39
29 32 36
30 34 38
26 29 32
25 27 30
31 34 39
29 32 36
30 33 37
28 31 34
28 31 34
28 31 35
20 22 24
25 27 31
31 34 38
29 32 36
22 24 27
25 28 31
30 32 36
29 31 35
28 30 34
30 34 38
31 35 39
30 33 37
29 32 36
31 35 40
32 35 40
29 33 37
29 32 37
34 37 42
35 39 44
34 37 42
32 35 39
33 36 41
33 37 41
37 41 47
33 36 41
33 37 41
41 46 52
35 39 44
42 47 53
38 42 48
34 38 43
39 43 49
36 40 46
39 44 50
39 44 50
42 47 54
42 47 54
41 46 53
37 42 47
37 42 48
44 50 57
43 48 55
45 51 58
46 51 58
47 53 61
42 47 54
47 52 60
47 53 60
47 52 60
48 54 62
46 52 59
46 51 59
47 53 61
45 50 58
46 52 60
49 55 63
49 55 64
49 55 64
50 56 65
47 53 61
47 53 62
49 55 64
50 56 64
50 56 65
52 59 69
51 58 67
51 58 67
54 61 70
51 57 66
51 58 67
50 57 66
49 55 64
52 58 67
52 58 67
55 62 71
54 61 70
55 63 72
52 59 68
54 61 70
56 63 73
52 59 68
53 60 69
54 62 71
52 60 69
53 61 70
56 63 73
56 63 73
54 61 71
54 61 71
54 61 71
55 62 71
56 64 74
54 61 70
57 65 75
56 64 74
56 64 74
57 64 74
55 62 71
56 63 73
57 64 74
57 65 75
55 63 72
57 65 75
56 64 74
59 66 76
55 63 72
58 66 76
57 65 75
56 64 74
59 67 77
56 64 75
57 65 75
58 66 76
58 65 76
58 66 76
57 64 74
56 64 74
59 67 77
58 65 75
56 64 75
57 65 75
59 67 77
58 66 76
58 66 76
59 67 77
58 66 76
60 68 79
57 65 75
58 66 77
58 66 76
59 67 77
58 66 76
59 67 78
59 67 77
58 66 77
58 65 76
60 69 80
60 68 79
60 68 79
59 67 78
59 67 77
58 66 76
60 68 78
58 66 76
59 67 77
58 66 77
59 67 77
59 67 78
58 66 77
59 67 77
59 67 78
61 69 79
59 67 77
60 68 78
59 67 78
59 67 78
60 68 78
58 66 76
61 69 79
58 66 76
60 68 79
58 67 77
59 68 78
58 66 77
58 66 76
60 68 78
58 66 77
61 69 80
61 69 79
60 68 79
60 68 79
60 68 79
60 69 80
60 68 79
61 69 79
60 68 79
61 69 79
60 68 78
60 69 79
61 69 79
60 69 79
60 68 78
60 68 79
60 69 79
59 67 78
60 69 79
61 69 79
60 69 80
60 68 79
60 68 78
61 69 79
61 69 80
60 68 79
60 69 80
61 69 80
60 68 79
60 68 78
61 69 80
60 69 80
60 68 78
61 69 80
59 67 77
61 69 80
60 68 79
60 68 79
61 69 80
59 68 78
61 69 79
60 69 80
60 68 79
59 67 77
59 67 78
60 69 80
60 68 79
61 69 80
60 68 79
60 69 80
60 68 79
60 68 79
60 69 80
59 67 78
60 68 79
60 68 79
60 68 79
59 67 78
59 67 78
59 67 77
59 68 78
59 67 78
60 69 79
59 67 77
59 67 78
59 67 77
58 66 77
60 68 78
60 68 78
60 68 78
60 68 78
60 68 79
60 68 78
60 68 79
59 66 77
59 67 78
61 69 80
60 68 79
60 68 79
59 68 79
58 66 77
58 65 76
59 67 78
57 65 75
58 66 76
59 67 77
60 68 79
58 66 76
59 67 78
58 66 77
59 66 77
58 66 76
59 67 77
57 64 74
59 67 78
59 67 77
58 66 77
58 66 76
60 68 78
59 67 77
59 67 77
58 65 75
58 65 76
58 66 77
57 65 75
61 69 80
58 67 77
58 66 76
58 66 76
57 65 76
58 66 76
57 65 75
56 64 74
59 67 77
59 68 78
58 66 76
56 63 73
57 65 75
57 65 75
56 64 74
56 64 74
57 64 74
58 65 75
57 65 75
58 66 76
57 65 76
56 63 73
59 67 77
57 65 76
56 63 73
55 63 73
57 65 75
53 60 70
57 65 75
57 64 74
54 61 71
57 64 74
55 63 73
54 62 71
54 61 71
57 65 75
53 60 69
54 61 71
55 62 71
52 58 67
56 63 73
53 60 69
56 64 74
53 60 69
54 62 71
55 63 72
49 56 65
56 63 73
51 58 67
54 61 71
52 59 68
52 59 68
50 57 66
54 61 70
54 61 70
51 58 67
52 60 69
51 57 66
51 57 66
49 55 63
52 60 69
49 55 64
52 58 68
50 57 65
46 52 60
47 53 61
48 54 63
49 56 64
45 51 58
48 54 62
48 54 63
49 56 64
49 56 64
44 50 57
47 53 60
46 52 60
47 53 62
48 54 62
47 53 61
42 47 54
47 52 59
42 47 54
43 49 56
46 52 59
44 49 57
45 51 58
42 47 53
46 51 58
46 52 59
41 45 52
42 47 54
47 53 60
39 43 50
41 45 51
37 41 46
41 45 51
33 36 41
35 39 44
35 40 45
38 42 47
38 43 49
35 39 44
38 42 48
35 39 44
36 40 46
36 40 45
35 39 44
37 42 47
34 37 42
31 34 39
36 40 45
33 37 42
32 35 40
31 35 39
26 29 33
24 27 31
34 37 42
33 36 40
33 37 42
33 37 41
33 36 41
29 33 37
31 34 39
28 31 35
29 32 36
33 36 41
30 33 37
27 30 33
31 34 38
28 31 34
29 32 36
28 31 35
30 33 37
30 34 38
32 35 40
35 38 43
31 34 39
31 34 38
33 36 41
34 37 42
31 34 39
29 32 36
34 37 42
26 29 33
36 40 45
31 34 38
35 39 44
30 33 37
37 41 46
36 40 46
34 38 44
37 41 47
34 38 43
36 40 45
36 39 45
39 43 49
34 39 44
30 34 38
40 44 50
37 41 47
40 45 51
38 42 48
39 44 50
42 47 54
43 48 55
47 52 60
40 45 51
44 49 55
43 48 55
46 51 58
42 47 53
41 46 53
45 51 58
46 51 58
48 53 61
47 53 61
45 51 58
46 52 60
48 54 62
47 53 61
48 54 61
48 54 62
47 53 61
45 51 58
50 56 65
47 53 61
47 53 61
47 53 61
48 54 63
48 54 62
49 55 64
49 55 64
51 57 66
53 59 68
51 58 67
48 55 63
49 55 64
50 57 66
54 61 71
48 54 62
51 58 66
55 62 71
51 58 67
50 57 66
53 60 69
52 60 69
55 62 71
55 62 71
53 60 69
52 60 69
53 60 69
54 61 70
53 60 70
55 62 72
53 60 70
55 63 73
53 60 69
56 63 73
54 61 72
56 63 73
56 63 73
54 61 71
54 61 71
55 63 72
55 63 73
53 61 71
55 63 73
58 65 75
54 61 71
56 64 75
57 65 75
57 64 74
57 65 75
54 61 71
55 62 72
58 66 77
57 65 76
56 64 74
57 65 75
57 64 74
58 66 76
56 64 74
59 67 77
58 65 75
58 67 77
58 66 77
57 64 74
57 65 75
58 66 76
58 66 76
57 64 74
56 64 74
60 68 79
56 64 74
58 66 77
60 68 78
60 68 78
55 63 73
58 67 77
57 65 75
58 65 76
56 64 74
59 67 78
58 66 76
60 68 79
58 66 77
59 68 78
60 68 78
61 69 79
58 67 77
58 66 77
57 65 75
60 68 79
58 66 76
59 68 78
59 67 77
59 67 77
59 67 77
58 66 77
58 66 77
60 68 78
61 69 79
58 66 77
60 68 79
60 68 79
59 67 78
59 67 78
61 69 79
59 68 78
60 68 79
57 64 75
59 67 78
59 67 77
61 69 79
59 67 77
60 68 79
59 68 78
60 68 79
59 67 77
59 67 78
59 67 77
59 67 77
60 69 80
59 68 78
60 68 79
60 68 79
61 69 80
59 67 78
60 68 79
60 68 79
60 68 79
60 69 80
61 69 80
60 69 79
61 69 80
61 69 79
59 67 78
61 69 79
61 69 79
61 69 80
60 68 79
60 67 78
60 68 79
61 69 80
60 68 79
60 68 78
61 69 80
61 69 80
61 69 80
60 68 78
60 68 79
61 69 79
60 68 79
59 67 78
59 67 78
60 68 79
60 68 79
60 68 78
61 69 79
60 68 79
61 69 80
59 68 78
61 69 80
60 69 80
59 68 78
59 68 78
59 67 77
58 66 76
61 69 79
61 69 80
61 69 80
60 68 78
60 68 78
60 68 78
60 68 79
60 68 78
60 68 79
58 65 75
60 69 80
61 69 80
60 69 79
61 69 79
59 68 78
57 66 76
59 67 77
60 68 79
59 67 77
60 68 79
59 67 78
60 68 79
60 68 79
59 67 78
58 66 76
58 66 77
58 66 77
60 68 78
58 67 77
59 67 77
61 69 79
59 68 78
58 66 77
60 68 79
58 66 76
59 67 78
60 68 78
59 67 78
57 65 76
58 66 76
59 67 77
58 66 76
59 68 78
59 66 76
58 66 76
57 65 75
59 67 77
58 66 77
58 66 77
59 68 78
58 66 77
58 66 77
59 66 77
58 66 76
58 66 77
58 65 76
59 67 77
57 65 75
59 67 77
54 62 71
58 66 76
59 66 76
55 63 73
58 66 77
59 67 78
57 65 75
59 68 78
61 69 80
56 63 73
57 64 74
56 63 73
57 64 74
58 66 76
57 64 74
56 64 74
58 66 76
55 63 72
57 65 74
57 65 75
56 64 74
57 64 74
56 63 73
55 63 72
56 64 74
53 60 70
56 64 74
57 65 75
54 61 71
56 64 74
53 60 69
56 64 74
54 61 70
54 61 70
54 62 72
53 60 69
54 62 72
55 62 72
52 60 69
53 60 70
54 62 71
54 61 70
54 61 70
52 59 68
53 60 69
55 63 72
54 62 72
51 57 66
50 57 66
51 58 67
52 60 69
51 58 67
50 57 66
54 61 70
49 56 65
48 55 63
51 57 66
50 56 65
52 58 67
54 60 69
47 52 60
48 54 62
47 53 61
46 52 60
47 53 61
44 50 58
46 52 60
46 53 61
47 53 61
48 53 61
44 49 57
50 56 65
45 51 58
48 54 62
42 47 54
46 52 59
46 52 59
43 48 55
45 50 58
45 51 58
44 50 56
40 44 51
41 46 52
43 48 54
38 42 48
39 44 50
41 46 53
32 36 41
38 43 49
39 43 49
40 44 50
40 44 50
38 42 48
38 43 48
38 42 48
32 36 41
37 41 46
36 40 46
35 39 44
36 40 45
34 38 43
38 42 48
33 37 42
29 33 37
32 36 41
28 31 35
37 41 46
32 36 40
33 36 41
35 39 44
31 35 39
29 32 36
30 33 37
33 36 41
29 32 36
35 38 43
33 37 41
30 33 37
35 39 44
28 31 35
33 36 40
32 35 39
33 37 41
26 29 32
26 29 32
26 29 33
33 37 41
30 33 37
32 35 40
31 34 38
28 31 34
31 34 39
30 33 37
33 37 42
30 33 38
31 34 39
29 33 37
34 38 43
33 37 42
29 32 37
32 36 41
36 39 45
30 33 38
32 36 42
35 39 44
35 39 45
35 39 45
33 37 43
39 43 49
38 43 49
37 41 47
39 43 49
36 40 46
40 45 51
40 45 51
44 50 57
38 42 48
38 43 49
41 46 53
43 49 55
43 48 55
41 46 53
46 52 59
44 49 56
45 50 57
42 47 53
42 46 53
42 48 54
43 49 56
46 51 59
45 51 58
47 53 61
47 52 60
44 50 57
49 56 64
47 53 61
46 52 60
48 55 63
48 54 62
48 54 63
46 52 60
47 53 61
51 57 66
48 55 63
51 57 66
50 57 65
53 60 69
50 57 66
48 54 62
51 57 66
50 57 66
53 60 69
51 58 67
53 60 69
51 58 67
56 63 73
55 62 72
54 61 70
56 63 73
51 58 67
53 60 69
55 63 73
51 58 67
54 62 72
55 62 71
55 62 71
52 59 68
53 60 70
52 59 69
54 61 71
54 61 70
55 62 72
54 62 71
57 64 74
55 63 72
54 61 70
53 60 69
57 65 75
55 63 72
56 64 74
56 64 74
55 62 72
56 64 74
58 65 76
57 65 76
57 65 76
56 64 74
57 64 75
58 65 75
55 63 73
56 63 73
56 63 74
57 65 76
56 64 73
57 65 75
58 66 76
57 65 75
59 67 78
58 65 75
59 67 77
57 65 75
57 65 75
59 67 77
56 64 74
58 66 76
57 65 75
57 65 76
59 67 77
58 66 76
60 68 78
59 68 78
55 63 73
58 67 77
58 66 77
58 66 76
58 66 77
59 67 77
59 67 77
59 67 77
58 66 76
58 66 77
60 68 79
59 68 78
59 67 77
60 68 79
60 68 78
59 67 78
59 67 77
59 67 78
58 66 76
59 68 79
59 67 77
58 66 76
61 69 80
59 66 76
60 68 79
57 66 76
60 67 78
58 66 77
58 66 76
60 68 78
60 69 79
59 67 77
60 68 78
60 68 79
59 67 78
60 68 79
58 67 77
58 66 76
59 68 79
59 68 79
61 69 79
60 68 79
60 68 79
60 68 78
59 68 78
59 67 78
60 68 79
60 68 79
60 68 78
60 68 78
61 69 80
59 67 78
60 68 79
60 68 78
59 67 78
60 69 80
60 68 79
61 69 79
60 68 79
60 69 80
60 68 79
61 69 80
61 69 79
59 67 78
59 67 78
60 68 79
60 68 79
60 68 79
60 69 79
60 68 78
59 67 78
61 69 80
60 69 79
61 69 79
60 68 79
60 69 79
61 69 79
59 67 78
61 70 80
60 68 79
61 69 80
60 69 80
60 68 78
60 68 79
60 68 79
59 67 78
60 68 79
60 68 78
59 67 78
59 68 78
60 68 79
60 68 79
58 66 77
60 68 78
59 67 78
61 69 80
60 68 79
60 68 79
60 67 78
59 68 78
59 67 78
60 68 79
59 67 78
60 68 79
60 68 78
60 68 78
60 68 78
58 66 77
60 68 79
60 68 78
59 68 78
58 66 77
60 68 79
60 68 79
59 67 78
57 65 75
60 68 79
60 68 78
59 66 77
60 68 78
61 69 80
59 67 77
60 68 79
58 66 77
60 68 78
60 67 78
59 67 77
59 67 77
60 68 79
60 68 78
58 66 77
59 67 77
59 67 78
57 65 76
59 67 78
59 66 77
59 67 77
57 65 76
57 65 75
58 66 76
56 63 72
58 66 76
58 66 76
59 68 78
58 66 77
58 66 76
58 66 76
58 65 76
58 66 76
57 65 75
56 64 73
58 66 77
56 63 73
56 63 73
58 67 77
57 65 75
57 65 76
58 66 76
56 64 74
58 66 76
55 63 73
57 65 75
55 63 72
58 66 76
54 62 72
56 63 73
57 65 75
55 63 73
53 61 71
55 62 72
56 64 74
54 61 71
55 62 71
56 63 73
55 62 72
55 63 73
56 63 73
55 62 72
56 63 73
55 63 73
57 64 74
56 63 73
52 59 69
55 62 72
53 60 70
56 64 74
55 63 72
51 58 67
53 60 69
53 59 69
55 63 72
54 62 71
56 64 73
54 61 70
50 56 65
51 57 66
52 59 69
52 59 68
51 58 67
53 60 69
51 57 66
53 60 69
51 58 66
52 59 68
49 55 63
51 58 67
46 52 60
45 52 60
47 53 60
54 60 69
52 58 67
51 58 66
50 56 64
47 53 61
49 55 63
47 53 61
49 55 63
46 52 60
45 51 58
45 51 59
48 54 62
49 54 62
48 53 60
46 52 59
45 51 58
44 50 57
41 46 52
46 51 58
38 43 50
45 50 57
45 50 57
45 51 58
43 48 55
44 49 56
39 44 50
36 41 47
43 48 55
39 44 49
43 48 55
40 44 50
35 39 45
40 45 52
35 39 44
38 42 48
37 41 47
33 37 42
36 40 45
36 40 46
39 44 50
41 45 51
39 43 49
37 41 46
37 41 47
32 36 41
32 36 40
34 37 42
34 38 43
31 34 38
39 43 48
38 42 47
35 39 44
27 30 34
28 31 35
34 37 42
38 42 48
35 39 43
28 31 36
32 36 40
31 34 39
30 33 38
31 34 38
29 32 36
30 34 38
37 41 46
35 39 44
34 38 43
27 30 34
30 33 37
29 32 36
37 40 46
36 40 45
34 38 42
33 36 41
31 34 39
38 42 48
33 36 41
36 40 45
32 36 41
32 35 40
36 40 45
37 41 46
39 43 49
34 38 43
36 40 46
35 39 45
36 40 46
36 40 45
39 44 49
36 40 46
38 43 49
43 47 54
42 47 53
40 44 51
38 43 49
39 43 49
40 45 51
40 45 51
44 49 56
39 44 50
44 49 56
43 49 56
45 51 58
45 50 57
47 53 61
47 53 60
45 51 58
47 53 60
47 52 60
46 51 58
48 54 62
43 49 57
44 50 57
48 54 62
47 53 61
50 57 66
48 54 62
49 56 64
48 54 62
47 53 61
47 53 61
50 56 64
51 58 67
48 54 63
51 57 66
51 57 66
49 56 64
53 59 68
50 57 66
52 59 68
46 51 59
52 58 67
52 59 68
50 56 65
51 58 68
53 60 69
55 62 72
53 60 69
52 59 68
52 59 68
58 65 75
54 61 70
48 54 63
54 61 71
54 61 71
53 60 70
53 60 69
53 61 70
53 61 70
55 62 72
57 65 75
57 65 74
55 63 73
56 64 73
57 65 75
55 63 72
55 63 73
56 64 74
56 63 73
56 64 74
58 65 76
53 60 70
53 61 71
55 63 73
55 62 72
57 64 74
57 66 76
54 61 71
57 64 74
55 63 73
55 63 73
55 63 73
56 64 74
58 65 75
59 67 78
58 65 75
57 64 74
56 64 73
59 67 78
57 64 74
58 67 77
56 64 74
59 67 78
58 66 77
59 67 78
58 65 76
58 65 76
57 65 75
56 63 73
58 66 77
58 66 76
58 67 77
57 64 74
59 67 78
59 67 78
59 67 78
59 66 76
59 67 77
59 67 77
59 67 78
60 68 78
59 67 78
59 67 78
58 65 75
60 68 79
59 67 77
58 66 77
57 65 76
60 68 79
59 67 77
60 68 79
59 67 77
59 67 78
60 69 79
60 68 78
58 66 76
58 67 77
60 68 79
58 66 77
60 68 79
58 66 76
60 68 79
59 68 78
59 67 78
59 67 78
59 66 76
60 69 80
61 69 79
59 68 79
59 67 77
60 68 79
60 68 79
59 67 78
59 67 78
59 67 78
60 68 78
60 68 79
60 68 79
59 67 78
60 68 78
61 69 80
59 67 78
59 68 78
59 67 78
60 68 79
60 68 79
61 69 80
61 69 80
59 67 77
60 68 78
60 68 79
61 69 79
61 69 80
60 67 78
60 68 78
60 69 80
60 68 79
61 69 80
60 68 78
59 67 78
59 68 79
60 68 79
59 67 78
60 68 78
60 68 79
59 67 77
60 68 78
61 69 80
60 68 79
60 68 79
60 68 78
58 67 78
60 68 79
60 68 78
60 68 79
60 69 80
59 68 79
60 68 79
60 69 79
60 68 79
60 68 79
59 67 78
59 67 78
59 67 77
58 66 77
60 68 79
60 68 78
60 68 78
60 68 78
59 67 78
60 68 78
59 67 78
59 67 77
59 68 78
59 68 78
60 68 78
59 68 78
59 68 78
60 68 79
60 68 79
59 68 78
60 68 78
57 65 75
59 67 77
58 67 77
58 66 76
57 65 75
59 67 77
61 69 79
60 68 79
58 65 75
59 67 78
58 67 78
59 67 78
58 66 76
58 66 77
59 67 77
58 66 76
56 64 74
60 68 79
60 68 78
59 68 79
58 67 77
58 66 77
58 66 76
59 67 78
59 67 78
57 65 75
59 67 78
59 67 77
57 65 75
58 66 76
57 65 76
58 66 76
59 67 78
59 67 77
57 65 75
59 67 77
58 66 76
60 68 78
58 66 77
56 63 74
59 67 77
53 61 71
57 65 76
57 65 75
58 66 76
55 62 72
55 62 72
57 65 75
56 64 74
60 68 78
58 66 77
58 66 76
56 63 73
59 66 76
57 65 76
53 60 70
55 63 73
56 64 74
55 63 73
55 63 73
56 64 74
55 63 73
56 63 73
55 62 71
56 64 74
53 60 70
55 62 72
54 61 70
54 61 70
56 63 73
55 62 71
52 59 69
55 62 71
52 59 68
54 61 71
54 61 70
56 64 74
53 60 70
54 61 71
54 61 70
52 59 69
55 61 70
52 59 68
53 61 70
47 54 62
54 61 70
50 57 65
50 57 66
50 57 65
55 62 72
53 59 68
50 57 66
50 56 65
51 58 67
50 56 64
53 60 69
48 54 63
49 55 63
50 56 66
45 51 58
52 59 68
50 57 65
49 55 63
50 56 65
50 55 63
47 53 60
49 55 63
44 49 56
49 55 63
47 53 60
47 52 60
46 51 59
42 47 54
43 48 54
44 49 56
47 52 60
44 49 57
45 51 58
44 50 57
43 48 55
42 48 55
39 43 49
38 42 48
42 47 54
40 45 51
44 49 56
40 44 51
42 47 53
38 42 48
43 48 55
40 45 51
34 38 43
34 38 43
39 43 49
36 40 45
41 45 52
39 44 49
38 43 49
36 40 45
40 44 50
35 39 44
32 36 41
38 43 49
33 36 41
33 37 42
35 39 44
31 35 39
37 41 46
35 39 44
35 39 44
30 33 37
29 32 36
30 33 38
27 29 33
35 39 44
36 40 45
33 36 41
34 38 44
32 35 40
34 37 42
33 37 42
34 38 44
32 36 40
33 37 42
32 36 41
32 35 40
31 34 39
40 45 50
33 37 42
37 41 46
30 34 38
33 37 42
34 38 43
32 35 40
32 35 40
32 36 41
36 40 45
34 37 42
35 39 44
35 39 44
32 36 41
37 41 47
36 40 45
37 41 47
39 44 50
38 42 48
39 43 49
36 40 45
39 44 50
35 39 45
38 43 49
43 48 54
45 50 57
43 47 54
41 46 53
40 44 51
41 46 52
40 45 51
40 45 51
44 49 56
47 53 60
42 47 54
41 46 53
48 54 62
47 53 62
45 51 59
41 47 53
45 51 59
49 56 64
47 52 60
46 52 60
44 49 56
45 51 58
47 52 60
48 55 63
48 55 63
51 58 67
51 58 66
49 56 64
53 60 69
48 54 62
51 57 66
53 60 69
51 58 67
51 57 66
49 55 64
52 58 67
51 58 67
52 58 67
53 59 68
52 59 68
53 60 69
49 56 64
54 61 71
54 61 70
53 60 69
53 60 69
47 53 62
51 58 67
54 62 71
54 61 70
54 61 70
56 64 74
51 58 66
54 61 71
55 62 72
55 62 72
54 61 70
53 60 70
53 61 70
53 61 71
54 62 72
55 62 71
57 65 75
57 64 74
55 62 72
56 64 74
57 65 75
55 62 72
57 64 74
55 63 72
57 65 75
55 63 73
55 62 72
57 64 74
58 66 76
55 62 72
57 65 75
54 61 71
56 64 74
55 63 73
57 65 75
56 64 74
57 65 75
58 65 75
59 67 78
58 66 76
57 65 76
59 67 77
57 65 75
57 65 75
59 67 77
57 65 76
59 67 78
57 64 75
58 66 77
59 66 77
59 67 77
58 66 76
58 67 77
59 66 77
58 66 77
58 66 77
61 69 80
59 66 77
58 66 76
57 65 75
58 66 76
58 67 77
59 67 78
58 66 76
59 67 77
58 66 77
57 65 76
60 68 79
60 68 79
58 66 76
60 68 78
58 67 77
59 67 77
60 67 78
60 68 78
59 67 78
58 66 77
60 68 79
60 68 79
59 67 78
60 67 78
61 68 79
57 65 75
59 67 78
59 67 78
60 68 79
58 67 77
60 68 78
61 69 80
60 67 77
60 68 78
60 68 78
59 67 78
61 69 79
59 67 78
60 68 79
60 68 78
59 67 78
60 68 79
60 68 79
59 67 78
60 68 79
59 67 78
60 68 79
60 69 79
60 68 79
60 68 78
58 66 77
60 68 79
59 67 78
60 68 79
60 68 79
59 67 78
61 68 79
60 69 79
60 68 79
59 67 78
60 68 79
58 66 76
60 68 78
61 69 80
60 68 79
60 68 79
60 68 79
60 68 78
61 69 80
60 68 79
60 69 80
60 68 79
60 68 79
61 69 80
60 68 79
60 68 79
60 68 78
60 68 79
61 69 80
60 69 79
60 69 79
60 68 79
60 69 79
60 68 79
59 67 78
60 68 79
60 68 78
59 67 78
60 68 78
60 68 79
60 68 79
59 67 78
59 67 77
60 68 79
60 69 79
60 69 79
60 68 79
59 68 79
59 67 77
58 66 77
60 68 79
58 66 77
59 67 77
58 66 76
59 68 78
59 67 78
61 68 79
60 68 79
59 67 77
60 68 78
60 68 78
59 67 77
59 67 78
58 66 76
58 66 76
60 68 78
60 68 78
58 66 77
59 66 77
59 67 78
59 67 78
59 67 78
60 68 78
58 66 76
60 68 79
58 65 76
59 66 77
58 66 77
59 68 79
58 66 76
58 66 77
57 65 75
58 66 76
57 65 75
57 65 75
59 67 78
57 65 75
57 66 76
58 66 76
55 63 73
57 64 75
59 67 77
58 66 77
57 65 75
58 65 76
57 64 74
57 65 75
57 65 75
56 64 74
56 64 74
58 66 76
57 64 74
57 65 75
59 66 76
58 66 77
56 64 74
57 65 75
58 65 75
55 62 72
55 63 73
56 63 73
56 63 73
56 63 74
56 63 72
53 60 70
54 62 72
55 63 73
55 62 72
53 60 70
56 63 73
55 63 72
55 63 73
56 63 73
56 63 74
53 61 70
54 61 70
54 61 71
55 62 72
54 61 70
53 60 69
55 63 73
52 59 69
55 62 72
55 62 72
51 58 67
58 66 76
53 60 69
53 61 70
52 59 68
55 62 72
53 59 69
56 63 73
53 60 69
50 57 66
50 57 66
49 56 65
52 58 67
48 54 63
52 59 68
50 56 64
54 62 71
50 56 65
51 58 67
47 54 62
46 51 59
49 55 63
51 58 67
47 53 61
47 53 61
48 54 62
49 55 64
49 56 64
46 52 60
48 54 62
49 55 63
46 52 60
46 52 59
46 52 59
45 50 58
47 52 60
49 55 63
46 51 59
42 48 55
42 47 54
43 48 55
40 45 51
43 47 54
44 50 57
40 45 51
42 47 53
45 51 58
40 45 51
35 40 45
42 47 53
41 46 52
41 46 52
37 41 46
40 45 51
39 44 50
40 44 50
38 42 48
38 43 49
38 43 49
41 46 52
38 42 48
36 41 46
34 38 44
38 42 48
36 39 45
38 43 48
34 38 43
32 36 41
38 42 48
35 39 45
36 40 46
31 34 39
28 32 36
35 39 44
34 38 43
36 39 44
35 38 43
39 43 49
33 36 41
33 36 41
31 34 39
31 35 40
32 35 40
35 39 45
35 39 44
35 39 44
36 40 46
29 32 36
34 38 43
37 41 47
36 40 45
35 39 44
33 36 41
33 37 42
35 39 44
31 34 39
38 42 47
40 44 50
39 43 49
34 38 43
33 37 42
38 42 47
39 43 49
36 40 45
42 47 53
34 38 42
34 37 42
38 43 49
38 42 48
44 49 55
35 40 45
40 44 51
39 43 49
44 49 56
43 48 54
43 48 55
38 43 48
40 46 52
41 46 52
41 46 52
40 44 51
45 51 58
45 50 58
43 48 55
45 50 58
46 52 60
45 51 59
46 52 60
44 50 57
46 52 59
47 53 60
46 52 61
51 57 65
48 54 62
49 56 64
47 52 60
45 51 59
49 56 65
47 53 61
49 55 64
48 55 63
45 51 59
49 55 64
51 58 67
50 56 65
50 57 65
52 58 67
47 54 62
50 57 66
50 56 65
48 55 63
52 59 68
51 58 67
52 59 69
54 62 71
54 62 71
50 57 66
53 60 69
53 60 69
52 59 69
53 60 69
54 61 71
52 59 68
54 61 71
54 62 71
54 61 70
52 59 68
54 61 71
54 61 71
54 61 71
53 61 70
53 60 70
54 62 71
55 62 72
55 62 71
57 64 74
56 63 73
57 65 75
54 62 71
55 62 72
55 62 72
53 60 70
58 65 75
55 62 72
56 64 74
56 64 74
55 63 73
55 62 72
55 63 73
57 65 76
54 61 71
59 67 77
55 63 74
58 66 76
56 64 74
58 66 77
57 65 75
58 66 76
57 64 74
58 65 76
57 64 74
57 65 75
56 64 74
60 68 79
58 66 76
57 64 74
57 65 76
55 62 71
57 65 76
58 66 76
59 67 78
57 65 76
58 66 76
58 66 76
59 66 77
59 67 78
60 68 78
57 65 75
58 67 78
59 67 77
57 65 75
59 67 78
59 67 77
60 68 78
56 64 75
58 66 76
60 68 79
59 68 79
58 66 77
58 67 78
59 67 78
60 68 78
58 66 77
59 67 77
59 68 78
60 68 78
61 69 80
59 67 77
59 67 77
58 67 77
57 66 76
59 67 78
59 67 77
60 69 79
59 68 78
60 68 79
60 69 79
58 67 78
58 66 76
58 66 76
59 68 78
60 69 79
60 69 80
60 69 79
61 69 80
59 67 78
61 69 80
60 69 80
61 69 80
60 68 78
58 66 76
59 68 78
59 67 78
59 67 78
61 69 80
59 67 78
60 68 79
60 69 80
59 67 77
59 67 78
60 68 78
60 69 79
60 68 79
59 67 78
60 69 80
59 68 78
61 69 80
61 69 80
60 68 78
60 68 79
60 69 79
61 69 80
60 69 80
60 68 78
60 68 79
60 68 79
60 68 79
61 69 80
61 69 80
60 68 78
60 68 78
60 68 79
60 68 78
60 68 79
60 68 79
60 69 79
58 66 76
60 68 79
59 67 77
60 68 78
60 68 79
58 66 77
60 68 79
60 68 78
60 68 79
59 68 78
58 66 77
59 68 79
60 68 79
59 67 77
60 69 79
59 67 78
60 68 79
59 67 78
58 66 77
60 68 79
59 67 77
61 68 78
59 67 78
59 68 78
59 67 78
59 67 77
60 68 78
59 67 78
59 67 77
58 66 76
59 67 77
58 66 76
60 68 78
56 64 74
60 68 78
60 68 79
59 67 78
58 66 76
59 68 78
60 68 79
59 67 78
58 66 76
57 65 75
59 67 78
59 67 77
58 66 77
57 65 75
60 68 78
59 68 78
59 67 77
58 66 76
59 67 78
57 65 75
58 66 77
56 64 74
58 66 76
59 67 77
58 66 76
59 67 78
59 67 77
56 64 74
57 65 76
58 66 77
58 66 77
56 63 72
56 63 73
57 65 76
57 65 75
56 64 74
57 65 76
59 67 78
57 65 75
56 64 74
57 65 75
58 66 76
55 63 73
57 64 74
57 64 74
52 59 69
56 64 74
52 60 69
56 64 74
55 63 73
55 62 71
56 64 74
55 63 74
58 65 75
55 63 72
57 65 75
52 59 68
55 63 73
57 65 75
55 63 73
52 59 69
55 63 73
53 61 70
52 59 68
54 61 71
54 61 70
54 61 71
52 59 68
53 61 70
53 61 70
52 60 69
54 61 71
52 58 67
54 61 71
53 61 71
51 58 67
51 58 67
52 59 68
51 58 67
50 56 65
53 60 69
53 60 70
53 60 69
51 58 67
49 55 64
48 55 63
50 56 64
52 59 68
48 55 63
52 59 68
49 55 63
50 56 65
48 55 63
51 57 66
49 56 64
50 56 65
50 56 65
50 57 65
44 50 58
49 56 64
45 51 59
47 53 61
47 53 61
41 47 54
47 53 60
48 55 63
46 52 59
39 44 51
41 46 53
43 48 55
43 49 56
40 45 52
44 49 56
45 50 58
44 49 56
43 48 55
42 47 53
40 45 51
34 38 44
41 46 52
35 39 44
39 43 49
41 46 53
40 44 50
41 46 52
39 44 50
37 42 48
36 41 46
37 42 48
40 45 51
37 42 47
36 40 45
43 48 55
39 43 49
36 40 46
37 42 47
42 47 53
36 40 46
34 38 44
38 42 47
29 32 36
36 40 45
40 44 50
39 44 50
31 34 39
36 40 45
35 39 44
33 37 41
38 41 47
37 41 47
31 35 40
32 35 40
36 40 45
34 38 43
34 38 43
36 40 45
35 39 44
32 35 40
35 40 45
34 38 43
34 38 43
33 37 42
34 38 43
33 37 42
36 41 46
38 42 48
39 43 49
37 40 46
34 37 42
40 45 51
36 41 46
36 40 46
37 41 47
39 44 50
38 43 49
36 41 46
39 43 49
41 45 51
42 47 54
43 48 55
40 45 51
35 40 45
43 48 55
41 45 52
41 47 54
41 46 52
42 47 54
43 48 54
42 47 53
45 50 57
40 45 52
45 50 57
43 48 56
44 50 57
48 54 62
44 49 57
38 43 49
44 49 57
48 54 62
49 54 62
44 49 56
49 55 63
45 52 59
48 55 63
46 51 59
46 52 59
48 53 61
46 52 60
47 53 61
47 52 60
48 54 62
51 57 66
49 55 63
51 57 66
47 53 61
50 57 66
49 55 63
52 59 68
50 57 66
53 60 69
50 57 65
51 58 67
52 59 68
52 58 67
52 59 68
48 54 62
51 58 67
51 57 66
51 58 66
52 59 69
55 63 73
53 60 70
49 56 65
54 62 72
54 61 71
53 60 69
53 60 69
52 59 68
55 63 73
54 61 71
53 60 69
54 62 71
57 64 74
53 61 70
53 60 69
52 59 69
57 65 74
54 61 71
55 62 71
56 64 74
55 62 72
55 63 74
56 63 72
56 64 74
57 65 75
58 66 77
57 65 76
57 64 75
56 64 74
53 60 70
58 65 75
57 64 74
55 63 73
57 64 74
55 62 72
55 63 73
57 65 75
56 64 74
58 66 76
58 65 75
57 64 74
57 65 75
57 65 75
56 64 74
59 67 77
56 64 74
57 65 75
54 61 71
58 65 75
57 64 74
58 66 76
59 67 78
58 66 76
57 65 75
55 63 73
58 66 76
59 67 77
59 67 78
59 67 77
57 65 75
57 65 76
57 66 76
58 66 76
58 66 77
57 65 75
58 66 76
57 65 75
60 68 79
58 66 76
59 67 77
59 67 77
59 67 78
60 68 78
57 65 76
58 67 77
59 67 78
60 68 79
60 68 79
59 67 78
60 68 79
59 67 78
59 67 77
59 67 78
58 66 76
60 68 79
61 69 79
59 67 78
59 67 77
61 69 79
60 68 79
60 69 80
60 68 79
59 67 77
59 67 77
60 68 78
59 67 78
60 68 78
59 67 78
61 69 79
60 68 79
59 67 77
60 68 78
59 67 78
60 68 78
60 69 79
60 68 79
60 69 80
61 68 79
59 68 78
60 69 79
61 69 80
61 69 80
61 69 80
60 68 78
60 68 79
59 67 78
61 69 80
60 68 78
61 69 80
60 68 79
61 69 79
60 68 79
60 69 79
60 69 79
60 68 79
60 68 78
60 69 79
60 68 78
60 68 78
59 67 78
58 66 77
58 67 77
61 69 80
60 68 79
60 68 78
58 66 76
59 67 78
58 66 76
60 68 79
60 68 78
60 68 79
60 68 79
60 68 78
59 67 77
59 67 77
59 67 78
59 68 78
59 68 78
59 67 78
59 67 78
59 68 78
60 68 78
59 67 78
59 67 77
60 68 79
60 68 79
58 66 76
58 66 77
59 67 78
60 68 78
60 68 78
61 68 79
60 69 80
59 67 78
58 66 77
59 67 77
59 67 77
58 66 77
57 65 75
59 67 78
59 68 78
59 67 77
59 67 77
59 67 78
59 67 78
59 67 77
58 66 77
59 67 77
58 65 75
60 68 78
59 67 78
59 67 78
58 66 76
58 66 76
60 67 78
58 65 75
59 67 77
58 66 77
58 66 76
57 65 75
58 66 77
58 66 77
58 66 76
57 65 75
57 65 75
57 65 75
58 66 77
56 64 75
57 65 76
58 65 76
57 65 75
57 65 75
57 65 76
59 67 77
58 65 75
54 61 71
57 65 75
57 64 74
57 65 75
57 65 75
58 66 76
56 63 73
58 66 76
56 64 74
55 62 72
56 63 73
56 64 74
55 63 73
54 61 71
57 65 76
57 65 75
54 62 71
57 64 74
59 67 77
54 61 71
56 63 73
57 65 74
55 62 72
56 63 74
55 62 72
57 65 75
53 61 70
55 63 72
53 61 70
52 59 69
54 61 70
53 61 71
53 60 70
55 62 72
52 59 68
55 62 72
52 59 68
54 61 70
51 59 68
52 59 69
53 60 69
53 60 69
54 62 71
52 58 67
51 57 66
50 57 66
51 58 66
53 59 68
50 57 66
53 59 68
51 57 66
46 53 61
48 54 62
51 57 66
50 57 65
50 56 65
50 57 65
50 56 65
49 56 65
47 53 60
47 53 61
48 54 62
47 53 61
47 53 61
47 53 61
46 52 61
47 53 61
46 52 60
47 53 60
46 52 60
49 55 63
46 52 59
45 50 58
48 53 61
46 52 59
41 46 53
44 49 57
40 45 52
42 48 55
45 51 58
44 49 56
41 46 53
44 50 57
40 45 51
40 45 52
44 49 56
40 45 52
43 48 55
37 41 47
43 48 55
39 43 49
43 48 54
39 43 49
38 42 48
37 42 47
38 42 48
43 47 54
33 37 41
39 44 49
38 42 48
37 42 48
37 41 46
37 42 47
39 43 49
38 42 48
39 43 49
37 42 47
37 42 47
37 42 47
39 43 49
35 39 45
36 40 46
38 43 48
35 39 44
36 40 45
40 44 50
31 35 39
39 44 50
31 35 40
41 46 52
36 40 45
31 35 40
35 38 43
41 46 52
35 39 45
40 45 51
33 37 42
42 47 53
38 42 47
33 36 41
38 42 48
34 38 44
37 41 46
35 39 45
40 44 50
37 42 47
38 42 48
37 41 46
41 46 53
39 43 49
38 42 48
43 48 54
44 50 57
37 41 46
32 36 41
39 44 51
38 42 48
39 43 49
44 49 56
43 48 55
39 44 51
42 47 53
42 47 54
41 46 53
42 48 54
43 48 55
44 49 57
45 50 57
43 48 55
44 50 57
42 47 55
43 48 55
42 47 54
44 50 58
45 51 59
48 53 61
48 55 63
48 54 62
44 49 56
47 53 60
46 52 60
46 53 61
44 50 58
46 52 60
49 55 64
49 56 64
48 54 63
50 57 66
52 59 68
47 53 62
48 54 62
49 55 64
52 59 67
51 58 66
52 58 67
49 56 64
52 58 67
53 60 69
51 58 67
52 60 69
55 62 71
52 59 68
52 59 69
53 60 70
53 60 68
51 58 67
54 61 70
54 61 71
52 59 68
53 60 69
54 61 70
52 60 69
53 60 70
55 62 71
56 63 74
52 60 69
55 62 72
52 59 68
53 60 70
55 63 73
56 64 74
55 63 73
54 62 71
57 64 74
55 62 72
55 62 72
55 62 72
55 62 72
55 62 72
57 65 75
57 64 74
54 62 72
55 62 72
57 65 75
56 64 74
55 62 72
57 65 75
57 64 74
56 64 74
57 65 75
58 66 76
57 65 74
56 64 74
56 63 74
58 65 76
58 66 77
57 65 75
58 66 76
58 65 76
58 66 76
58 65 75
57 65 76
56 64 75
60 68 78
57 65 75
56 64 74
59 67 78
58 65 76
57 65 76
57 65 75
59 67 77
55 63 73
58 66 77
58 66 76
59 67 77
58 66 77
59 67 77
59 67 78
59 67 78
58 66 76
59 67 78
60 68 78
56 64 74
58 66 77
57 65 76
59 67 78
60 68 78
59 67 78
59 67 77
59 68 79
57 65 76
59 67 77
58 66 76
58 67 77
58 66 77
59 67 78
59 67 78
60 68 79
59 66 76
60 68 78
59 67 78
60 68 78
59 68 79
59 67 78
60 68 79
60 68 79
60 68 78
58 67 77
61 69 80
59 67 77
60 68 78
58 66 77
59 67 78
60 69 80
60 68 79
59 67 78
59 67 77
60 67 77
60 68 79
60 68 79
60 69 80
60 68 78
60 68 79
60 68 78
59 67 77
60 68 79
61 69 79
58 66 76
60 68 79
60 68 79
60 69 79
60 68 79
60 68 79
60 68 78
61 69 79
60 68 79
60 68 78
60 68 79
58 66 77
59 67 78
60 68 79
59 67 78
61 70 80
60 68 78
59 68 78
60 68 79
59 68 79
60 68 79
59 67 78
60 68 79
59 67 78
59 67 78
59 67 78
60 68 79
60 68 79
60 68 79
59 67 78
61 69 80
58 66 76
60 68 78
59 67 77
59 67 78
59 66 77
60 68 78
60 68 79
59 67 78
60 68 79
59 67 78
61 69 80
60 67 78
59 67 78
58 67 77
59 68 78
58 66 77
58 66 76
60 69 79
58 67 78
58 66 76
59 67 77
61 69 80
59 67 78
59 68 78
59 67 77
56 64 75
56 64 75
59 68 79
58 66 76
59 67 77
58 66 77
58 66 76
59 67 77
59 67 78
57 65 75
57 65 75
59 67 77
60 68 78
58 67 77
59 67 77
58 66 77
58 65 76
58 66 76
59 67 77
57 65 76
58 66 76
58 66 76
57 65 75
57 65 74
58 66 77
56 64 74
57 64 75
56 64 73
57 65 75
58 66 76
57 65 75
57 65 75
56 63 73
58 66 76
57 65 75
56 64 74
59 67 78
57 64 74
57 65 75
57 65 75
55 63 72
56 64 74
56 64 74
56 64 74
55 63 72
54 62 71
56 63 73
56 64 74
55 63 72
55 62 71
58 66 76
56 64 74
57 65 75
56 63 73
55 63 73
54 61 70
56 63 73
55 63 72
57 64 75
53 60 70
56 63 73
57 65 75
53 60 70
56 64 73
57 64 74
52 59 68
53 60 69
53 61 70
56 64 74
51 58 67
53 60 70
53 60 69
53 60 69
52 59 69
52 59 67
52 59 68
53 61 70
52 59 68
53 61 70
53 60 68
53 60 70
52 59 67
53 60 70
52 59 68
50 56 65
50 57 66
48 55 63
51 58 67
49 56 64
49 55 63
51 57 66
47 53 61
52 59 68
46 52 59
48 54 63
47 53 61
51 57 65
46 51 59
49 56 64
48 54 62
47 54 62
49 55 63
47 53 61
44 50 58
49 55 63
48 54 63
46 52 59
50 56 65
44 49 56
45 51 59
41 46 53
49 55 63
43 48 56
45 51 58
42 47 54
44 49 57
39 44 51
45 50 57
44 49 56
42 47 54
44 49 56
39 44 51
42 47 54
43 48 54
42 47 54
40 45 52
39 44 50
39 43 49
39 44 50
38 43 48
40 45 52
42 46 52
34 37 42
39 43 49
40 45 50
41 46 52
39 43 49
38 42 48
39 43 49
39 44 50
38 42 47
37 42 48
36 41 46
37 41 46
40 45 51
34 38 44
38 42 48
33 37 42
39 43 49
31 35 39
35 39 44
40 44 50
34 38 43
43 47 54
36 40 45
39 43 49
39 44 50
35 39 44
36 40 46
32 36 41
35 39 44
41 45 51
41 46 52
34 37 43
38 42 48
34 38 43
36 39 45
40 45 51
35 39 45
36 40 46
36 40 46
45 50 57
37 41 47
42 47 53
38 43 49
38 42 49
41 46 53
36 40 46
43 48 55
40 45 51
37 41 47
44 49 56
40 45 52
42 47 53
44 49 56
44 49 56
43 48 55
40 45 51
43 48 55
42 47 54
44 49 56
44 50 57
42 48 55
46 51 59
44 50 57
47 52 60
43 49 56
46 52 60
45 51 58
46 52 60
50 56 65
47 52 60
43 48 56
49 55 63
46 52 60
46 53 61
50 56 64
47 53 61
48 54 62
48 54 62
47 53 61
45 51 58
48 54 61
47 54 62
47 53 61
49 55 63
49 56 65
52 58 67
50 56 65
50 57 65
50 56 65
48 54 63
50 56 65
49 55 64
52 59 68
53 60 69
53 61 70
54 61 71
54 62 71
54 61 70
53 60 70
54 61 71
52 59 68
53 60 70
51 58 67
54 61 71
54 61 71
56 64 74
55 63 72
53 60 70
54 61 71
50 57 66
52 60 69
55 62 72
55 63 72
57 65 76
54 61 70
52 59 69
52 59 68
53 61 71
57 64 75
54 62 71
53 61 70
55 63 73
54 61 71
54 61 71
58 66 76
56 63 73
54 61 71
57 65 75
57 65 75
53 61 71
57 64 74
57 65 76
56 63 73
58 66 76
56 63 73
57 65 76
59 67 78
56 64 74
54 61 71
56 64 74
58 66 76
57 65 75
59 67 77
57 65 75
55 63 73
56 64 74
57 65 75
55 63 74
57 64 74
59 67 77
57 65 75
57 64 74
58 66 76
57 65 75
58 66 76
59 67 77
58 66 76
59 67 78
60 68 79
59 67 77
58 67 77
58 66 77
57 65 75
58 66 76
56 64 74
59 67 77
57 65 75
59 67 78
58 66 76
59 67 77
57 64 74
58 67 78
60 69 79
58 66 77
60 68 78
59 68 78
59 67 78
59 67 77
59 67 77
60 68 78
58 66 76
58 66 77
58 67 77
60 68 78
59 67 78
60 68 78
58 66 76
60 68 78
59 68 79
60 68 79
60 68 79
60 67 78
59 67 78
60 68 79
59 68 78
59 67 78
59 67 77
60 68 79
61 69 79
60 68 78
60 68 79
59 68 79
60 69 80
59 68 79
60 69 80
60 69 79
61 69 80
60 68 78
60 68 79
59 68 78
59 67 77
58 66 76
60 68 79
60 68 78
59 67 78
61 69 80
61 69 80
60 69 80
60 69 79
59 67 78
61 69 80
60 69 79
60 68 79
60 68 78
61 69 79
60 68 79
61 69 80
59 67 78
60 68 79
59 68 79
60 68 79
60 69 80
61 69 79
60 69 80
60 68 79
59 67 77
60 68 79
59 67 78
59 67 78
60 68 79
59 67 78
60 68 79
60 68 79
61 69 80
59 67 77
59 67 78
59 68 78
60 68 78
59 67 78
59 67 77
59 67 78
61 69 79
58 66 77
58 66 77
60 68 79
58 66 77
59 67 77
58 66 76
57 65 76
58 66 76
60 68 78
58 66 77
58 66 76
60 68 79
59 68 79
61 69 80
57 65 75
58 65 75
58 67 78
59 67 77
58 66 76
59 67 78
60 68 78
59 67 78
59 67 77
57 65 76
57 65 75
58 66 76
58 66 77
59 67 77
57 65 75
59 67 77
58 66 76
59 66 77
58 66 77
58 66 76
59 67 77
58 66 76
58 66 76
58 66 76
56 64 73
58 66 76
56 63 73
57 65 75
57 65 76
57 64 74
58 66 76
59 67 77
54 61 70
57 64 74
57 65 75
58 66 77
58 66 76
55 62 72
57 65 75
58 65 76
58 66 76
56 63 74
57 65 75
56 63 74
57 64 74
56 63 73
57 65 75
57 65 75
55 63 73
56 64 73
58 65 75
53 61 70
56 64 74
55 63 73
55 62 72
56 63 73
56 64 74
56 64 74
56 63 73
57 65 75
56 63 73
55 63 72
56 64 73
55 62 72
55 63 72
54 61 70
56 63 73
54 62 71
55 62 72
53 60 69
53 59 69
51 58 67
54 62 72
54 61 71
51 57 66
51 58 67
51 58 67
55 62 72
53 60 70
54 61 70
49 56 64
53 59 69
54 61 71
53 60 69
52 59 68
50 57 66
51 58 67
51 58 67
52 59 68
54 61 70
48 55 63
51 57 65
51 58 67
47 54 62
51 57 66
49 55 63
49 55 64
48 54 61
47 53 61
51 57 66
48 54 62
48 54 62
48 55 63
47 53 61
46 51 59
48 54 62
47 53 61
46 52 59
46 52 60
47 53 61
47 52 60
42 47 54
45 51 59
46 51 59
44 50 57
41 46 53
43 48 56
46 52 59
44 49 56
39 43 50
41 46 52
46 52 59
44 49 56
43 49 56
43 49 56
41 46 52
40 46 52
44 49 56
45 50 57
37 41 47
38 43 49
38 42 48
41 46 53
37 42 47
35 39 44
39 44 50
42 46 52
39 44 50
38 43 49
40 44 51
43 48 54
37 41 47
38 43 49
39 43 49
37 41 46
37 42 47
37 41 47
36 40 45
34 37 42
43 48 55
35 39 44
38 43 49
37 41 47
35 39 44
35 39 44
39 44 49
37 41 47
35 39 44
40 44 51
41 46 52
37 41 47
36 41 46
33 37 42
37 41 47
36 40 46
38 42 47
37 42 47
40 45 51
41 46 52
36 41 46
40 45 51
40 45 51
40 45 51
41 45 51
41 46 53
42 46 53
39 44 50
37 42 47
35 39 44
39 44 50
41 46 52
43 48 55
41 46 53
44 48 55
43 48 54
41 46 53
41 46 53
40 45 51
43 48 55
45 51 58
48 54 62
43 48 55
44 49 57
42 47 54
45 50 57
44 50 57
41 46 53
48 54 62
46 52 60
43 49 56
44 50 57
48 53 61
44 49 56
43 49 56
44 50 57
47 53 61
47 53 60
46 52 60
47 53 61
47 53 61
50 56 65
49 55 64
42 47 54
51 58 66
48 54 62
51 57 66
49 55 64
50 56 64
48 54 62
48 54 63
53 60 69
51 57 66
51 58 67
51 57 66
50 56 65
51 57 66
49 55 64
54 61 70
53 60 69
55 63 72
49 56 64
52 59 68
52 59 69
52 59 68
52 59 68
50 57 66
55 62 71
55 63 72
53 60 70
54 61 70
54 62 71
57 64 74
52 59 68
53 61 70
55 63 73
54 61 71
54 61 70
53 60 69
52 60 69
54 62 71
55 62 72
56 63 73
54 61 71
58 65 75
54 62 72
55 63 73
56 64 74
56 63 73
54 62 71
58 65 76
57 65 75
56 63 73
55 62 72
55 62 71
56 63 73
55 63 72
56 63 73
54 62 71
57 64 74
56 64 74
57 65 75
56 63 74
55 63 73
56 64 74
58 66 76
56 63 73
58 66 76
57 64 74
58 66 76
59 67 77
58 65 75
59 67 77
56 64 74
56 64 74
58 66 77
57 65 76
56 64 74
59 67 77
58 66 76
57 64 74
58 66 76
57 65 76
58 66 77
56 64 74
59 67 77
56 64 75
59 67 77
59 67 77
58 66 76
59 67 77
59 67 77
58 66 76
59 67 78
57 65 75
58 66 77
59 67 78
60 68 78
59 68 78
60 68 79
59 67 77
58 66 77
60 68 79
60 68 78
58 66 77
59 68 79
59 67 78
59 67 78
59 68 78
59 67 77
60 68 79
59 66 77
59 67 78
60 68 78
58 66 76
60 68 78
59 68 78
60 68 79
60 68 79
60 68 79
58 66 77
59 67 78
61 69 80
60 68 79
61 69 80
59 68 78
58 67 77
60 68 78
58 66 77
60 68 79
60 67 78
59 67 78
59 67 78
60 68 79
61 69 80
59 67 77
59 67 78
60 68 78
59 68 79
61 69 80
59 68 78
59 68 79
59 67 77
60 68 79
60 68 79
59 68 78
61 69 79
60 69 79
59 67 78
60 68 78
59 67 78
60 69 80
61 70 80
60 68 79
59 68 78
59 67 78
60 68 78
59 67 77
59 67 78
60 68 79
59 68 78
59 67 78
60 68 79
59 67 78
59 66 77
60 69 79
59 67 78
59 67 78
58 66 76
60 68 79
58 66 76
61 69 80
59 67 79
60 68 78
58 66 76
59 67 78
60 68 78
58 66 77
60 68 79
60 68 79
59 67 78
59 68 79
59 67 77
59 68 79
59 67 78
59 67 78
60 68 78
60 68 79
60 68 78
60 68 78
59 67 78
59 67 77
57 65 76
59 67 77
59 67 78
58 66 76
60 68 78
60 68 78
58 66 76
58 65 76
58 66 76
58 66 77
58 66 76
58 66 77
60 68 78
59 67 77
58 66 76
57 66 76
58 66 77
59 67 77
58 66 76
58 66 76
57 66 76
58 66 76
58 66 76
58 66 77
58 66 76
59 67 77
59 67 78
56 64 74
58 66 77
55 63 74
59 67 77
57 65 75
56 64 74
57 65 75
57 65 75
57 64 75
56 63 73
57 65 75
59 66 77
58 65 76
58 66 77
57 64 75
55 63 72
58 66 76
56 64 74
56 63 73
57 65 75
56 64 74
56 64 74
58 65 75
57 65 75
57 65 76
53 60 69
56 63 73
56 63 73
57 65 75
54 62 72
52 59 68
57 65 75
57 64 74
54 61 70
53 60 69
54 61 71
54 62 72
54 62 71
55 63 72
55 62 71
56 63 73
54 62 71
55 63 73
53 60 69
54 61 70
52 59 68
54 61 70
53 60 69
52 59 68
54 61 71
52 59 68
53 60 69
54 61 70
54 61 70
51 58 67
51 58 67
49 56 64
52 59 68
52 59 68
52 58 67
51 57 66
52 58 67
49 55 63
51 57 66
48 54 62
49 56 64
49 55 64
51 58 67
51 58 67
51 57 65
49 56 64
50 57 65
51 57 66
47 53 61
49 55 63
48 54 63
45 51 59
44 50 57
48 54 62
49 55 63
46 52 59
41 46 54
47 53 61
49 55 63
43 49 56
43 48 56
46 52 60
46 52 59
46 52 59
43 48 54
48 54 62
46 52 59
41 46 53
43 48 55
46 52 59
42 48 54
46 51 58
45 50 58
42 47 53
43 49 56
40 45 52
40 45 51
43 48 54
41 47 54
40 44 51
44 49 57
39 44 50
39 43 49
45 50 57
41 46 53
42 47 54
40 45 51
36 40 46
38 42 48
37 42 48
40 44 50
36 40 46
37 41 46
35 39 44
40 45 51
38 43 49
41 46 52
38 42 47
37 41 47
40 44 50
37 41 47
45 50 56
39 44 49
39 43 49
35 39 45
40 44 50
39 44 50
39 44 49
38 42 48
40 45 51
38 43 49
35 39 44
36 41 47
35 39 44
38 42 47
40 44 50
37 42 47
37 42 48
39 43 49
38 42 48
37 42 47
37 41 47
35 40 45
41 47 53
39 43 49
42 47 54
37 42 49
41 46 53
44 49 55
45 50 57
38 43 49
41 46 53
47 53 60
41 46 53
42 47 53
46 52 59
47 53 60
38 43 49
42 47 53
41 46 52
45 51 58
46 52 60
44 50 57
45 50 57
45 51 58
44 50 57
44 49 57
49 55 63
48 54 61
43 49 56
45 50 58
46 51 59
49 55 63
49 55 63
43 48 56
45 51 58
48 54 62
49 56 64
50 57 66
48 54 61
47 53 61
48 54 63
46 51 59
49 56 65
49 56 64
51 58 66
49 56 65
50 57 66
51 58 67
51 59 68
49 55 64
50 57 65
52 58 66
52 59 69
53 60 70
51 58 66
48 54 62
49 56 64
52 59 68
51 58 67
53 60 70
52 59 68
51 59 68
56 64 74
53 60 69
54 61 71
51 58 66
57 64 74
50 57 67
55 63 73
54 61 71
56 63 73
55 62 72
53 60 70
54 61 71
53 60 69
54 62 72
56 64 74
54 61 71
56 64 74
55 62 72
56 64 73
57 64 74
56 64 74
54 62 71
55 62 72
56 64 74
55 63 73
55 63 73
57 65 75
56 64 74
57 64 74
57 64 75
57 64 74
57 65 75
57 65 74
56 63 73
56 64 74
55 63 73
57 65 76
57 65 75
57 64 74
59 67 77
56 64 74
56 64 74
58 66 77
55 63 73
56 63 73
59 67 77
57 65 75
58 65 76
59 67 78
58 66 77
57 64 74
57 65 75
58 66 76
58 66 76
57 65 76
57 66 76
58 66 76
57 65 75
59 67 77
58 66 77
59 67 78
60 67 78
60 68 79
58 66 76
58 66 76
57 65 75
58 66 76
58 66 77
59 67 77
59 67 77
56 64 74
58 66 76
60 68 78
59 67 78
58 66 77
60 68 79
59 67 78
60 68 78
59 67 78
59 67 78
60 68 79
58 66 77
58 66 77
58 66 76
58 66 76
58 66 77
59 68 79
58 67 77
60 68 78
60 68 78
60 67 78
59 67 78
60 68 79
59 67 78
59 68 79
58 66 77
60 68 78
61 69 80
58 67 77
60 69 79
59 67 77
60 68 79
60 68 79
59 67 78
60 68 79
59 67 78
59 67 78
59 67 78
60 68 78
59 67 78
60 68 78
59 67 78
59 67 78
59 67 77
60 68 78
60 68 79
60 68 79
60 68 78
60 68 79
59 68 78
59 67 77
60 68 78
60 68 79
60 68 79
60 68 78
61 69 80
60 68 78
60 69 80
61 69 79
60 69 79
60 68 79
59 68 78
58 66 77
61 69 80
59 67 77
60 68 78
58 66 77
59 67 78
61 69 80
60 68 79
59 68 78
58 67 77
58 67 77
61 69 79
60 68 79
60 68 78
59 68 78
59 67 78
60 68 79
57 65 76
60 68 79
59 67 78
59 67 78
60 68 79
58 67 77
59 67 78
59 67 77
58 66 76
59 67 78
58 66 77
57 65 75
58 66 76
59 67 78
57 65 75
57 65 75
60 68 78
59 67 78
59 66 77
60 68 79
57 65 75
58 66 76
58 66 77
59 67 77
58 66 76
57 65 75
59 67 78
58 66 77
59 67 77
59 67 77
59 67 77
58 65 76
57 65 75
58 65 76
59 67 78
56 64 75
58 66 76
58 66 76
58 65 75
58 66 76
57 64 74
59 67 78
56 64 74
57 65 76
57 65 75
59 67 77
57 65 75
56 64 74
55 62 72
54 62 71
57 64 74
56 64 74
58 66 76
56 63 73
58 66 76
58 66 76
56 64 74
56 64 74
57 64 74
56 63 73
56 63 73
55 62 72
55 63 73
56 64 74
57 65 75
55 62 72
56 63 74
53 60 69
57 65 74
53 61 70
56 63 73
58 65 76
56 63 73
52 59 68
54 62 71
56 64 74
54 61 70
54 61 71
51 59 68
53 61 70
57 65 75
52 59 68
51 58 67
52 59 69
54 62 71
52 59 69
55 62 71
52 59 69
52 59 68
51 58 67
52 59 68
50 57 66
55 62 72
54 61 70
53 61 70
53 60 69
53 59 68
50 57 66
54 61 70
50 57 66
52 59 69
51 58 67
52 59 68
52 59 68
51 58 66
52 58 67
51 58 67
48 54 63
51 57 66
50 57 66
48 55 63
51 58 66
46 51 59
48 53 61
51 57 65
51 58 66
49 55 63
48 54 62
45 50 58
47 53 60
45 51 58
47 53 61
43 48 56
47 53 61
49 55 62
44 50 57
45 51 58
47 52 60
44 49 56
43 48 56
42 48 54
46 52 60
42 47 53
46 52 60
41 46 53
42 47 54
46 51 59
44 49 56
40 45 52
42 47 54
42 47 55
42 47 54
42 47 54
38 42 48
40 44 51
40 45 51
40 45 51
44 50 57
40 44 51
39 43 49
36 41 47
38 43 49
38 43 49
40 45 52
42 47 54
41 46 52
40 45 52
36 41 46
40 45 51
37 42 47
43 48 54
42 47 53
33 36 41
38 42 47
40 44 51
38 42 48
36 40 46
38 43 49
35 39 45
36 41 47
41 46 52
38 42 48
37 41 47
44 49 56
39 43 49
35 39 44
37 42 47
43 48 55
42 47 53
35 40 46
40 45 51
36 40 46
37 42 47
40 44 50
42 47 53
38 43 49
44 49 55
41 46 53
38 42 48
40 45 52
42 47 54
37 41 47
41 45 52
42 47 53
39 43 49
41 47 53
43 49 55
35 40 46
43 48 55
39 43 49
42 48 55
42 47 53
41 46 53
45 51 58
45 51 58
43 49 56
41 46 53
41 46 53
45 50 58
46 51 58
45 51 59
47 53 62
41 47 53
46 51 59
49 56 64
43 49 56
48 54 62
46 51 58
47 53 61
48 54 62
50 57 65
47 53 62
44 50 57
48 55 63
46 52 59
46 51 59
49 56 64
48 54 62
50 57 65
52 58 67
51 57 66
49 56 64
53 60 69
51 58 67
53 59 69
54 61 70
51 58 67
52 59 67
52 60 69
50 57 66
47 54 62
52 59 68
55 62 71
52 58 67
51 57 66
52 59 67
56 63 73
54 61 70
55 62 72
51 58 66
53 60 69
52 59 68
55 62 72
54 61 70
52 59 69
52 59 69
51 58 67
54 62 71
55 62 72
54 61 71
55 62 72
55 62 72
53 60 69
56 64 74
55 62 72
58 66 76
55 62 72
53 60 69
56 64 74
56 64 74
55 62 72
56 64 74
55 62 71
57 64 74
56 63 73
56 63 73
56 64 74
57 65 75
56 63 73
55 62 72
55 62 72
56 63 73
55 63 73
57 64 74
57 65 74
57 64 74
57 65 75
56 64 74
57 65 75
58 66 76
58 66 76
55 62 73
57 65 75
57 65 75
57 65 76
57 64 74
56 64 74
58 66 76
58 66 77
57 65 75
56 64 74
57 65 76
57 65 75
56 64 75
56 64 74
57 64 75
58 66 76
56 63 73
57 65 76
58 66 76
59 67 78
58 66 76
59 67 77
58 66 76
59 67 77
58 66 76
57 64 74
59 67 77
58 66 76
58 67 78
58 66 77
59 67 77
58 66 76
59 67 78
60 68 78
58 66 76
60 68 79
59 67 77
58 66 77
61 69 79
58 66 76
58 66 76
59 67 77
58 66 77
60 68 78
59 68 78
58 66 76
60 68 78
58 66 76
57 65 76
59 67 78
57 65 76
60 69 80
59 67 78
60 68 78
59 68 79
61 69 80
60 68 79
59 67 77
60 68 79
58 66 76
59 68 79
60 68 78
60 68 78
59 67 77
60 68 79
61 69 80
60 68 79
59 67 78
60 68 79
59 68 78
59 67 78
58 65 76
59 67 78
60 69 79
61 69 80
59 67 78
58 67 78
59 67 78
59 67 78
59 67 78
59 66 77
60 68 78
60 68 78
60 68 79
61 69 80
59 67 77
61 69 79
60 68 79
60 68 79
61 69 80
60 69 79
60 68 78
59 67 78
59 67 77
60 69 79
59 67 77
59 67 78
60 68 78
60 68 79
59 66 77
59 67 78
61 69 80
60 68 79
60 68 78
59 67 78
60 68 78
58 66 76
58 66 76
58 66 77
60 68 79
58 66 77
57 66 77
59 67 78
58 66 77
58 66 77
59 67 77
60 68 78
58 66 76
60 68 78
58 66 77
58 66 76
59 67 77
58 66 76
59 67 77
59 67 78
59 67 77
58 66 76
60 68 78
57 66 76
58 67 77
58 66 77
59 67 77
59 67 77
58 66 76
58 67 77
59 68 78
58 66 77
58 65 75
57 65 75
58 66 76
59 67 78
56 64 74
57 65 75
58 66 77
57 65 75
56 63 74
58 66 76
58 66 76
58 66 76
58 66 76
58 66 77
58 65 76
59 66 77
57 65 75
56 64 74
56 64 74
58 66 76
56 64 74
57 64 74
55 63 73
54 62 72
57 64 74
58 66 76
55 63 72
57 65 76
55 62 72
55 63 73
56 63 73
57 64 74
57 64 74
56 63 73
54 62 71
55 63 73
57 64 74
56 64 74
55 63 73
55 63 73
55 63 73
56 63 73
53 60 69
55 63 73
55 62 71
53 60 70
54 61 71
56 63 73
53 60 69
53 60 70
54 61 71
55 63 72
52 59 68
53 61 70
58 66 76
52 59 68
54 61 70
53 60 70
52 59 68
54 61 70
51 59 68
55 63 73
53 61 70
50 56 64
53 60 70
53 60 69
55 62 71
50 57 66
53 60 69
49 56 64
52 59 68
51 58 67
52 59 68
52 59 69
51 58 66
51 58 67
50 57 66
49 55 64
48 54 63
49 56 64
50 57 66
50 57 65
49 56 64
50 56 65
49 56 65
49 55 64
51 58 66
49 56 64
45 51 59
51 58 67
49 55 63
45 52 60
48 54 61
47 53 61
46 52 59
44 50 57
47 53 61
46 52 60
48 54 63
50 56 64
47 53 61
49 55 63
44 49 57
45 51 58
44 49 56
47 53 61
44 49 56
45 50 58
47 53 61
43 49 56
44 49 57
42 47 53
47 53 61
43 48 55
44 49 56
36 40 46
45 51 58
39 44 50
40 45 51
44 49 56
42 47 54
39 44 51
38 42 49
39 44 50
42 48 54
41 46 53
39 44 50
35 40 46
38 43 48
36 40 45
38 42 48
37 42 48
42 47 53
41 45 51
38 43 49
39 43 49
39 43 49
37 41 47
41 46 53
41 46 52
42 47 53
45 50 57
39 44 51
39 44 50
42 47 54
36 40 46
42 46 53
39 43 49
35 40 45
38 42 48
40 44 50
36 40 45
39 43 49
43 48 55
46 52 59
40 45 51
40 44 51
40 44 50
41 46 52
40 45 51
37 41 47
39 44 50
42 47 54
42 47 54
42 47 54
40 45 51
42 47 54
41 46 53
42 47 53
42 47 54
44 50 57
43 48 55
45 51 58
41 46 52
44 50 57
42 47 53
46 51 58
45 50 58
44 49 57
39 44 51
43 49 56
44 49 56
45 51 59
44 50 57
47 53 61
42 48 55
50 56 64
40 45 51
42 47 54
45 51 59
51 57 66
48 55 63
48 54 62
51 57 66
47 53 62
47 53 61
50 56 64
48 54 62
50 56 64
50 56 64
48 53 61
49 56 64
49 56 64
49 56 64
48 55 63
52 59 67
50 57 66
53 60 68
51 58 67
51 58 66
51 57 65
52 58 67
49 56 64
51 58 67
52 59 68
51 58 66
49 56 65
52 59 68
52 58 67
52 60 69
53 60 69
51 58 67
53 60 69
53 60 69
53 60 70
55 62 72
52 60 69
51 58 67
50 57 66
53 60 69
56 64 74
55 62 72
53 60 70
54 61 70
53 60 70
56 63 73
54 62 72
55 62 72
53 60 69
55 63 73
54 61 71
55 62 71
57 64 75
55 62 72
56 64 74
58 66 76
53 60 70
55 62 72
56 63 73
54 61 71
58 65 76
58 66 76
57 64 74
56 64 75
56 64 74
57 64 74
56 63 73
59 67 78
55 63 72
55 62 72
58 66 76
54 62 73
56 63 73
57 65 76
59 67 77
58 66 76
55 63 74
57 65 75
56 64 74
56 64 74
57 65 75
56 63 74
56 64 74
58 66 76
56 64 74
56 64 74
59 67 78
57 65 75
58 66 77
59 67 77
59 67 77
58 66 77
60 67 78
59 67 77
59 67 77
60 67 78
58 66 76
59 67 78
58 66 76
58 65 75
58 67 78
59 67 78
58 66 77
57 64 75
59 66 76
60 69 80
59 67 77
59 67 77
58 67 77
59 67 77
60 68 78
58 66 77
59 67 78
59 67 78
58 66 77
59 67 78
58 66 76
59 67 78
57 65 75
59 67 77
61 69 79
60 68 78
58 66 76
58 66 76
59 67 77
60 68 79
60 68 79
58 66 76
59 67 78
60 68 79
58 66 77
59 67 78
59 67 77
58 67 78
59 67 78
59 68 78
59 67 78
59 67 77
60 68 78
59 67 78
60 68 78
61 69 79
60 68 79
60 68 79
58 66 76
61 69 79
59 68 78
61 69 79
60 68 79
59 67 78
61 69 79
59 68 78
61 69 80
61 69 80
59 67 77
59 67 77
59 68 79
60 68 79
59 68 78
59 67 78
59 67 77
59 67 78
58 66 77
60 68 78
61 69 80
58 67 77
58 66 77
59 67 77
60 68 78
59 67 77
60 68 79
59 67 77
59 67 78
59 67 78
59 68 78
60 68 79
59 67 78
60 68 78
61 69 79
59 67 78
59 67 77
59 67 77
59 68 78
59 67 78
60 68 79
60 67 78
59 67 78
59 67 77
59 68 79
58 66 76
59 67 77
59 67 77
59 67 78
60 68 79
59 67 78
60 68 78
58 65 75
58 66 76
58 67 77
58 66 76
57 65 75
57 65 75
58 66 76
57 65 75
61 69 79
57 65 75
58 66 76
58 66 76
59 67 78
58 66 77
57 64 74
57 65 75
59 66 76
59 67 78
56 64 74
59 67 77
57 65 75
58 65 76
58 66 76
58 66 76
58 66 76
58 66 76
56 64 75
58 65 75
58 66 77
58 66 76
57 65 75
58 67 78
56 64 75
57 65 76
54 62 72
56 64 74
57 65 75
57 64 74
58 66 77
57 65 75
57 65 75
57 64 74
58 66 76
57 65 75
57 65 75
54 62 72
54 62 71
54 62 71
58 65 75
54 61 71
55 63 73
54 62 71
56 64 74
57 65 75
55 62 71
53 60 69
53 60 69
55 62 72
54 62 72
54 62 72
57 64 74
51 58 68
52 60 69
53 60 69
56 64 74
54 61 70
53 60 69
54 61 70
53 59 68
51 58 67
52 59 69
56 63 73
55 62 72
53 61 70
54 61 71
52 59 68
55 62 71
53 60 69
52 59 68
53 59 68
52 59 68
54 61 71
52 59 68
52 59 68
53 59 68
50 57 66
52 59 68
53 60 69
48 54 62
53 60 70
50 57 65
52 59 69
50 57 66
49 55 64
49 55 63
50 56 64
53 60 69
50 57 66
53 60 69
47 53 61
47 53 62
48 54 62
52 58 67
52 59 68
45 51 58
47 53 61
50 56 64
47 53 61
48 54 62
46 52 59
45 50 58
44 49 57
46 52 59
45 51 58
44 49 56
46 52 60
48 54 62
46 52 60
46 52 59
43 48 55
46 52 59
45 50 58
44 50 57
44 50 57
45 51 59
45 50 58
41 45 52
45 50 57
42 47 54
44 49 57
43 48 54
45 50 57
43 48 54
36 40 46
40 45 52
38 43 49
45 50 57
43 48 55
38 43 49
41 46 52
39 44 50
44 49 56
40 45 52
37 41 47
37 42 48
37 42 48
39 43 49
43 48 55
41 46 53
41 45 52
36 40 46
43 48 55
39 44 50
44 49 56
36 41 47
41 45 52
38 42 47
46 51 58
44 49 56
37 41 47
36 40 45
37 41 47
36 40 45
43 48 55
45 51 58
38 42 48
43 49 56
41 46 53
41 46 52
39 44 50
38 42 48
39 44 50
37 42 48
42 47 54
38 43 48
43 48 56
43 48 56
39 44 50
41 46 52
43 48 54
41 45 52
40 45 51
41 46 52
41 46 53
42 47 55
39 44 51
47 52 59
48 54 61
40 45 52
44 49 56
41 46 52
46 52 59
47 53 61
48 54 62
44 50 58
45 50 57
45 51 59
46 52 59
45 51 58
49 55 63
46 52 59
49 55 63
47 52 60
47 53 61
45 51 59
47 53 60
45 51 59
48 53 61
49 55 63
47 53 61
49 56 65
50 56 64
49 55 63
46 52 59
50 57 66
48 54 63
48 54 62
52 58 67
48 54 63
52 59 68
51 57 66
48 55 63
50 58 67
52 58 67
48 54 62
48 54 63
50 57 66
49 56 64
52 59 68
54 62 71
51 57 66
53 60 69
53 60 69
53 60 69
50 57 65
53 60 69
51 58 67
55 63 72
49 56 64
50 57 66
54 61 70
53 60 69
54 61 70
52 59 68
55 62 72
55 63 72
54 61 71
54 61 71
56 63 73
54 61 70
52 59 68
54 61 71
56 64 74
54 61 71
55 62 72
54 61 70
55 63 73
53 61 70
55 62 72
57 64 74
55 62 72
52 59 68
53 60 70
56 63 73
54 62 72
57 65 75
56 64 74
55 63 72
55 62 72
56 63 72
54 62 72
55 63 73
57 64 74
54 62 72
57 65 75
58 66 76
57 65 75
58 65 76
57 64 75
57 64 74
57 65 75
56 64 74
57 65 75
58 66 76
56 64 74
57 64 74
56 64 74
57 65 76
58 66 76
57 64 74
56 64 74
58 66 76
58 66 77
55 63 73
57 64 75
59 67 77
60 68 78
59 67 77
57 65 75
60 68 79
57 65 75
59 67 77
58 65 76
59 67 78
58 67 77
58 66 76
58 66 76
58 66 76
58 66 76
60 68 79
59 67 78
59 67 78
59 66 76
59 67 77
59 66 76
58 66 76
59 67 77
59 67 78
59 67 77
58 66 77
58 66 77
60 68 78
59 67 77
60 68 78
58 66 76
60 68 79
59 68 78
60 67 77
60 68 79
59 67 78
60 68 79
60 68 79
60 68 78
58 67 77
59 67 78
59 67 78
60 68 79
60 68 78
59 67 78
60 68 78
58 67 77
61 69 80
61 69 80
59 67 78
58 66 76
57 66 76
58 66 77
59 67 77
59 67 77
60 69 79
60 69 79
60 69 79
58 66 77
60 68 79
60 69 79
60 68 79
60 68 79
60 68 79
59 67 77
60 68 78
59 67 78
58 66 77
60 68 78
60 68 78
59 68 78
59 67 78
59 67 78
60 68 79
60 68 78
59 68 78
58 66 77
60 68 78
59 67 78
60 68 79
59 67 78
59 67 77
58 66 77
60 68 78
60 68 79
60 68 79
59 67 78
59 67 78
58 66 76
59 67 78
60 68 78
60 68 78
58 66 76
59 68 78
59 67 77
59 68 79
59 67 77
59 67 78
58 66 76
59 67 78
59 67 78
59 67 77
60 68 79
57 66 76
59 68 78
59 67 77
58 66 77
59 67 77
58 66 76
58 65 76
58 66 76
59 67 77
58 66 76
59 66 77
59 67 77
59 67 77
59 67 78
57 65 75
59 67 77
58 66 76
56 64 74
57 65 76
56 64 74
58 66 76
57 65 75
58 66 76
59 67 77
58 66 77
57 65 75
58 67 78
57 65 75
59 67 77
57 65 74
57 65 75
58 66 76
57 64 75
56 64 74
58 65 75
56 64 74
57 65 75
57 65 75
55 63 73
54 62 71
56 63 73
58 66 77
55 63 72
56 63 73
55 62 72
56 64 74
54 61 70
56 63 74
57 65 75
57 64 74
58 66 77
56 63 73
57 65 74
56 64 74
54 61 70
53 60 70
54 61 71
57 65 75
55 62 72
54 61 70
53 60 70
55 62 72
54 61 71
51 58 67
52 59 68
55 62 72
57 64 74
52 59 68
57 64 74
55 63 73
55 63 72
51 58 67
55 62 72
52 59 69
55 63 73
53 60 70
52 58 67
54 62 71
52 59 68
50 57 66
54 61 71
54 61 71
53 60 69
54 61 70
52 59 68
52 59 69
50 57 65
50 57 66
52 59 69
53 60 69
50 56 65
51 58 67
50 57 65
50 56 64
50 57 66
51 58 67
50 56 64
47 54 62
50 56 65
48 54 63
48 55 64
49 55 63
51 58 67
49 55 63
48 55 63
45 51 58
51 58 67
49 55 63
48 54 62
46 52 60
45 50 58
47 53 61
48 54 62
46 52 59
44 50 58
47 53 61
43 48 56
46 51 59
47 53 61
44 50 57
45 50 58
48 54 62
43 48 55
44 50 58
48 54 62
43 49 56
42 47 54
46 52 60
42 47 53
41 46 52
41 46 52
46 51 59
44 50 57
41 46 53
43 48 56
49 55 63
42 47 54
42 47 53
43 49 56
41 46 52
42 47 53
40 44 51
42 47 53
44 49 56
40 44 51
43 48 55
41 46 53
43 48 55
40 45 51
42 47 54
37 42 47
43 48 55
37 41 47
38 42 48
41 46 52
41 46 53
39 43 50
34 37 43
39 44 49
41 45 52
38 43 49
39 44 50
36 40 45
41 46 52
45 50 57
43 48 54
42 47 54
40 44 50
41 46 52
42 47 54
39 44 51
42 47 54
39 44 51
38 43 49
38 43 49
43 48 55
41 46 53
41 47 53
45 50 57
38 43 49
41 47 54
42 47 53
45 50 57
44 50 57
43 48 55
46 51 59
45 50 57
45 51 58
42 48 55
45 51 58
45 50 57
45 50 58
45 50 57
45 50 57
46 52 60
46 52 60
46 53 61
47 53 61
47 53 61
46 51 59
47 53 61
43 49 56
47 53 61
43 49 56
49 55 63
47 53 60
46 52 59
46 52 60
45 50 58
52 58 67
48 54 62
51 57 66
46 52 60
49 54 62
50 57 65
49 55 63
53 60 69
47 53 61
51 58 66
49 55 64
48 54 62
49 56 64
51 57 66
50 57 66
50 57 65
50 56 64
48 55 63
52 59 68
52 59 68
49 56 64
51 58 66
51 58 68
53 61 70
53 60 69
51 57 66
51 58 67
54 61 70
53 60 69
53 60 69
51 58 67
54 61 71
49 56 65
52 59 68
57 64 73
51 58 67
54 62 71
54 60 69
53 61 70
55 62 71
52 59 69
52 59 69
54 61 71
53 60 69
52 59 68
55 62 71
57 64 74
54 62 72
57 65 75
53 60 70
56 63 73
55 62 72
56 64 74
55 63 73
54 61 71
55 62 72
54 61 71
57 65 75
57 65 75
55 62 71
55 63 73
57 64 74
57 65 75
56 64 74
58 66 76
56 63 73
58 66 76
56 63 72
55 63 72
58 66 77
56 64 74
56 63 73
59 67 77
58 66 77
59 67 77
55 62 72
58 66 76
58 66 76
57 64 74
56 63 73
56 64 74
56 64 75
58 65 75
60 68 78
58 66 76
57 64 74
58 65 76
56 64 75
57 65 76
58 66 77
57 65 76
57 65 75
57 65 75
58 66 76
59 67 77
58 67 77
58 66 77
57 65 75
57 64 75
56 63 73
58 66 76
58 66 77
58 66 76
57 65 75
60 68 79
58 65 75
58 67 77
59 67 77
59 67 77
59 67 78
59 67 77
60 68 78
59 66 76
59 68 78
60 68 79
58 66 77
60 68 78
59 67 77
60 68 79
59 67 78
60 68 79
61 69 80
58 66 76
59 67 78
59 67 77
60 68 79
60 68 78
59 67 78
59 67 77
60 68 79
58 66 76
60 68 79
58 65 75
59 67 77
61 69 80
59 67 78
60 68 79
60 68 78
60 69 80
60 68 79
61 69 80
60 68 79
58 66 76
59 67 78
60 69 80
61 69 79
59 67 77
59 67 77
61 69 79
60 68 79
60 68 78
60 68 78
59 67 78
60 68 78
60 68 79
60 68 79
59 67 78
61 69 80
60 68 79
60 67 78
59 67 77
58 66 76
58 66 76
59 68 79
60 68 79
61 69 80
60 68 79
59 67 78
60 68 79
59 67 77
60 68 78
59 67 77
60 68 78
59 67 77
58 66 77
61 69 79
59 67 78
58 66 77
60 68 79
58 66 77
60 68 79
58 66 77
58 66 77
58 66 77
59 67 77
60 68 78
60 68 78
60 68 78
59 67 78
59 67 77
60 68 78
60 68 78
58 66 77
58 66 77
59 67 78
58 66 76
59 67 78
60 68 79
57 64 74
58 65 76
58 66 77
60 68 78
58 66 76
58 66 76
57 65 76
58 65 75
59 67 78
57 65 75
57 65 75
55 62 72
59 67 77
58 65 75
57 66 76
57 64 74
58 65 76
56 63 74
59 67 77
57 65 76
58 65 75
57 65 75
56 64 74
57 65 75
59 67 77
57 65 75
58 66 76
57 65 75
57 64 75
58 65 75
55 63 72
57 65 75
56 64 74
55 63 72
56 64 74
55 62 72
57 64 74
56 64 74
57 65 76
55 63 73
57 64 74
55 63 72
56 63 73
54 61 71
57 65 75
56 64 74
54 62 71
56 63 73
56 64 74
56 64 73
53 61 70
52 59 68
55 63 72
57 64 74
54 61 71
53 61 70
55 62 72
52 59 68
53 61 70
54 61 71
53 60 69
54 62 71
53 60 69
53 60 70
54 62 72
55 63 73
53 61 70
54 61 70
55 62 71
54 62 71
54 61 70
53 60 69
51 58 67
50 57 66
50 57 66
51 58 67
52 59 68
54 61 71
50 57 65
52 58 67
48 55 63
49 56 64
53 60 70
52 58 67
49 56 64
49 55 64
55 62 71
53 60 69
51 58 66
48 55 63
52 59 68
51 58 66
48 54 63
50 57 65
48 54 62
47 53 61
49 55 64
50 57 65
49 55 63
49 55 64
50 56 65
48 55 63
50 56 65
49 55 63
43 49 56
50 56 65
45 51 58
46 52 59
43 49 56
48 54 62
45 50 57
43 49 56
46 52 60
47 53 61
47 53 60
44 49 56
44 50 57
42 48 55
44 49 56
41 47 53
43 49 56
46 52 60
45 50 58
46 51 59
42 47 53
44 49 56
44 50 57
41 46 53
47 53 60
43 48 55
43 48 55
46 52 59
44 50 57
45 50 58
42 47 53
42 47 54
37 42 48
43 48 54
45 50 57
42 47 54
44 50 57
41 46 53
40 45 52
46 51 59
43 48 55
38 43 49
39 44 50
39 44 51
42 46 53
42 47 54
42 47 53
43 48 55
42 47 54
37 42 48
42 48 55
44 49 56
42 47 53
41 46 53
38 43 49
39 44 50
42 46 52
46 51 58
37 42 47
40 45 51
41 46 52
43 48 55
40 45 52
38 43 49
39 44 51
46 52 59
44 49 57
44 49 56
41 46 52
45 50 57
43 49 56
45 51 58
41 46 53
43 48 54
44 49 56
41 47 53
44 49 57
43 49 56
45 51 58
43 48 55
44 50 57
47 53 61
46 52 59
45 51 59
45 51 58
45 51 59
46 52 59
46 51 59
42 47 53
47 53 61
46 51 59
47 53 60
46 52 60
45 51 59
48 55 63
50 57 65
46 52 60
50 57 66
49 55 63
47 52 60
48 54 62
49 55 62
48 54 62
49 55 63
49 55 63
48 55 63
48 54 62
48 55 63
47 53 61
49 55 63
50 56 65
53 59 68
50 56 65
52 58 67
48 54 63
50 57 66
52 59 68
53 60 69
52 59 68
52 59 68
51 57 66
47 54 62
50 57 65
52 59 68
53 60 70
53 61 70
50 57 65
51 58 67
52 59 68
53 60 69
54 61 70
53 60 68
54 61 71
52 59 69
51 58 67
53 61 70
56 63 73
54 62 71
54 61 71
55 62 71
56 63 72
54 61 70
57 64 74
52 59 69
55 63 72
56 63 73
55 63 72
56 64 74
56 63 73
56 64 75
55 62 71
55 62 72
56 63 73
55 62 72
56 63 73
55 63 72
57 65 74
58 65 76
57 65 75
56 63 73
56 63 73
57 65 75
56 64 74
56 64 74
53 60 70
54 62 71
56 64 74
57 65 75
56 64 74
56 64 73
55 63 73
58 65 76
57 65 75
56 64 74
57 65 75
57 65 76
56 64 73
56 65 75
57 65 75
57 65 75
57 64 74
55 63 73
58 66 77
56 64 74
59 67 77
58 65 76
58 66 76
57 64 74
59 67 77
58 66 77
58 66 76
56 63 73
57 64 74
58 66 76
60 68 78
59 67 78
58 66 76
57 65 75
58 66 76
59 67 77
57 65 75
59 67 78
59 67 77
58 67 77
58 67 77
56 64 73
59 67 78
56 64 74
58 67 77
59 67 77
58 67 78
60 68 78
59 67 77
58 66 76
59 67 78
60 68 78
60 68 78
58 67 77
59 68 78
59 67 78
60 69 79
59 67 78
57 65 76
59 67 78
60 68 79
60 68 79
59 67 77
60 68 78
60 68 79
59 67 78
59 68 78
59 67 78
60 68 78
59 68 79
60 68 78
61 69 80
59 67 77
60 68 78
58 66 76
59 67 78
59 68 78
60 68 78
59 67 78
60 68 79
59 67 78
60 68 78
60 68 79
60 68 79
59 68 78
60 69 80
57 66 76
60 68 79
59 67 78
60 68 79
60 68 79
61 69 80
59 68 79
60 68 79
60 68 79
60 68 78
59 67 78
59 67 77
59 67 77
59 66 77
61 69 79
61 69 80
59 67 77
60 68 78
60 68 79
60 68 78
58 66 76
59 67 78
59 67 77
60 67 78
59 67 77
60 69 80
57 65 75
58 66 77
58 66 76
59 67 77
58 67 78
61 69 80
58 66 77
59 67 77
60 67 78
59 67 77
57 65 76
60 68 79
60 68 79
59 67 77
59 67 78
57 65 76
58 66 76
57 64 74
59 67 77
60 68 79
57 65 75
58 66 76
59 67 78
57 65 75
59 67 77
58 66 76
58 66 76
58 66 76
59 67 77
60 68 78
58 66 77
58 66 76
58 66 76
58 65 75
58 66 76
57 65 75
59 67 77
56 63 73
57 65 75
55 63 74
58 66 76
58 65 76
58 66 77
58 66 76
57 64 74
58 65 75
58 65 75
55 63 73
56 64 74
56 64 73
54 62 72
58 66 76
55 63 73
54 62 72
56 63 73
56 63 72
55 63 73
56 64 75
57 64 74
55 63 73
55 63 73
56 63 73
54 61 71
54 61 70
54 62 71
56 63 73
55 63 73
56 63 73
56 64 74
55 62 72
55 63 73
56 63 73
56 63 72
54 62 72
56 64 74
55 63 72
55 63 73
56 63 73
54 62 71
53 60 69
55 63 73
54 61 71
54 61 70
55 62 72
53 60 69
53 60 69
52 59 69
53 60 70
54 61 71
53 60 70
54 62 71
50 57 66
53 60 69
54 62 71
53 59 68
49 56 64
52 59 67
51 58 67
52 59 68
55 62 72
54 61 71
50 56 65
53 59 68
52 59 68
51 58 67
52 58 67
50 57 65
50 57 65
51 58 67
48 54 63
49 55 63
54 61 69
48 54 63
49 55 64
50 57 65
50 56 65
49 55 64
48 55 63
48 54 63
52 59 68
44 50 58
47 53 61
51 57 66
49 55 63
50 56 65
46 52 60
50 56 65
48 54 62
46 52 60
46 52 60
47 52 60
43 48 55
46 52 59
48 54 62
49 56 64
44 50 57
45 51 58
43 48 55
46 51 59
45 51 58
45 51 58
46 51 59
44 49 56
46 52 59
44 49 56
45 51 58
43 48 55
44 50 58
41 46 53
41 46 53
46 51 59
39 44 51
42 47 54
43 48 55
38 42 48
40 45 52
46 51 59
43 48 55
41 46 53
43 48 56
44 49 55
41 46 53
41 45 51
43 49 56
45 51 58
43 48 55
41 46 52
47 52 60
39 44 51
41 46 52
42 47 54
42 47 53
41 46 52
40 45 51
41 46 52
41 46 52
40 45 51
37 41 47
41 47 53
46 52 59
42 47 54
39 44 51
41 46 52
39 44 51
38 43 49
44 49 56
36 40 45
45 51 58
45 50 57
38 42 48
46 51 59
43 47 54
43 48 55
42 47 53
43 49 56
42 47 54
44 50 57
45 50 58
42 47 54
42 48 55
47 52 60
41 46 53
44 50 57
45 51 58
44 49 56
41 46 54
45 51 58
44 50 57
46 52 60
49 55 63
42 48 54
45 50 58
47 52 60
43 49 56
48 54 61
46 52 59
48 54 62
46 52 59
43 48 55
48 54 62
50 56 65
46 53 61
48 54 62
48 54 63
50 56 64
48 54 62
49 55 63
50 56 65
48 54 62
48 55 63
51 57 66
49 56 64
51 57 66
51 58 67
53 60 69
51 58 67
52 59 68
53 60 69
50 56 65
53 60 69
49 56 65
50 57 66
52 58 67
49 56 64
53 60 69
51 57 66
52 59 68
52 58 67
52 59 69
54 61 70
56 63 73
52 59 68
53 61 70
55 63 73
53 60 69
54 61 70
54 61 70
53 60 69
51 58 68
52 59 68
55 62 72
54 61 70
56 63 73
55 62 72
55 62 71
53 60 69
53 61 71
55 63 73
55 62 72
56 63 73
56 64 74
55 62 72
55 63 73
55 63 73
56 64 74
58 66 76
56 63 72
55 62 72
57 65 75
55 63 73
55 62 71
55 62 72
56 64 75
55 63 73
56 63 73
57 65 75
56 64 74
58 66 77
57 66 76
55 62 72
54 62 72
58 65 75
55 63 73
56 64 74
58 66 76
57 65 75
57 65 76
57 65 75
57 64 74
58 66 76
58 66 76
58 66 76
57 64 75
59 66 77
57 65 75
55 63 73
57 65 75
58 66 76
57 64 74
58 66 76
59 67 77
56 64 74
58 66 76
59 67 77
56 64 75
58 66 76
58 66 77
59 68 78
58 65 76
58 66 76
59 67 77
59 67 78
59 67 77
58 65 76
58 66 76
60 68 79
58 67 77
59 66 77
59 67 78
57 65 75
59 67 78
59 67 78
59 67 78
58 66 76
59 67 77
58 66 77
58 66 76
58 66 77
58 66 76
58 66 77
59 67 78
59 67 78
58 66 77
59 66 77
58 66 77
59 67 77
60 69 79
59 67 78
58 66 77
57 65 75
59 67 78
59 67 77
60 68 79
59 67 78
59 67 77
61 69 80
59 67 77
58 66 76
60 68 79
60 68 79
58 66 76
60 68 78
60 68 78
57 65 76
60 68 78
59 67 77
60 68 79
61 69 80
60 68 79
60 69 80
61 69 80
59 67 78
59 67 77
60 68 78
59 67 78
59 67 78
59 67 77
60 68 79
59 67 77
60 69 80
59 67 77
61 69 79
60 68 78
59 67 78
59 67 77
60 68 79
60 68 79
60 68 78
60 68 78
59 67 77
57 65 75
59 67 78
59 67 77
59 67 77
60 68 78
59 67 79
59 67 77
59 67 77
59 67 78
59 67 77
59 67 78
59 67 77
59 67 77
59 67 78
59 67 77
60 68 78
59 67 78
58 66 77
58 66 76
58 66 76
59 67 77
58 66 77
59 67 77
59 67 77
58 65 76
58 67 77
58 65 76
57 65 75
59 67 77
58 66 77
59 67 77
59 67 78
57 65 75
59 67 78
59 67 77
57 65 75
58 66 77
58 66 77
58 65 76
60 68 79
59 67 77
57 65 75
58 65 75
57 65 75
57 65 75
58 66 76
59 67 76
59 67 77
56 64 74
57 65 75
57 65 75
57 65 75
58 66 76
53 60 70
57 66 76
57 65 74
56 63 73
57 65 75
55 62 72
57 65 75
55 63 73
54 62 72
57 64 74
55 62 72
56 64 74
55 63 72
55 63 73
56 64 73
56 64 74
57 65 75
54 62 72
55 62 71
54 62 72
57 64 74
55 62 72
55 63 73
57 65 75
55 62 71
54 62 72
56 63 73
53 61 70
55 63 73
54 61 71
54 61 71
52 59 68
52 60 69
54 62 72
55 62 72
54 61 71
51 58 67
55 62 72
54 61 70
55 63 73
54 61 70
54 61 70
54 61 71
55 63 73
54 61 70
51 58 68
50 57 66
53 60 69
55 62 71
52 59 68
52 58 68
51 57 66
52 59 68
52 59 68
55 62 72
54 61 70
50 57 66
52 59 68
52 59 68
51 58 67
52 59 68
51 58 67
48 55 63
48 55 63
52 58 67
48 55 63
46 52 60
47 53 61
48 54 63
48 54 63
51 58 66
50 56 64
44 50 58
46 51 59
51 58 67
49 55 64
48 55 63
47 53 62
48 55 63
47 53 62
50 57 66
47 53 61
50 56 65
48 54 62
48 54 63
50 56 65
47 52 60
44 50 57
50 57 65
47 53 61
45 50 57
43 49 56
48 54 61
46 52 60
46 52 60
42 48 54
44 50 58
42 48 55
48 54 61
47 54 62
43 48 55
49 55 64
44 50 58
44 49 57
40 45 51
44 49 56
42 48 55
43 48 55
45 51 59
42 47 53
45 50 57
44 49 57
44 50 57
43 49 56
41 46 52
40 45 52
43 48 55
42 47 54
44 49 55
43 48 55
42 47 53
44 49 55
40 45 52
43 48 56
43 48 54
45 51 58
44 50 57
42 47 53
42 47 54
43 49 55
46 51 58
45 50 58
42 46 53
44 49 56
41 46 52
41 46 52
46 52 59
42 47 54
38 42 48
41 46 53
39 44 50
42 47 54
40 44 50
43 48 56
42 47 53
46 51 58
46 51 59
43 49 56
43 48 55
40 44 51
44 50 58
46 52 59
47 52 60
43 48 55
44 49 57
43 48 55
42 47 54
44 50 57
46 52 59
46 52 59
44 50 58
42 47 54
45 50 57
47 52 60
43 48 55
47 53 61
46 52 59
44 49 57
44 49 56
47 52 60
47 54 62
46 52 59
47 53 60
49 56 64
47 54 62
45 51 58
49 55 64
43 49 56
48 54 63
49 56 65
45 51 59
48 54 62
46 52 59
47 53 61
49 56 64
52 59 67
52 58 67
52 59 67
47 53 61
46 52 61
50 57 65
47 54 62
50 57 65
50 56 65
51 57 66
51 58 67
49 55 64
50 57 66
52 59 68
48 55 64
49 56 64
50 56 65
52 58 67
50 57 66
53 59 68
53 61 70
50 57 66
57 65 75
52 59 68
51 58 67
53 60 70
53 60 70
54 61 71
52 59 68
52 59 68
53 60 69
53 60 70
56 63 73
53 60 70
53 60 70
54 61 71
54 61 71
53 60 70
55 63 72
55 63 73
52 59 69
52 60 69
56 63 73
54 62 71
57 65 75
53 60 69
55 62 71
55 62 72
54 62 71
55 63 73
55 63 73
55 62 72
56 63 73
56 63 73
55 62 72
53 61 70
56 64 74
53 61 71
54 61 71
55 63 73
57 65 75
57 65 76
55 62 72
55 63 73
56 64 74
55 62 72
59 67 78
57 64 74
57 65 75
57 65 76
58 66 76
55 62 72
58 66 76
57 65 75
58 65 75
58 66 76
56 64 74
58 66 77
58 66 76
57 65 75
58 65 76
59 67 78
58 66 77
58 66 76
58 66 76
56 64 75
58 65 76
57 65 75
57 65 76
58 66 77
59 67 77
59 67 77
58 66 76
56 64 74
59 67 78
59 66 77
58 66 76
57 65 75
59 67 78
59 67 77
58 66 77
58 66 76
59 67 77
58 66 76
59 68 78
58 66 76
59 67 77
58 65 76
61 69 80
58 66 76
59 67 77
58 66 77
59 67 77
59 67 77
61 69 79
59 68 78
58 66 77
58 66 76
59 67 77
58 66 76
60 68 79
58 66 76
60 68 79
59 67 78
58 66 76
60 68 78
58 66 77
59 67 77
61 69 79
59 68 78
60 68 78
59 66 77
59 67 77
58 66 76
60 68 79
59 67 77
59 67 78
59 67 77
59 67 78
60 68 79
60 68 78
59 67 77
60 68 79
60 68 78
59 67 78
59 67 78
58 66 77
59 67 78
60 68 78
58 67 77
60 68 78
58 66 76
59 67 78
58 66 77
60 68 79
60 68 79
59 67 78
59 67 78
58 66 77
59 67 78
60 69 79
59 67 78
58 65 75
57 65 75
58 66 76
58 66 76
59 67 78
60 68 79
59 67 77
59 67 77
58 66 77
58 66 77
59 67 77
59 67 78
58 66 77
60 68 79
59 67 77
58 66 76
57 64 74
59 67 78
60 68 78
59 67 77
58 67 77
58 67 77
59 67 77
59 67 78
58 66 76
58 66 76
59 67 77
58 66 76
58 66 76
58 66 76
58 66 77
59 67 77
59 67 77
58 66 76
57 64 74
59 67 78
59 67 78
58 66 76
59 67 78
57 65 75
56 64 74
57 65 75
58 67 77
58 66 76
56 63 73
57 65 75
59 67 77
59 67 77
58 66 76
56 64 74
57 65 75
58 66 76
58 66 77
57 65 75
57 65 76
56 64 74
55 63 73
56 63 73
58 65 76
58 66 76
55 62 72
57 64 74
56 63 73
59 67 77
56 64 74
58 66 76
57 65 75
54 61 71
56 64 74
57 64 74
56 64 74
55 63 73
56 63 73
56 64 73
56 63 73
58 66 76
55 62 72
56 64 74
56 63 73
53 61 71
54 62 71
56 64 73
56 63 74
56 63 73
53 60 69
54 61 71
56 63 73
54 61 70
55 62 71
54 61 71
54 62 71
55 62 72
54 61 71
53 60 69
55 62 72
54 61 71
55 63 72
54 61 70
52 59 68
51 58 67
51 57 66
52 59 68
54 60 69
51 58 67
50 57 66
54 61 70
52 59 68
52 60 69
52 59 69
54 61 70
51 58 67
48 55 63
51 57 66
51 58 66
47 53 61
52 59 68
52 59 68
49 56 64
53 60 69
51 57 66
47 54 62
48 54 63
51 57 66
52 58 67
48 55 63
49 56 64
49 56 65
50 57 66
45 51 58
46 52 59
48 54 63
48 54 62
49 56 64
46 52 60
46 52 60
50 57 65
45 51 59
49 55 63
50 56 64
46 52 60
49 56 64
43 49 56
46 52 59
46 52 60
48 54 62
50 56 64
46 51 59
44 49 57
45 51 58
42 48 55
43 48 56
45 51 58
47 52 60
44 50 58
43 49 56
50 56 64
42 47 54
43 48 56
41 46 52
45 50 57
42 47 54
43 49 56
43 49 56
45 50 57
43 48 55
48 54 62
45 50 57
42 47 54
41 46 52
43 48 55
44 50 57
42 47 54
46 51 58
43 48 55
43 48 55
43 48 55
40 45 52
42 47 54
42 48 55
41 46 53
40 45 51
40 45 51
44 50 57
45 50 58
42 47 54
44 49 56
39 44 50
44 50 57
45 51 58
41 46 52
45 51 58
42 47 54
47 53 61
43 49 56
42 47 54
46 51 59
43 48 54
44 49 56
42 47 54
46 51 58
43 48 55
50 56 64
46 51 59
44 50 58
44 50 57
44 49 56
48 54 62
47 52 59
42 47 54
46 51 58
48 54 61
43 48 56
48 54 62
43 49 56
43 48 55
48 55 63
46 52 60
44 50 57
46 52 60
48 54 62
47 53 61
42 47 55
47 53 61
47 53 61
45 51 59
46 52 61
48 54 62
48 54 62
45 51 59
49 56 64
44 50 57
45 51 59
46 53 61
49 56 64
49 55 63
51 58 67
47 53 61
45 51 59
47 54 62
47 53 61
48 54 62
52 59 68
49 55 64
48 54 62
48 54 62
52 58 67
51 58 66
49 55 64
50 57 65
52 59 68
52 59 68
50 56 65
53 60 70
51 58 67
53 60 69
51 58 67
50 56 65
52 59 68
53 60 70
53 60 69
53 60 70
52 59 68
52 59 68
51 58 67
54 61 70
52 59 68
52 59 68
55 62 71
53 60 70
51 58 68
51 58 67
52 60 69
55 62 72
55 63 72
52 59 68
52 59 69
52 59 68
54 62 71
55 63 73
57 64 74
52 60 69
54 61 71
54 62 72
56 64 73
55 62 71
56 63 72
57 64 74
55 63 73
56 64 73
55 62 72
56 63 73
56 63 73
57 65 75
55 62 72
57 64 74
55 62 72
56 63 73
55 63 73
56 63 73
55 62 72
58 66 76
56 63 73
56 64 74
56 63 73
54 62 72
56 64 74
58 66 76
57 65 75
55 62 72
58 66 76
56 64 74
57 65 75
54 62 71
57 64 74
58 66 76
58 66 76
56 64 74
56 64 74
56 64 74
58 66 76
57 65 75
56 64 74
58 66 77
57 65 75
58 66 76
58 66 76
58 66 77
59 67 77
56 64 74
59 66 76
59 67 77
58 66 76
59 66 77
58 66 76
58 66 76
57 65 75
58 66 76
60 68 79
57 64 75
58 66 76
58 66 76
59 67 77
59 67 77
57 64 74
57 65 75
59 66 77
59 67 78
59 67 77
58 66 77
58 66 77
59 67 78
58 66 77
59 67 77
59 67 77
59 67 77
60 68 78
60 68 79
59 67 78
59 68 78
59 67 78
58 66 77
61 69 79
59 67 78
60 68 79
59 67 78
58 66 77
59 67 78
60 68 78
60 68 79
61 69 79
60 68 79
60 68 78
60 68 78
59 67 78
58 66 77
61 69 80
59 67 78
59 67 78
60 68 79
60 68 79
60 68 79
60 69 79
60 68 79
60 67 78
59 67 78
60 68 79
59 67 77
60 68 79
59 68 78
59 67 78
59 67 78
59 68 78
60 68 78
60 68 79
60 68 79
59 67 77
60 68 78
58 66 76
60 68 79
60 68 78
59 68 78
58 66 77
59 67 78
58 66 77
59 67 77
60 68 79
60 68 79
58 66 77
57 65 75
60 68 78
59 67 78
60 68 78
60 68 78
60 68 79
58 67 77
58 65 76
58 66 76
58 66 77
59 67 78
58 66 77
59 67 77
58 66 77
59 67 77
60 68 78
57 65 76
58 66 77
57 65 76
57 65 76
60 68 79
58 66 76
58 66 76
60 68 79
58 66 76
57 65 75
57 65 75
58 66 76
60 68 79
58 66 76
59 66 77
58 66 76
58 66 77
57 64 74
57 65 75
58 66 77
60 68 78
58 66 76
59 67 78
57 64 75
58 65 76
57 65 75
57 66 76
56 64 74
56 64 74
58 66 76
54 61 71
55 62 72
56 64 74
58 66 77
58 66 76
57 65 75
57 65 75
56 63 74
55 63 73
57 65 75
56 64 74
56 63 73
57 65 75
58 66 76
55 63 73
56 64 74
55 62 72
56 64 74
54 62 71
54 61 71
55 63 72
56 64 74
56 64 74
54 61 70
57 64 74
57 65 76
55 62 72
54 62 71
53 61 70
55 63 73
53 60 70
56 64 74
53 60 70
55 63 72
53 60 70
54 61 71
55 62 72
52 59 69
54 61 71
51 58 67
49 56 64
53 60 70
53 60 69
51 58 67
54 61 70
54 61 71
53 60 69
52 59 68
52 59 69
52 60 69
54 61 70
52 59 68
50 57 66
49 56 65
52 59 68
53 60 69
51 58 67
50 57 65
50 57 65
51 58 67
48 54 62
49 56 65
50 56 65
53 59 68
53 60 69
54 61 71
49 55 64
50 57 66
51 58 67
51 58 68
48 54 62
48 55 63
50 56 65
50 56 64
46 52 60
51 58 66
48 55 63
50 56 64
50 56 65
45 51 59
47 53 61
47 53 60
50 56 65
50 57 65
42 48 55
49 55 63
48 54 61
45 50 58
47 53 61
51 57 65
49 56 64
42 48 56
44 50 57
46 52 59
45 51 58
47 52 60
48 54 61
47 53 61
48 55 63
45 51 59
48 54 61
47 52 60
46 52 59
45 50 57
45 50 58
43 48 56
45 50 58
47 52 60
46 52 59
47 53 61
43 48 55
39 44 50
45 50 57
43 49 56
44 50 57
43 48 56
43 48 55
44 49 56
46 52 58
43 48 55
44 50 57
41 46 52
43 49 56
42 47 54
44 50 57
45 50 57
39 44 50
43 49 56
44 49 56
44 49 56
43 49 56
41 46 53
46 51 59
42 48 55
43 48 56
48 54 62
44 50 57
44 49 56
44 49 57
39 44 50
43 48 55
44 49 56
44 50 57
43 48 55
45 50 57
44 49 56
46 52 59
47 53 60
38 43 50
42 47 54
45 50 58
44 49 56
42 47 55
43 48 55
44 49 56
45 50 57
48 54 62
44 49 57
49 55 63
44 49 56
47 53 60
43 49 56
46 52 59
49 55 63
45 51 58
47 52 60
52 58 67
46 52 60
47 53 61
46 52 59
49 55 63
47 53 61
47 52 60
49 55 63
46 51 59
49 55 64
49 56 64
47 53 60
49 55 64
52 58 67
48 54 62
46 53 61
46 53 61
52 58 67
49 55 64
51 57 65
52 58 67
49 55 63
51 58 67
50 56 64
50 57 66
51 57 66
47 53 61
50 57 66
51 58 67
50 57 66
50 57 66
55 62 71
53 60 69
51 57 66
51 57 66
54 62 71
51 58 67
53 60 69
53 60 70
52 59 68
50 57 66
52 59 69
57 64 74
52 59 69
52 59 68
57 65 74
52 59 67
55 62 71
52 59 69
51 58 66
53 60 69
54 62 72
55 62 71
55 63 73
57 64 74
54 62 72
53 60 69
53 60 70
53 60 70
53 60 69
53 60 69
55 62 72
54 62 71
54 61 70
57 64 74
54 62 71
54 62 72
57 64 74
55 63 73
56 64 74
54 62 72
52 59 69
56 63 73
56 64 73
55 63 73
56 63 73
56 64 74
54 62 72
55 63 72
56 63 73
56 64 74
56 64 74
56 64 74
57 64 75
58 65 75
57 65 74
56 64 73
56 64 74
56 64 74
58 66 77
58 66 77
57 65 75
57 65 75
56 63 74
59 67 77
56 63 74
59 67 77
57 65 75
56 64 74
58 66 76
57 65 76
57 65 75
56 64 74
59 67 77
56 64 74
57 65 75
60 68 78
58 66 77
59 67 78
58 66 76
58 65 76
59 68 78
58 66 76
59 68 79
58 66 76
57 65 75
58 67 77
58 66 77
57 66 76
59 67 78
59 67 77
58 66 76
57 65 75
59 67 77
57 65 75
58 66 76
60 68 79
59 67 78
59 67 77
59 68 79
60 68 79
58 66 76
59 67 78
59 67 78
60 68 78
59 67 78
60 68 79
59 67 78
61 69 79
59 67 78
60 68 79
59 67 77
57 65 76
58 66 76
60 68 78
61 69 80
59 68 78
59 67 78
60 68 78
60 68 79
60 68 78
60 68 78
59 67 78
58 66 76
59 67 77
58 66 76
60 68 78
59 67 77
60 68 79
59 68 78
60 68 79
60 68 79
57 65 75
60 69 79
60 68 78
59 68 79
57 65 75
59 67 77
59 67 78
60 68 79
59 67 78
60 68 80
58 66 76
60 68 79
61 69 80
59 68 78
57 65 76
59 67 77
60 68 78
58 66 76
60 68 79
59 67 77
61 69 80
58 66 76
59 67 77
60 68 78
60 68 78
57 65 75
59 66 77
57 65 76
60 68 78
58 66 76
59 67 78
59 67 77
59 68 79
60 68 79
60 68 78
59 67 77
59 67 77
60 68 79
58 66 76
58 65 76
57 65 75
60 68 79
57 64 75
58 66 76
58 66 77
59 67 77
58 66 77
59 67 78
58 67 77
58 66 76
58 66 76
58 66 76
57 65 75
58 66 76
60 67 78
58 66 77
58 66 77
57 65 75
59 66 76
57 65 75
57 65 75
58 66 77
56 64 74
60 68 78
58 66 77
59 67 77
58 66 77
57 64 75
57 64 74
58 66 76
57 65 75
56 64 74
58 66 76
56 64 74
56 64 74
57 65 75
56 63 73
56 63 74
58 65 74
56 64 74
55 62 71
58 66 76
56 63 73
55 62 72
55 62 72
57 65 74
56 63 73
55 62 72
55 63 73
56 63 73
55 63 73
57 65 75
56 63 73
55 63 72
57 64 74
54 62 71
57 65 75
53 60 70
54 62 71
56 64 74
52 59 69
54 62 72
53 60 69
53 60 70
52 60 69
52 59 69
54 62 71
55 62 71
55 63 73
53 60 70
54 62 71
56 63 73
55 63 73
55 62 71
51 58 68
53 60 70
56 63 73
52 59 68
56 63 73
56 63 72
54 61 70
52 58 67
52 59 68
52 59 68
53 60 69
53 60 69
52 59 68
54 62 71
50 57 66
53 60 69
52 59 69
51 58 67
51 58 67
50 57 66
50 56 65
49 56 65
54 61 69
48 55 63
49 56 64
51 59 68
49 56 64
54 61 70
50 57 65
49 55 64
52 59 68
48 54 61
48 54 62
48 54 62
50 56 65
47 53 62
47 52 60
50 56 65
48 54 62
46 53 61
48 55 63
50 57 66
52 59 68
43 49 56
47 53 61
46 53 60
47 53 61
49 55 63
45 50 58
45 51 58
45 50 58
47 53 61
48 54 62
51 57 66
42 48 55
45 51 59
44 49 56
46 52 60
42 47 54
49 55 63
41 46 53
47 53 60
43 49 56
47 53 61
46 52 60
42 47 53
46 51 59
42 48 55
47 52 60
45 50 57
45 51 58
42 46 53
40 45 52
44 49 56
46 52 60
45 51 58
42 48 55
46 51 58
40 45 52
48 54 61
45 51 58
44 50 57
45 51 58
42 47 54
43 48 55
41 47 54
40 45 52
49 55 63
47 53 60
47 53 60
42 47 54
44 49 56
43 48 55
44 50 57
47 52 60
45 51 58
44 49 56
45 51 59
48 54 62
47 52 60
48 54 62
41 46 52
45 51 58
44 50 57
49 55 63
47 53 61
48 54 62
40 45 51
44 49 56
42 47 54
44 50 57
44 49 56
41 46 53
44 50 57
44 50 57
42 47 54
51 57 65
45 51 59
48 55 63
44 50 58
41 46 53
44 49 56
45 51 58
46 52 60
46 52 60
43 49 56
47 53 61
51 57 66
45 51 59
46 52 60
48 55 63
49 56 64
48 54 62
50 57 66
49 55 63
47 53 62
52 58 67
49 55 63
45 51 59
51 58 66
47 53 61
50 57 65
52 59 68
47 54 62
51 57 66
49 55 63
48 54 62
53 59 68
49 55 64
50 57 65
51 57 66
50 57 66
55 62 72
52 59 68
53 60 69
52 59 68
49 56 64
53 60 69
50 57 66
49 56 64
49 55 64
53 60 69
52 59 68
54 61 71
49 56 64
54 61 70
53 60 70
52 59 68
52 59 69
50 57 66
53 60 69
53 60 70
52 59 68
54 62 71
52 59 69
56 63 72
54 61 71
55 62 72
53 60 70
53 60 69
55 63 74
55 63 73
53 60 69
54 62 72
54 61 71
54 61 71
54 61 70
54 61 71
54 61 70
54 62 72
55 62 72
54 62 72
56 63 73
57 65 75
55 63 73
56 64 75
58 66 76
56 63 73
56 63 73
57 64 74
55 62 72
57 64 75
55 63 73
54 62 72
56 64 74
58 66 76
56 64 74
54 62 72
56 64 74
57 65 75
56 63 74
57 65 75
55 63 73
56 64 74
57 65 75
58 66 76
58 66 76
58 66 76
58 66 76
58 66 76
58 66 76
59 67 77
57 65 75
55 62 72
57 65 75
58 66 76
57 65 75
59 67 78
58 65 76
58 66 76
58 66 76
59 68 78
60 67 78
57 66 76
57 64 75
58 65 76
58 66 76
59 67 76
59 67 78
58 66 77
58 66 76
59 67 77
57 65 75
58 66 76
60 68 78
58 65 75
58 66 76
59 67 77
59 67 77
59 67 77
59 67 77
59 67 77
58 66 76
61 69 79
60 68 79
58 66 76
59 67 77
58 66 76
59 67 77
59 67 78
59 66 77
60 68 78
59 67 78
60 69 80
58 67 78
59 67 78
57 65 76
59 68 78
60 67 78
58 66 77
59 68 79
59 67 77
59 67 78
58 67 77
59 67 77
60 68 79
58 67 77
60 68 80
59 67 78
62 70 80
60 68 79
60 68 79
58 66 76
61 69 80
58 66 76
59 68 79
58 66 77
59 67 78
59 67 78
61 69 80
59 67 78
58 66 77
58 66 77
59 67 77
59 67 77
60 68 79
59 68 79
59 67 78
58 67 77
60 69 79
58 66 77
59 68 79
60 68 79
60 68 79
59 67 78
60 68 78
59 68 78
57 65 76
59 66 77
60 68 79
61 69 79
59 67 77
59 67 78
59 66 77
58 66 77
59 68 78
58 67 77
58 66 76
58 67 77
59 67 78
55 63 72
57 65 75
60 68 78
58 66 77
57 65 75
59 67 77
58 66 77
57 65 74
58 66 76
58 66 76
57 65 76
57 65 75
57 65 75
58 66 77
57 65 76
59 67 78
58 66 77
60 68 78
57 64 74
58 66 76
57 66 76
57 64 75
59 67 77
55 62 72
59 67 78
59 68 78
57 65 75
56 64 74
58 66 76
55 63 73
56 64 74
58 66 76
58 65 75
56 64 74
59 67 78
57 64 75
57 65 74
58 66 76
57 65 75
58 65 75
57 65 76
56 64 74
56 63 73
56 64 74
57 65 75
58 66 77
58 66 76
56 64 74
55 63 73
58 65 75
56 64 74
57 65 76
57 65 76
56 64 74
56 64 74
55 62 72
55 63 73
57 64 74
57 65 76
55 62 72
54 61 71
56 63 73
54 62 72
54 62 71
56 63 73
53 60 70
55 62 72
56 64 74
55 63 72
52 59 69
55 62 71
55 62 72
55 62 72
53 60 70
54 62 72
55 62 72
53 60 69
54 62 71
54 61 70
53 60 70
53 60 70
50 56 65
53 61 70
52 59 68
53 60 70
53 60 70
54 61 71
53 60 70
51 58 66
52 59 68
57 64 74
53 60 69
51 57 66
52 58 67
49 55 64
55 62 71
54 62 71
51 58 68
53 60 69
53 60 69
52 58 67
52 59 68
54 61 70
51 59 68
56 62 71
50 57 66
52 59 69
49 56 64
51 57 66
48 54 63
50 56 64
48 55 63
53 59 68
49 55 64
50 56 65
50 56 65
48 55 63
51 58 67
46 52 60
46 52 60
50 56 65
46 52 60
46 52 60
46 52 60
43 49 56
52 58 67
48 55 63
47 53 61
48 54 63
50 56 64
49 55 63
43 49 56
45 51 58
43 49 56
50 57 65
47 54 62
43 49 56
46 52 59
48 55 63
46 52 60
44 49 57
49 55 63
47 53 60
43 48 56
41 46 53
47 53 61
43 48 55
46 52 59
45 51 58
44 49 56
48 54 61
40 45 52
38 43 50
43 48 55
46 52 59
42 47 54
42 47 54
47 54 62
48 54 61
44 50 57
46 51 59
43 48 54
43 48 55
44 50 58
46 52 59
45 50 57
43 48 55
44 49 56
43 49 56
40 45 52
42 47 54
45 51 59
46 52 60
45 51 58
43 48 55
44 49 57
44 50 57
45 51 58
43 48 55
43 48 56
43 48 55
42 47 55
47 53 60
43 49 56
45 51 58
46 51 59
44 49 56
42 47 54
48 54 63
46 51 59
44 50 57
47 54 62
49 55 63
53 60 69
47 53 62
44 50 57
43 48 56
44 49 57
50 56 64
47 52 60
47 52 60
46 51 59
44 49 57
47 54 62
47 53 60
44 50 57
49 55 63
48 55 63
46 52 60
47 53 61
47 54 62
48 53 61
51 57 65
45 51 58
49 55 63
44 50 58
42 48 55
46 52 60
53 60 69
50 57 66
48 55 63
51 58 66
53 61 70
51 58 68
49 56 64
50 56 65
49 56 65
52 59 67
52 58 67
48 54 62
49 56 64
50 57 65
52 59 68
50 57 65
50 57 65
51 58 66
50 57 66
50 57 66
54 61 70
55 62 71
52 59 68
54 61 70
52 60 69
54 61 71
56 63 73
51 58 68
54 61 71
53 60 69
53 60 69
54 61 71
53 60 69
53 60 69
53 60 69
55 63 72
53 60 70
52 59 68
52 59 67
53 60 69
55 63 73
56 64 74
52 60 69
57 64 74
56 64 74
56 63 73
56 63 72
54 61 71
55 63 73
54 62 72
56 64 74
57 65 75
54 62 71
53 60 70
55 63 72
56 64 74
57 65 75
54 61 71
58 65 75
55 63 74
55 62 71
54 62 72
55 63 72
57 64 74
57 65 75
57 64 74
56 63 74
55 62 72
58 65 76
58 66 76
57 65 76
56 63 74
59 67 77
57 64 74
57 65 75
56 65 75
57 65 75
56 64 74
52 59 68
57 65 75
58 65 76
57 64 74
56 64 74
57 64 74
54 62 72
55 63 73
57 65 75
57 64 74
58 66 75
57 64 74
57 65 75
57 65 76
56 64 74
57 65 75
57 64 74
57 65 75
59 67 78
58 66 76
58 66 76
56 64 74
57 65 75
60 68 79
59 67 77
59 67 77
56 64 74
58 66 76
57 65 75
58 66 76
57 64 75
58 66 76
59 67 77
60 68 79
57 66 76
59 67 77
58 65 76
57 66 76
58 66 76
59 67 77
58 66 76
58 66 77
58 66 76
59 67 78
59 67 78
59 67 78
58 66 76
58 66 76
58 66 77
59 67 78
60 68 78
59 67 78
59 67 78
59 67 78
60 67 78
58 66 77
60 68 79
58 67 77
59 67 77
59 67 78
60 68 79
59 67 78
60 68 78
60 68 79
60 68 79
60 69 79
60 68 79
59 67 77
59 67 78
58 66 77
60 67 78
59 67 77
60 68 79
61 69 80
61 69 80
59 67 77
59 67 78
58 66 77
59 67 77
59 67 78
58 66 77
58 66 77
59 67 78
59 68 78
60 68 78
60 68 79
60 68 78
59 67 77
60 68 79
57 65 75
57 65 75
59 67 78
58 66 76
60 68 79
58 67 77
59 67 77
57 66 76
61 69 80
57 65 75
58 66 77
58 66 77
59 67 78
60 68 79
58 66 77
59 67 77
58 66 76
60 67 78
58 66 77
58 66 77
59 67 77
59 67 77
58 66 76
59 67 77
58 66 76
58 66 76
57 65 76
59 66 76
59 67 78
57 65 75
60 68 78
58 66 76
55 63 73
58 66 77
55 63 73
57 65 75
59 67 77
56 64 73
57 65 76
57 65 75
59 66 77
56 64 74
57 65 76
57 64 74
58 66 76
55 63 73
56 64 74
57 64 74
55 63 73
57 64 74
56 64 74
55 63 73
58 66 77
57 64 74
58 65 75
58 66 76
56 64 74
58 66 76
57 65 75
56 64 73
55 62 72
57 65 75
55 63 74
56 64 74
55 62 72
54 62 71
56 64 74
58 66 76
56 63 73
56 63 73
53 60 70
57 65 75
57 65 75
55 63 72
57 65 75
54 61 71
57 65 74
56 63 72
56 63 73
55 62 72
54 62 71
54 62 72
54 61 70
52 60 69
54 61 71
54 61 71
53 60 70
54 61 70
53 61 70
56 64 74
55 62 72
52 59 68
54 61 71
56 63 73
53 60 70
53 60 70
53 60 69
52 59 69
52 59 69
55 62 72
52 59 68
52 59 69
52 59 68
51 58 67
51 58 67
51 58 67
49 56 65
55 62 71
55 62 71
50 57 66
51 58 67
54 61 70
55 62 72
48 55 63
53 60 69
52 59 68
52 59 68
52 59 68
54 61 70
51 57 66
49 56 64
53 60 69
50 56 65
48 54 63
51 57 66
51 57 66
51 57 66
49 56 64
50 56 65
50 57 65
52 59 68
49 56 64
50 57 65
51 58 67
51 57 66
48 54 62
51 57 66
53 60 69
48 54 62
48 54 63
49 55 64
47 53 61
46 52 59
44 50 58
47 53 61
47 53 61
43 48 55
48 54 62
47 53 61
41 46 53
48 54 62
46 52 60
44 50 57
49 55 63
46 52 60
43 48 55
43 49 57
45 51 58
46 52 59
46 52 60
47 52 60
48 53 61
47 53 61
44 50 57
46 52 59
48 54 62
42 47 54
43 48 56
45 51 58
47 53 62
47 52 60
48 54 62
47 53 60
46 52 60
42 47 54
45 51 59
42 47 54
43 48 55
46 52 59
37 42 48
44 49 57
46 52 61
47 52 60
47 52 60
43 49 56
44 49 57
46 51 58
44 49 57
48 53 61
43 48 55
47 53 60
45 51 59
43 48 55
44 49 56
45 51 58
43 48 55
43 48 54
45 50 58
44 49 56
39 44 50
43 48 55
50 56 64
43 48 55
48 54 62
46 52 59
47 53 61
45 50 57
47 52 60
45 51 58
48 54 62
47 53 61
48 54 62
46 52 60
47 53 61
45 51 59
46 52 59
50 56 65
48 54 61
53 59 68
48 54 62
48 54 62
45 50 58
47 53 61
46 52 60
48 54 63
50 57 65
48 54 63
46 52 60
46 52 59
49 55 63
51 58 67
51 58 67
52 59 68
52 59 67
50 56 64
48 54 62
48 54 62
52 58 67
51 58 66
50 56 65
49 56 65
48 54 62
49 55 64
51 58 68
51 58 67
49 55 63
53 60 69
49 56 65
47 54 62
52 59 68
52 59 67
54 61 70
51 57 66
54 61 71
53 60 69
53 61 70
55 62 72
52 59 68
51 58 67
51 58 67
51 58 67
53 60 70
54 61 70
54 61 71
51 58 67
54 61 70
52 59 68
51 58 67
51 58 66
53 60 69
55 61 71
51 58 67
54 61 70
54 62 71
54 61 70
56 63 73
54 61 70
56 63 73
50 57 66
55 63 72
56 63 73
56 64 74
56 64 74
53 60 69
54 61 71
53 61 71
55 62 71
56 63 73
56 64 74
54 61 70
54 62 72
55 62 72
56 63 73
57 64 75
56 63 73
55 62 72
53 60 70
56 64 74
54 62 72
56 64 75
55 62 72
54 62 71
55 63 72
55 63 72
55 63 73
56 64 74
55 63 74
57 65 75
56 64 74
55 62 71
56 63 73
58 66 76
58 66 76
58 66 76
57 65 75
57 65 76
58 66 76
58 66 76
56 63 73
58 66 76
56 64 74
55 62 72
57 65 75
58 65 76
59 67 77
57 65 76
57 65 75
58 66 76
58 66 76
59 67 77
57 65 75
56 64 74
58 66 76
58 67 77
60 68 79
58 66 77
58 66 77
57 65 76
57 65 76
58 66 76
58 65 75
59 67 77
57 65 76
59 67 78
58 66 77
60 68 78
57 65 75
59 67 77
59 67 78
58 66 76
60 67 77
57 65 75
58 66 76
57 65 75
60 68 79
59 67 78
59 67 77
59 68 78
59 67 78
58 65 76
59 67 77
59 67 78
58 65 75
59 67 78
58 66 77
57 65 76
59 67 77
58 66 76
59 67 77
59 67 78
60 68 79
59 67 78
60 68 79
60 68 79
59 68 78
59 67 78
61 69 79
60 68 78
60 68 79
60 68 79
60 68 79
60 68 79
60 68 78
60 68 79
60 68 79
60 68 78
59 67 77
59 67 78
59 67 77
60 68 79
60 68 79
59 67 78
59 67 77
59 67 78
59 67 77
56 64 74
60 68 78
59 67 77
58 66 76
59 66 76
59 67 78
59 67 77
57 66 76
59 67 78
58 66 76
60 68 79
59 67 78
60 69 79
58 66 77
60 68 78
59 67 77
60 68 78
58 66 77
58 65 76
59 67 78
57 65 75
58 66 76
57 65 75
58 66 77
59 67 78
59 68 78
58 66 76
59 67 78
59 67 78
59 67 78
58 66 77
59 66 77
58 66 76
57 65 75
58 66 77
57 65 75
58 66 77
59 67 77
57 64 75
57 64 75
56 64 74
58 66 77
58 66 76
57 64 74
59 66 77
59 67 78
57 65 75
59 66 77
59 67 77
57 65 75
57 65 75
59 67 77
58 65 76
56 64 74
58 66 76
58 66 76
57 65 75
57 64 74
56 64 74
57 65 75
54 62 72
57 64 74
57 65 75
56 63 73
57 65 75
58 66 76
58 66 76
58 66 76
56 63 72
57 65 75
58 66 76
57 65 76
54 61 70
55 62 72
55 63 73
54 61 71
56 63 73
55 63 73
56 64 74
55 62 72
56 64 74
55 62 72
54 62 72
57 64 74
54 62 72
52 59 69
56 63 73
54 61 71
53 60 70
54 62 71
52 59 69
53 61 70
56 64 74
55 62 72
55 62 72
58 66 76
53 60 70
52 59 68
55 62 72
52 59 68
51 58 66
51 59 68
55 62 72
51 58 67
55 63 73
51 57 66
53 61 70
52 59 68
54 60 70
52 59 68
50 56 65
54 62 72
51 58 67
50 57 66
54 61 70
53 60 69
55 62 71
54 61 71
53 60 69
54 61 71
54 61 70
54 61 70
49 56 64
51 58 67
53 60 70
53 60 69
48 54 61
47 53 61
51 58 67
48 54 63
52 59 68
48 54 62
53 60 69
52 59 68
52 59 68
51 58 67
52 59 68
49 55 63
49 55 63
50 56 65
48 55 63
46 52 60
45 51 59
47 53 61
49 55 64
50 56 64
46 52 60
48 54 63
45 51 59
50 56 64
48 54 63
45 51 58
49 55 64
46 52 59
47 53 61
46 51 59
47 53 60
47 53 61
46 52 60
47 53 61
43 49 56
42 48 55
45 51 58
48 54 62
46 51 58
44 50 57
42 47 53
44 49 56
45 51 59
47 53 61
39 44 50
47 52 60
43 49 56
45 51 59
47 54 62
48 54 61
42 47 54
48 54 61
40 46 53
43 49 56
47 53 60
44 50 58
46 51 59
43 49 56
47 53 60
42 47 54
43 48 56
50 56 64
48 55 63
43 48 55
44 50 57
44 50 57
46 51 59
42 47 54
43 48 55
48 54 62
48 54 62
45 51 58
46 52 60
41 46 53
47 53 61
44 50 58
43 49 56
42 48 55
47 53 61
42 47 53
47 53 61
44 50 58
43 49 56
48 54 63
47 53 60
49 55 63
48 54 62
47 53 61
46 51 59
46 51 59
43 49 56
46 52 59
44 49 57
46 51 59
47 54 62
46 52 60
51 57 65
44 50 57
48 55 63
49 55 63
44 49 57
49 55 64
46 52 60
48 54 62
48 54 63
45 51 59
48 54 62
49 55 63
47 53 62
47 53 62
45 51 58
49 55 64
52 58 67
51 58 66
49 55 64
50 56 65
49 55 63
52 59 68
46 52 60
48 54 62
51 57 66
50 57 66
50 57 65
49 55 64
50 57 66
49 55 63
48 54 62
50 57 66
49 55 64
52 59 69
50 57 66
50 57 67
56 63 72
52 59 68
51 58 68
52 59 68
51 58 67
52 59 68
54 61 70
48 55 63
55 63 72
52 59 68
52 59 69
54 62 72
54 61 70
53 60 70
53 60 69
53 60 69
54 62 71
53 60 69
55 62 72
54 61 70
54 61 70
54 61 70
55 63 72
55 63 72
54 61 70
54 61 70
55 62 72
52 60 69
53 61 70
54 61 71
56 64 74
56 63 72
56 64 74
55 62 71
57 65 75
52 60 69
57 65 74
56 63 73
53 60 70
53 60 70
56 64 74
54 62 72
57 65 74
56 64 74
55 62 71
57 65 76
57 65 75
56 64 74
56 63 74
56 63 73
56 64 74
58 66 76
56 64 74
56 64 74
55 63 73
56 64 74
56 65 75
57 65 75
58 66 76
57 65 75
57 65 75
57 66 76
57 65 75
57 65 76
56 63 73
57 64 74
60 68 78
57 65 75
57 65 76
57 65 75
57 65 75
57 65 76
57 64 74
56 64 74
58 66 76
56 64 74
58 66 77
57 64 75
57 65 75
59 68 78
58 65 76
59 67 77
57 64 75
57 65 75
58 66 76
59 67 78
59 66 76
57 64 74
56 64 74
56 64 74
58 66 77
59 68 79
56 64 75
58 66 76
58 67 77
59 67 77
59 67 78
57 65 75
58 67 77
60 68 79
60 68 78
60 68 79
58 67 77
59 68 78
59 67 78
59 66 77
59 67 77
59 67 77
57 65 76
60 68 79
58 67 78
58 66 76
58 66 77
58 66 77
59 67 78
59 67 78
59 67 78
59 67 78
60 68 79
61 68 79
60 68 78
59 67 78
59 67 77
59 67 77
60 68 78
60 69 79
58 66 77
60 68 78
59 68 78
60 68 78
59 68 78
60 68 78
60 68 78
60 68 78
59 68 79
58 66 76
57 65 75
61 69 80
59 67 78
59 67 77
59 66 76
58 66 77
59 67 77
60 68 78
58 66 77
58 66 76
59 67 78
59 68 79
58 66 76
59 67 77
60 68 78
59 67 77
57 65 75
59 66 76
60 68 79
59 67 77
60 68 78
58 66 77
59 67 78
60 69 79
59 67 78
59 67 77
58 66 77
58 66 76
58 66 76
59 67 77
58 66 76
59 67 77
57 65 75
59 67 77
57 65 75
56 64 74
59 67 78
58 66 76
56 64 75
58 66 76
58 66 76
60 67 78
61 68 78
58 66 77
59 68 78
59 67 77
57 65 76
58 66 76
57 65 76
58 66 76
58 66 76
55 63 73
57 65 75
56 64 74
57 65 76
57 65 75
58 66 77
58 66 76
57 65 75
56 65 75
57 64 74
57 65 75
59 67 78
57 65 75
58 66 76
58 65 76
56 64 74
57 65 76
56 64 74
55 62 72
55 63 73
56 64 74
56 64 74
56 63 73
55 62 71
55 63 72
56 64 73
57 65 75
55 63 73
55 62 72
58 65 75
55 62 71
57 64 74
55 62 72
57 64 75
55 63 73
57 65 75
54 62 72
55 63 73
54 62 72
55 62 72
54 61 71
55 63 73
55 62 72
56 64 74
53 60 70
54 61 70
54 62 72
53 60 69
53 61 70
54 61 70
53 60 70
52 59 68
51 58 68
57 65 76
55 62 72
53 60 69
55 62 72
55 62 72
54 62 71
54 61 70
51 58 67
54 61 71
55 62 72
55 62 72
50 57 66
54 61 71
51 58 67
56 63 73
49 56 65
52 59 68
48 54 62
51 58 67
53 60 69
50 57 65
54 61 70
51 58 67
49 56 64
51 58 66
50 57 66
50 57 66
51 57 66
50 57 66
49 55 63
47 54 62
51 58 67
49 55 64
50 57 66
51 58 67
49 56 64
49 56 64
50 57 65
50 57 66
51 58 66
48 54 63
49 56 64
48 54 62
50 56 65
49 55 64
46 53 61
45 51 58
50 56 65
48 54 62
48 54 61
46 51 59
49 55 64
48 54 62
47 53 60
46 52 60
50 56 64
49 56 64
49 55 63
46 52 59
47 52 60
43 49 56
43 49 57
43 49 56
45 51 58
48 54 62
46 52 60
45 51 58
42 47 54
45 50 58
47 53 61
46 52 60
43 49 56
45 51 59
46 51 59
45 50 58
44 50 57
49 55 64
50 56 65
49 55 63
47 52 60
43 48 55
45 51 59
45 50 57
44 49 57
45 50 57
45 50 58
48 54 62
43 48 55
40 45 52
43 48 55
42 48 54
44 50 57
48 54 61
45 50 58
44 49 57
46 51 59
43 49 56
44 50 57
49 55 63
41 46 53
45 51 58
43 49 56
48 54 62
44 49 56
43 49 56
47 53 61
43 48 55
48 55 63
49 55 63
42 47 54
44 50 57
46 52 60
46 52 60
45 51 59
45 50 58
48 54 63
44 49 57
47 52 60
45 50 58
48 54 62
48 54 62
46 52 60
45 51 59
46 52 60
49 55 64
49 55 63
47 53 61
52 59 69
46 52 59
49 56 64
48 54 62
50 57 65
46 52 60
47 53 61
51 57 66
49 56 64
52 58 67
50 57 65
50 57 65
48 55 63
49 56 64
48 54 63
53 60 69
50 56 65
49 56 64
50 56 64
50 56 65
47 54 62
51 58 67
50 56 65
51 58 68
50 57 66
47 53 62
51 57 66
53 60 70
48 55 63
52 58 67
53 60 69
49 55 64
49 56 65
58 65 74
51 57 66
56 63 73
53 59 68
52 59 68
52 59 68
52 59 68
54 62 71
52 59 69
54 61 71
53 60 69
53 61 70
53 60 70
53 60 69
52 59 68
55 62 70
56 63 73
54 61 71
53 60 69
54 61 71
55 62 72
56 64 73
52 59 68
51 58 66
57 64 74
54 62 71
53 61 71
57 65 75
53 60 70
55 63 73
56 63 73
51 58 67
54 61 70
56 63 73
55 62 72
55 63 73
56 64 74
53 61 71
56 63 74
55 63 73
57 64 74
55 62 72
54 62 71
56 64 74
57 65 75
54 62 71
56 64 74
55 63 73
57 65 75
55 62 72
56 64 74
55 63 73
57 65 75
58 65 76
54 62 72
56 64 74
53 60 70
56 63 73
56 64 74
55 63 73
57 65 75
55 63 72
57 66 76
56 64 74
54 62 71
55 63 73
58 65 75
57 65 75
59 67 78
59 67 77
57 65 76
56 64 74
58 66 76
55 63 73
58 66 76
59 66 77
58 66 76
59 67 78
58 66 76
57 65 76
59 68 78
58 66 77
58 66 76
57 65 75
60 68 79
59 67 77
57 65 75
57 65 75
59 66 77
56 64 74
59 67 77
59 67 77
59 68 78
56 64 74
59 66 77
60 68 79
59 67 77
57 65 76
59 67 78
60 68 79
59 67 78
60 68 79
59 67 77
59 67 78
59 67 77
59 67 77
60 68 78
58 66 77
60 68 78
58 66 77
60 68 79
57 65 76
58 66 76
59 68 78
59 67 78
58 66 76
59 67 77
59 67 78
59 67 78
59 68 78
60 68 78
60 68 79
58 66 76
59 68 78
59 67 78
59 67 78
59 66 77
60 68 79
58 66 76
60 68 80
59 67 77
59 67 77
59 66 76
59 67 77
60 68 79
61 69 80
59 67 78
59 67 78
60 69 79
59 67 78
60 68 79
60 68 78
60 68 79
60 68 79
59 67 78
60 68 79
59 67 77
59 68 79
59 67 78
58 66 76
59 67 78
58 66 75
59 66 77
59 67 78
60 69 79
60 67 78
60 68 79
57 65 75
60 68 78
59 67 77
57 65 75
58 66 76
59 66 77
57 66 76
59 67 77
58 67 77
59 68 78
57 65 76
59 67 78
58 67 77
58 66 77
58 66 76
58 67 77
58 66 76
58 66 76
58 65 76
57 65 75
57 65 75
58 66 76
58 66 76
58 66 76
58 66 77
59 67 78
57 65 76
57 65 75
57 64 74
58 66 76
57 65 76
55 63 73
56 64 74
58 65 76
59 67 77
58 66 76
58 65 76
57 65 75
58 66 76
55 63 72
58 66 77
57 65 75
58 66 76
57 64 74
57 65 74
55 63 73
57 65 75
57 65 75
56 63 73
56 64 74
55 63 73
55 63 74
55 62 72
58 66 76
57 64 74
54 62 72
58 66 76
57 64 74
55 62 72
56 64 74
56 63 73
55 63 73
56 63 73
55 63 73
58 66 76
57 65 75
57 65 75
55 63 73
53 61 71
56 63 73
55 62 72
55 62 71
54 61 71
54 61 71
53 60 69
55 62 72
54 61 71
55 62 72
54 61 70
55 62 72
53 61 70
54 61 70
55 63 74
52 59 69
54 61 70
52 58 67
50 56 65
52 59 68
52 59 68
56 64 74
53 60 70
51 58 67
53 61 70
51 58 66
51 58 66
52 59 69
52 59 68
51 58 67
55 63 73
51 57 66
52 59 67
47 54 62
52 59 69
51 58 67
51 58 67
50 57 66
50 56 65
53 60 69
51 58 66
49 55 63
50 56 65
49 55 63
48 54 62
50 56 64
49 55 64
50 56 65
46 53 61
50 56 64
53 59 68
46 52 60
51 57 65
48 55 63
49 55 64
49 55 64
51 57 66
48 54 62
48 55 63
50 57 65
49 55 63
50 56 64
48 54 62
46 52 60
51 58 67
49 56 65
42 48 55
46 52 59
51 58 66
50 57 65
49 55 63
44 49 57
45 51 58
47 53 61
47 53 61
45 51 59
45 50 58
48 54 62
45 51 58
49 55 63
45 50 58
43 49 56
45 51 59
44 50 57
48 54 62
49 55 63
49 55 63
47 53 62
46 52 59
48 54 62
45 51 59
46 52 60
47 53 61
50 57 65
48 54 62
45 50 58
43 48 55
44 50 57
46 51 59
48 54 61
46 52 59
47 53 61
44 49 56
50 56 64
49 55 63
44 50 57
45 51 58
44 50 58
44 50 57
49 55 63
44 49 56
47 53 61
44 50 57
44 49 57
43 48 55
47 53 61
48 54 61
44 49 56
44 50 57
47 53 60
50 56 64
43 49 56
48 55 63
44 49 57
46 52 59
45 51 58
45 50 58
48 53 61
47 52 60
47 53 61
44 50 57
43 48 55
49 55 63
51 57 66
47 53 61
50 57 65
49 56 64
47 53 61
47 53 61
48 54 62
45 51 58
47 53 61
49 56 64
47 52 60
48 55 64
47 53 61
48 55 63
47 53 61
46 52 61
48 54 62
51 57 66
49 56 64
49 55 63
47 53 61
48 54 63
48 55 63
48 54 62
50 57 65
51 57 66
46 52 60
50 57 66
54 61 70
53 59 68
49 55 64
53 60 69
52 58 67
50 57 66
53 60 70
50 56 65
49 55 63
51 58 67
46 52 61
53 60 69
50 56 65
52 58 67
52 58 67
51 58 68
50 57 66
52 59 68
53 60 70
51 58 68
54 61 70
52 58 67
54 61 70
51 58 67
53 60 69
49 56 66
54 62 71
53 60 69
55 62 72
55 63 73
55 63 73
49 56 65
53 60 69
53 60 70
55 63 73
57 65 75
55 62 72
53 61 70
54 61 70
55 63 72
55 63 73
53 60 70
56 64 74
55 62 72
56 64 74
55 63 73
55 63 73
54 61 71
53 61 70
55 62 71
54 61 71
54 62 71
53 61 70
53 60 69
55 63 73
57 65 75
56 64 74
54 61 71
53 60 70
57 65 75
53 60 70
55 63 73
57 65 75
56 63 73
56 64 74
55 63 73
58 66 76
55 62 72
56 63 73
57 64 74
56 64 74
56 64 74
54 62 72
56 64 74
57 65 76
57 66 77
59 66 76
57 65 75
57 65 75
58 66 76
56 64 73
56 64 74
58 66 76
57 66 76
58 66 77
57 64 74
58 66 76
57 66 76
57 65 76
58 66 76
58 65 76
58 66 77
56 64 74
57 65 75
57 65 75
57 64 74
57 64 74
58 66 77
58 66 77
59 67 77
58 66 77
59 67 78
59 67 77
58 66 76
58 67 77
58 65 75
58 66 77
59 67 77
57 65 75
58 66 77
59 67 78
59 67 78
60 68 78
59 67 78
58 66 77
58 66 76
60 68 78
58 67 77
58 67 77
59 67 78
59 67 78
61 69 79
60 68 78
60 67 78
59 67 77
59 67 78
60 68 79
58 66 76
60 68 79
59 67 77
58 66 76
59 67 78
60 68 78
58 66 77
60 68 79
61 69 80
58 66 77
59 67 77
61 69 80
59 67 78
60 68 79
59 67 77
59 67 77
60 68 79
59 67 78
58 66 76
59 66 76
58 66 76
58 67 77
59 67 77
60 68 79
59 67 78
59 67 77
59 67 78
60 68 78
59 66 77
59 68 79
59 67 78
60 68 79
59 67 78
60 68 79
59 66 76
59 67 78
57 66 77
58 66 76
58 66 77
60 68 79
61 69 80
59 67 78
59 67 77
58 66 76
58 66 77
58 66 77
57 65 76
59 67 78
58 66 77
59 67 77
57 65 75
57 65 75
58 67 77
58 66 76
59 67 77
59 67 77
57 64 74
56 64 74
57 64 74
59 67 78
56 64 74
58 66 77
58 66 77
57 64 74
58 66 77
57 65 75
57 65 76
60 68 78
59 67 77
58 66 76
58 65 75
57 65 75
57 65 75
57 64 74
58 66 77
58 66 76
59 67 77
59 67 77
57 65 75
57 64 74
57 64 74
56 64 74
59 66 77
56 64 75
57 64 75
56 64 74
55 62 72
57 65 75
57 64 74
57 65 75
56 64 74
55 63 73
56 63 73
57 65 75
57 65 75
57 65 75
55 62 72
54 61 71
57 64 74
55 63 73
57 64 74
55 62 72
55 62 71
53 61 70
54 61 71
54 61 71
55 63 72
54 62 72
56 63 73
55 62 72
58 66 76
56 63 73
57 64 74
53 60 69
56 63 73
55 63 73
57 64 74
51 58 67
53 61 71
54 62 72
56 63 73
54 61 71
56 63 73
56 64 74
52 59 69
53 60 69
52 60 69
52 59 68
49 56 64
51 57 66
56 63 72
52 59 68
54 61 70
54 61 71
54 61 70
52 59 68
56 64 74
51 57 66
53 60 69
53 60 69
52 59 69
55 62 71
49 56 65
50 57 66
51 58 67
52 59 69
52 59 68
51 58 67
54 61 70
50 57 65
51 58 67
53 60 69
52 59 67
52 59 68
52 59 67
46 52 60
50 57 66
52 59 68
49 56 65
49 56 64
53 60 69
49 56 64
53 59 68
48 54 63
52 59 68
51 57 66
50 56 64
48 54 62
50 56 64
49 55 64
51 57 66
50 56 64
47 52 60
50 56 64
46 52 60
47 54 62
46 52 59
50 56 64
48 55 63
50 56 64
46 53 61
51 57 66
49 55 63
48 54 62
45 51 58
49 55 63
47 54 62
44 50 57
49 55 63
47 53 61
47 53 61
46 52 59
45 50 58
51 57 66
46 52 59
45 51 59
46 53 61
45 51 58
40 46 53
50 56 64
46 51 59
46 52 60
44 49 57
46 51 59
47 53 60
45 51 58
52 59 67
47 52 60
48 54 62
41 46 53
48 54 62
45 50 57
45 51 58
46 52 59
46 52 60
47 53 61
46 52 60
45 51 58
40 46 53
46 52 59
46 51 58
46 52 60
46 52 59
46 52 60
44 50 57
50 56 64
44 49 57
50 56 65
50 56 64
46 51 58
49 55 64
48 55 63
48 54 62
46 51 58
47 52 60
47 53 61
44 50 57
50 57 66
45 51 59
46 52 59
45 51 59
45 50 58
48 55 63
48 54 62
48 53 61
47 53 61
50 56 65
49 55 64
49 55 63
48 54 62
48 54 62
48 54 63
46 52 60
47 53 61
49 55 64
45 51 59
46 52 61
48 54 63
47 54 62
50 57 65
49 55 64
45 50 58
50 56 65
45 51 58
48 54 62
50 56 65
47 53 61
49 56 65
52 58 67
52 59 68
51 58 66
52 59 68
49 56 64
50 57 65
48 54 62
49 55 63
52 58 67
53 60 69
51 58 67
51 58 67
52 59 68
49 55 64
53 60 70
51 57 66
52 58 67
52 58 67
51 57 66
56 64 74
53 61 70
52 59 68
53 60 69
54 60 69
53 60 69
56 63 73
53 60 69
54 61 71
52 59 68
53 60 69
51 58 67
53 60 70
51 58 67
55 62 72
53 61 70
53 60 70
53 60 70
54 62 71
55 62 72
53 60 70
55 63 73
56 64 73
53 60 69
54 61 71
56 63 73
55 62 72
56 63 73
56 63 73
56 63 73
54 62 71
52 59 69
55 63 73
54 61 70
57 64 74
54 61 71
56 64 74
54 61 70
56 63 73
55 62 72
55 62 72
57 64 74
56 64 74
55 62 71
57 65 75
55 63 73
56 64 74
56 63 73
53 61 70
55 62 71
57 65 75
57 65 74
57 65 75
54 61 71
56 64 74
55 63 73
58 65 75
56 64 74
57 65 75
57 65 75
55 62 72
57 65 75
57 65 75
53 60 69
58 66 76
58 66 76
58 66 76
58 65 76
57 65 75
58 65 76
59 66 77
57 65 75
57 65 75
56 64 74
59 67 77
58 66 76
57 64 74
58 66 76
58 66 76
59 67 78
59 67 77
57 65 75
57 65 76
57 64 74
57 65 75
57 65 76
58 65 76
59 67 77
57 65 75
58 66 76
57 65 75
60 68 79
58 66 76
59 67 78
57 65 75
59 66 77
58 66 76
58 66 76
59 68 78
59 67 78
59 67 77
58 67 77
58 65 75
59 67 77
57 65 75
59 68 78
59 67 77
60 68 79
58 66 76
58 66 77
58 65 76
59 67 77
58 66 77
59 67 77
59 68 78
58 66 77
60 68 79
59 67 77
58 66 77
59 68 78
59 67 77
58 66 76
59 67 78
59 67 77
59 67 78
60 68 79
60 68 79
60 68 79
61 69 80
60 68 79
58 66 76
58 66 77
58 66 77
58 66 77
58 66 77
59 67 78
60 68 78
58 66 77
58 65 75
59 67 77
59 67 78
59 67 78
59 67 78
58 66 77
58 66 77
59 67 78
57 65 75
59 67 78
59 68 78
60 68 78
60 68 79
59 67 78
58 66 76
58 66 77
59 67 77
59 67 78
58 66 76
57 65 75
59 67 77
59 68 78
58 66 77
59 67 77
60 68 78
58 65 76
59 67 77
59 66 77
58 65 76
58 66 76
58 66 77
59 67 78
57 65 76
59 67 78
58 65 76
59 67 77
59 67 77
57 65 76
57 65 75
58 66 77
57 65 75
59 67 77
58 66 76
59 67 77
59 67 78
56 64 74
58 65 76
58 66 76
57 65 75
56 64 74
58 66 76
58 66 76
58 66 76
58 66 76
56 64 75
57 65 75
58 65 75
56 64 74
57 65 76
57 64 74
57 64 74
59 67 78
54 62 72
58 66 76
56 64 74
57 65 75
54 62 73
57 64 74
56 63 73
57 65 76
56 63 73
56 64 74
55 63 73
57 65 75
56 64 74
53 60 69
55 63 73
56 63 73
54 62 72
56 63 73
54 62 72
54 61 71
55 62 72
55 63 73
54 62 71
56 64 75
55 62 71
55 62 71
53 61 70
54 61 71
56 64 74
56 63 73
55 62 71
55 62 72
53 60 69
53 60 69
55 62 72
57 65 74
55 62 72
53 60 69
56 64 74
52 59 69
53 60 70
55 63 72
50 56 65
50 57 65
54 61 70
51 58 67
52 59 68
50 57 66
54 61 71
55 62 72
49 55 64
54 61 70
52 58 67
54 61 70
48 55 63
52 59 68
54 61 70
56 64 73
53 61 70
49 56 65
52 59 68
52 58 67
54 62 71
52 58 66
50 56 65
48 54 63
50 56 64
52 59 68
53 60 70
47 54 62
49 55 63
48 55 63
51 57 65
49 55 63
51 58 67
54 61 70
49 56 65
50 57 65
50 57 66
49 56 64
51 58 66
48 54 62
51 57 66
52 59 67
45 52 60
51 58 67
47 53 61
49 56 65
49 55 63
53 60 69
46 52 60
47 53 61
49 56 65
48 55 63
47 53 61
46 52 59
49 55 63
51 58 66
51 57 66
49 55 64
48 54 62
46 51 59
49 56 64
49 56 64
47 53 61
48 54 63
47 53 61
45 51 59
48 54 61
44 50 57
48 54 62
47 53 60
48 54 61
47 53 61
47 53 61
48 54 62
48 54 62
49 55 63
47 53 61
49 56 64
49 55 63
44 50 57
46 52 60
45 51 58
47 53 60
47 53 61
47 53 60
46 52 60
48 54 62
47 53 60
43 48 56
46 52 60
43 48 56
44 49 57
45 50 57
42 47 54
45 51 59
42 48 55
48 54 62
47 53 60
48 55 63
46 52 60
49 55 64
47 53 61
47 52 60
48 54 62
48 53 61
46 52 60
45 50 58
46 52 60
45 51 59
46 52 60
51 58 66
44 49 56
46 51 59
51 57 66
48 55 63
48 54 62
50 57 65
46 52 60
49 56 64
47 53 62
50 56 65
53 60 69
51 58 66
48 55 63
51 58 67
49 55 63
44 50 58
48 54 62
49 55 64
48 54 62
48 54 62
47 53 61
51 58 67
50 57 65
53 59 68
46 52 60
53 60 68
47 53 61
51 57 66
50 56 65
50 57 65
51 57 66
50 57 66
46 52 60
50 57 65
52 59 68
52 59 68
53 60 69
50 57 66
51 58 67
50 56 65
55 62 72
50 57 66
55 62 71
53 61 70
49 56 65
53 60 69
52 58 67
52 59 68
52 59 68
53 61 70
51 57 66
51 58 67
55 63 72
50 56 65
53 61 70
53 60 69
52 59 68
53 60 70
54 60 70
51 58 68
53 60 69
53 60 69
55 62 71
55 63 72
55 62 71
53 60 70
52 59 69
54 61 71
53 61 70
55 62 72
56 64 74
56 64 74
54 62 71
55 63 72
53 60 69
54 61 71
55 63 72
53 60 70
52 59 69
53 60 69
56 64 74
55 63 73
57 65 75
57 65 75
52 59 69
54 62 71
56 64 74
55 63 72
57 65 75
55 62 72
54 61 71
55 62 72
53 61 71
55 63 73
57 64 74
56 63 73
55 63 72
54 61 70
57 65 75
56 64 74
56 64 74
56 63 73
57 65 75
56 64 74
57 65 75
57 64 74
55 63 73
56 64 74
57 65 75
56 64 74
60 68 78
59 66 76
57 65 75
59 67 78
59 67 77
58 65 75
57 65 75
57 64 74
59 67 77
57 65 75
56 63 74
56 64 74
58 65 75
58 66 76
57 64 74
55 63 73
58 66 76
57 65 75
57 65 75
57 64 74
58 66 77
58 66 76
59 67 78
57 65 76
59 67 77
56 64 74
59 67 78
57 64 74
60 68 79
56 64 74
58 66 77
59 67 78
60 68 78
59 67 78
59 67 77
56 64 74
58 66 76
58 66 77
60 68 79
59 67 78
59 67 77
60 68 79
59 67 78
59 67 77
60 68 79
59 67 77
59 68 78
57 65 75
57 65 76
59 67 77
59 67 78
58 66 76
59 67 78
59 67 77
59 67 78
59 67 77
59 67 77
59 67 78
58 66 77
58 66 76
60 67 78
59 67 78
58 66 76
60 68 78
59 67 78
60 68 79
60 69 80
60 68 78
57 66 76
61 69 79
57 64 74
59 68 78
59 66 77
60 68 79
60 68 78
59 67 78
59 67 78
58 66 77
60 68 79
60 68 79
59 67 78
58 66 76
58 66 77
58 65 76
59 67 78
58 66 76
58 65 76
59 67 77
58 66 76
60 68 78
58 66 77
60 68 79
60 68 78
58 66 76
57 65 75
59 67 78
57 65 75
58 66 77
60 68 79
60 68 78
58 66 77
58 66 76
58 66 77
59 67 77
59 67 77
58 66 77
59 67 77
59 67 78
57 64 75
58 67 77
56 64 75
59 67 77
59 67 77
60 68 78
57 65 76
59 67 77
59 67 77
59 67 77
56 64 74
56 63 74
57 65 76
57 65 76
56 64 74
59 66 77
59 66 77
56 64 74
58 65 75
58 65 75
57 65 75
56 64 74
58 66 76
56 64 74
56 64 74
57 64 74
57 65 75
55 62 72
56 64 74
57 64 74
57 65 74
54 62 71
56 64 74
56 64 74
55 63 73
56 64 74
56 64 74
54 61 71
57 65 75
57 65 75
55 62 71
55 63 72
56 63 73
57 64 74
55 62 71
56 63 73
55 63 74
57 64 74
56 64 74
53 60 70
55 62 72
55 63 72
53 61 71
54 61 71
54 62 71
54 61 70
53 60 70
54 61 71
55 62 71
56 63 74
58 66 76
54 61 70
53 61 70
51 58 67
57 64 74
54 62 71
51 58 67
53 60 69
53 61 70
53 60 70
51 58 67
54 61 70
53 60 69
56 64 74
52 59 68
53 60 69
55 62 71
54 61 70
53 60 69
53 60 69
53 59 68
53 60 69
50 57 65
53 60 69
48 55 64
49 56 64
54 61 71
52 59 68
52 59 68
49 55 64
50 57 66
53 60 69
51 58 68
53 60 70
49 55 64
49 56 65
47 54 62
51 58 67
52 59 68
51 57 66
52 59 68
49 56 64
51 58 67
51 58 67
49 56 64
51 57 66
52 59 67
50 56 65
50 56 65
50 56 64
48 54 62
49 55 63
49 55 63
49 55 64
50 57 65
46 52 60
49 55 63
50 56 64
46 52 60
50 56 64
47 53 61
48 54 62
50 56 65
49 55 64
49 55 63
47 54 62
47 54 62
49 55 64
50 56 65
44 50 57
49 55 63
50 57 65
48 54 62
47 53 61
46 52 60
50 56 64
51 57 65
49 55 63
44 49 57
45 51 59
49 55 64
51 58 66
44 50 58
48 54 62
46 52 60
48 54 62
47 53 62
47 53 61
46 51 58
49 55 63
44 50 57
44 49 57
44 50 58
42 48 55
46 52 60
45 51 58
49 56 64
49 56 64
46 51 58
44 49 56
52 58 67
46 52 60
44 50 58
49 55 63
45 51 59
48 55 63
50 56 64
48 54 62
46 51 59
44 49 56
49 55 63
50 56 64
48 53 61
44 50 57
50 57 66
43 49 56
44 50 58
49 55 63
49 55 64
47 53 61
49 55 63
46 52 59
51 57 66
49 55 63
45 51 59
49 55 63
47 53 60
49 55 63
46 52 60
46 52 60
49 56 64
47 53 61
45 51 59
47 54 62
46 52 60
48 55 63
45 51 58
47 53 60
51 58 67
50 56 65
49 55 63
50 56 65
46 52 60
48 54 61
51 57 66
47 53 61
52 59 68
51 57 66
49 56 64
50 57 66
52 59 67
52 58 67
51 57 66
52 59 68
52 59 68
50 56 65
52 59 68
50 56 65
52 59 68
51 58 67
48 54 62
52 58 67
51 58 67
47 53 62
53 60 69
51 58 67
53 61 70
52 59 68
56 64 74
55 62 72
51 58 68
51 58 66
53 60 70
55 62 72
49 56 65
52 59 68
51 58 67
55 62 71
56 63 73
53 61 70
55 62 71
52 59 68
51 58 67
52 59 68
51 58 67
54 61 70
52 60 69
54 62 72
51 58 67
55 62 71
55 62 72
56 64 73
55 63 73
51 58 67
56 64 74
54 61 70
54 62 71
54 62 71
55 62 72
55 63 73
55 63 73
54 62 72
56 63 74
53 60 70
57 64 74
53 60 70
56 64 74
54 62 71
57 65 75
56 64 74
55 63 73
55 62 72
54 61 71
56 63 73
54 61 71
55 62 72
55 63 73
55 62 72
55 62 72
56 64 74
56 64 74
57 64 75
56 64 74
54 61 70
55 62 72
58 66 76
55 63 73
57 65 75
58 65 76
58 66 76
58 66 76
54 62 72
57 65 75
58 66 76
59 67 77
58 66 77
57 65 74
57 65 76
57 65 75
56 64 75
56 64 74
57 65 74
57 66 76
57 65 75
58 66 76
57 65 76
58 66 77
58 65 75
58 66 76
57 64 74
56 64 74
57 65 74
58 66 76
57 65 75
60 67 78
58 66 76
59 67 77
58 67 78
58 66 76
57 65 75
59 67 77
56 64 75
56 64 74
57 65 76
58 65 76
58 66 76
57 65 75
59 67 77
58 66 77
57 65 75
58 66 77
57 65 75
60 68 79
58 66 76
59 67 78
58 66 77
59 67 77
59 68 78
59 67 78
58 65 76
59 67 78
57 65 76
59 67 78
58 66 76
57 65 76
59 67 78
58 66 77
59 67 77
60 69 80
59 67 78
60 67 78
60 68 78
60 68 78
59 68 79
60 68 79
59 67 77
59 67 78
60 68 79
58 66 77
59 67 77
59 66 76
56 64 75
60 68 78
56 64 74
57 65 75
59 67 78
58 66 76
60 68 78
59 67 77
59 67 78
60 67 78
58 67 78
60 68 79
59 68 78
61 69 80
58 66 77
60 68 78
60 68 78
59 67 78
58 66 77
59 67 78
58 67 77
59 67 78
58 66 76
58 66 76
59 67 78
59 66 77
58 66 77
58 66 76
57 65 75
57 65 76
58 66 76
57 64 74
58 66 76
58 66 77
57 64 74
59 67 78
59 66 76
59 66 76
57 65 75
59 67 77
60 68 78
58 65 76
57 65 75
58 66 77
58 66 76
59 67 77
58 66 77
59 67 77
56 63 73
56 64 74
58 66 76
56 63 73
58 65 76
59 67 77
56 63 73
57 65 76
55 63 73
58 65 76
55 63 73
57 64 75
57 65 75
53 60 70
57 65 75
55 62 72
56 63 73
54 61 71
58 66 76
57 64 74
56 63 74
55 63 73
57 64 74
57 65 75
56 63 73
58 66 76
57 65 75
56 63 73
58 66 76
56 63 74
55 63 73
55 62 72
56 64 74
56 64 74
56 64 74
56 63 73
53 61 70
56 64 74
55 62 72
55 62 72
55 62 72
55 63 72
53 61 70
56 63 73
55 62 72
54 62 72
56 63 74
55 62 72
54 61 71
55 62 71
55 63 73
54 61 70
51 57 66
55 62 72
54 61 70
53 60 69
51 59 68
55 62 72
52 59 68
54 61 71
52 59 68
52 59 68
52 59 69
53 59 69
56 64 74
54 61 71
54 61 70
51 58 67
52 59 68
51 58 67
52 59 68
50 57 66
51 57 66
53 60 69
52 59 68
50 57 66
53 60 69
52 59 68
52 58 67
53 60 69
50 56 65
52 59 68
52 58 67
54 61 70
52 59 68
51 58 67
51 58 67
52 59 68
51 58 66
52 59 68
50 56 65
49 56 64
50 57 65
50 57 65
51 57 66
52 58 67
47 53 62
50 56 65
49 55 64
52 59 68
50 56 65
48 54 62
46 53 61
51 57 65
50 57 66
49 55 64
47 53 62
49 56 64
51 58 67
51 57 66
47 53 60
50 56 64
46 52 60
50 57 65
48 54 62
47 53 61
47 53 61
47 54 62
48 54 62
47 53 61
49 55 63
44 50 57
49 55 63
49 54 62
51 58 66
46 52 60
46 52 60
47 53 61
48 54 62
54 61 70
49 55 63
48 54 62
50 56 64
47 53 61
43 49 56
47 52 60
48 54 63
49 55 63
49 56 64
50 56 64
43 49 56
50 56 64
50 56 64
49 55 64
47 54 62
49 55 63
45 51 58
48 54 62
47 53 61
49 55 64
43 48 55
50 56 64
47 54 62
49 55 63
47 53 61
49 56 64
45 51 58
49 55 63
47 53 60
47 53 61
49 55 63
49 56 64
46 52 60
46 52 59
45 51 59
49 55 63
47 53 61
48 54 62
48 54 62
48 54 62
45 50 58
45 51 59
48 54 63
49 55 63
51 58 67
48 55 63
51 57 66
50 56 65
51 57 66
49 55 63
49 55 63
47 53 61
49 55 64
47 53 61
46 52 60
50 56 65
46 52 60
51 58 67
49 56 64
49 55 64
47 53 61
47 53 62
44 49 57
48 54 63
51 58 67
47 53 61
50 57 66
46 52 60
50 56 65
51 58 67
49 56 64
50 57 65
53 59 68
53 60 69
50 56 65
49 56 64
52 58 66
50 56 65
50 56 65
52 59 69
51 58 67
53 60 70
53 60 69
50 57 66
49 56 64
51 58 67
52 59 68
50 56 65
52 59 68
53 59 69
51 58 67
51 57 66
53 60 70
53 60 68
55 62 71
52 59 69
55 62 72
53 60 69
51 57 66
56 63 73
53 60 70
57 65 75
54 61 70
54 61 70
52 59 69
55 63 73
53 60 70
52 59 68
54 61 70
53 61 70
56 64 74
54 62 71
54 61 71
53 60 69
53 60 69
58 66 76
55 62 72
55 63 72
55 62 72
57 65 75
56 64 74
55 63 72
56 63 73
53 61 71
54 61 71
55 63 73
56 64 74
54 61 70
53 60 70
57 65 75
56 64 74
55 63 73
55 63 73
56 63 72
54 62 71
53 60 70
56 64 74
56 63 73
57 64 74
55 62 72
58 66 76
57 65 75
56 63 74
58 66 76
58 66 76
56 63 73
56 63 73
57 64 74
56 64 75
56 64 74
58 66 76
56 64 74
57 65 76
55 63 73
56 63 73
57 65 76
54 62 71
59 67 77
56 63 73
56 64 74
59 66 76
54 62 72
57 64 74
59 67 77
56 64 74
57 65 75
59 67 77
58 66 77
58 65 76
57 65 75
57 65 75
57 65 74
59 66 77
58 66 76
56 64 74
58 66 77
58 66 76
58 66 77
60 68 78
58 65 75
56 64 74
60 68 78
58 66 76
58 66 76
58 66 77
57 64 74
56 63 73
58 66 76
59 67 77
59 67 77
60 68 79
59 67 78
59 66 76
59 67 77
59 67 78
59 67 78
59 66 76
58 66 77
59 67 77
57 65 75
60 68 78
59 67 78
59 67 77
59 67 77
60 68 78
60 68 79
59 67 77
59 67 77
60 68 79
59 67 78
58 66 77
60 68 78
59 67 77
59 67 78
59 67 78
59 67 78
60 68 78
59 67 78
61 69 80
59 67 77
60 68 78
60 68 78
59 67 78
59 68 78
60 69 79
59 67 78
60 68 78
59 67 78
59 67 78
57 66 76
59 67 78
59 67 78
58 66 76
58 67 77
58 67 77
56 64 75
60 68 78
59 67 77
57 65 76
59 68 78
58 66 76
60 68 79
59 67 77
58 66 76
59 68 79
58 66 77
57 64 75
58 66 76
58 66 76
58 66 76
58 66 76
59 67 78
59 68 78
58 67 77
57 65 75
60 68 78
57 65 75
58 66 77
60 68 78
58 65 76
56 64 74
60 68 79
57 65 75
59 66 76
59 67 78
58 66 76
56 63 73
58 66 76
57 65 76
59 66 77
59 67 77
57 65 75
58 66 76
57 65 74
59 67 77
58 66 77
57 65 75
58 66 76
57 64 75
57 65 75
58 65 75
57 65 75
56 64 74
56 63 73
55 62 72
56 64 74
56 64 74
57 64 74
58 66 76
54 62 72
57 65 75
57 65 75
53 60 70
56 64 74
56 64 74
56 63 73
54 61 70
56 63 73
56 63 73
56 64 74
56 64 74
58 66 77
55 63 72
56 64 74
54 61 71
55 62 72
55 62 71
53 60 69
55 63 73
56 64 74
57 65 75
56 64 74
55 62 72
55 63 73
56 64 74
52 59 68
57 65 75
56 64 74
55 63 72
52 60 69
54 61 70
55 62 72
53 60 69
56 64 73
54 62 71
51 58 67
56 64 74
53 60 70
53 60 70
54 61 70
53 60 69
53 60 69
51 58 67
52 59 69
52 59 68
53 60 70
52 59 68
51 58 67
53 61 70
54 61 70
54 61 70
52 59 68
52 59 68
52 59 69
55 62 72
51 58 67
49 56 65
51 58 67
52 59 68
53 60 70
54 61 71
52 59 68
56 63 72
52 59 68
52 59 67
52 59 68
50 56 65
50 57 66
51 58 66
52 59 69
49 55 63
49 56 64
48 54 62
53 60 69
52 59 68
53 60 69
46 51 59
51 58 67
51 57 66
48 55 63
49 56 64
49 56 64
47 54 62
50 56 65
52 59 68
49 55 64
52 58 67
49 56 64
49 55 64
50 56 65
48 54 63
45 51 58
49 55 64
53 60 69
52 59 68
45 51 60
45 51 59
47 53 60
49 56 64
48 53 61
43 49 56
51 58 67
52 59 68
47 53 61
45 51 59
46 52 60
49 55 63
47 53 61
51 58 66
47 52 60
47 53 61
47 53 61
48 54 62
45 51 59
45 51 58
51 57 66
45 50 57
47 53 61
49 55 64
45 51 58
45 51 59
46 52 60
49 56 65
48 54 62
49 55 62
47 53 61
47 53 60
48 54 62
48 55 63
51 58 66
50 56 64
48 54 62
47 53 61
48 54 62
43 49 56
48 54 62
47 53 62
45 50 58
50 56 63
46 51 59
47 53 61
47 53 61
47 54 62
45 51 59
44 50 57
45 51 58
45 51 59
47 52 60
46 52 60
47 53 61
48 53 61
48 54 62
46 52 60
48 54 62
49 55 63
47 53 61
50 56 65
48 55 63
49 55 63
47 53 61
49 55 64
51 57 66
45 51 59
49 56 64
50 57 66
46 52 60
45 51 58
50 56 65
48 55 63
51 57 66
49 55 63
48 55 63
53 60 69
50 56 65
51 58 67
48 55 63
51 57 66
52 58 67
52 59 68
49 56 64
48 55 63
49 55 63
47 54 62
45 51 58
52 58 67
48 54 63
50 56 64
52 59 68
53 60 69
52 60 69
50 56 65
55 62 72
51 58 68
51 58 67
53 61 70
51 57 66
54 61 71
51 58 67
53 60 69
53 60 69
52 59 68
52 59 69
51 58 67
52 59 68
52 59 68
51 58 67
54 61 70
52 59 68
53 61 70
53 60 69
55 63 72
54 61 71
54 60 69
51 58 67
54 62 71
53 60 69
53 60 70
55 63 72
54 61 70
55 62 71
55 62 72
55 62 71
56 63 73
55 62 72
54 62 72
57 64 74
53 60 70
56 64 74
55 63 72
54 61 71
58 65 75
56 63 73
56 63 72
57 65 75
56 64 74
54 61 70
55 62 71
56 64 73
56 63 74
55 63 73
54 62 71
56 63 73
58 66 76
54 62 72
55 62 72
56 64 73
57 65 75
57 65 75
55 63 73
59 67 77
56 64 74
55 62 72
56 64 74
54 62 72
58 66 76
58 66 76
57 64 74
57 64 74
57 64 74
57 65 75
58 66 76
57 64 74
56 64 74
59 67 77
58 65 75
54 62 72
57 65 75
57 65 76
58 66 76
57 65 75
57 64 75
58 66 76
57 64 74
59 67 78
57 64 74
58 66 76
59 67 77
58 66 77
56 64 74
58 66 76
58 66 76
57 65 76
58 66 76
59 67 77
58 65 75
58 65 75
56 64 74
56 63 74
59 67 78
58 66 76
57 65 75
57 65 75
57 65 75
57 65 75
58 67 77
57 65 75
58 66 77
59 67 77
59 67 77
59 67 77
57 65 76
60 68 79
58 66 76
58 66 76
58 66 77
57 65 76
59 67 78
60 68 78
58 66 76
59 67 78
59 67 78
58 67 77
58 67 77
59 67 78
58 66 77
59 68 78
58 66 77
58 66 76
58 66 77
60 68 79
59 67 78
59 67 78
59 67 78
59 67 78
59 67 77
58 66 77
59 68 78
59 66 77
60 68 78
58 66 77
58 66 77
59 67 77
59 67 77
59 67 77
60 67 78
59 67 78
59 67 78
59 68 79
60 68 79
59 67 77
58 65 75
59 67 77
59 67 78
60 68 79
59 67 77
59 66 76
59 67 77
59 67 78
57 65 75
59 67 78
60 68 79
59 67 77
58 66 77
58 66 76
59 67 77
58 66 76
57 65 75
60 67 78
59 67 77
57 65 76
58 66 76
59 67 78
58 66 77
59 67 77
59 67 78
58 66 76
57 65 75
57 65 75
57 65 76
59 67 77
57 64 74
56 64 74
58 66 76
59 67 77
58 66 76
59 67 78
57 65 75
56 64 74
56 63 74
56 64 74
56 64 74
56 64 75
59 67 78
56 64 74
57 65 75
57 65 75
57 64 74
58 66 77
58 65 76
60 68 78
57 65 75
57 65 75
57 64 74
58 66 76
57 65 75
57 64 74
55 63 72
55 63 73
56 64 74
58 66 77
57 65 75
57 65 76
56 64 74
58 65 75
56 64 74
56 64 74
56 63 73
56 64 74
55 63 73
55 63 73
54 62 71
58 66 76
57 65 75
57 64 74
55 63 73
55 63 73
55 63 74
57 65 75
55 62 72
54 62 71
52 59 68
55 62 72
54 62 71
57 64 74
55 63 73
55 62 71
55 62 72
56 63 72
52 59 68
55 62 71
55 63 73
55 62 72
54 61 71
57 65 74
54 61 71
55 62 71
56 63 73
53 60 69
55 63 73
52 59 68
52 59 68
52 59 68
55 63 72
52 59 68
54 61 70
54 62 71
53 60 70
54 62 71
53 61 70
54 61 71
52 59 68
55 62 72
54 61 71
53 60 69
52 59 68
52 58 67
52 60 69
47 54 62
51 58 67
50 57 65
51 58 68
52 58 67
49 56 65
53 60 70
51 58 67
53 60 69
53 60 69
52 59 69
51 58 67
50 57 66
51 57 66
51 57 66
50 57 66
49 55 63
52 59 68
53 60 69
50 56 65
49 56 64
51 58 67
50 56 65
52 58 67
48 55 64
51 57 65
46 53 61
46 52 60
45 51 59
50 57 65
47 53 61
46 53 61
50 56 65
49 55 64
46 52 60
47 53 61
46 52 61
49 55 63
45 52 60
49 55 63
51 57 65
45 51 59
49 55 63
49 55 64
49 55 63
49 55 63
46 52 60
47 54 62
45 51 58
48 54 62
49 55 63
47 53 61
48 55 63
47 53 61
50 56 65
47 53 61
48 54 63
48 54 62
50 56 64
47 54 62
48 54 62
47 52 60
45 51 59
49 56 65
48 54 63
52 58 67
46 52 60
47 53 61
49 55 63
51 57 66
50 56 64
45 51 59
49 55 64
47 54 62
45 50 57
48 54 63
47 53 61
44 50 58
48 54 62
45 50 58
50 57 66
50 56 64
47 53 61
50 56 65
48 54 63
51 57 65
46 52 60
48 54 63
50 57 65
48 54 62
46 52 60
45 51 59
48 54 63
49 56 65
47 54 62
48 54 62
51 58 66
47 53 61
47 54 62
46 51 59
50 57 66
48 55 63
51 57 66
48 55 63
50 57 65
51 57 66
49 55 64
49 56 64
48 54 62
50 57 65
48 54 62
49 55 64
50 56 65
48 54 62
50 57 65
51 58 67
50 56 65
52 59 68
53 59 68
49 55 63
52 58 67
49 56 64
52 59 68
50 56 65
49 55 64
49 55 64
52 59 68
52 59 68
51 57 66
51 58 67
52 58 67
53 60 69
51 58 67
51 57 66
51 58 68
53 61 70
50 57 66
51 58 68
54 61 70
49 55 64
51 58 67
54 61 71
51 57 66
52 58 67
52 58 68
55 63 72
54 62 71
52 60 69
54 61 70
54 62 72
51 57 66
54 62 71
51 58 67
52 59 68
55 63 72
54 61 70
53 60 69
50 57 66
53 61 70
53 60 69
55 62 71
54 61 71
54 61 71
54 61 71
55 62 72
53 60 69
55 62 71
53 61 70
53 61 70
54 61 70
53 60 69
51 58 67
58 65 76
54 61 71
54 62 71
56 64 74
54 61 70
54 62 71
56 64 73
54 62 71
55 62 72
57 65 75
54 62 71
54 61 71
54 61 71
55 63 73
55 63 73
55 62 72
55 63 72
55 62 72
56 63 73
57 64 74
55 62 72
57 65 75
54 62 71
56 64 74
57 65 76
55 63 73
57 65 75
58 66 76
56 64 74
56 63 73
56 63 73
57 64 74
53 61 70
59 66 77
57 64 74
57 65 76
58 66 76
56 64 74
58 66 76
59 66 76
57 64 74
56 64 74
60 68 78
58 66 76
56 63 74
58 65 76
57 65 75
58 66 76
56 64 74
59 67 77
59 67 78
59 66 76
57 65 75
57 64 74
58 66 76
57 65 75
59 67 78
56 64 74
59 67 77
57 64 74
57 65 75
60 69 79
58 66 76
58 66 76
58 66 77
59 67 77
58 65 76
58 66 76
59 67 78
59 66 77
58 66 76
56 64 75
59 67 78
58 66 76
59 67 77
58 66 76
59 67 78
59 68 78
59 66 76
59 67 78
58 66 77
58 66 76
59 68 79
58 66 76
58 66 77
59 68 78
58 66 76
60 68 78
59 67 78
59 67 78
59 67 77
59 67 77
58 66 77
59 67 78
58 66 76
59 67 77
59 68 78
59 67 78
60 68 78
59 67 78
58 66 77
58 66 76
60 68 79
59 67 77
57 66 76
60 68 79
59 67 78
60 68 79
60 67 78
57 65 76
59 67 78
60 68 79
59 67 77
59 67 77
57 66 76
61 69 79
58 66 76
57 65 75
60 67 78
59 67 78
58 66 77
60 68 78
57 65 75
57 65 75
58 67 77
57 65 76
57 65 75
58 66 77
58 66 76
58 66 76
58 66 76
60 68 79
60 68 79
59 67 77
58 66 76
59 67 77
57 65 75
58 66 77
57 65 76
58 65 75
61 69 79
58 66 76
58 66 76
59 67 78
59 67 77
56 64 74
56 64 74
57 65 75
58 66 76
56 63 73
57 65 75
56 64 74
58 66 76
57 65 75
57 66 76
57 65 76
57 64 75
56 64 75
58 66 76
55 62 72
58 66 76
59 67 77
57 65 75
55 63 73
57 64 74
59 67 77
56 64 74
56 64 74
56 63 73
57 65 75
57 64 74
56 64 74
56 63 72
57 64 74
56 64 74
57 64 75
55 63 73
55 63 73
56 63 73
55 63 72
57 65 75
57 65 75
55 63 73
55 63 73
54 61 71
57 65 75
57 65 74
54 61 70
55 62 72
56 64 74
53 60 69
54 62 71
56 64 74
54 62 71
54 61 70
56 64 74
56 64 74
53 60 70
55 62 72
56 63 73
52 60 69
52 59 68
55 62 72
56 64 74
55 62 71
56 63 73
53 60 70
54 61 70
53 60 70
55 62 72
55 63 72
55 62 72
53 60 70
53 60 69
54 61 71
52 59 69
52 59 68
55 63 73
50 57 66
53 60 69
52 58 67
54 61 70
53 60 70
51 58 67
54 61 70
53 60 69
53 59 69
51 58 67
51 58 67
53 60 69
52 59 68
51 57 66
51 58 67
53 60 69
49 56 64
55 62 71
51 57 66
49 55 64
55 62 72
52 59 68
52 58 67
49 55 64
48 55 63
47 53 62
51 57 66
49 55 64
53 60 69
50 57 65
55 62 72
50 57 66
51 58 68
51 58 67
52 59 68
48 55 64
52 58 67
50 56 64
48 54 63
47 53 61
51 58 67
51 57 66
49 55 64
53 60 69
48 54 62
52 59 68
50 56 64
50 57 65
48 55 64
50 57 66
50 56 65
47 54 62
52 58 67
46 51 59
48 54 62
48 54 62
51 58 66
49 55 63
49 56 64
47 53 61
49 55 63
48 54 63
49 55 63
48 54 62
48 54 62
47 53 61
48 55 63
46 52 60
45 51 59
49 55 64
48 54 62
45 51 59
50 56 65
49 55 63
55 62 71
49 55 63
47 53 60
49 55 63
52 59 68
48 54 62
49 56 64
46 52 60
45 50 58
50 57 65
49 55 63
46 52 60
45 51 59
46 52 60
50 56 65
45 51 58
47 54 62
46 51 59
49 55 63
46 52 60
45 51 58
49 55 64
51 57 66
47 53 60
46 52 60
47 53 61
47 53 61
51 58 67
49 55 63
46 52 60
51 58 66
49 55 63
50 57 65
46 53 61
46 52 60
46 52 59
50 56 65
47 53 61
48 54 62
47 53 62
46 52 60
48 54 63
47 53 61
50 56 65
53 60 69
49 55 64
49 56 65
52 59 68
47 54 62
47 53 61
48 54 62
48 55 64
50 57 65
51 58 67
53 60 69
51 58 67
52 59 68
50 56 65
50 57 66
49 55 64
50 56 64
51 57 66
55 61 70
51 58 67
50 58 67
51 58 67
49 55 64
52 59 68
51 58 67
51 57 66
48 54 63
57 64 74
52 59 68
52 58 67
52 59 68
49 56 64
53 60 69
51 58 66
50 57 66
54 61 71
53 60 69
52 58 67
54 60 69
52 59 68
53 60 69
53 60 69
52 58 67
54 61 70
50 57 66
53 60 70
53 60 69
53 60 69
53 60 69
53 61 70
51 58 67
52 59 68
55 63 73
53 60 69
52 59 68
54 62 71
54 62 71
54 62 72
53 60 69
55 62 72
53 60 70
57 65 75
52 59 69
56 63 72
57 65 75
53 60 70
54 61 71
55 63 73
53 60 70
54 62 72
55 63 73
56 64 74
53 61 71
54 62 71
55 63 73
56 64 74
54 61 71
55 62 71
56 63 73
55 63 72
55 62 72
56 64 74
55 63 73
56 64 74
57 64 74
58 65 76
57 64 75
56 64 74
54 62 71
56 64 74
57 65 75
56 64 74
54 62 72
54 62 72
55 63 74
56 63 73
57 64 74
58 66 76
55 62 72
57 64 74
57 65 74
59 67 78
54 61 71
56 64 74
58 66 76
55 63 73
57 65 76
58 66 76
58 66 77
58 66 76
58 67 77
58 66 76
58 66 76
57 64 74
60 68 78
58 66 76
57 65 76
58 66 77
57 65 75
57 65 76
59 67 78
58 65 76
57 64 75
57 65 76
57 64 75
57 65 75
58 66 76
58 66 76
58 66 77
56 64 74
58 66 77
58 67 77
59 67 78
59 67 77
58 65 75
59 67 78
59 67 78
57 65 75
60 68 79
58 66 77
58 66 76
58 66 77
59 67 78
57 65 75
58 66 76
59 67 77
59 67 77
59 67 78
59 67 77
59 67 78
60 68 79
59 67 78
59 67 77
59 67 78
58 66 77
58 66 76
60 68 78
59 67 78
58 65 76
58 66 77
60 68 79
60 68 78
60 68 79
59 67 77
59 68 78
61 69 79
60 68 78
59 67 77
58 66 77
59 67 78
61 69 80
60 67 77
59 68 79
59 67 78
59 68 78
58 66 77
57 65 75
60 68 79
59 67 77
58 66 76
58 66 76
57 65 75
60 68 79
59 67 77
60 68 78
59 67 78
59 67 78
59 66 77
57 64 74
60 68 78
61 69 79
58 66 77
59 67 78
57 65 75
58 66 76
59 67 77
58 66 76
59 67 77
56 64 74
56 65 75
56 64 74
56 64 74
59 68 78
57 65 76
59 68 78
59 67 78
57 65 75
58 66 77
56 64 74
55 63 74
58 66 77
57 65 75
56 64 75
55 62 72
57 65 76
58 66 76
56 64 74
56 64 74
53 61 71
56 64 74
58 66 76
58 65 75
58 66 77
57 65 75
58 66 76
56 64 75
56 64 74
58 65 75
56 64 74
57 64 74
56 63 73
58 66 76
56 63 73
57 65 75
59 67 77
56 63 73
54 62 71
57 65 76
55 62 71
56 64 74
54 62 72
55 63 72
57 64 74
56 63 73
57 64 74
55 62 72
56 64 74
56 64 74
55 62 72
56 64 74
53 60 70
55 62 72
55 63 73
55 63 73
54 61 71
53 61 71
54 62 72
55 62 72
57 65 75
53 60 70
53 60 70
53 60 69
53 60 69
57 64 74
54 61 71
54 62 71
56 63 73
52 59 68
54 61 71
54 61 70
53 60 69
56 64 73
55 62 72
52 59 68
53 60 69
53 60 69
51 58 67
56 63 73
53 61 70
53 60 70
54 61 71
50 57 65
54 61 71
54 61 70
56 63 72
52 59 68
54 62 71
51 58 67
52 59 68
53 60 69
52 59 68
52 59 68
52 59 68
54 60 70
51 57 66
55 62 72
52 58 67
48 55 64
49 55 64
53 61 70
54 61 70
52 59 68
52 59 69
53 61 70
48 54 63
49 56 64
52 58 67
52 59 68
53 60 70
52 59 68
53 60 69
48 55 63
51 57 66
50 56 64
54 60 69
51 57 66
49 56 64
50 57 66
49 55 63
49 55 63
47 54 62
51 58 67
50 57 65
51 58 67
49 56 64
50 56 65
51 57 66
49 56 64
47 53 62
49 55 63
49 55 64
47 53 61
48 54 62
53 60 69
51 57 66
49 56 65
48 55 63
47 53 61
47 53 62
50 57 65
46 52 60
51 57 65
49 56 64
52 59 68
51 58 67
50 57 65
49 55 64
51 57 65
47 53 60
46 52 60
50 57 65
48 55 63
47 53 61
46 52 60
49 55 63
48 55 63
51 57 66
47 52 60
48 54 62
49 55 63
47 53 61
52 58 67
50 56 64
50 56 65
50 57 65
48 54 62
48 53 61
47 53 62
46 53 61
48 55 63
47 53 61
50 57 65
51 57 65
45 51 58
49 55 63
47 53 61
50 57 65
49 55 63
49 55 63
48 54 62
42 47 54
50 56 64
44 50 57
46 52 59
51 58 67
47 53 62
50 57 65
43 49 56
49 55 63
46 53 61
49 55 64
47 53 61
49 56 64
49 55 63
52 59 68
50 57 66
51 58 67
51 58 67
47 53 61
50 56 65
48 54 63
51 57 66
53 61 70
48 55 63
52 59 68
52 59 68
53 60 69
49 55 64
49 56 64
50 57 66
49 55 64
48 55 63
50 56 65
48 55 63
51 58 67
51 58 66
46 53 61
53 59 68
53 60 69
52 59 68
50 57 66
53 60 69
51 57 66
51 58 67
54 62 72
52 59 68
52 59 69
54 61 70
53 60 68
53 59 68
51 58 68
51 58 67
53 60 69
52 59 68
52 59 68
54 61 70
52 58 67
51 58 68
55 63 72
53 60 70
54 61 71
51 58 67
55 62 72
52 59 68
53 61 70
53 60 69
54 61 71
54 61 70
55 62 72
53 60 69
56 64 73
52 59 69
55 62 72
55 62 72
53 61 70
54 61 71
55 62 72
53 60 70
53 60 69
55 62 72
54 61 70
53 61 70
56 64 74
53 61 70
54 61 71
53 60 70
56 64 74
55 63 73
57 64 74
55 62 71
54 61 70
55 62 72
55 62 72
54 61 71
54 62 71
57 65 75
56 63 73
56 63 73
56 63 73
57 65 75
55 63 73
55 63 73
56 63 73
53 60 69
55 62 72
56 64 74
55 62 72
54 61 71
54 62 72
58 66 77
58 65 75
57 64 74
57 65 75
56 64 74
56 63 73
55 63 74
57 65 75
58 66 77
56 63 73
56 64 74
57 65 75
57 65 76
56 64 74
56 64 74
56 64 74
57 65 76
58 66 77
56 64 75
57 64 74
58 66 77
59 67 78
59 67 78
57 64 74
57 65 75
57 65 75
57 65 75
59 67 77
55 63 73
58 66 76
59 66 77
57 64 74
57 65 76
57 65 76
59 67 77
59 67 78
56 64 74
58 66 76
57 65 75
58 66 76
59 66 77
60 68 79
57 65 75
57 65 75
57 65 75
57 65 75
58 66 77
60 68 78
58 66 76
58 65 76
58 66 76
57 64 75
59 66 76
59 67 77
60 68 78
58 66 76
59 66 77
60 68 79
58 67 77
59 67 77
60 68 78
59 67 78
59 67 77
58 66 76
59 68 78
59 68 78
59 67 78
58 66 77
59 67 78
59 67 78
58 66 77
60 68 78
61 69 80
59 67 77
59 67 77
60 68 79
58 66 77
58 66 77
59 67 78
58 66 77
59 68 78
60 68 79
59 67 78
60 68 78
58 66 77
59 68 79
60 69 79
58 66 77
60 68 79
58 66 76
58 66 76
58 66 77
58 66 77
59 67 78
58 66 77
59 67 78
58 66 76
58 66 76
58 66 76
57 65 75
60 68 78
59 67 77
59 66 76
59 67 77
60 68 79
59 67 78
58 66 76
58 66 76
55 62 72
58 66 77
59 67 77
57 65 75
57 64 74
55 62 72
57 65 76
58 65 76
59 67 77
58 66 76
58 66 77
57 65 76
57 65 74
57 64 74
56 63 73
58 66 76
59 67 78
57 65 75
58 66 77
58 66 77
57 64 74
58 65 75
59 67 77
57 65 75
56 63 73
57 65 76
57 65 74
57 64 75
57 65 75
57 65 75
55 63 72
57 65 75
56 64 74
58 65 76
58 66 76
55 63 72
56 64 74
55 63 73
57 64 75
58 66 76
56 63 74
55 63 73
55 63 73
57 65 75
57 64 74
58 66 76
55 63 73
56 64 73
56 63 73
54 62 72
54 62 71
56 63 73
55 62 72
56 63 72
57 64 74
56 64 74
56 63 73
54 61 71
56 63 73
54 61 70
55 62 72
54 62 71
56 63 73
53 61 70
55 62 72
57 65 74
56 63 73
56 63 73
54 61 71
55 63 73
55 62 72
53 60 69
53 60 70
55 62 73
53 60 70
54 62 72
54 62 71
54 61 71
54 61 70
52 60 69
57 64 74
55 63 73
54 61 71
52 60 69
53 60 69
50 57 66
56 63 73
54 62 71
53 59 68
54 61 70
54 62 71
52 59 69
52 59 68
52 59 68
53 60 69
56 64 74
51 58 67
55 63 73
52 59 69
53 60 69
53 60 70
51 58 67
56 63 72
54 61 71
52 59 68
53 60 70
53 60 69
51 58 67
54 61 70
52 59 69
53 60 69
48 54 62
52 59 69
52 58 67
50 57 65
51 58 68
53 60 69
48 54 63
51 58 67
51 57 66
53 60 69
48 54 63
50 57 65
55 62 72
49 55 64
50 56 64
51 58 67
49 56 64
50 57 66
48 54 62
48 54 63
49 56 64
48 55 63
49 55 63
53 60 69
45 51 59
49 55 64
49 56 64
48 54 62
50 56 65
49 55 63
49 55 63
51 57 66
52 59 68
48 54 62
51 58 66
50 56 64
43 49 57
51 58 66
50 57 66
46 52 60
48 54 62
51 58 67
47 53 62
50 57 65
45 51 59
49 55 63
47 52 60
45 51 59
48 54 61
49 55 64
49 55 63
43 48 56
46 52 59
49 56 64
52 58 67
49 55 64
47 53 61
47 54 62
51 58 66
46 52 60
46 52 60
49 56 65
45 50 58
47 53 61
48 54 62
48 54 62
47 54 62
46 51 59
47 53 61
48 54 63
47 53 61
50 57 65
51 58 67
49 55 64
51 58 66
47 53 62
49 55 63
48 54 62
47 54 62
49 55 64
51 57 66
48 54 62
50 57 65
48 54 62
49 56 65
48 54 63
50 56 64
46 52 59
52 58 67
49 55 63
50 56 65
48 54 62
48 55 63
50 56 64
53 59 68
49 55 64
50 56 64
51 58 67
50 56 65
52 59 68
52 59 68
48 54 62
50 56 65
48 55 63
50 57 65
50 56 65
51 57 66
50 56 65
53 60 69
48 55 63
53 61 70
51 58 67
54 60 69
47 54 62
48 55 63
53 60 69
50 57 66
50 57 66
51 57 66
50 57 65
52 59 68
51 57 66
53 60 69
52 59 68
52 59 68
56 63 73
50 57 66
51 58 68
51 58 67
50 57 65
50 57 66
52 59 68
55 61 70
53 60 69
53 60 69
50 57 65
50 57 66
53 59 68
53 60 70
53 60 69
54 62 72
54 61 70
52 59 69
55 62 72
56 64 74
56 63 73
53 61 71
56 63 73
55 62 71
54 61 71
55 62 71
54 61 70
56 63 73
55 62 71
55 63 72
55 62 72
55 62 72
53 61 70
54 62 72
56 63 74
55 63 74
55 62 71
56 63 73
53 61 70
55 62 72
54 62 71
57 64 74
55 62 72
57 65 75
55 63 73
55 62 73
55 62 72
55 62 72
57 65 75
54 62 71
56 64 74
56 64 74
54 62 71
54 61 71
56 64 74
55 62 72
56 63 73
56 64 74
57 64 74
58 65 76
56 64 74
54 61 71
54 62 71
57 65 75
56 64 74
56 64 74
58 66 76
55 62 72
58 66 77
57 65 74
55 63 73
56 64 74
59 66 76
58 66 76
57 64 75
57 65 75
58 65 75
58 66 76
57 65 75
57 65 76
58 66 77
57 65 75
58 65 76
57 65 75
57 65 76
58 66 76
57 64 75
58 66 77
58 66 76
58 66 77
58 66 76
59 67 78
57 65 75
60 68 78
58 65 76
57 65 75
59 67 78
59 67 78
57 65 75
58 67 78
58 66 77
58 66 77
60 67 78
59 67 77
58 65 76
58 67 77
59 67 77
59 66 77
58 66 77
60 68 78
59 67 78
59 67 77
58 67 77
57 65 76
58 66 77
60 68 78
59 68 78
58 66 76
58 66 76
58 66 76
59 67 78
60 68 79
58 67 77
59 67 78
59 67 77
59 67 78
58 66 77
59 67 78
57 65 76
58 66 77
60 68 79
59 67 77
57 66 76
58 66 76
57 65 75
58 66 76
58 66 77
58 66 76
59 67 78
59 67 78
59 67 77
60 68 79
60 68 78
57 65 75
59 67 78
59 67 77
59 68 78
58 66 76
57 64 75
59 68 78
57 64 74
60 68 78
58 66 77
59 67 78
59 67 77
58 66 77
57 65 75
58 66 76
60 68 79
59 67 78
56 63 73
60 68 79
58 66 77
59 67 78
59 67 77
57 65 75
59 67 77
57 65 76
57 64 74
59 67 78
57 65 75
58 66 76
56 64 74
57 65 76
56 63 74
58 66 76
57 65 75
56 64 75
58 66 77
58 66 76
58 66 76
56 64 74
58 66 77
57 65 76
58 66 76
55 63 73
57 64 75
57 65 75
57 65 76
58 65 75
55 63 72
57 64 75
57 65 75
55 63 73
58 66 76
57 65 74
57 65 75
55 62 72
57 65 75
57 64 74
58 65 75
58 65 76
55 62 72
58 65 75
55 62 72
54 62 71
55 63 72
56 63 73
56 64 74
58 66 77
56 64 74
55 62 72
57 64 75
55 63 73
56 63 72
60 67 77
56 63 73
54 62 72
55 62 72
54 62 72
54 62 72
56 64 74
57 65 75
52 59 68
53 60 70
54 61 71
56 64 74
54 61 70
56 64 74
53 60 69
54 61 70
54 62 71
57 65 75
56 63 73
51 58 67
56 63 73
52 59 69
53 60 70
55 62 72
54 61 71
54 61 71
57 65 75
57 64 74
53 60 70
52 59 68
55 63 73
54 61 70
51 58 67
55 62 72
54 62 71
54 62 71
56 63 72
51 58 66
54 61 71
50 56 65
54 62 71
54 61 70
52 59 69
55 62 71
52 59 67
52 59 68
53 60 69
53 60 69
49 55 63
54 61 70
50 58 67
52 58 67
53 60 69
52 59 68
51 58 67
52 59 68
51 58 67
51 58 67
52 58 66
50 57 66
49 56 64
52 58 67
50 57 65
50 56 65
47 53 61
49 56 65
51 58 67
47 53 61
52 58 68
53 60 69
47 54 63
50 57 66
51 58 66
50 56 65
51 58 67
49 55 64
50 57 66
49 55 63
52 59 67
50 56 65
52 59 68
48 55 63
50 57 66
52 59 68
48 54 62
50 56 65
50 57 65
49 55 64
50 57 65
48 54 63
50 57 66
49 55 63
52 59 68
49 55 63
49 55 64
50 56 65
50 57 65
50 56 64
50 56 64
46 52 59
49 55 63
51 57 66
46 52 60
49 55 64
48 54 63
50 56 65
47 53 61
50 56 65
48 54 62
48 54 62
50 57 66
51 58 66
49 55 63
48 54 62
43 49 56
48 54 62
48 54 62
47 53 61
46 52 60
48 54 62
48 55 63
50 57 65
46 52 60
46 51 59
47 53 61
48 54 62
46 51 58
48 54 62
46 52 60
50 56 64
49 55 63
46 52 60
48 55 64
52 59 68
49 56 64
48 55 63
49 55 63
50 56 65
50 56 64
51 58 67
45 51 58
47 53 61
52 58 67
51 58 66
51 58 66
51 57 65
45 51 59
47 54 62
50 57 65
48 55 63
49 55 64
49 55 63
51 58 67
48 54 63
50 57 65
51 57 66
51 58 67
49 56 65
46 52 60
49 56 64
51 58 67
51 58 67
49 56 64
50 57 66
51 58 66
55 63 72
51 58 67
46 52 59
49 56 65
49 56 64
49 55 64
54 61 70
48 55 63
50 57 65
54 61 71
53 59 68
52 59 69
52 59 69
52 59 68
50 56 65
51 58 67
49 55 64
52 59 68
52 59 68
54 61 71
54 60 69
54 61 70
51 57 66
53 59 68
50 57 67
55 63 73
54 61 71
53 60 69
49 56 65
50 57 66
53 60 69
52 59 68
53 60 70
53 60 70
53 60 69
54 62 71
54 62 72
53 60 69
56 63 73
54 61 70
53 60 69
54 61 70
57 65 75
52 59 68
54 61 71
54 61 71
54 61 71
55 62 72
54 61 71
53 60 70
55 62 72
55 62 72
53 60 69
56 64 74
53 60 70
54 61 71
55 62 72
53 61 70
54 62 71
55 63 73
58 65 76
55 62 72
54 62 72
55 62 72
54 61 71
58 65 74
55 62 71
57 65 75
56 64 74
52 60 69
57 64 75
56 63 74
58 66 76
55 62 72
56 63 73
55 63 73
55 63 73
57 65 75
57 64 74
57 65 75
56 64 74
56 64 74
58 65 76
57 64 74
56 63 73
57 64 75
60 68 78
58 66 77
54 62 71
58 66 76
58 66 76
57 65 75
57 64 74
58 66 76
56 64 74
58 66 76
56 63 73
57 64 74
57 64 74
57 64 74
58 66 76
57 65 75
57 65 75
58 65 75
57 65 75
59 67 77
56 63 73
57 65 75
59 67 77
59 67 77
58 66 76
57 64 74
60 68 78
58 67 77
59 67 77
56 63 73
58 65 75
58 67 78
58 66 76
59 67 77
58 66 76
56 64 74
58 66 76
60 68 78
58 66 77
59 67 78
58 66 76
57 65 75
59 67 78
58 66 76
59 67 78
58 66 76
59 68 78
58 65 76
59 67 78
57 64 75
59 67 77
59 67 77
58 66 77
60 68 78
59 67 77
58 66 76
58 66 76
59 67 77
60 68 79
58 65 75
59 67 78
59 67 77
60 68 78
57 66 76
60 68 78
60 68 78
58 67 77
59 67 78
59 67 78
60 68 78
60 68 78
58 66 76
56 64 74
61 69 80
59 67 77
59 67 78
58 66 77
58 66 77
59 67 78
58 66 77
58 66 76
60 68 79
59 67 78
57 66 76
58 66 77
59 67 77
58 65 75
58 66 76
57 65 75
59 66 76
58 66 76
58 66 76
59 67 78
59 67 77
57 65 75
59 67 78
59 67 78
60 68 78
57 65 76
56 64 74
58 66 76
59 67 78
59 67 77
56 63 73
58 65 76
59 67 78
58 66 76
59 67 78
58 66 76
56 64 74
55 63 73
59 67 78
58 65 76
54 62 72
57 65 76
57 65 75
55 63 73
57 65 75
57 65 76
57 65 75
58 66 76
55 62 72
57 64 74
56 63 73
57 65 76
56 64 74
57 65 76
57 65 76
57 64 74
57 65 74
57 65 75
57 65 75
56 64 74
58 66 76
56 64 74
56 64 74
56 64 75
54 62 71
56 64 74
58 67 77
56 63 73
56 64 74
56 64 74
58 65 75
57 65 75
57 65 75
58 65 75
58 65 76
56 63 73
54 62 71
57 64 74
56 63 73
56 64 74
57 65 76
55 63 73
54 61 71
55 62 72
54 62 71
57 64 74
55 62 72
55 63 72
54 62 71
55 62 71
54 62 71
57 65 75
56 64 74
54 61 71
55 63 72
56 64 74
53 61 70
54 62 71
55 63 72
56 63 73
55 63 72
53 60 70
54 62 71
51 58 67
52 60 69
53 60 70
51 58 67
54 61 71
53 60 70
54 61 70
52 59 68
54 62 71
54 61 70
51 58 67
52 59 68
54 61 70
49 55 64
55 62 72
54 61 71
52 59 68
50 57 66
52 59 68
50 57 66
54 62 71
53 60 69
51 58 67
50 57 66
51 58 67
52 59 68
53 61 70
53 60 69
53 60 69
53 60 69
53 60 69
48 54 61
51 57 66
51 58 67
50 57 66
49 55 64
53 60 69
51 58 67
49 56 64
51 57 65
49 55 63
49 56 64
51 57 66
50 56 64
48 54 62
51 58 67
48 54 62
54 60 69
49 55 63
52 58 67
49 55 64
48 54 62
48 54 63
49 55 64
47 52 60
50 57 65
51 58 67
48 54 62
50 56 65
52 58 67
51 57 66
48 54 62
51 57 66
49 56 64
46 52 60
48 54 62
49 55 64
48 55 63
48 54 63
47 53 61
50 57 65
45 51 58
47 53 61
50 57 66
52 59 68
49 56 64
48 55 63
49 55 63
52 58 67
47 53 61
47 53 61
47 53 60
50 57 65
51 57 66
50 56 64
50 57 66
48 54 62
49 55 64
50 57 65
49 55 63
49 55 63
49 55 63
48 54 63
51 57 66
45 51 58
50 56 64
48 54 63
49 55 64
49 56 64
49 56 65
49 55 64
47 53 62
51 58 67
51 58 67
52 59 68
48 54 62
51 58 66
48 55 63
50 57 66
49 55 64
46 52 60
49 56 64
49 55 63
51 57 66
47 53 61
49 56 64
51 57 66
47 53 62
51 58 66
49 55 63
52 58 67
50 57 65
47 53 61
50 57 65
49 55 64
53 60 68
50 56 65
51 58 67
50 57 66
49 55 63
46 53 61
48 54 63
50 57 65
48 55 63
49 55 64
52 59 67
47 54 62
50 57 65
50 56 65
53 60 69
52 58 67
54 60 70
52 58 67
52 59 68
52 59 68
52 59 68
51 58 67
54 62 71
52 58 67
52 60 69
50 57 65
50 56 65
53 60 69
53 60 69
51 58 67
52 60 69
50 56 65
50 57 65
53 60 69
51 57 66
53 61 71
54 61 70
53 60 69
51 58 66
54 62 71
54 62 72
53 61 70
50 57 66
54 62 71
53 60 69
52 60 69
56 62 72
54 62 71
53 60 69
51 58 67
55 62 71
53 60 69
54 61 71
54 62 71
54 61 71
56 63 74
52 59 68
56 64 73
54 61 70
53 61 70
54 61 70
53 60 69
55 62 72
53 60 70
53 60 70
54 61 70
55 62 72
56 64 74
55 62 72
55 63 72
53 60 70
57 64 74
55 62 72
59 67 77
58 66 76
56 63 72
57 64 74
55 62 72
54 61 71
56 64 74
57 64 75
58 66 76
57 65 75
55 63 73
56 64 74
55 62 72
56 63 72
59 67 77
56 63 73
56 63 73
53 61 71
56 63 73
56 64 74
56 64 75
56 64 75
56 63 73
57 65 75
57 65 75
56 64 74
56 64 75
55 62 72
57 64 74
56 63 73
55 63 73
56 64 73
58 66 77
58 66 76
58 66 76
57 65 75
57 65 75
56 64 74
59 66 76
59 66 77
57 65 75
58 65 76
59 67 78
58 66 76
58 66 76
59 67 77
59 67 77
59 67 78
59 66 76
58 66 76
57 65 76
58 66 76
55 63 73
57 64 74
59 67 77
59 67 78
59 67 77
59 67 78
59 67 77
58 66 77
58 66 77
59 67 78
58 65 76
57 65 75
60 68 79
59 67 78
58 66 77
57 65 76
58 66 77
60 68 79
60 68 79
57 65 75
58 66 76
58 66 76
59 67 78
58 67 77
60 68 79
58 66 76
58 66 77
59 67 78
59 67 77
59 67 78
58 66 77
58 65 76
59 67 77
58 65 76
59 67 78
58 66 76
60 68 79
59 67 78
58 67 77
59 67 77
60 68 78
60 68 79
57 65 75
58 66 76
60 68 79
59 67 77
58 65 75
58 66 76
59 67 78
58 66 76
59 67 78
58 66 77
59 67 77
58 66 76
58 66 77
60 68 79
59 67 77
58 66 77
58 66 76
59 67 78
58 66 76
57 66 76
60 68 79
58 65 76
60 68 79
57 65 75
58 66 77
59 67 78
58 67 77
59 68 78
58 65 75
59 67 77
58 65 76
55 63 73
57 65 74
57 65 76
58 66 76
59 67 77
56 64 74
58 66 76
58 66 77
58 65 75
57 65 76
58 66 76
57 65 75
57 65 75
59 67 77
58 66 76
58 66 76
57 65 75
56 64 74
57 65 75
57 65 74
58 66 77
57 65 75
57 65 75
55 62 72
58 66 77
57 65 75
57 64 74
57 64 74
56 64 74
56 64 74
56 64 74
56 64 74
56 63 73
57 65 76
57 65 75
57 64 74
55 63 73
57 65 75
55 62 72
56 64 74
55 63 73
56 63 73
56 64 74
56 64 74
57 65 75
56 63 74
57 64 74
57 64 74
56 63 72
56 63 72
57 64 74
54 61 70
57 65 75
54 62 71
56 63 73
56 64 74
56 63 73
55 62 72
55 62 72
52 59 69
55 62 72
56 64 74
57 64 74
54 61 70
55 62 71
55 62 72
54 62 71
54 62 71
57 64 74
56 63 73
53 60 70
54 62 71
56 63 73
54 61 70
54 61 70
55 62 72
53 59 68
54 62 71
55 62 72
54 61 70
54 61 70
56 64 74
54 61 71
52 58 67
51 58 68
55 62 71
53 60 69
52 59 69
51 58 67
52 59 69
53 60 69
52 59 69
50 57 66
53 60 69
53 60 69
53 60 70
51 58 67
52 59 68
52 59 68
53 60 69
51 58 67
51 58 67
55 62 72
56 63 72
50 57 67
53 60 69
51 58 67
51 57 66
53 60 70
53 60 69
48 54 62
52 59 68
51 58 67
50 57 65
53 60 69
52 59 68
49 55 63
51 58 66
53 59 68
49 55 64
50 57 66
52 59 68
49 55 63
52 59 68
53 60 69
48 54 62
49 55 64
49 55 63
48 55 63
52 59 68
48 54 62
50 57 65
49 55 64
49 56 64
49 56 64
50 56 65
51 58 66
51 57 66
50 57 66
52 59 68
49 55 63
51 57 66
47 54 62
48 55 63
53 60 69
50 57 65
47 53 61
51 58 66
47 53 62
51 58 67
50 57 66
46 52 60
48 53 61
50 56 64
49 55 64
48 54 62
52 59 68
46 51 59
51 57 66
47 53 61
47 53 60
46 52 60
48 54 62
47 53 61
45 51 59
51 57 66
50 56 64
49 56 64
51 58 66
48 55 63
50 57 66
51 58 67
50 57 65
49 56 64
49 56 64
50 56 64
49 55 64
47 53 61
45 50 58
47 53 61
51 57 66
51 58 67
48 54 62
48 54 62
50 56 65
51 57 66
52 58 67
48 54 62
51 57 66
47 53 61
52 59 68
47 53 61
49 55 63
49 55 63
48 54 63
50 57 66
50 57 65
47 53 61
51 58 66
52 59 67
50 56 65
49 56 64
49 56 65
46 52 60
51 57 66
52 59 68
51 58 67
48 55 63
50 56 65
52 59 68
52 58 67
48 54 63
52 59 68
50 57 66
51 58 67
53 60 69
49 55 63
52 59 67
50 56 65
54 61 70
49 55 64
53 60 69
47 54 62
51 58 67
52 59 67
48 54 62
50 57 66
52 59 68
51 58 67
52 59 68
50 57 65
54 61 71
54 61 70
54 61 70
48 54 62
53 60 69
54 62 71
52 59 68
53 60 69
53 60 69
53 59 69
52 59 68
55 63 73
54 61 71
52 59 68
56 64 73
53 60 69
53 60 70
55 63 72
56 64 74
50 57 66
51 59 68
55 62 72
53 60 69
53 60 70
52 59 69
55 63 72
54 62 71
54 62 71
54 61 70
54 61 71
55 62 72
56 63 73
53 61 70
53 61 70
55 62 71
56 64 73
55 62 71
55 63 73
55 63 73
58 65 75
54 62 71
55 62 72
55 62 72
56 64 73
54 62 71
57 64 74
56 63 73
55 63 73
55 62 72
55 62 72
55 63 73
56 63 73
57 64 74
55 63 73
55 62 72
56 63 73
56 64 74
57 65 75
56 64 74
56 63 73
57 64 74
54 62 71
55 62 72
54 61 71
57 65 75
59 67 77
55 62 72
56 64 74
56 64 74
56 64 74
58 66 76
54 61 71
57 65 75
57 65 75
55 64 74
57 65 76
57 65 75
57 65 75
58 66 76
58 65 75
57 64 74
56 64 74
58 66 76
59 67 77
57 65 75
58 66 77
57 65 75
57 65 76
56 63 74
59 67 78
59 67 77
56 64 74
57 65 75
57 65 75
58 66 76
56 64 74
60 68 78
59 67 77
57 65 75
59 67 77
56 64 74
60 68 79
57 64 74
57 65 75
58 66 76
59 67 77
57 65 75
59 67 77
58 66 76
59 67 77
60 67 78
58 66 77
56 64 74
58 66 77
59 67 78
58 66 76
58 66 76
60 68 79
58 66 76
59 67 77
59 67 78
59 67 78
59 67 77
59 67 78
59 67 77
59 67 78
58 66 76
59 67 78
59 67 77
59 67 77
61 69 79
60 68 78
58 67 77
57 65 75
60 68 78
58 66 77
59 67 77
60 68 78
60 68 78
60 68 78
59 67 78
58 66 76
59 67 78
57 65 75
60 68 78
57 64 74
59 67 77
60 68 79
58 66 76
57 65 75
58 65 75
59 67 77
57 65 76
59 67 78
58 66 77
58 66 76
56 64 74
58 66 76
57 65 76
60 68 78
60 69 79
59 67 77
56 64 74
56 64 74
58 66 76
57 64 74
58 66 76
58 66 76
59 67 78
57 65 75
57 65 75
59 66 76
57 64 75
59 67 77
56 64 75
60 68 79
57 65 76
57 65 75
58 66 77
56 64 74
57 65 76
58 66 77
57 65 75
56 64 74
56 64 74
57 65 75
57 65 75
57 65 75
59 66 77
56 64 74
57 65 76
56 64 74
57 64 74
57 65 76
57 65 75
57 65 76
57 65 75
58 65 75
54 61 71
56 63 73
58 65 75
56 64 74
54 62 71
54 61 71
57 64 74
57 64 74
58 65 75
57 65 76
57 64 74
57 65 75
55 63 73
56 64 74
58 66 76
56 64 74
53 61 71
55 63 72
56 63 73
54 61 71
55 62 72
58 65 75
57 64 74
55 62 72
55 62 72
52 60 69
53 60 69
55 63 73
53 61 70
54 62 71
57 65 75
54 62 71
54 61 71
58 66 76
52 59 69
55 62 71
54 62 71
56 64 74
56 63 73
55 63 73
54 61 70
54 61 70
54 61 71
57 64 74
52 59 68
51 58 68
55 63 72
52 59 68
54 61 70
55 63 72
54 61 70
54 61 70
57 64 74
53 60 69
54 62 71
54 61 71
53 60 69
55 63 72
50 57 65
51 57 66
52 59 68
54 61 70
52 60 69
53 60 69
53 60 69
55 63 73
56 63 73
52 59 68
54 62 71
52 59 69
52 59 68
54 61 70
54 61 70
51 58 67
48 55 63
51 58 67
50 57 65
51 58 67
49 55 63
49 55 64
49 56 64
52 59 68
52 59 69
50 57 65
48 54 62
54 61 70
51 58 67
53 59 68
49 55 63
48 55 63
50 57 65
51 57 66
50 57 65
50 57 66
51 57 66
52 58 67
48 55 64
50 57 65
50 57 66
50 56 65
51 58 66
48 54 62
49 55 63
49 56 64
53 60 69
46 52 61
49 55 64
50 56 65
51 58 67
50 57 66
49 56 65
49 56 64
51 58 67
53 60 69
52 58 67
49 56 64
48 54 62
50 56 65
51 57 66
49 55 64
51 57 66
49 55 64
48 55 64
50 56 65
47 53 61
49 55 64
47 53 61
49 55 63
50 56 64
48 54 63
49 55 63
45 51 59
49 55 63
50 56 65
50 57 65
48 54 62
52 59 68
51 57 65
49 56 65
49 56 64
50 56 65
46 52 60
47 53 61
51 57 66
46 53 61
46 52 60
51 57 65
49 55 63
49 55 63
53 60 69
49 56 64
50 57 65
49 56 65
53 61 70
48 54 62
51 57 66
45 51 59
49 55 64
50 57 65
50 57 66
48 54 63
51 58 66
49 55 64
49 56 64
48 55 63
51 57 67
48 55 63
48 54 62
50 56 65
50 56 65
48 55 63
51 58 67
50 57 66
50 56 65
52 59 68
49 56 65
49 56 65
51 58 66
52 58 67
52 59 68
49 56 64
50 56 65
51 58 67
51 57 66
50 56 65
51 58 67
50 57 66
51 57 65
51 58 66
52 59 67
53 60 69
52 58 67
53 61 70
51 59 68
55 62 71
53 60 70
53 60 70
49 56 64
51 58 67
52 59 69
54 61 71
47 54 62
53 59 69
52 58 67
51 58 67
54 61 71
53 61 70
53 60 70
50 57 66
53 60 69
52 58 67
51 58 67
55 62 71
54 60 69
53 60 70
51 58 67
55 62 71
53 61 70
54 61 71
54 62 71
54 61 71
55 63 72
50 57 66
53 60 69
53 60 69
52 59 69
56 64 74
54 62 71
52 59 69
54 62 71
52 59 68
55 63 73
54 61 71
54 62 71
55 62 72
56 63 73
57 65 75
54 61 70
55 62 72
57 64 74
56 64 73
53 60 70
56 64 74
54 62 72
56 63 73
52 59 68
55 63 73
57 65 76
55 63 73
54 61 70
54 61 70
55 63 73
56 64 74
58 65 75
56 63 73
57 64 74
55 63 73
56 64 74
56 63 73
58 66 76
57 65 75
58 65 76
55 62 72
57 65 75
55 62 71
55 63 73
57 65 74
57 65 75
58 65 75
56 64 73
57 65 75
56 64 74
56 63 73
56 64 74
57 65 75
56 63 73
55 63 73
57 64 74
58 65 76
59 66 77
56 64 74
57 64 74
58 65 76
55 63 73
58 66 76
57 65 75
58 66 77
55 63 73
57 65 75
58 66 77
57 65 75
57 65 75
59 67 78
57 64 75
59 67 78
57 65 76
58 66 76
58 66 77
57 65 75
59 67 77
58 65 75
59 67 78
59 67 78
59 67 77
58 66 76
57 65 76
57 64 75
58 66 76
57 65 75
58 66 76
58 66 77
58 65 76
57 65 76
59 67 78
59 67 77
58 66 76
58 65 76
59 67 78
59 67 78
60 68 79
59 67 78
58 65 76
58 66 77
60 68 78
60 67 78
60 68 79
58 66 76
57 64 74
58 67 77
59 67 77
59 67 77
59 67 77
59 67 77
59 67 77
57 65 76
59 67 78
59 67 78
60 68 79
59 67 77
59 66 77
59 66 77
58 66 77
60 68 78
59 67 77
57 65 75
59 67 78
58 66 76
60 68 79
59 67 77
57 64 74
58 66 77
59 67 78
59 67 77
57 65 75
58 67 77
59 67 78
59 67 78
57 64 74
59 67 78
59 66 76
59 67 78
58 66 77
60 68 79
57 65 76
58 66 77
56 64 74
59 67 77
56 64 74
59 67 77
58 66 76
58 66 76
58 66 76
57 65 76
57 65 75
59 67 78
57 65 75
57 65 75
59 67 77
56 65 75
56 63 74
59 68 78
57 65 75
58 66 76
56 64 74
55 62 72
57 65 75
58 66 76
58 66 77
57 65 76
57 65 75
56 64 74
58 66 77
56 64 74
59 67 78
56 64 74
55 62 72
58 66 77
58 65 75
58 65 75
56 64 74
55 63 72
54 62 72
56 64 75
55 62 72
56 63 73
58 66 77
56 63 73
56 64 74
54 62 71
58 66 77
58 66 76
56 64 74
56 64 74
55 62 72
56 64 73
56 64 74
56 64 74
57 65 75
55 63 72
58 66 76
57 65 76
55 62 71
56 63 74
56 63 73
56 64 74
56 63 73
56 63 73
54 61 71
53 60 70
57 65 74
55 62 72
55 63 73
54 61 71
56 63 73
56 63 73
55 63 73
55 62 72
56 64 74
54 61 71
54 61 70
55 62 72
51 58 68
52 60 69
56 64 73
56 63 72
54 62 71
54 61 70
55 62 72
53 60 69
55 63 72
55 62 72
55 62 72
53 61 70
53 60 70
54 61 71
53 61 70
53 61 71
52 59 69
53 60 69
52 59 69
52 59 68
52 59 68
54 61 71
53 60 69
48 54 62
53 60 70
51 59 68
53 59 68
54 62 71
53 59 68
47 54 63
54 61 70
53 59 69
51 58 67
51 57 66
51 58 67
51 58 67
50 57 66
51 58 66
50 56 65
51 58 67
54 61 71
50 57 65
48 55 63
53 60 69
50 57 66
54 61 71
52 59 69
53 60 69
52 58 67
52 59 68
51 57 66
48 55 63
51 58 67
51 57 66
47 53 61
52 59 68
51 58 67
50 57 65
50 57 65
49 56 64
50 57 65
49 55 64
51 57 66
53 59 68
48 55 63
52 59 69
48 54 62
50 57 65
51 58 67
50 57 66
50 57 66
50 56 65
46 52 60
49 55 64
49 55 62
49 56 64
51 58 66
47 53 62
51 57 66
51 57 66
49 55 63
49 56 64
51 57 66
49 55 64
52 59 68
52 59 69
46 52 60
50 57 65
50 56 65
48 54 62
51 58 66
46 53 61
46 52 60
50 56 65
52 59 67
48 54 62
50 57 66
48 54 61
46 52 60
52 58 67
46 52 60
50 56 64
47 53 61
51 57 66
47 53 62
51 57 66
48 55 63
51 58 67
50 57 65
50 56 65
48 54 62
47 53 61
51 57 66
49 55 63
48 55 63
47 53 62
53 60 69
50 57 66
48 54 61
46 52 60
53 60 69
50 57 65
52 58 66
49 55 63
46 52 60
51 57 66
50 56 65
48 54 63
52 58 67
52 59 68
53 60 70
46 52 60
46 52 59
50 56 64
51 57 66
52 59 68
50 56 65
50 56 65
51 58 67
51 58 67
50 57 66
50 56 65
51 57 66
52 59 68
52 58 67
55 63 72
50 56 65
52 60 69
52 58 67
48 55 63
53 60 70
53 60 69
51 58 67
49 56 64
54 61 70
53 60 69
52 59 69
51 58 66
53 60 69
49 56 64
53 60 69
55 62 72
53 60 70
52 59 68
55 61 70
53 60 69
50 56 65
50 57 66
54 61 71
53 60 69
53 60 70
50 57 66
52 60 69
55 62 71
53 60 69
52 60 69
54 61 71
53 60 70
52 60 69
53 60 70
55 62 71
54 61 71
52 59 68
55 63 72
56 63 73
54 61 70
53 60 70
57 64 74
56 63 73
56 63 73
55 63 73
55 62 72
54 61 71
55 62 72
54 61 70
55 62 72
56 63 73
57 65 75
57 64 74
54 62 71
55 63 73
54 61 71
55 62 72
56 64 74
56 64 74
53 60 70
56 64 74
58 65 75
58 65 75
57 65 75
57 64 74
56 64 74
56 63 73
56 63 73
58 66 76
56 64 75
55 62 71
57 64 74
55 62 72
54 61 71
58 66 76
57 65 75
56 63 74
57 65 75
57 65 74
57 64 75
54 62 71
57 65 75
56 64 74
56 63 73
58 66 76
55 63 73
55 63 73
56 63 73
56 64 74
56 64 74
56 63 73
58 66 76
56 64 75
57 65 76
57 65 75
57 66 76
58 66 76
55 62 72
58 65 76
57 65 75
58 66 76
56 64 75
58 66 76
59 67 78
58 66 76
58 66 76
57 65 75
56 64 74
58 66 76
58 66 76
60 68 79
57 65 75
59 67 77
59 67 77
60 68 79
58 65 75
58 66 76
59 67 77
58 66 76
59 67 78
58 66 76
57 65 75
56 64 74
57 64 74
59 67 77
55 63 73
58 66 77
59 67 77
59 68 78
58 66 77
57 65 75
60 67 78
59 67 77
59 67 77
58 67 77
58 65 76
58 66 76
58 67 77
58 66 77
59 67 78
59 67 78
59 67 77
59 66 76
57 65 75
59 67 77
60 68 78
59 68 78
59 66 77
59 67 77
58 65 76
59 67 77
58 66 76
59 67 78
58 66 77
60 68 78
59 67 77
60 67 78
57 65 75
57 64 74
59 67 78
59 67 78
58 66 77
59 67 77
57 66 76
58 66 77
59 67 78
60 68 78
58 65 76
59 67 77
57 65 75
57 65 76
58 66 77
58 66 76
58 66 76
58 66 76
57 66 76
59 67 77
57 65 76
59 67 77
58 66 77
57 65 75
58 66 76
58 66 76
56 63 73
56 64 74
57 65 75
58 66 77
58 66 76
58 67 77
57 65 76
58 65 75
55 62 72
59 68 78
55 63 74
57 65 75
56 63 73
57 65 76
56 64 74
56 64 74
56 64 74
56 64 74
57 65 76
57 65 76
57 64 74
59 67 77
56 64 73
57 65 75
57 65 76
56 63 73
52 59 69
59 66 76
58 65 75
56 64 74
57 65 75
57 64 74
55 62 72
56 64 74
56 64 74
57 64 74
56 64 74
55 62 72
57 65 75
59 67 78
56 64 74
52 60 69
56 63 73
57 65 75
56 63 73
56 63 73
57 65 75
56 64 73
56 64 74
56 63 73
55 62 71
56 63 73
55 62 72
56 63 73
55 63 72
55 62 72
57 65 75
55 63 73
55 63 73
56 63 73
56 64 74
54 62 72
54 62 71
56 64 73
53 60 70
56 64 74
52 59 68
53 60 70
52 59 68
54 62 73
57 65 75
52 59 68
57 64 74
50 56 65
53 60 70
53 60 69
56 63 74
55 62 72
54 62 71
56 64 74
53 60 70
55 63 72
53 60 70
51 58 67
52 59 68
51 58 67
52 59 68
51 58 67
53 61 70
55 62 71
56 64 74
55 62 71
53 60 70
54 61 70
52 59 68
54 61 70
50 57 66
55 63 73
52 59 69
51 58 67
52 59 68
52 59 68
54 61 70
51 58 67
53 60 69
52 59 68
54 61 70
51 58 67
53 60 69
54 61 70
51 57 66
52 58 67
53 60 69
48 55 63
53 60 70
50 57 65
54 61 70
49 55 64
48 54 62
51 58 67
52 58 67
53 60 70
49 56 64
49 56 65
54 61 70
51 58 67
50 57 65
51 58 67
52 59 68
49 55 64
49 56 64
52 59 68
52 59 68
48 55 63
53 60 69
49 55 63
52 58 67
50 57 65
50 56 65
47 54 62
49 56 65
55 62 71
49 55 64
49 55 63
49 55 64
51 57 66
53 59 68
51 57 65
51 58 67
51 58 67
52 59 68
50 57 65
49 56 64
50 57 65
47 53 62
50 57 66
50 57 65
48 54 62
53 59 68
46 52 60
46 52 60
48 55 63
51 58 66
48 55 63
50 57 66
49 55 63
50 56 65
52 59 68
50 57 66
51 58 67
50 57 65
52 58 67
52 58 67
47 52 60
46 53 61
51 57 66
49 55 63
49 56 65
51 58 66
48 54 62
51 57 66
49 56 64
47 53 61
48 55 63
51 57 66
49 55 63
48 55 63
48 54 62
49 56 65
49 55 64
50 57 66
46 52 60
50 57 65
49 55 64
50 56 65
53 60 69
53 60 69
51 57 66
50 57 65
47 54 62
48 54 61
48 55 63
50 57 66
47 54 62
51 57 66
52 59 68
52 58 67
50 56 65
49 56 65
50 57 66
50 57 65
53 60 69
47 54 62
49 56 65
50 56 65
51 58 67
54 61 70
53 60 69
50 58 67
52 59 68
50 57 66
50 57 66
51 57 66
52 58 67
52 58 67
49 55 63
51 58 66
51 57 66
51 58 67
54 61 71
52 59 68
52 59 68
52 58 67
52 59 67
54 61 70
55 62 72
50 57 65
53 60 69
51 58 66
54 61 70
55 63 72
50 56 65
52 60 69
54 61 71
52 59 68
52 59 68
53 60 69
52 59 67
54 61 70
54 62 71
56 64 73
54 61 71
56 64 74
55 62 71
52 59 68
54 61 71
53 60 69
54 61 70
55 63 73
54 61 70
53 59 69
54 62 71
53 61 70
54 61 70
55 63 72
57 64 74
52 59 68
53 60 70
54 62 71
54 62 71
55 62 71
51 58 67
53 60 70
56 64 74
53 61 71
55 62 72
55 62 72
56 63 73
55 63 73
56 64 74
54 62 72
56 63 73
56 64 74
58 65 75
56 64 74
57 64 74
54 61 71
58 66 77
54 61 71
57 65 74
56 64 74
56 63 73
58 66 76
57 65 75
56 63 73
58 65 75
55 63 72
57 65 75
56 63 73
55 62 72
57 65 75
56 64 74
55 62 72
56 64 74
56 64 75
57 64 74
56 64 74
57 65 75
57 65 75
57 65 75
57 64 74
55 62 72
58 66 76
56 63 73
58 66 77
57 64 74
57 65 76
57 65 75
55 62 72
56 64 74
58 66 76
58 66 76
57 65 75
58 66 77
58 66 76
58 66 76
58 66 77
59 66 77
56 64 74
57 65 76
56 64 74
59 67 77
59 67 78
58 67 77
58 66 77
58 66 76
57 65 75
59 67 77
57 65 76
58 66 77
57 65 76
56 63 74
57 65 75
57 65 74
58 66 77
58 66 76
57 65 75
60 68 78
59 67 77
58 66 76
59 67 78
59 67 77
58 66 76
57 64 74
58 67 77
59 68 78
58 66 77
58 66 76
60 68 79
61 69 79
59 67 77
57 65 75
59 67 78
59 67 78
60 68 78
59 68 79
60 68 79
58 66 77
58 66 76
59 67 78
58 66 76
59 67 77
58 66 76
59 67 78
58 66 76
58 66 77
60 68 79
59 67 78
57 65 76
59 67 77
58 66 77
59 67 78
58 65 76
58 65 75
57 64 74
57 65 76
58 66 77
57 65 74
58 66 77
59 67 77
59 67 77
58 66 76
56 64 74
57 65 75
57 65 75
59 67 78
57 65 75
58 66 76
59 67 78
57 64 74
59 67 78
57 65 75
58 66 77
55 63 73
58 66 77
58 66 77
59 67 77
57 65 75
58 65 75
58 66 77
58 66 76
60 68 78
59 67 78
54 62 71
58 66 76
57 64 74
56 64 74
58 65 75
54 62 72
56 64 75
57 64 74
57 65 76
58 65 76
57 65 75
56 64 74
57 65 76
58 65 76
57 65 75
55 63 73
58 65 75
55 63 72
57 65 75
56 64 74
59 67 78
56 64 74
57 66 76
56 63 73
58 66 76
54 62 72
55 62 72
56 64 74
57 64 74
57 65 76
54 62 71
57 65 75
57 64 74
55 62 72
57 65 75
53 60 69
55 62 71
55 63 73
56 63 73
56 63 74
55 62 72
55 62 71
55 62 72
54 61 70
57 64 74
56 64 74
52 60 69
55 63 73
56 63 73
57 64 74
52 59 68
55 63 73
56 64 74
56 64 74
53 60 69
55 62 71
54 62 72
54 61 70
54 61 71
53 60 69
53 61 70
53 60 69
51 58 67
55 62 72
56 64 73
53 60 69
55 62 72
54 61 70
55 62 72
54 61 70
54 62 71
52 59 69
54 62 71
53 60 69
52 59 69
52 59 68
55 62 71
53 61 70
53 60 69
53 60 70
52 60 69
53 60 70
54 61 70
54 61 70
52 59 68
55 63 73
51 58 67
52 59 67
49 55 64
54 61 71
50 57 65
49 55 63
51 58 67
51 58 67
50 56 65
54 61 70
48 55 64
53 59 69
51 58 67
51 58 67
50 57 65
55 62 72
52 59 68
52 59 68
52 59 69
51 58 66
49 56 64
51 58 66
52 58 67
50 57 65
51 57 66
50 57 65
51 58 67
48 55 63
52 59 68
48 54 62
50 57 66
52 59 68
52 58 67
49 55 64
53 60 69
52 59 68
51 58 68
53 59 68
50 56 65
49 56 65
53 60 70
50 56 64
50 57 65
47 54 62
49 55 64
48 54 62
52 58 67
48 54 62
50 56 65
49 55 64
51 57 66
50 57 66
50 57 65
47 53 62
51 58 67
47 53 62
52 59 68
48 54 62
49 56 65
49 55 64
45 51 59
50 56 64
48 54 63
49 56 64
52 58 67
49 55 64
48 54 63
50 56 64
50 56 65
49 56 64
48 54 62
46 52 60
51 57 65
50 57 66
49 55 63
51 57 66
50 57 65
52 59 68
46 52 60
51 58 66
48 54 63
49 56 64
51 58 66
47 53 61
49 55 64
50 57 66
47 53 62
51 58 67
50 56 65
50 57 66
49 55 63
53 59 68
48 54 62
51 58 66
49 56 65
53 59 68
49 56 65
50 56 64
49 56 64
52 59 68
49 56 64
47 53 61
50 57 66
49 56 64
52 59 68
50 56 64
51 58 67
51 58 66
50 57 65
50 56 65
50 56 65
52 59 68
48 54 63
50 57 66
52 59 68
52 59 68
50 56 65
50 57 65
53 60 69
50 56 65
52 59 68
54 61 70
52 59 68
54 61 70
51 58 67
52 58 67
51 58 67
54 60 69
50 57 66
53 60 69
51 58 67
53 60 69
54 61 70
52 59 68
52 59 68
53 60 69
52 59 68
53 60 70
55 62 72
54 61 70
52 59 68
52 59 68
55 62 72
53 61 70
53 60 70
54 62 71
54 61 71
53 60 69
51 58 66
54 61 71
53 60 70
56 63 73
51 58 67
54 62 71
55 63 73
51 58 67
51 58 67
54 61 71
55 62 71
53 60 69
54 61 70
56 64 74
55 62 71
57 65 74
52 59 68
54 62 71
54 61 70
54 61 71
54 61 71
53 61 71
57 64 73
56 63 73
56 63 72
54 61 70
56 64 74
55 62 71
56 63 73
55 63 73
55 63 73
55 62 72
55 62 72
57 65 76
55 62 72
57 65 75
56 64 74
52 59 69
56 63 73
56 64 74
55 63 72
54 61 71
56 64 74
58 66 76
58 65 76
57 65 74
54 62 71
58 66 76
56 64 74
56 64 73
57 64 73
56 63 74
57 65 75
58 66 76
55 63 72
57 65 75
57 64 74
55 62 72
57 64 74
57 64 74
56 64 74
56 64 74
56 64 74
56 63 73
59 66 76
58 66 76
56 64 74
58 66 76
57 65 75
57 64 74
57 65 75
57 65 75
57 65 76
57 64 74
56 64 74
58 65 76
52 59 68
57 65 76
57 65 75
58 67 77
58 66 77
57 65 75
56 64 74
58 66 76
57 64 74
56 64 75
59 67 78
57 64 74
58 67 77
58 66 76
56 64 74
58 67 77
57 65 75
59 67 77
57 64 74
57 65 75
57 65 75
57 66 76
58 67 77
60 68 79
58 66 76
59 67 78
60 68 78
59 67 77
59 67 78
60 68 79
60 68 79
59 67 78
58 66 77
56 64 75
60 68 79
58 65 76
58 66 76
57 65 76
57 65 75
59 67 78
60 68 78
58 66 77
59 67 77
58 66 77
57 64 75
59 67 77
59 67 77
58 66 77
59 67 78
58 66 76
60 68 79
58 67 78
58 67 77
57 65 76
58 66 77
60 68 78
58 66 77
58 66 77
59 67 77
58 66 76
57 65 76
60 69 80
59 67 78
58 67 77
58 66 76
57 65 75
59 67 77
57 65 75
57 65 75
58 66 76
58 66 76
58 66 77
59 67 77
56 64 74
58 66 76
59 67 77
59 67 77
58 66 76
58 66 76
57 64 74
58 66 77
58 65 76
59 67 77
58 65 75
58 66 76
57 65 75
58 66 76
57 65 75
57 65 75
57 64 75
56 64 74
54 61 71
59 67 78
55 63 72
57 65 75
58 65 76
57 65 75
57 65 75
59 67 77
56 64 74
56 64 74
56 63 73
57 64 74
58 66 76
57 65 76
57 65 75
57 65 75
57 65 75
57 64 74
55 62 71
55 63 73
58 66 76
55 62 72
56 64 74
57 65 75
57 64 75
57 65 75
55 63 74
56 63 74
56 64 73
55 63 72
54 61 71
54 62 71
55 63 72
56 64 73
56 64 74
59 67 77
54 61 70
54 61 71
54 61 71
56 63 73
55 63 73
54 61 71
53 60 70
54 61 71
56 63 73
53 60 70
55 62 72
55 62 71
53 60 70
53 61 71
55 63 73
56 64 74
54 61 71
55 63 73
56 63 73
53 60 70
54 61 71
56 63 73
54 62 71
55 62 72
55 62 72
54 62 72
54 62 72
56 63 73
54 61 71
51 58 67
51 58 67
56 63 73
52 59 69
54 61 71
55 62 72
54 61 71
53 60 69
54 61 70
53 60 69
54 62 71
56 63 73
53 61 70
51 58 67
55 62 72
55 62 71
55 62 72
52 59 69
51 58 68
52 59 69
54 61 71
52 59 68
53 60 70
53 60 70
53 59 68
48 55 63
52 59 68
54 61 70
52 59 68
52 58 67
52 59 68
51 58 67
52 59 68
53 60 70
54 61 70
48 55 63
51 58 67
50 57 66
53 60 69
51 58 67
50 57 66
51 57 66
50 57 65
49 55 64
53 60 69
50 56 65
51 58 67
54 61 70
48 55 64
51 57 66
51 58 67
50 56 65
51 58 67
52 59 68
48 54 62
50 57 65
52 58 67
49 56 64
53 60 69
50 56 65
52 59 68
51 58 66
52 59 68
50 57 65
51 57 66
51 57 66
51 58 66
47 53 61
45 51 59
50 57 66
49 55 64
49 56 64
48 55 63
48 54 62
50 56 65
49 56 64
51 58 66
50 57 65
50 56 65
50 56 64
50 57 66
48 53 61
50 57 65
49 56 64
52 59 68
50 56 65
47 53 61
52 59 68
51 57 66
50 57 66
50 56 65
53 60 69
51 57 66
48 54 62
52 59 68
50 57 66
49 55 63
48 55 63
52 59 68
50 56 65
49 55 64
49 55 63
51 58 67
47 53 61
50 57 66
47 54 62
51 58 67
50 57 65
52 59 67
50 56 65
50 56 65
52 59 68
48 54 63
49 55 64
50 57 65
49 55 64
47 54 62
52 59 68
54 61 71
49 56 64
50 56 65
51 57 66
51 58 68
45 51 59
49 55 64
54 61 70
52 58 67
53 60 69
53 60 69
54 60 69
54 61 71
53 60 69
49 56 65
51 58 67
53 60 69
51 58 67
50 56 65
52 59 68
50 57 66
51 57 66
56 63 72
50 57 65
51 58 68
52 59 68
52 59 68
50 57 67
51 58 67
50 57 66
50 56 65
52 59 68
53 60 69
51 58 67
53 60 69
48 54 63
53 60 69
50 57 66
54 61 71
54 61 71
51 58 67
54 60 70
54 62 71
52 59 68
54 61 70
53 61 70
53 60 70
54 62 71
54 62 71
53 60 69
54 62 72
55 62 71
50 57 67
53 60 70
54 61 70
53 60 70
52 59 68
54 61 70
57 64 74
52 59 68
56 64 74
52 59 69
56 63 73
55 63 72
54 62 72
55 62 72
57 65 74
56 63 73
57 64 74
54 62 72
51 57 66
55 62 72
54 62 71
56 63 73
55 63 73
55 63 73
57 64 74
56 63 73
53 60 69
54 61 71
54 62 72
53 60 70
54 62 72
53 60 69
56 63 73
55 62 72
55 63 72
55 63 72
57 64 74
55 62 72
56 64 74
57 65 75
56 64 74
54 61 70
57 65 75
55 63 73
57 64 74
58 65 76
56 64 74
56 64 74
57 64 74
60 67 78
58 65 75
57 65 75
57 64 74
57 65 75
55 63 73
56 64 75
56 64 74
56 64 74
58 66 77
55 63 73
58 66 76
55 63 73
55 63 73
56 64 74
56 64 74
56 63 73
58 66 76
58 66 76
57 66 76
56 63 73
60 67 77
59 67 78
59 67 77
58 66 77
56 63 73
57 65 75
59 67 77
56 64 74
57 65 75
56 64 74
58 66 76
58 66 76
59 67 78
57 65 76
58 66 76
58 65 76
57 65 76
58 66 76
60 68 78
57 65 75
58 66 76
58 66 77
56 64 74
58 66 77
59 67 77
59 67 78
59 67 77
56 64 74
58 66 76
59 67 78
59 67 77
58 66 76
59 66 76
59 67 77
58 66 76
59 67 78
58 66 76
60 68 79
57 65 75
58 65 76
58 66 77
59 68 78
59 67 78
59 67 77
59 67 78
58 66 76
58 67 78
60 68 78
59 67 78
59 67 77
58 66 76
60 68 78
57 65 76
58 65 75
58 66 77
60 68 79
59 66 77
60 68 78
59 66 76
57 66 76
58 66 76
58 66 76
59 67 77
58 66 76
57 65 76
59 67 78
56 64 73
58 65 75
57 65 76
59 67 78
59 66 76
58 66 77
56 64 74
59 67 77
59 68 78
58 65 76
57 65 76
58 65 76
58 66 76
59 67 78
58 66 76
57 64 75
58 66 77
59 66 77
59 66 76
57 65 75
58 66 77
58 66 76
57 65 74
57 65 76
59 67 78
58 66 76
57 64 74
57 65 76
56 64 74
57 65 75
57 65 76
56 65 75
57 65 75
58 66 76
57 64 74
57 64 74
58 66 77
58 66 76
57 65 75
56 64 75
56 63 73
57 65 75
56 64 74
56 64 74
57 65 76
56 64 74
57 65 75
59 67 77
58 65 76
54 61 71
59 67 77
57 64 74
54 62 71
57 65 75
57 65 75
56 63 73
56 64 73
55 62 72
58 66 76
56 63 73
57 65 75
56 63 74
58 65 76
55 63 73
55 62 72
56 63 73
52 59 69
56 64 74
57 65 75
55 62 71
57 64 74
58 66 76
54 62 72
55 63 72
53 60 70
54 61 71
55 63 72
56 63 73
54 61 71
53 60 70
58 66 76
54 61 71
54 61 70
55 62 71
55 62 71
54 62 71
55 63 72
56 64 74
54 61 71
54 61 70
54 61 71
53 61 70
54 61 71
54 62 71
55 62 71
54 61 71
53 60 69
53 60 69
53 61 70
53 60 69
51 57 66
55 62 71
54 61 70
52 59 68
54 61 70
55 62 72
55 62 72
54 61 70
53 60 69
53 60 69
55 62 72
54 61 70
54 62 71
52 59 69
50 57 66
53 60 69
53 60 70
52 59 68
53 60 69
52 58 67
55 62 71
51 58 67
51 58 67
55 62 71
52 59 68
53 60 70
51 58 67
53 60 70
53 60 70
52 59 68
55 62 71
50 57 65
51 57 66
51 58 67
50 57 66
54 61 70
53 60 68
54 61 70
53 60 70
52 58 67
52 59 68
52 58 68
54 61 70
50 57 65
52 59 68
48 55 64
51 58 66
52 59 68
49 56 64
53 59 68
52 58 67
51 58 66
51 58 67
49 55 63
52 58 67
52 59 68
49 55 64
51 58 67
51 58 67
52 59 68
50 57 65
50 56 65
50 56 64
51 58 67
53 60 69
51 58 67
48 54 62
51 57 66
48 55 64
51 58 66
52 59 68
50 57 66
52 58 67
51 58 66
50 57 66
51 58 68
51 58 66
49 55 63
51 57 66
47 53 62
52 59 68
52 58 67
49 55 63
50 57 65
49 56 65
51 58 67
48 55 63
47 53 62
49 55 64
52 59 68
51 58 67
51 57 66
49 56 65
51 57 66
50 57 65
48 54 62
51 58 66
52 59 68
51 58 67
49 56 64
51 57 66
51 58 67
51 58 67
51 58 67
54 61 70
51 57 66
49 56 65
51 58 67
52 59 69
49 55 63
53 60 69
50 57 66
53 60 69
49 56 64
47 53 61
48 55 63
51 58 67
48 54 62
52 59 68
50 56 64
52 59 68
52 59 69
49 55 63
49 55 64
51 57 66
52 59 68
49 55 63
52 58 67
52 59 68
48 54 62
49 56 65
54 61 70
52 59 68
50 57 66
54 61 70
53 60 69
55 63 73
51 58 66
51 58 67
51 57 66
53 60 69
53 60 70
50 57 65
52 59 68
54 61 70
50 57 65
52 59 68
54 62 72
53 60 70
53 60 70
51 58 68
51 58 67
54 61 70
50 57 65
51 58 67
52 59 68
55 62 71
50 57 67
55 62 71
52 59 68
51 59 68
51 58 66
54 61 70
56 63 72
50 57 66
54 61 70
55 63 73
52 59 68
55 63 72
53 60 70
57 64 74
55 63 73
56 64 74
51 58 67
53 61 70
54 62 71
53 60 69
54 61 71
53 60 69
54 61 71
53 61 70
53 61 70
54 61 71
53 60 69
56 64 74
55 62 72
54 62 72
57 64 74
56 63 73
55 62 72
55 63 73
56 64 73
56 64 74
54 62 71
52 59 69
54 61 71
55 63 73
54 62 71
56 64 74
54 62 71
55 62 72
55 63 73
53 60 69
57 64 75
56 63 73
55 63 73
56 63 73
54 61 71
57 65 75
57 64 74
55 63 73
55 63 73
58 66 77
58 66 76
57 65 75
56 64 73
58 65 75
56 63 73
56 63 73
54 62 72
55 63 73
56 64 75
56 63 73
57 65 75
57 64 74
58 65 76
58 66 77
56 63 73
58 66 76
57 65 75
58 65 76
57 65 75
58 65 75
55 63 73
57 65 75
58 66 76
57 65 76
58 66 76
60 68 79
55 63 73
57 65 75
58 66 76
55 63 73
57 65 75
57 65 75
58 66 77
60 68 78
57 65 75
59 67 78
58 66 77
57 65 76
58 65 76
59 67 77
58 66 77
59 67 77
57 65 75
57 65 75
57 65 75
58 65 75
59 67 77
58 65 76
59 68 79
60 68 79
59 67 77
59 67 78
58 66 76
58 67 77
59 67 77
59 67 77
56 64 74
60 68 79
58 66 77
59 68 78
60 68 78
59 67 78
57 65 76
60 68 78
59 67 77
60 68 78
58 66 77
59 67 77
58 66 77
