P3
400 225
255
163 200 255
163 200 255
163 200 255
163 200 255
163 200 255
163 200 255
163 200 255
163 200 255
163 200 255
163 200 255
163 200 255
162 200 255
162 200 255
162 200 255
162 199 255
162 199 255
162 199 255
162 199 255
162 199 255
162 199 255
162 199 255
162 199 255
161 199 255
161 199 255
161 199 255
161 199 255
161 199 255
161 199 255
161 199 255
161 199 255
161 199 255
161 199 255
160 198 255
160 198 255
160 198 255
160 198 255
160 198 255
160 198 255
160 198 255
160 198 255
160 198 255
160 198 255
159 198 255
159 198 255
159 198 255
159 198 255
159 198 255
159 198 255
159 198 255
159 197 255
159 197 255
159 197 255
158 197 255
158 197 255
158 197 255
158 197 255
158 197 255
158 197 255
158 197 255
158 197 255
158 197 255
157 197 255
157 197 255
157 197 255
157 196 255
157 196 255
157 196 255
157 196 255
157 196 255
157 196 255
157 196 255
156 196 255
156 196 255
156 196 255
156 196 255
156 196 255
156 196 255
156 196 255
156 196 255
156 196 255
155 195 255
155 195 255
155 195 255
155 195 255
155 195 255
155 195 255
155 195 255
155 195 255
155 195 255
154 195 255
154 195 255
154 195 255
154 195 255
154 195 255
154 195 255
154 194 255
154 194 255
154 194 255
153 194 255
153 194 255
153 194 255
153 194 255
153 194 255
153 194 255
153 194 255
153 194 255
153 194 255
152 194 255
152 194 255
152 194 255
152 194 255
152 193 255
152 193 255
152 193 255
152 193 255
152 193 255
152 193 255
151 193 255
151 193 255
151 193 255
151 193 255
151 193 255
151 193 255
151 193 255
151 193 255
151 193 255
151 193 255
150 192 255
150 192 255
150 192 255
150 192 255
150 192 255
150 192 255
150 192 255
150 192 255
150 192 255
150 192 255
149 192 255
149 192 255
149 192 255
149 192 255
149 192 255
149 192 255
149 192 255
149 192 255
149 191 255
149 191 255
149 191 255
149 191 255
148 191 255
148 191 255
148 191 255
148 191 255
148 191 255
148 191 255
148 191 255
148 191 255
148 191 255
148 191 255
148 191 255
148 191 255
148 191 255
148 191 255
147 191 255
147 191 255
147 191 255
147 191 255
147 191 255
147 191 255
147 190 255
147 190 255
147 190 255
147 190 255
147 190 255
147 190 255
147 190 255
147 190 255
147 190 255
147 190 255
147 190 255
147 190 255
147 190 255
147 190 255
147 190 255
147 190 255
147 190 255
147 190 255
146 190 255
146 190 255
146 190 255
146 190 255
146 190 255
146 190 255
146 190 255
146 190 255
146 190 255
146 190 255
146 190 255
146 190 255
146 190 255
146 190 255
146 190 255
146 190 255
146 190 255
146 190 255
146 190 255
146 190 255
146 190 255
146 190 255
146 190 255
146 190 255
146 190 255
146 190 255
147 190 255
147 190 255
147 190 255
147 190 255
147 190 255
147 190 255
147 190 255
147 190 255
147 190 255
147 190 255
147 190 255
147 190 255
147 190 255
147 190 255
147 190 255
147 190 255
147 190 255
147 190 255
147 191 255
147 191 255
147 191 255
147 191 255
147 191 255
147 191 255
148 191 255
148 191 255
148 191 255
148 191 255
148 191 255
148 191 255
148 191 255
148 191 255
148 191 255
148 191 255
148 191 255
148 191 255
148 191 255
148 191 255
149 191 255
149 191 255
149 191 255
149 191 255
149 192 255
149 192 255
149 192 255
149 192 255
149 192 255
149 192 255
149 192 255
149 192 255
150 192 255
150 192 255
150 192 255
150 192 255
150 192 255
150 192 255
150 192 255
150 192 255
150 192 255
150 192 255
151 193 255
151 193 255
151 193 255
151 193 255
151 193 255
151 193 255
151 193 255
151 193 255
151 193 255
151 193 255
152 193 255
152 193 255
152 193 255
152 193 255
152 193 255
152 193 255
152 194 255
152 194 255
152 194 255
152 194 255
153 194 255
153 194 255
153 194 255
153 194 255
153 194 255
153 194 255
153 194 255
153 194 255
153 194 255
154 194 255
154 194 255
154 194 255
154 195 255
154 195 255
154 195 255
154 195 255
154 195 255
154 195 255
155 195 255
155 195 255
155 195 255
155 195 255
155 195 255
155 195 255
155 195 255
155 195 255
155 195 255
156 196 255
156 196 255
156 196 255
156 196 255
156 196 255
156 196 255
156 196 255
156 196 255
156 196 255
157 196 255
157 196 255
157 196 255
157 196 255
157 196 255
157 196 255
157 196 255
157 197 255
157 197 255
157 197 255
158 197 255
158 197 255
158 197 255
158 197 255
158 197 255
158 197 255
158 197 255
158 197 255
158 197 255
159 197 255
159 197 255
159 197 255
159 197 255
159 198 255
159 198 255
159 198 255
159 198 255
159 198 255
159 198 255
160 198 255
160 198 255
160 198 255
160 198 255
160 198 255
160 198 255
160 198 255
160 198 255
160 198 255
160 198 255
161 199 255
161 199 255
161 199 255
161 199 255
161 199 255
161 199 255
161 199 255
161 199 255
161 199 255
161 199 255
161 199 255
162 199 255
162 199 255
162 199 255
162 199 255
162 199 255
162 199 255
162 199 255
162 200 255
162 200 255
162 200 255
163 200 255
163 200 255
163 200 255
163 200 255
163 200 255
163 200 255
163 200 255
163 200 255
163 200 255
163 200 255
163 200 255
164 200 255
163 200 255
163 200 255
163 200 255
163 200 255
163 200 255
163 200 255
163 200 255
163 200 255
163 200 255
163 200 255
163 200 255
163 200 255
162 200 255
162 200 255
162 200 255
162 199 255
162 199 255
162 199 255
162 199 255
162 199 255
162 199 255
162 199 255
162 199 255
161 199 255
161 199 255
161 199 255
161 199 255
161 199 255
161 199 255
161 199 255
161 199 255
161 199 255
161 199 255
160 198 255
160 198 255
160 198 255
160 198 255
160 198 255
160 198 255
160 198 255
160 198 255
160 198 255
160 198 255
159 198 255
159 198 255
159 198 255
159 198 255
159 198 255
159 198 255
159 198 255
159 197 255
159 197 255
159 197 255
158 197 255
158 197 255
158 197 255
158 197 255
158 197 255
158 197 255
158 197 255
158 197 255
158 197 255
157 197 255
157 197 255
157 197 255
157 196 255
157 196 255
157 196 255
157 196 255
157 196 255
157 196 255
157 196 255
156 196 255
156 196 255
156 196 255
156 196 255
156 196 255
156 196 255
156 196 255
156 196 255
156 196 255
155 195 255
155 195 255
155 195 255
155 195 255
155 195 255
155 195 255
155 195 255
155 195 255
155 195 255
154 195 255
154 195 255
154 195 255
154 195 255
154 195 255
154 195 255
154 194 255
154 194 255
154 194 255
153 194 255
153 194 255
153 194 255
153 194 255
153 194 255
153 194 255
153 194 255
153 194 255
153 194 255
152 194 255
152 194 255
152 194 255
152 194 255
152 193 255
152 193 255
152 193 255
152 193 255
152 193 255
152 193 255
151 193 255
151 193 255
151 193 255
151 193 255
151 193 255
151 193 255
151 193 255
151 193 255
151 193 255
151 193 255
150 192 255
150 192 255
150 192 255
150 192 255
150 192 255
150 192 255
150 192 255
150 192 255
150 192 255
150 192 255
150 192 255
149 192 255
149 192 255
149 192 255
149 192 255
149 192 255
149 192 255
149 192 255
149 192 255
149 191 255
149 191 255
149 191 255
149 191 255
148 191 255
148 191 255
148 191 255
148 191 255
148 191 255
148 191 255
148 191 255
148 191 255
148 191 255
148 191 255
148 191 255
148 191 255
148 191 255
148 191 255
148 191 255
147 191 255
147 191 255
147 191 255
147 191 255
147 191 255
147 191 255
147 190 255
147 190 255
147 190 255
147 190 255
147 190 255
147 190 255
147 190 255
147 190 255
147 190 255
147 190 255
147 190 255
147 190 255
147 190 255
147 190 255
147 190 255
147 190 255
147 190 255
147 190 255
147 190 255
147 190 255
147 190 255
147 190 255
147 190 255
147 190 255
147 190 255
147 190 255
147 190 255
147 190 255
147 190 255
147 190 255
147 190 255
147 190 255
147 190 255
147 190 255
147 190 255
147 190 255
147 190 255
147 190 255
147 190 255
147 190 255
147 190 255
147 190 255
147 190 255
147 190 255
147 190 255
147 190 255
147 190 255
147 190 255
147 190 255
147 190 255
147 190 255
147 190 255
147 190 255
147 191 255
147 191 255
147 191 255
147 191 255
147 191 255
147 191 255
147 191 255
148 191 255
148 191 255
148 191 255
148 191 255
148 191 255
148 191 255
148 191 255
148 191 255
148 191 255
148 191 255
148 191 255
148 191 255
148 191 255
148 191 255
148 191 255
149 191 255
149 191 255
149 191 255
149 191 255
149 192 255
149 192 255
149 192 255
149 192 255
149 192 255
149 192 255
149 192 255
149 192 255
150 192 255
150 192 255
150 192 255
150 192 255
150 192 255
150 192 255
150 192 255
150 192 255
150 192 255
150 192 255
150 192 255
151 193 255
151 193 255
151 193 255
151 193 255
151 193 255
151 193 255
151 193 255
151 193 255
151 193 255
151 193 255
152 193 255
152 193 255
152 193 255
152 193 255
152 193 255
152 193 255
152 194 255
152 194 255
152 194 255
152 194 255
153 194 255
153 194 255
153 194 255
153 194 255
153 194 255
153 194 255
153 194 255
153 194 255
153 194 255
154 194 255
154 194 255
154 194 255
154 195 255
154 195 255
154 195 255
154 195 255
154 195 255
154 195 255
155 195 255
155 195 255
155 195 255
155 195 255
155 195 255
155 195 255
155 195 255
155 195 255
155 195 255
156 196 255
156 196 255
156 196 255
156 196 255
156 196 255
156 196 255
156 196 255
156 196 255
156 196 255
157 196 255
157 196 255
157 196 255
157 196 255
157 196 255
157 196 255
157 196 255
157 197 255
157 197 255
157 197 255
158 197 255
158 197 255
158 197 255
158 197 255
158 197 255
158 197 255
158 197 255
158 197 255
158 197 255
159 197 255
159 197 255
159 197 255
159 198 255
159 198 255
159 198 255
159 198 255
159 198 255
159 198 255
159 198 255
160 198 255
160 198 255
160 198 255
160 198 255
160 198 255
160 198 255
160 198 255
160 198 255
160 198 255
160 198 255
161 199 255
161 199 255
161 199 255
161 199 255
161 199 255
161 199 255
161 199 255
161 199 255
161 199 255
161 199 255
162 199 255
162 199 255
162 199 255
162 199 255
162 199 255
162 199 255
162 199 255
162 199 255
162 200 255
162 200 255
162 200 255
163 200 255
163 200 255
163 200 255
163 200 255
163 200 255
163 200 255
163 200 255
163 200 255
163 200 255
163 200 255
163 200 255
164 200 255
164 200 255
164 200 255
164 200 255
164 200 255
164 200 255
163 200 255
163 200 255
163 200 255
163 200 255
163 200 255
163 200 255
163 200 255
163 200 255
163 200 255
163 200 255
163 200 255
162 200 255
162 200 255
162 200 255
162 200 255
162 199 255
162 199 255
162 199 255
162 199 255
162 199 255
162 199 255
162 199 255
161 199 255
161 199 255
161 199 255
161 199 255
161 199 255
161 199 255
161 199 255
161 199 255
161 199 255
161 199 255
160 198 255
160 198 255
160 198 255
160 198 255
160 198 255
160 198 255
160 198 255
160 198 255
160 198 255
160 198 255
159 198 255
159 198 255
159 198 255
159 198 255
159 198 255
159 198 255
159 198 255
159 197 255
159 197 255
159 197 255
158 197 255
158 197 255
158 197 255
158 197 255
158 197 255
158 197 255
158 197 255
158 197 255
158 197 255
157 197 255
157 197 255
157 197 255
157 197 255
157 196 255
157 196 255
157 196 255
157 196 255
157 196 255
157 196 255
156 196 255
156 196 255
156 196 255
156 196 255
156 196 255
156 196 255
156 196 255
156 196 255
156 196 255
155 195 255
155 195 255
155 195 255
155 195 255
155 195 255
155 195 255
155 195 255
155 195 255
155 195 255
154 195 255
154 195 255
154 195 255
154 195 255
154 195 255
154 195 255
154 194 255
154 194 255
154 194 255
153 194 255
153 194 255
153 194 255
153 194 255
153 194 255
153 194 255
153 194 255
153 194 255
153 194 255
153 194 255
152 194 255
152 194 255
152 194 255
152 193 255
152 193 255
152 193 255
152 193 255
152 193 255
152 193 255
151 193 255
151 193 255
151 193 255
151 193 255
151 193 255
151 193 255
151 193 255
151 193 255
151 193 255
151 193 255
150 192 255
150 192 255
150 192 255
150 192 255
150 192 255
150 192 255
150 192 255
150 192 255
150 192 255
150 192 255
150 192 255
149 192 255
149 192 255
149 192 255
149 192 255
149 192 255
149 192 255
149 192 255
149 192 255
149 191 255
149 191 255
149 191 255
149 191 255
149 191 255
148 191 255
148 191 255
148 191 255
148 191 255
148 191 255
148 191 255
148 191 255
148 191 255
148 191 255
148 191 255
148 191 255
148 191 255
148 191 255
148 191 255
148 191 255
148 191 255
147 191 255
147 191 255
147 191 255
147 191 255
147 191 255
147 191 255
147 191 255
147 190 255
147 190 255
147 190 255
147 190 255
147 190 255
147 190 255
147 190 255
147 190 255
147 190 255
147 190 255
147 190 255
147 190 255
147 190 255
147 190 255
147 190 255
147 190 255
147 190 255
147 190 255
147 190 255
147 190 255
147 190 255
147 190 255
147 190 255
147 190 255
147 190 255
147 190 255
147 190 255
147 190 255
147 190 255
147 190 255
147 190 255
147 190 255
147 190 255
147 190 255
147 190 255
147 190 255
147 190 255
147 190 255
147 190 255
147 190 255
147 190 255
147 190 255
147 190 255
147 190 255
147 191 255
147 191 255
147 191 255
147 191 255
147 191 255
147 191 255
147 191 255
148 191 255
148 191 255
148 191 255
148 191 255
148 191 255
148 191 255
148 191 255
148 191 255
148 191 255
148 191 255
148 191 255
148 191 255
148 191 255
148 191 255
148 191 255
148 191 255
149 191 255
149 191 255
149 191 255
149 191 255
149 191 255
149 192 255
149 192 255
149 192 255
149 192 255
149 192 255
149 192 255
149 192 255
149 192 255
150 192 255
150 192 255
150 192 255
150 192 255
150 192 255
150 192 255
150 192 255
150 192 255
150 192 255
150 192 255
150 192 255
151 193 255
151 193 255
151 193 255
151 193 255
151 193 255
151 193 255
151 193 255
151 193 255
151 193 255
151 193 255
152 193 255
152 193 255
152 193 255
152 193 255
152 193 255
152 193 255
152 194 255
152 194 255
152 194 255
153 194 255
153 194 255
153 194 255
153 194 255
153 194 255
153 194 255
153 194 255
153 194 255
153 194 255
153 194 255
154 194 255
154 194 255
154 194 255
154 195 255
154 195 255
154 195 255
154 195 255
154 195 255
154 195 255
155 195 255
155 195 255
155 195 255
155 195 255
155 195 255
155 195 255
155 195 255
155 195 255
155 195 255
156 196 255
156 196 255
156 196 255
156 196 255
156 196 255
156 196 255
156 196 255
156 196 255
156 196 255
157 196 255
157 196 255
157 196 255
157 196 255
157 196 255
157 196 255
157 197 255
157 197 255
157 197 255
157 197 255
158 197 255
158 197 255
158 197 255
158 197 255
158 197 255
158 197 255
158 197 255
158 197 255
158 197 255
159 197 255
159 197 255
159 197 255
159 198 255
159 198 255
159 198 255
159 198 255
159 198 255
159 198 255
159 198 255
160 198 255
160 198 255
160 198 255
160 198 255
160 198 255
160 198 255
160 198 255
160 198 255
160 198 255
160 198 255
161 199 255
161 199 255
161 199 255
161 199 255
161 199 255
161 199 255
161 199 255
161 199 255
161 199 255
161 199 255
162 199 255
162 199 255
162 199 255
162 199 255
162 199 255
162 199 255
162 199 255
162 200 255
162 200 255
162 200 255
162 200 255
163 200 255
163 200 255
163 200 255
163 200 255
163 200 255
163 200 255
163 200 255
163 200 255
163 200 255
163 200 255
163 200 255
164 200 255
164 200 255
164 200 255
164 200 255
164 201 255
164 201 255
164 200 255
164 200 255
164 200 255
164 200 255
163 200 255
163 200 255
163 200 255
163 200 255
163 200 255
163 200 255
163 200 255
163 200 255
163 200 255
163 200 255
163 200 255
162 200 255
162 200 255
162 200 255
162 200 255
162 199 255
162 199 255
162 199 255
162 199 255
162 199 255
162 199 255
162 199 255
161 199 255
161 199 255
161 199 255
161 199 255
161 199 255
161 199 255
161 199 255
161 199 255
161 199 255
161 199 255
160 198 255
160 198 255
160 198 255
160 198 255
160 198 255
160 198 255
160 198 255
160 198 255
160 198 255
160 198 255
159 198 255
159 198 255
159 198 255
159 198 255
159 198 255
159 198 255
159 198 255
159 197 255
159 197 255
159 197 255
158 197 255
158 197 255
158 197 255
158 197 255
158 197 255
158 197 255
158 197 255
158 197 255
158 197 255
157 197 255
157 197 255
157 197 255
157 197 255
157 196 255
157 196 255
157 196 255
157 196 255
157 196 255
157 196 255
156 196 255
156 196 255
156 196 255
156 196 255
156 196 255
156 196 255
156 196 255
156 196 255
156 196 255
155 195 255
155 195 255
155 195 255
155 195 255
155 195 255
155 195 255
155 195 255
155 195 255
155 195 255
154 195 255
154 195 255
154 195 255
154 195 255
154 195 255
154 195 255
154 194 255
154 194 255
154 194 255
153 194 255
153 194 255
153 194 255
153 194 255
153 194 255
153 194 255
153 194 255
153 194 255
153 194 255
153 194 255
152 194 255
152 194 255
152 194 255
152 193 255
152 193 255
152 193 255
152 193 255
152 193 255
152 193 255
151 193 255
151 193 255
151 193 255
151 193 255
151 193 255
151 193 255
151 193 255
151 193 255
151 193 255
151 193 255
150 192 255
150 192 255
150 192 255
150 192 255
150 192 255
150 192 255
150 192 255
150 192 255
150 192 255
150 192 255
150 192 255
150 192 255
149 192 255
149 192 255
149 192 255
149 192 255
149 192 255
149 192 255
149 192 255
149 192 255
149 191 255
149 191 255
149 191 255
149 191 255
149 191 255
148 191 255
148 191 255
148 191 255
148 191 255
148 191 255
148 191 255
148 191 255
148 191 255
148 191 255
148 191 255
148 191 255
148 191 255
148 191 255
148 191 255
148 191 255
148 191 255
148 191 255
147 191 255
147 191 255
147 191 255
147 191 255
147 191 255
147 191 255
147 191 255
147 191 255
147 191 255
147 190 255
147 190 255
147 190 255
147 190 255
147 190 255
147 190 255
147 190 255
147 190 255
147 190 255
147 190 255
147 190 255
147 190 255
147 190 255
147 190 255
147 190 255
147 190 255
147 190 255
147 190 255
147 190 255
147 190 255
147 190 255
147 190 255
147 190 255
147 190 255
147 190 255
147 190 255
147 190 255
147 190 255
147 190 255
147 190 255
147 190 255
147 191 255
147 191 255
147 191 255
147 191 255
147 191 255
147 191 255
147 191 255
147 191 255
147 191 255
147 191 255
148 191 255
148 191 255
148 191 255
148 191 255
148 191 255
148 191 255
148 191 255
148 191 255
148 191 255
148 191 255
148 191 255
148 191 255
148 191 255
148 191 255
148 191 255
148 191 255
148 191 255
149 191 255
149 191 255
149 191 255
149 191 255
149 191 255
149 192 255
149 192 255
149 192 255
149 192 255
149 192 255
149 192 255
149 192 255
149 192 255
150 192 255
150 192 255
150 192 255
150 192 255
150 192 255
150 192 255
150 192 255
150 192 255
150 192 255
150 192 255
150 192 255
151 193 255
151 193 255
151 193 255
151 193 255
151 193 255
151 193 255
151 193 255
151 193 255
151 193 255
151 193 255
151 193 255
152 193 255
152 193 255
152 193 255
152 193 255
152 193 255
152 193 255
152 194 255
152 194 255
152 194 255
153 194 255
153 194 255
153 194 255
153 194 255
153 194 255
153 194 255
153 194 255
153 194 255
153 194 255
153 194 255
154 194 255
154 194 255
154 194 255
154 195 255
154 195 255
154 195 255
154 195 255
154 195 255
154 195 255
155 195 255
155 195 255
155 195 255
155 195 255
155 195 255
155 195 255
155 195 255
155 195 255
155 195 255
156 196 255
156 196 255
156 196 255
156 196 255
156 196 255
156 196 255
156 196 255
156 196 255
156 196 255
157 196 255
157 196 255
157 196 255
157 196 255
157 196 255
157 196 255
157 197 255
157 197 255
157 197 255
157 197 255
158 197 255
158 197 255
158 197 255
158 197 255
158 197 255
158 197 255
158 197 255
158 197 255
158 197 255
159 197 255
159 197 255
159 197 255
159 198 255
159 198 255
159 198 255
159 198 255
159 198 255
159 198 255
159 198 255
160 198 255
160 198 255
160 198 255
160 198 255
160 198 255
160 198 255
160 198 255
160 198 255
160 198 255
160 198 255
161 199 255
161 199 255
161 199 255
161 199 255
161 199 255
161 199 255
161 199 255
161 199 255
161 199 255
161 199 255
162 199 255
162 199 255
162 199 255
162 199 255
162 199 255
162 199 255
162 199 255
162 200 255
162 200 255
162 200 255
162 200 255
163 200 255
163 200 255
163 200 255
163 200 255
163 200 255
163 200 255
163 200 255
163 200 255
163 200 255
163 200 255
163 200 255
164 200 255
164 200 255
164 200 255
164 200 255
164 201 255
164 201 255
164 201 255
164 201 255
164 201 255
164 201 255
164 201 255
164 200 255
164 200 255
164 200 255
164 200 255
163 200 255
163 200 255
163 200 255
163 200 255
163 200 255
163 200 255
163 200 255
163 200 255
163 200 255
163 200 255
163 200 255
162 200 255
162 200 255
162 200 255
162 199 255
162 199 255
162 199 255
162 199 255
162 199 255
162 199 255
162 199 255
161 199 255
161 199 255
161 199 255
161 199 255
161 199 255
161 199 255
161 199 255
161 199 255
161 199 255
161 199 255
161 199 255
160 198 255
160 198 255
160 198 255
160 198 255
160 198 255
160 198 255
160 198 255
160 198 255
160 198 255
160 198 255
159 198 255
159 198 255
159 198 255
159 198 255
159 198 255
159 198 255
159 197 255
159 197 255
159 197 255
158 197 255
158 197 255
158 197 255
158 197 255
158 197 255
158 197 255
158 197 255
158 197 255
158 197 255
157 197 255
157 197 255
157 197 255
157 197 255
157 196 255
157 196 255
157 196 255
157 196 255
157 196 255
157 196 255
156 196 255
156 196 255
156 196 255
156 196 255
156 196 255
156 196 255
156 196 255
156 196 255
156 196 255
155 195 255
155 195 255
155 195 255
155 195 255
155 195 255
155 195 255
155 195 255
155 195 255
155 195 255
154 195 255
154 195 255
154 195 255
154 195 255
154 195 255
154 195 255
154 194 255
154 194 255
154 194 255
153 194 255
153 194 255
153 194 255
153 194 255
153 194 255
153 194 255
153 194 255
153 194 255
153 194 255
153 194 255
152 194 255
152 194 255
152 194 255
152 193 255
152 193 255
152 193 255
152 193 255
152 193 255
152 193 255
152 193 255
151 193 255
151 193 255
151 193 255
151 193 255
151 193 255
151 193 255
151 193 255
151 193 255
151 193 255
151 193 255
150 192 255
150 192 255
150 192 255
150 192 255
150 192 255
150 192 255
150 192 255
150 192 255
150 192 255
150 192 255
150 192 255
149 192 255
149 192 255
149 192 255
149 192 255
149 192 255
149 192 255
149 192 255
149 192 255
149 192 255
149 191 255
149 191 255
149 191 255
149 191 255
149 191 255
148 191 255
148 191 255
148 191 255
148 191 255
148 191 255
148 191 255
148 191 255
148 191 255
148 191 255
148 191 255
148 191 255
148 191 255
148 191 255
148 191 255
148 191 255
148 191 255
148 191 255
148 191 255
148 191 255
148 191 255
147 191 255
147 191 255
147 191 255
147 191 255
147 191 255
147 191 255
147 191 255
147 191 255
147 191 255
147 191 255
147 191 255
147 191 255
147 191 255
147 191 255
147 191 255
147 191 255
147 190 255
147 191 255
147 191 255
147 191 255
147 191 255
147 191 255
147 191 255
147 191 255
147 191 255
147 191 255
147 191 255
147 191 255
147 191 255
147 191 255
147 191 255
147 191 255
147 191 255
147 191 255
147 191 255
147 191 255
147 191 255
147 191 255
148 191 255
148 191 255
148 191 255
148 191 255
148 191 255
148 191 255
148 191 255
148 191 255
148 191 255
148 191 255
148 191 255
148 191 255
148 191 255
148 191 255
148 191 255
148 191 255
148 191 255
148 191 255
148 191 255
148 191 255
149 191 255
149 191 255
149 191 255
149 191 255
149 191 255
149 192 255
149 192 255
149 192 255
149 192 255
149 192 255
149 192 255
149 192 255
149 192 255
149 192 255
150 192 255
150 192 255
150 192 255
150 192 255
150 192 255
150 192 255
150 192 255
150 192 255
150 192 255
150 192 255
150 192 255
151 193 255
151 193 255
151 193 255
151 193 255
151 193 255
151 193 255
151 193 255
151 193 255
151 193 255
151 193 255
152 193 255
152 193 255
152 193 255
152 193 255
152 193 255
152 193 255
152 193 255
152 194 255
152 194 255
152 194 255
153 194 255
153 194 255
153 194 255
153 194 255
153 194 255
153 194 255
153 194 255
153 194 255
153 194 255
153 194 255
154 194 255
154 194 255
154 194 255
154 195 255
154 195 255
154 195 255
154 195 255
154 195 255
154 195 255
155 195 255
155 195 255
155 195 255
155 195 255
155 195 255
155 195 255
155 195 255
155 195 255
155 195 255
156 196 255
156 196 255
156 196 255
156 196 255
156 196 255
156 196 255
156 196 255
156 196 255
156 196 255
157 196 255
157 196 255
157 196 255
157 196 255
157 196 255
157 196 255
157 197 255
157 197 255
157 197 255
158 197 255
158 197 255
158 197 255
158 197 255
158 197 255
158 197 255
158 197 255
158 197 255
158 197 255
158 197 255
159 197 255
159 197 255
159 197 255
159 198 255
159 198 255
159 198 255
159 198 255
159 198 255
159 198 255
160 198 255
160 198 255
160 198 255
160 198 255
160 198 255
160 198 255
160 198 255
160 198 255
160 198 255
160 198 255
161 199 255
161 199 255
161 199 255
161 199 255
161 199 255
161 199 255
161 199 255
161 199 255
161 199 255
161 199 255
161 199 255
162 199 255
162 199 255
162 199 255
162 199 255
162 199 255
162 199 255
162 199 255
162 200 255
162 200 255
162 200 255
163 200 255
163 200 255
163 200 255
163 200 255
163 200 255
163 200 255
163 200 255
163 200 255
163 200 255
163 200 255
163 200 255
164 200 255
164 200 255
164 200 255
164 200 255
164 201 255
164 201 255
164 201 255
164 201 255
164 201 255
164 201 255
164 201 255
164 201 255
164 201 255
164 201 255
164 201 255
164 201 255
164 200 255
164 200 255
164 200 255
164 200 255
163 200 255
163 200 255
163 200 255
163 200 255
163 200 255
163 200 255
163 200 255
163 200 255
163 200 255
163 200 255
163 200 255
162 200 255
162 200 255
162 200 255
162 200 255
162 199 255
162 199 255
162 199 255
162 199 255
162 199 255
162 199 255
162 199 255
161 199 255
161 199 255
161 199 255
161 199 255
161 199 255
161 199 255
161 199 255
161 199 255
161 199 255
161 199 255
160 198 255
160 198 255
160 198 255
160 198 255
160 198 255
160 198 255
160 198 255
160 198 255
160 198 255
160 198 255
159 198 255
159 198 255
159 198 255
159 198 255
159 198 255
159 198 255
159 197 255
159 197 255
159 197 255
158 197 255
158 197 255
158 197 255
158 197 255
158 197 255
158 197 255
158 197 255
158 197 255
158 197 255
158 197 255
157 197 255
157 197 255
157 197 255
157 196 255
157 196 255
157 196 255
157 196 255
157 196 255
157 196 255
156 196 255
156 196 255
156 196 255
156 196 255
156 196 255
156 196 255
156 196 255
156 196 255
156 196 255
155 195 255
155 195 255
155 195 255
155 195 255
155 195 255
155 195 255
155 195 255
155 195 255
155 195 255
154 195 255
154 195 255
154 195 255
154 195 255
154 195 255
154 195 255
154 194 255
154 194 255
154 194 255
153 194 255
153 194 255
153 194 255
153 194 255
153 194 255
153 194 255
153 194 255
153 194 255
153 194 255
153 194 255
152 194 255
152 194 255
152 194 255
152 193 255
152 193 255
152 193 255
152 193 255
152 193 255
152 193 255
152 193 255
151 193 255
151 193 255
151 193 255
151 193 255
151 193 255
151 193 255
151 193 255
151 193 255
151 193 255
151 193 255
151 193 255
150 192 255
150 192 255
150 192 255
150 192 255
150 192 255
150 192 255
150 192 255
150 192 255
150 192 255
150 192 255
150 192 255
149 192 255
149 192 255
149 192 255
149 192 255
149 192 255
149 192 255
149 192 255
149 192 255
149 192 255
149 191 255
149 191 255
149 191 255
149 191 255
149 191 255
149 191 255
148 191 255
148 191 255
148 191 255
148 191 255
148 191 255
148 191 255
148 191 255
148 191 255
148 191 255
148 191 255
148 191 255
148 191 255
148 191 255
148 191 255
148 191 255
148 191 255
148 191 255
148 191 255
148 191 255
148 191 255
148 191 255
148 191 255
148 191 255
148 191 255
147 191 255
147 191 255
147 191 255
147 191 255
147 191 255
147 191 255
147 191 255
147 191 255
147 191 255
147 191 255
147 191 255
147 191 255
147 191 255
147 191 255
147 191 255
147 191 255
147 191 255
147 191 255
147 191 255
147 191 255
147 191 255
148 191 255
148 191 255
148 191 255
148 191 255
148 191 255
148 191 255
148 191 255
148 191 255
148 191 255
148 191 255
148 191 255
148 191 255
148 191 255
148 191 255
148 191 255
148 191 255
148 191 255
148 191 255
148 191 255
148 191 255
148 191 255
148 191 255
148 191 255
148 191 255
148 191 255
149 191 255
149 191 255
149 191 255
149 191 255
149 191 255
149 191 255
149 192 255
149 192 255
149 192 255
149 192 255
149 192 255
149 192 255
149 192 255
149 192 255
149 192 255
150 192 255
150 192 255
150 192 255
150 192 255
150 192 255
150 192 255
150 192 255
150 192 255
150 192 255
150 192 255
150 192 255
150 192 255
151 193 255
151 193 255
151 193 255
151 193 255
151 193 255
151 193 255
151 193 255
151 193 255
151 193 255
151 193 255
152 193 255
152 193 255
152 193 255
152 193 255
152 193 255
152 193 255
152 193 255
152 194 255
152 194 255
152 194 255
153 194 255
153 194 255
153 194 255
153 194 255
153 194 255
153 194 255
153 194 255
153 194 255
153 194 255
154 194 255
154 194 255
154 194 255
154 194 255
154 195 255
154 195 255
154 195 255
154 195 255
154 195 255
154 195 255
155 195 255
155 195 255
155 195 255
155 195 255
155 195 255
155 195 255
155 195 255
155 195 255
155 195 255
156 196 255
156 196 255
156 196 255
156 196 255
156 196 255
156 196 255
156 196 255
156 196 255
156 196 255
157 196 255
157 196 255
157 196 255
157 196 255
157 196 255
157 196 255
157 197 255
157 197 255
157 197 255
158 197 255
158 197 255
158 197 255
158 197 255
158 197 255
158 197 255
158 197 255
158 197 255
158 197 255
158 197 255
159 197 255
159 197 255
159 197 255
159 198 255
159 198 255
159 198 255
159 198 255
159 198 255
159 198 255
160 198 255
160 198 255
160 198 255
160 198 255
160 198 255
160 198 255
160 198 255
160 198 255
160 198 255
160 198 255
161 199 255
161 199 255
161 199 255
161 199 255
161 199 255
161 199 255
161 199 255
161 199 255
161 199 255
161 199 255
162 199 255
162 199 255
162 199 255
162 199 255
162 199 255
162 199 255
162 199 255
162 200 255
162 200 255
162 200 255
162 200 255
163 200 255
163 200 255
163 200 255
163 200 255
163 200 255
163 200 255
163 200 255
163 200 255
163 200 255
163 200 255
163 200 255
164 200 255
164 200 255
164 200 255
164 200 255
164 201 255
164 201 255
164 201 255
164 201 255
164 201 255
164 201 255
164 201 255
165 201 255
165 201 255
164 201 255
164 201 255
164 201 255
164 201 255
164 201 255
164 201 255
164 201 255
164 201 255
164 200 255
164 200 255
164 200 255
163 200 255
163 200 255
163 200 255
163 200 255
163 200 255
163 200 255
163 200 255
163 200 255
163 200 255
163 200 255
163 200 255
162 200 255
162 200 255
162 200 255
162 200 255
162 199 255
162 199 255
162 199 255
162 199 255
162 199 255
162 199 255
162 199 255
161 199 255
161 199 255
161 199 255
161 199 255
161 199 255
161 199 255
161 199 255
161 199 255
161 199 255
161 199 255
160 198 255
160 198 255
160 198 255
160 198 255
160 198 255
160 198 255
160 198 255
160 198 255
160 198 255
160 198 255
159 198 255
159 198 255
159 198 255
159 198 255
159 198 255
159 198 255
159 197 255
159 197 255
159 197 255
158 197 255
158 197 255
158 197 255
158 197 255
158 197 255
158 197 255
158 197 255
158 197 255
158 197 255
158 197 255
157 197 255
157 197 255
157 197 255
157 196 255
157 196 255
157 196 255
157 196 255
157 196 255
157 196 255
156 196 255
156 196 255
156 196 255
156 196 255
156 196 255
156 196 255
156 196 255
156 196 255
156 196 255
155 195 255
155 195 255
155 195 255
155 195 255
155 195 255
155 195 255
155 195 255
155 195 255
155 195 255
154 195 255
154 195 255
154 195 255
154 195 255
154 195 255
154 195 255
154 195 255
154 194 255
154 194 255
154 194 255
153 194 255
153 194 255
153 194 255
153 194 255
153 194 255
153 194 255
153 194 255
153 194 255
153 194 255
152 194 255
152 194 255
152 194 255
152 193 255
152 193 255
152 193 255
152 193 255
152 193 255
152 193 255
152 193 255
151 193 255
151 193 255
151 193 255
151 193 255
151 193 255
151 193 255
151 193 255
151 193 255
151 193 255
151 193 255
151 193 255
150 192 255
150 192 255
150 192 255
150 192 255
150 192 255
150 192 255
150 192 255
150 192 255
150 192 255
150 192 255
150 192 255
150 192 255
149 192 255
149 192 255
149 192 255
149 192 255
149 192 255
149 192 255
149 192 255
149 192 255
149 192 255
149 192 255
149 191 255
149 191 255
149 191 255
149 191 255
149 191 255
148 191 255
148 191 255
148 191 255
148 191 255
148 191 255
148 191 255
148 191 255
148 191 255
148 191 255
148 191 255
148 191 255
148 191 255
148 191 255
148 191 255
148 191 255
148 191 255
148 191 255
148 191 255
148 191 255
148 191 255
148 191 255
148 191 255
148 191 255
148 191 255
148 191 255
148 191 255
148 191 255
148 191 255
148 191 255
148 191 255
148 191 255
148 191 255
148 191 255
148 191 255
148 191 255
148 191 255
148 191 255
148 191 255
148 191 255
148 191 255
148 191 255
148 191 255
148 191 255
148 191 255
148 191 255
148 191 255
148 191 255
148 191 255
148 191 255
148 191 255
148 191 255
148 191 255
148 191 255
148 191 255
148 191 255
148 191 255
148 191 255
148 191 255
148 191 255
148 191 255
148 191 255
148 191 255
148 191 255
148 191 255
149 191 255
149 191 255
149 191 255
149 191 255
149 191 255
149 192 255
149 192 255
149 192 255
149 192 255
149 192 255
149 192 255
149 192 255
149 192 255
149 192 255
149 192 255
150 192 255
150 192 255
150 192 255
150 192 255
150 192 255
150 192 255
150 192 255
150 192 255
150 192 255
150 192 255
150 192 255
150 192 255
151 193 255
151 193 255
151 193 255
151 193 255
151 193 255
151 193 255
151 193 255
151 193 255
151 193 255
151 193 255
151 193 255
152 193 255
152 193 255
152 193 255
152 193 255
152 193 255
152 193 255
152 193 255
152 194 255
152 194 255
152 194 255
153 194 255
153 194 255
153 194 255
153 194 255
153 194 255
153 194 255
153 194 255
153 194 255
153 194 255
154 194 255
154 194 255
154 194 255
154 195 255
154 195 255
154 195 255
154 195 255
154 195 255
154 195 255
154 195 255
155 195 255
155 195 255
155 195 255
155 195 255
155 195 255
155 195 255
155 195 255
155 195 255
155 195 255
156 196 255
156 196 255
156 196 255
156 196 255
156 196 255
156 196 255
156 196 255
156 196 255
156 196 255
157 196 255
157 196 255
157 196 255
157 196 255
157 196 255
157 196 255
157 197 255
157 197 255
157 197 255
158 197 255
158 197 255
158 197 255
158 197 255
158 197 255
158 197 255
158 197 255
158 197 255
158 197 255
158 197 255
159 197 255
159 197 255
159 197 255
159 198 255
159 198 255
159 198 255
159 198 255
159 198 255
159 198 255
160 198 255
160 198 255
160 198 255
160 198 255
160 198 255
160 198 255
160 198 255
160 198 255
160 198 255
160 198 255
161 199 255
161 199 255
161 199 255
161 199 255
161 199 255
161 199 255
161 199 255
161 199 255
161 199 255
161 199 255
162 199 255
162 199 255
162 199 255
162 199 255
162 199 255
162 199 255
162 199 255
162 200 255
162 200 255
162 200 255
162 200 255
163 200 255
163 200 255
163 200 255
163 200 255
163 200 255
163 200 255
163 200 255
163 200 255
163 200 255
163 200 255
163 200 255
164 200 255
164 200 255
164 200 255
164 201 255
164 201 255
164 201 255
164 201 255
164 201 255
164 201 255
164 201 255
164 201 255
165 201 255
165 201 255
165 201 255
165 201 255
165 201 255
165 201 255
164 201 255
164 201 255
164 201 255
164 201 255
164 201 255
164 201 255
164 201 255
164 201 255
164 200 255
164 200 255
164 200 255
164 200 255
163 200 255
163 200 255
163 200 255
163 200 255
163 200 255
163 200 255
163 200 255
163 200 255
163 200 255
163 200 255
163 200 255
162 200 255
162 200 255
162 200 255
162 199 255
162 199 255
162 199 255
162 199 255
162 199 255
162 199 255
162 199 255
161 199 255
161 199 255
161 199 255
161 199 255
161 199 255
161 199 255
161 199 255
161 199 255
161 199 255
161 199 255
160 198 255
160 198 255
160 198 255
160 198 255
160 198 255
160 198 255
160 198 255
160 198 255
160 198 255
160 198 255
159 198 255
159 198 255
159 198 255
159 198 255
159 198 255
159 198 255
159 198 255
159 197 255
159 197 255
159 197 255
158 197 255
158 197 255
158 197 255
158 197 255
158 197 255
158 197 255
158 197 255
158 197 255
158 197 255
157 197 255
157 197 255
157 197 255
157 196 255
157 196 255
157 196 255
157 196 255
157 196 255
157 196 255
156 196 255
156 196 255
156 196 255
156 196 255
156 196 255
156 196 255
156 196 255
156 196 255
156 196 255
155 195 255
155 195 255
155 195 255
155 195 255
155 195 255
155 195 255
155 195 255
155 195 255
155 195 255
155 195 255
154 195 255
154 195 255
154 195 255
154 195 255
154 195 255
154 195 255
154 194 255
154 194 255
154 194 255
153 194 255
153 194 255
153 194 255
153 194 255
153 194 255
153 194 255
153 194 255
153 194 255
153 194 255
152 194 255
152 194 255
152 194 255
152 194 255
152 193 255
152 193 255
152 193 255
152 193 255
152 193 255
152 193 255
152 193 255
151 193 255
151 193 255
151 193 255
151 193 255
151 193 255
151 193 255
151 193 255
151 193 255
151 193 255
151 193 255
151 193 255
150 192 255
150 192 255
150 192 255
150 192 255
150 192 255
150 192 255
150 192 255
150 192 255
150 192 255
150 192 255
150 192 255
150 192 255
149 192 255
149 192 255
149 192 255
149 192 255
149 192 255
149 192 255
149 192 255
149 192 255
149 192 255
149 192 255
149 192 255
149 191 255
149 191 255
149 191 255
149 191 255
149 191 255
149 191 255
148 191 255
148 191 255
148 191 255
148 191 255
148 191 255
148 191 255
148 191 255
148 191 255
148 191 255
148 191 255
148 191 255
148 191 255
148 191 255
148 191 255
148 191 255
148 191 255
148 191 255
148 191 255
148 191 255
148 191 255
148 191 255
148 191 255
148 191 255
148 191 255
148 191 255
148 191 255
148 191 255
148 191 255
148 191 255
148 191 255
148 191 255
148 191 255
148 191 255
148 191 255
148 191 255
148 191 255
148 191 255
148 191 255
148 191 255
148 191 255
148 191 255
148 191 255
148 191 255
148 191 255
148 191 255
148 191 255
148 191 255
148 191 255
148 191 255
148 191 255
148 191 255
148 191 255
148 191 255
148 191 255
149 191 255
149 191 255
149 191 255
149 191 255
149 191 255
149 191 255
149 191 255
149 192 255
149 192 255
149 192 255
149 192 255
149 192 255
149 192 255
149 192 255
149 192 255
149 192 255
149 192 255
150 192 255
150 192 255
150 192 255
150 192 255
150 192 255
150 192 255
150 192 255
150 192 255
150 192 255
150 192 255
150 192 255
150 192 255
151 193 255
151 193 255
151 193 255
151 193 255
151 193 255
151 193 255
151 193 255
151 193 255
151 193 255
151 193 255
151 193 255
152 193 255
152 193 255
152 193 255
152 193 255
152 193 255
152 193 255
152 193 255
152 194 255
152 194 255
152 194 255
152 194 255
153 194 255
153 194 255
153 194 255
153 194 255
153 194 255
153 194 255
153 194 255
153 194 255
153 194 255
154 194 255
154 194 255
154 194 255
154 195 255
154 195 255
154 195 255
154 195 255
154 195 255
154 195 255
154 195 255
155 195 255
155 195 255
155 195 255
155 195 255
155 195 255
155 195 255
155 195 255
155 195 255
155 195 255
156 196 255
156 196 255
156 196 255
156 196 255
156 196 255
156 196 255
156 196 255
156 196 255
156 196 255
157 196 255
157 196 255
157 196 255
157 196 255
157 196 255
157 196 255
157 197 255
157 197 255
157 197 255
158 197 255
158 197 255
158 197 255
158 197 255
158 197 255
158 197 255
158 197 255
158 197 255
158 197 255
159 197 255
159 197 255
159 197 255
159 198 255
159 198 255
159 198 255
159 198 255
159 198 255
159 198 255
159 198 255
160 198 255
160 198 255
160 198 255
160 198 255
160 198 255
160 198 255
160 198 255
160 198 255
160 198 255
160 198 255
161 199 255
161 199 255
161 199 255
161 199 255
161 199 255
161 199 255
161 199 255
161 199 255
161 199 255
161 199 255
162 199 255
162 199 255
162 199 255
162 199 255
162 199 255
162 199 255
162 199 255
162 200 255
162 200 255
162 200 255
163 200 255
163 200 255
163 200 255
163 200 255
163 200 255
163 200 255
163 200 255
163 200 255
163 200 255
163 200 255
163 200 255
164 200 255
164 200 255
164 200 255
164 200 255
164 201 255
164 201 255
164 201 255
164 201 255
164 201 255
164 201 255
164 201 255
164 201 255
165 201 255
165 201 255
165 201 255
165 201 255
165 201 255
165 201 255
165 201 255
165 201 255
165 201 255
165 201 255
165 201 255
164 201 255
164 201 255
164 201 255
164 201 255
164 201 255
164 201 255
164 201 255
164 201 255
164 200 255
164 200 255
164 200 255
163 200 255
163 200 255
163 200 255
163 200 255
163 200 255
163 200 255
163 200 255
163 200 255
163 200 255
163 200 255
163 200 255
162 200 255
162 200 255
162 200 255
162 200 255
162 199 255
162 199 255
162 199 255
162 199 255
162 199 255
162 199 255
161 199 255
161 199 255
161 199 255
161 199 255
161 199 255
161 199 255
161 199 255
161 199 255
161 199 255
161 199 255
161 199 255
160 198 255
160 198 255
160 198 255
160 198 255
160 198 255
160 198 255
160 198 255
160 198 255
160 198 255
159 198 255
159 198 255
159 198 255
159 198 255
159 198 255
159 198 255
159 198 255
159 197 255
159 197 255
159 197 255
158 197 255
158 197 255
158 197 255
158 197 255
158 197 255
158 197 255
158 197 255
158 197 255
158 197 255
157 197 255
157 197 255
157 197 255
157 196 255
157 196 255
157 196 255
157 196 255
157 196 255
157 196 255
156 196 255
156 196 255
156 196 255
156 196 255
156 196 255
156 196 255
156 196 255
156 196 255
156 196 255
156 196 255
155 195 255
155 195 255
155 195 255
155 195 255
155 195 255
155 195 255
155 195 255
155 195 255
155 195 255
154 195 255
154 195 255
154 195 255
154 195 255
154 195 255
154 195 255
154 194 255
154 194 255
154 194 255
153 194 255
153 194 255
153 194 255
153 194 255
153 194 255
153 194 255
153 194 255
153 194 255
153 194 255
153 194 255
152 194 255
152 194 255
152 194 255
152 193 255
152 193 255
152 193 255
152 193 255
152 193 255
152 193 255
152 193 255
151 193 255
151 193 255
151 193 255
151 193 255
151 193 255
151 193 255
151 193 255
151 193 255
151 193 255
151 193 255
151 193 255
150 192 255
150 192 255
150 192 255
150 192 255
150 192 255
150 192 255
150 192 255
150 192 255
150 192 255
150 192 255
150 192 255
150 192 255
150 192 255
150 192 255
149 192 255
149 192 255
149 192 255
149 192 255
149 192 255
149 192 255
149 192 255
149 192 255
149 192 255
149 192 255
149 192 255
149 191 255
149 191 255
149 191 255
149 191 255
149 191 255
149 191 255
149 191 255
148 191 255
148 191 255
148 191 255
148 191 255
148 191 255
148 191 255
148 191 255
148 191 255
148 191 255
148 191 255
148 191 255
148 191 255
148 191 255
148 191 255
148 191 255
148 191 255
148 191 255
148 191 255
148 191 255
148 191 255
148 191 255
148 191 255
148 191 255
148 191 255
148 191 255
148 191 255
148 191 255
148 191 255
148 191 255
148 191 255
148 191 255
148 191 255
148 191 255
148 191 255
148 191 255
148 191 255
148 191 255
148 191 255
148 191 255
148 191 255
148 191 255
148 191 255
148 191 255
148 191 255
149 191 255
149 191 255
149 191 255
149 191 255
149 191 255
149 191 255
149 191 255
149 192 255
149 192 255
149 192 255
149 192 255
149 192 255
149 192 255
149 192 255
149 192 255
149 192 255
149 192 255
149 192 255
149 192 255
150 192 255
150 192 255
150 192 255
150 192 255
150 192 255
150 192 255
150 192 255
150 192 255
150 192 255
150 192 255
150 192 255
150 192 255
150 192 255
151 193 255
151 193 255
151 193 255
151 193 255
151 193 255
151 193 255
151 193 255
151 193 255
151 193 255
151 193 255
151 193 255
152 193 255
152 193 255
152 193 255
152 193 255
152 193 255
152 193 255
152 193 255
152 194 255
152 194 255
152 194 255
153 194 255
153 194 255
153 194 255
153 194 255
153 194 255
153 194 255
153 194 255
153 194 255
153 194 255
153 194 255
154 194 255
154 194 255
154 194 255
154 195 255
154 195 255
154 195 255
154 195 255
154 195 255
154 195 255
155 195 255
155 195 255
155 195 255
155 195 255
155 195 255
155 195 255
155 195 255
155 195 255
155 195 255
155 195 255
156 196 255
156 196 255
156 196 255
156 196 255
156 196 255
156 196 255
156 196 255
156 196 255
156 196 255
157 196 255
157 196 255
157 196 255
157 196 255
157 196 255
157 196 255
157 197 255
157 197 255
157 197 255
158 197 255
158 197 255
158 197 255
158 197 255
158 197 255
158 197 255
158 197 255
158 197 255
158 197 255
159 197 255
159 197 255
159 197 255
159 198 255
159 198 255
159 198 255
159 198 255
159 198 255
159 198 255
159 198 255
160 198 255
160 198 255
160 198 255
160 198 255
160 198 255
160 198 255
160 198 255
160 198 255
160 198 255
161 199 255
161 199 255
161 199 255
161 199 255
161 199 255
161 199 255
161 199 255
161 199 255
161 199 255
161 199 255
162 199 255
162 199 255
162 199 255
162 199 255
162 199 255
162 199 255
162 199 255
162 200 255
162 200 255
162 200 255
162 200 255
163 200 255
163 200 255
163 200 255
163 200 255
163 200 255
163 200 255
163 200 255
163 200 255
163 200 255
163 200 255
163 200 255
164 200 255
164 200 255
164 200 255
164 200 255
164 201 255
164 201 255
164 201 255
164 201 255
164 201 255
164 201 255
164 201 255
165 201 255
165 201 255
165 201 255
165 201 255
165 201 255
165 201 255
165 201 255
165 201 255
165 201 255
165 201 255
165 201 255
165 201 255
165 201 255
165 201 255
165 201 255
165 201 255
164 201 255
164 201 255
164 201 255
164 201 255
164 201 255
164 201 255
164 201 255
164 201 255
164 200 255
164 200 255
164 200 255
164 200 255
163 200 255
163 200 255
163 200 255
163 200 255
163 200 255
163 200 255
163 200 255
163 200 255
163 200 255
163 200 255
162 200 255
162 200 255
162 200 255
162 200 255
162 199 255
162 199 255
162 199 255
162 199 255
162 199 255
162 199 255
162 199 255
161 199 255
161 199 255
161 199 255
161 199 255
161 199 255
161 199 255
161 199 255
161 199 255
161 199 255
161 199 255
160 198 255
160 198 255
160 198 255
160 198 255
160 198 255
160 198 255
160 198 255
160 198 255
160 198 255
160 198 255
159 198 255
159 198 255
159 198 255
159 198 255
159 198 255
159 198 255
159 197 255
159 197 255
159 197 255
158 197 255
158 197 255
158 197 255
158 197 255
158 197 255
158 197 255
158 197 255
158 197 255
158 197 255
157 197 255
157 197 255
157 197 255
157 196 255
157 196 255
157 196 255
157 196 255
157 196 255
157 196 255
157 196 255
156 196 255
156 196 255
156 196 255
156 196 255
156 196 255
156 196 255
156 196 255
156 196 255
156 196 255
155 195 255
155 195 255
155 195 255
155 195 255
155 195 255
155 195 255
155 195 255
155 195 255
155 195 255
154 195 255
154 195 255
154 195 255
154 195 255
154 195 255
154 195 255
154 194 255
154 194 255
154 194 255
153 194 255
153 194 255
153 194 255
153 194 255
153 194 255
153 194 255
153 194 255
153 194 255
153 194 255
153 194 255
152 194 255
152 194 255
152 194 255
152 194 255
152 193 255
152 193 255
152 193 255
152 193 255
152 193 255
152 193 255
152 193 255
151 193 255
151 193 255
151 193 255
151 193 255
151 193 255
151 193 255
151 193 255
151 193 255
151 193 255
151 193 255
151 193 255
150 192 255
150 192 255
150 192 255
150 192 255
150 192 255
150 192 255
150 192 255
150 192 255
150 192 255
150 192 255
150 192 255
150 192 255
150 192 255
150 192 255
149 192 255
149 192 255
149 192 255
149 192 255
149 192 255
149 192 255
149 192 255
149 192 255
149 192 255
149 192 255
149 192 255
149 192 255
149 191 255
149 191 255
149 191 255
149 191 255
149 191 255
149 191 255
149 191 255
149 191 255
149 191 255
149 191 255
148 191 255
148 191 255
148 191 255
148 191 255
148 191 255
148 191 255
148 191 255
148 191 255
148 191 255
148 191 255
148 191 255
148 191 255
148 191 255
148 191 255
148 191 255
148 191 255
148 191 255
148 191 255
148 191 255
148 191 255
148 191 255
148 191 255
148 191 255
148 191 255
148 191 255
148 191 255
148 191 255
148 191 255
148 191 255
148 191 255
149 191 255
149 191 255
149 191 255
149 191 255
149 191 255
149 191 255
149 191 255
149 191 255
149 191 255
149 192 255
149 192 255
149 192 255
149 192 255
149 192 255
149 192 255
149 192 255
149 192 255
149 192 255
149 192 255
149 192 255
149 192 255
149 192 255
150 192 255
150 192 255
150 192 255
150 192 255
150 192 255
150 192 255
150 192 255
150 192 255
150 192 255
150 192 255
150 192 255
150 192 255
150 192 255
150 192 255
151 193 255
151 193 255
151 193 255
151 193 255
151 193 255
151 193 255
151 193 255
151 193 255
151 193 255
151 193 255
151 193 255
152 193 255
152 193 255
152 193 255
152 193 255
152 193 255
152 193 255
152 193 255
152 194 255
152 194 255
152 194 255
152 194 255
153 194 255
153 194 255
153 194 255
153 194 255
153 194 255
153 194 255
153 194 255
153 194 255
153 194 255
153 194 255
154 194 255
154 194 255
154 194 255
154 195 255
154 195 255
154 195 255
154 195 255
154 195 255
154 195 255
155 195 255
155 195 255
155 195 255
155 195 255
155 195 255
155 195 255
155 195 255
155 195 255
155 195 255
156 196 255
156 196 255
156 196 255
156 196 255
156 196 255
156 196 255
156 196 255
156 196 255
156 196 255
157 196 255
157 196 255
157 196 255
157 196 255
157 196 255
157 196 255
157 196 255
157 197 255
157 197 255
157 197 255
158 197 255
158 197 255
158 197 255
158 197 255
158 197 255
158 197 255
158 197 255
158 197 255
158 197 255
159 197 255
159 197 255
159 197 255
159 198 255
159 198 255
159 198 255
159 198 255
159 198 255
159 198 255
159 198 255
160 198 255
160 198 255
160 198 255
160 198 255
160 198 255
160 198 255
160 198 255
160 198 255
160 198 255
161 199 255
161 199 255
161 199 255
161 199 255
161 199 255
161 199 255
161 199 255
161 199 255
161 199 255
161 199 255
162 199 255
162 199 255
162 199 255
162 199 255
162 199 255
162 199 255
162 199 255
162 200 255
162 200 255
162 200 255
162 200 255
163 200 255
163 200 255
163 200 255
163 200 255
163 200 255
163 200 255
163 200 255
163 200 255
163 200 255
163 200 255
164 200 255
164 200 255
164 200 255
164 200 255
164 201 255
164 201 255
164 201 255
164 201 255
164 201 255
164 201 255
164 201 255
164 201 255
165 201 255
165 201 255
165 201 255
165 201 255
165 201 255
165 201 255
165 201 255
165 201 255
165 201 255
165 201 255
165 201 255
165 201 255
165 201 255
165 201 255
165 201 255
165 201 255
165 201 255
165 201 255
165 201 255
165 201 255
165 201 255
164 201 255
164 201 255
164 201 255
164 201 255
164 201 255
164 201 255
164 201 255
164 200 255
164 200 255
164 200 255
164 200 255
163 200 255
163 200 255
163 200 255
163 200 255
163 200 255
163 200 255
163 200 255
163 200 255
163 200 255
163 200 255
163 200 255
162 200 255
162 200 255
162 200 255
162 199 255
162 199 255
162 199 255
162 199 255
162 199 255
162 199 255
162 199 255
161 199 255
161 199 255
161 199 255
161 199 255
161 199 255
161 199 255
161 199 255
161 199 255
161 199 255
161 199 255
160 198 255
160 198 255
160 198 255
160 198 255
160 198 255
160 198 255
160 198 255
160 198 255
160 198 255
160 198 255
159 198 255
159 198 255
159 198 255
159 198 255
159 198 255
159 198 255
159 197 255
159 197 255
159 197 255
158 197 255
158 197 255
158 197 255
158 197 255
158 197 255
158 197 255
158 197 255
158 197 255
158 197 255
157 197 255
157 197 255
157 197 255
157 197 255
157 196 255
157 196 255
157 196 255
157 196 255
157 196 255
157 196 255
156 196 255
156 196 255
156 196 255
156 196 255
156 196 255
156 196 255
156 196 255
156 196 255
156 196 255
155 195 255
155 195 255
155 195 255
155 195 255
155 195 255
155 195 255
155 195 255
155 195 255
155 195 255
154 195 255
154 195 255
154 195 255
154 195 255
154 195 255
154 195 255
154 194 255
154 194 255
154 194 255
154 194 255
153 194 255
153 194 255
153 194 255
153 194 255
153 194 255
153 194 255
153 194 255
153 194 255
153 194 255
153 194 255
152 194 255
152 194 255
152 194 255
152 193 255
152 193 255
152 193 255
152 193 255
152 193 255
152 193 255
152 193 255
151 193 255
151 193 255
151 193 255
151 193 255
151 193 255
151 193 255
151 193 255
151 193 255
151 193 255
151 193 255
151 193 255
151 193 255
150 192 255
150 192 255
150 192 255
150 192 255
150 192 255
150 192 255
150 192 255
150 192 255
150 192 255
150 192 255
150 192 255
150 192 255
150 192 255
150 192 255
150 192 255
149 192 255
149 192 255
149 192 255
149 192 255
149 192 255
149 192 255
149 192 255
149 192 255
149 192 255
149 192 255
149 192 255
149 192 255
149 192 255
149 192 255
149 192 255
149 191 255
149 191 255
149 191 255
149 191 255
149 191 255
149 191 255
149 191 255
149 191 255
149 191 255
149 191 255
149 191 255
149 191 255
149 191 255
149 191 255
149 191 255
149 191 255
148 191 255
149 191 255
149 191 255
149 191 255
149 191 255
149 191 255
149 191 255
149 191 255
149 191 255
149 191 255
149 191 255
149 191 255
149 191 255
149 191 255
149 191 255
149 191 255
149 191 255
149 191 255
149 191 255
149 191 255
149 191 255
149 192 255
149 192 255
149 192 255
149 192 255
149 192 255
149 192 255
149 192 255
149 192 255
149 192 255
149 192 255
149 192 255
149 192 255
149 192 255
149 192 255
150 192 255
150 192 255
150 192 255
150 192 255
150 192 255
150 192 255
150 192 255
150 192 255
150 192 255
150 192 255
150 192 255
150 192 255
150 192 255
150 192 255
150 192 255
151 193 255
151 193 255
151 193 255
151 193 255
151 193 255
151 193 255
151 193 255
151 193 255
151 193 255
151 193 255
151 193 255
151 193 255
152 193 255
152 193 255
152 193 255
152 193 255
152 193 255
152 193 255
152 193 255
152 194 255
152 194 255
152 194 255
153 194 255
153 194 255
153 194 255
153 194 255
153 194 255
153 194 255
153 194 255
153 194 255
153 194 255
153 194 255
154 194 255
154 194 255
154 194 255
154 195 255
154 195 255
154 195 255
154 195 255
154 195 255
154 195 255
154 195 255
155 195 255
155 195 255
155 195 255
155 195 255
155 195 255
155 195 255
155 195 255
155 195 255
155 195 255
156 196 255
156 196 255
156 196 255
156 196 255
156 196 255
156 196 255
156 196 255
156 196 255
156 196 255
157 196 255
157 196 255
157 196 255
157 196 255
157 196 255
157 196 255
157 197 255
157 197 255
157 197 255
158 197 255
158 197 255
158 197 255
158 197 255
158 197 255
158 197 255
158 197 255
158 197 255
158 197 255
158 197 255
159 197 255
159 197 255
159 197 255
159 198 255
159 198 255
159 198 255
159 198 255
159 198 255
159 198 255
160 198 255
160 198 255
160 198 255
160 198 255
160 198 255
160 198 255
160 198 255
160 198 255
160 198 255
160 198 255
161 199 255
161 199 255
161 199 255
161 199 255
161 199 255
161 199 255
161 199 255
161 199 255
161 199 255
161 199 255
162 199 255
162 199 255
162 199 255
162 199 255
162 199 255
162 199 255
162 199 255
162 200 255
162 200 255
162 200 255
163 200 255
163 200 255
163 200 255
163 200 255
163 200 255
163 200 255
163 200 255
163 200 255
163 200 255
163 200 255
163 200 255
164 200 255
164 200 255
164 200 255
164 200 255
164 201 255
164 201 255
164 201 255
164 201 255
164 201 255
164 201 255
164 201 255
165 201 255
165 201 255
165 201 255
165 201 255
165 201 255
165 201 255
165 201 255
165 201 255
165 201 255
165 201 255
165 201 255
165 201 255
166 202 255
166 202 255
166 202 255
165 201 255
165 201 255
165 201 255
165 201 255
165 201 255
165 201 255
165 201 255
165 201 255
165 201 255
165 201 255
165 201 255
164 201 255
164 201 255
164 201 255
164 201 255
164 201 255
164 201 255
164 201 255
164 201 255
164 200 255
164 200 255
164 200 255
164 200 255
163 200 255
163 200 255
163 200 255
163 200 255
163 200 255
163 200 255
163 200 255
163 200 255
163 200 255
163 200 255
162 200 255
162 200 255
162 200 255
162 200 255
162 199 255
162 199 255
162 199 255
162 199 255
162 199 255
162 199 255
162 199 255
161 199 255
161 199 255
161 199 255
161 199 255
161 199 255
161 199 255
161 199 255
161 199 255
161 199 255
160 198 255
160 198 255
160 198 255
160 198 255
160 198 255
160 198 255
160 198 255
160 198 255
160 198 255
160 198 255
159 198 255
159 198 255
159 198 255
159 198 255
159 198 255
159 198 255
159 197 255
159 197 255
159 197 255
158 197 255
158 197 255
158 197 255
158 197 255
158 197 255
158 197 255
158 197 255
158 197 255
158 197 255
158 197 255
157 197 255
157 197 255
157 197 255
157 196 255
157 196 255
157 196 255
157 196 255
157 196 255
157 196 255
156 196 255
156 196 255
156 196 255
156 196 255
156 196 255
156 196 255
156 196 255
156 196 255
156 196 255
155 195 255
155 195 255
155 195 255
155 195 255
155 195 255
155 195 255
155 195 255
155 195 255
155 195 255
154 195 255
154 195 255
154 195 255
154 195 255
154 195 255
154 195 255
154 195 255
154 194 255
154 194 255
154 194 255
153 194 255
153 194 255
153 194 255
153 194 255
153 194 255
153 194 255
153 194 255
153 194 255
153 194 255
153 194 255
152 194 255
152 194 255
152 194 255
152 194 255
152 193 255
152 193 255
152 193 255
152 193 255
152 193 255
152 193 255
152 193 255
151 193 255
151 193 255
151 193 255
151 193 255
151 193 255
151 193 255
151 193 255
151 193 255
151 193 255
151 193 255
151 193 255
151 193 255
150 192 255
150 192 255
150 192 255
150 192 255
150 192 255
150 192 255
150 192 255
150 192 255
150 192 255
150 192 255
150 192 255
150 192 255
150 192 255
150 192 255
150 192 255
150 192 255
149 192 255
149 192 255
149 192 255
149 192 255
149 192 255
149 192 255
149 192 255
149 192 255
149 192 255
149 192 255
149 192 255
149 192 255
149 192 255
149 192 255
149 192 255
149 192 255
149 192 255
149 192 255
149 192 255
149 192 255
149 191 255
149 191 255
149 191 255
149 191 255
149 191 255
149 191 255
149 191 255
149 191 255
149 191 255
149 191 255
149 191 255
149 191 255
149 191 255
149 191 255
149 191 255
149 191 255
149 191 255
149 191 255
149 191 255
149 192 255
149 192 255
149 192 255
149 192 255
149 192 255
149 192 255
149 192 255
149 192 255
149 192 255
149 192 255
149 192 255
149 192 255
149 192 255
149 192 255
149 192 255
149 192 255
149 192 255
149 192 255
149 192 255
150 192 255
150 192 255
150 192 255
150 192 255
150 192 255
150 192 255
150 192 255
150 192 255
150 192 255
150 192 255
150 192 255
150 192 255
150 192 255
150 192 255
150 192 255
150 192 255
151 193 255
151 193 255
151 193 255
151 193 255
151 193 255
151 193 255
151 193 255
151 193 255
151 193 255
151 193 255
151 193 255
151 193 255
152 193 255
152 193 255
152 193 255
152 193 255
152 193 255
152 193 255
152 193 255
152 194 255
152 194 255
152 194 255
152 194 255
153 194 255
153 194 255
153 194 255
153 194 255
153 194 255
153 194 255
153 194 255
153 194 255
153 194 255
153 194 255
154 194 255
154 194 255
154 194 255
154 195 255
154 195 255
154 195 255
154 195 255
154 195 255
154 195 255
155 195 255
155 195 255
155 195 255
155 195 255
155 195 255
155 195 255
155 195 255
155 195 255
155 195 255
155 195 255
156 196 255
156 196 255
156 196 255
156 196 255
156 196 255
156 196 255
156 196 255
156 196 255
156 196 255
157 196 255
157 196 255
157 196 255
157 196 255
157 196 255
157 196 255
157 197 255
157 197 255
157 197 255
158 197 255
158 197 255
158 197 255
158 197 255
158 197 255
158 197 255
158 197 255
158 197 255
158 197 255
158 197 255
159 197 255
159 197 255
159 197 255
159 198 255
159 198 255
159 198 255
159 198 255
159 198 255
159 198 255
160 198 255
160 198 255
160 198 255
160 198 255
160 198 255
160 198 255
160 198 255
160 198 255
160 198 255
160 198 255
161 199 255
161 199 255
161 199 255
161 199 255
161 199 255
161 199 255
161 199 255
161 199 255
161 199 255
161 199 255
162 199 255
162 199 255
162 199 255
162 199 255
162 199 255
162 199 255
162 200 255
162 200 255
162 200 255
162 200 255
163 200 255
163 200 255
163 200 255
163 200 255
163 200 255
163 200 255
163 200 255
163 200 255
163 200 255
163 200 255
163 200 255
164 200 255
164 200 255
164 200 255
164 201 255
164 201 255
164 201 255
164 201 255
164 201 255
164 201 255
164 201 255
164 201 255
165 201 255
165 201 255
165 201 255
165 201 255
165 201 255
165 201 255
165 201 255
165 201 255
165 201 255
165 201 255
165 201 255
166 202 255
166 202 255
166 202 255
166 202 255
166 202 255
166 202 255
166 202 255
166 202 255
165 201 255
165 201 255
165 201 255
165 201 255
165 201 255
165 201 255
165 201 255
165 201 255
165 201 255
165 201 255
165 201 255
165 201 255
164 201 255
164 201 255
164 201 255
164 201 255
164 201 255
164 201 255
164 201 255
164 200 255
164 200 255
164 200 255
164 200 255
163 200 255
163 200 255
163 200 255
163 200 255
163 200 255
163 200 255
163 200 255
163 200 255
163 200 255
163 200 255
163 200 255
162 200 255
162 200 255
162 200 255
162 199 255
162 199 255
162 199 255
162 199 255
162 199 255
162 199 255
162 199 255
161 199 255
161 199 255
161 199 255
161 199 255
161 199 255
161 199 255
161 199 255
161 199 255
161 199 255
161 199 255
160 198 255
160 198 255
160 198 255
160 198 255
160 198 255
160 198 255
160 198 255
160 198 255
160 198 255
159 198 255
159 198 255
159 198 255
159 198 255
159 198 255
159 198 255
159 198 255
159 197 255
159 197 255
159 197 255
158 197 255
158 197 255
158 197 255
158 197 255
158 197 255
158 197 255
158 197 255
158 197 255
158 197 255
157 197 255
157 197 255
157 197 255
157 196 255
157 196 255
157 196 255
157 196 255
157 196 255
157 196 255
156 196 255
156 196 255
156 196 255
156 196 255
156 196 255
156 196 255
156 196 255
156 196 255
156 196 255
155 195 255
155 195 255
155 195 255
155 195 255
155 195 255
155 195 255
155 195 255
155 195 255
155 195 255
155 195 255
154 195 255
154 195 255
154 195 255
154 195 255
154 195 255
154 195 255
154 194 255
154 194 255
154 194 255
153 194 255
153 194 255
153 194 255
153 194 255
153 194 255
153 194 255
153 194 255
153 194 255
153 194 255
153 194 255
153 194 255
152 194 255
152 194 255
152 194 255
152 193 255
152 193 255
152 193 255
152 193 255
152 193 255
152 193 255
152 193 255
152 193 255
151 193 255
151 193 255
151 193 255
151 193 255
151 193 255
151 193 255
151 193 255
151 193 255
151 193 255
151 193 255
151 193 255
151 193 255
151 193 255
150 192 255
150 192 255
150 192 255
150 192 255
150 192 255
150 192 255
150 192 255
150 192 255
150 192 255
150 192 255
150 192 255
150 192 255
150 192 255
150 192 255
150 192 255
150 192 255
150 192 255
149 192 255
149 192 255
149 192 255
149 192 255
149 192 255
149 192 255
149 192 255
149 192 255
149 192 255
149 192 255
149 192 255
149 192 255
149 192 255
149 192 255
149 192 255
149 192 255
149 192 255
149 192 255
149 192 255
149 192 255
149 192 255
149 192 255
149 192 255
149 192 255
149 192 255
149 192 255
149 192 255
149 192 255
149 192 255
149 192 255
149 192 255
149 192 255
149 192 255
149 192 255
149 192 255
149 192 255
149 192 255
149 192 255
149 192 255
149 192 255
149 192 255
149 192 255
149 192 255
149 192 255
149 192 255
149 192 255
149 192 255
149 192 255
150 192 255
150 192 255
150 192 255
150 192 255
150 192 255
150 192 255
150 192 255
150 192 255
150 192 255
150 192 255
150 192 255
150 192 255
150 192 255
150 192 255
150 192 255
150 192 255
150 192 255
151 193 255
151 193 255
151 193 255
151 193 255
151 193 255
151 193 255
151 193 255
151 193 255
151 193 255
151 193 255
151 193 255
151 193 255
151 193 255
152 193 255
152 193 255
152 193 255
152 193 255
152 193 255
152 193 255
152 193 255
152 193 255
152 194 255
152 194 255
152 194 255
153 194 255
153 194 255
153 194 255
153 194 255
153 194 255
153 194 255
153 194 255
153 194 255
153 194 255
153 194 255
153 194 255
154 194 255
154 194 255
154 194 255
154 195 255
154 195 255
154 195 255
154 195 255
154 195 255
154 195 255
155 195 255
155 195 255
155 195 255
155 195 255
155 195 255
155 195 255
155 195 255
155 195 255
155 195 255
155 195 255
156 196 255
156 196 255
156 196 255
156 196 255
156 196 255
156 196 255
156 196 255
156 196 255
156 196 255
157 196 255
157 196 255
157 196 255
157 196 255
157 196 255
157 196 255
157 197 255
157 197 255
157 197 255
158 197 255
158 197 255
158 197 255
158 197 255
158 197 255
158 197 255
158 197 255
158 197 255
158 197 255
159 197 255
159 197 255
159 197 255
159 198 255
159 198 255
159 198 255
159 198 255
159 198 255
159 198 255
159 198 255
160 198 255
160 198 255
160 198 255
160 198 255
160 198 255
160 198 255
160 198 255
160 198 255
160 198 255
161 199 255
161 199 255
161 199 255
161 199 255
161 199 255
161 199 255
161 199 255
161 199 255
161 199 255
161 199 255
162 199 255
162 199 255
162 199 255
162 199 255
162 199 255
162 199 255
162 199 255
162 200 255
162 200 255
162 200 255
163 200 255
163 200 255
163 200 255
163 200 255
163 200 255
163 200 255
163 200 255
163 200 255
163 200 255
163 200 255
163 200 255
164 200 255
164 200 255
164 200 255
164 200 255
164 201 255
164 201 255
164 201 255
164 201 255
164 201 255
164 201 255
164 201 255
165 201 255
165 201 255
165 201 255
165 201 255
165 201 255
165 201 255
165 201 255
165 201 255
165 201 255
165 201 255
165 201 255
165 201 255
166 202 255
166 202 255
166 202 255
166 202 255
166 202 255
166 202 255
166 202 255
166 202 255
166 202 255
166 202 255
166 202 255
166 202 255
166 202 255
165 201 255
165 201 255
165 201 255
165 201 255
165 201 255
165 201 255
165 201 255
165 201 255
165 201 255
165 201 255
165 201 255
164 201 255
164 201 255
164 201 255
164 201 255
164 201 255
164 201 255
164 201 255
164 201 255
164 200 255
164 200 255
164 200 255
163 200 255
163 200 255
163 200 255
163 200 255
163 200 255
163 200 255
163 200 255
163 200 255
163 200 255
163 200 255
163 200 255
162 200 255
162 200 255
162 200 255
162 199 255
162 199 255
162 199 255
162 199 255
162 199 255
162 199 255
162 199 255
161 199 255
161 199 255
161 199 255
161 199 255
161 199 255
161 199 255
161 199 255
161 199 255
161 199 255
161 199 255
160 198 255
160 198 255
160 198 255
160 198 255
160 198 255
160 198 255
160 198 255
160 198 255
160 198 255
159 198 255
159 198 255
159 198 255
159 198 255
159 198 255
159 198 255
159 198 255
159 197 255
159 197 255
159 197 255
158 197 255
158 197 255
158 197 255
158 197 255
158 197 255
158 197 255
158 197 255
158 197 255
158 197 255
157 197 255
157 197 255
157 197 255
157 196 255
157 196 255
157 196 255
157 196 255
157 196 255
157 196 255
156 196 255
156 196 255
156 196 255
156 196 255
156 196 255
156 196 255
156 196 255
156 196 255
156 196 255
156 196 255
155 195 255
155 195 255
155 195 255
155 195 255
155 195 255
155 195 255
155 195 255
155 195 255
155 195 255
154 195 255
154 195 255
154 195 255
154 195 255
154 195 255
154 195 255
154 195 255
154 194 255
154 194 255
154 194 255
153 194 255
153 194 255
153 194 255
153 194 255
153 194 255
153 194 255
153 194 255
153 194 255
153 194 255
153 194 255
152 194 255
152 194 255
152 194 255
152 194 255
152 193 255
152 193 255
152 193 255
152 193 255
152 193 255
152 193 255
152 193 255
151 193 255
151 193 255
151 193 255
151 193 255
151 193 255
151 193 255
151 193 255
151 193 255
151 193 255
151 193 255
151 193 255
151 193 255
151 193 255
151 193 255
150 192 255
150 192 255
150 192 255
150 192 255
150 192 255
150 192 255
150 192 255
150 192 255
150 192 255
150 192 255
150 192 255
150 192 255
150 192 255
150 192 255
150 192 255
150 192 255
150 192 255
150 192 255
150 192 255
150 192 255
150 192 255
149 192 255
149 192 255
149 192 255
149 192 255
149 192 255
149 192 255
149 192 255
149 192 255
149 192 255
149 192 255
149 192 255
149 192 255
149 192 255
149 192 255
149 192 255
149 192 255
149 192 255
149 192 255
149 192 255
149 192 255
149 192 255
149 192 255
149 192 255
149 192 255
149 192 255
149 192 255
149 192 255
149 192 255
149 192 255
149 192 255
149 192 255
149 192 255
149 192 255
149 192 255
149 192 255
150 192 255
150 192 255
150 192 255
150 192 255
150 192 255
150 192 255
150 192 255
150 192 255
150 192 255
150 192 255
150 192 255
150 192 255
150 192 255
150 192 255
150 192 255
150 192 255
150 192 255
150 192 255
150 192 255
150 192 255
151 193 255
151 193 255
151 193 255
151 193 255
151 193 255
151 193 255
151 193 255
151 193 255
151 193 255
151 193 255
151 193 255
151 193 255
151 193 255
152 193 255
152 193 255
152 193 255
152 193 255
152 193 255
152 193 255
152 193 255
152 193 255
152 194 255
152 194 255
152 194 255
152 194 255
153 194 255
153 194 255
153 194 255
153 194 255
153 194 255
153 194 255
153 194 255
153 194 255
153 194 255
153 194 255
154 194 255
154 194 255
154 194 255
154 195 255
154 195 255
154 195 255
154 195 255
154 195 255
154 195 255
154 195 255
155 195 255
155 195 255
155 195 255
155 195 255
155 195 255
155 195 255
155 195 255
155 195 255
155 195 255
156 196 255
156 196 255
156 196 255
156 196 255
156 196 255
156 196 255
156 196 255
156 196 255
156 196 255
156 196 255
157 196 255
157 196 255
157 196 255
157 196 255
157 196 255
157 196 255
157 197 255
157 197 255
157 197 255
158 197 255
158 197 255
158 197 255
158 197 255
158 197 255
158 197 255
158 197 255
158 197 255
158 197 255
159 197 255
159 197 255
159 197 255
159 198 255
159 198 255
159 198 255
159 198 255
159 198 255
159 198 255
160 198 255
160 198 255
160 198 255
160 198 255
160 198 255
160 198 255
160 198 255
160 198 255
160 198 255
160 198 255
161 199 255
161 199 255
161 199 255
161 199 255
161 199 255
161 199 255
161 199 255
161 199 255
161 199 255
161 199 255
162 199 255
162 199 255
162 199 255
162 199 255
162 199 255
162 199 255
162 199 255
162 200 255
162 200 255
162 200 255
163 200 255
163 200 255
163 200 255
163 200 255
163 200 255
163 200 255
163 200 255
163 200 255
163 200 255
163 200 255
163 200 255
164 200 255
164 200 255
164 200 255
164 201 255
164 201 255
164 201 255
164 201 255
164 201 255
164 201 255
164 201 255
165 201 255
165 201 255
165 201 255
165 201 255
165 201 255
165 201 255
165 201 255
165 201 255
165 201 255
165 201 255
165 201 255
165 201 255
166 202 255
166 202 255
166 202 255
166 202 255
166 202 255
166 202 255
166 202 255
166 202 255
166 202 255
166 202 255
166 202 255
166 202 255
166 202 255
166 202 255
166 202 255
166 202 255
166 202 255
166 202 255
165 201 255
165 201 255
165 201 255
165 201 255
165 201 255
165 201 255
165 201 255
165 201 255
165 201 255
165 201 255
165 201 255
165 201 255
164 201 255
164 201 255
164 201 255
164 201 255
164 201 255
164 201 255
164 201 255
164 200 255
164 200 255
164 200 255
164 200 255
163 200 255
163 200 255
163 200 255
163 200 255
163 200 255
163 200 255
163 200 255
163 200 255
163 200 255
163 200 255
163 200 255
162 200 255
162 200 255
162 200 255
162 199 255
162 199 255
162 199 255
162 199 255
162 199 255
162 199 255
162 199 255
161 199 255
161 199 255
161 199 255
161 199 255
161 199 255
161 199 255
161 199 255
161 199 255
161 199 255
160 198 255
160 198 255
160 198 255
160 198 255
160 198 255
160 198 255
160 198 255
160 198 255
160 198 255
160 198 255
159 198 255
159 198 255
159 198 255
159 198 255
159 198 255
159 198 255
159 197 255
159 197 255
159 197 255
158 197 255
158 197 255
158 197 255
158 197 255
158 197 255
158 197 255
158 197 255
158 197 255
158 197 255
157 197 255
157 197 255
157 197 255
157 197 255
157 196 255
157 196 255
157 196 255
157 196 255
157 196 255
157 196 255
156 196 255
156 196 255
156 196 255
156 196 255
156 196 255
156 196 255
156 196 255
156 196 255
156 196 255
155 195 255
155 195 255
155 195 255
155 195 255
155 195 255
155 195 255
155 195 255
155 195 255
155 195 255
155 195 255
154 195 255
154 195 255
154 195 255
154 195 255
154 195 255
154 195 255
154 194 255
154 194 255
154 194 255
153 194 255
153 194 255
153 194 255
153 194 255
153 194 255
153 194 255
153 194 255
153 194 255
153 194 255
153 194 255
153 194 255
152 194 255
152 194 255
152 194 255
152 194 255
152 193 255
152 193 255
152 193 255
152 193 255
152 193 255
152 193 255
152 193 255
152 193 255
151 193 255
151 193 255
151 193 255
151 193 255
151 193 255
151 193 255
151 193 255
151 193 255
151 193 255
151 193 255
151 193 255
151 193 255
151 193 255
151 193 255
150 192 255
150 192 255
150 192 255
150 192 255
150 192 255
150 192 255
150 192 255
150 192 255
150 192 255
150 192 255
150 192 255
150 192 255
150 192 255
150 192 255
150 192 255
150 192 255
150 192 255
150 192 255
150 192 255
150 192 255
150 192 255
150 192 255
150 192 255
150 192 255
150 192 255
150 192 255
150 192 255
150 192 255
149 192 255
149 192 255
149 192 255
149 192 255
149 192 255
149 192 255
149 192 255
149 192 255
149 192 255
149 192 255
149 192 255
149 192 255
149 192 255
150 192 255
150 192 255
150 192 255
150 192 255
150 192 255
150 192 255
150 192 255
150 192 255
150 192 255
150 192 255
150 192 255
150 192 255
150 192 255
150 192 255
150 192 255
150 192 255
150 192 255
150 192 255
150 192 255
150 192 255
150 192 255
150 192 255
150 192 255
150 192 255
150 192 255
150 192 255
150 192 255
151 193 255
151 193 255
151 193 255
151 193 255
151 193 255
151 193 255
151 193 255
151 193 255
151 193 255
151 193 255
151 193 255
151 193 255
151 193 255
151 193 255
152 193 255
152 193 255
152 193 255
152 193 255
152 193 255
152 193 255
152 193 255
152 193 255
152 194 255
152 194 255
152 194 255
152 194 255
153 194 255
153 194 255
153 194 255
153 194 255
153 194 255
153 194 255
153 194 255
153 194 255
153 194 255
153 194 255
153 194 255
154 194 255
154 194 255
154 194 255
154 195 255
154 195 255
154 195 255
154 195 255
154 195 255
154 195 255
154 195 255
155 195 255
155 195 255
155 195 255
155 195 255
155 195 255
155 195 255
155 195 255
155 195 255
155 195 255
156 196 255
156 196 255
156 196 255
156 196 255
156 196 255
156 196 255
156 196 255
156 196 255
156 196 255
157 196 255
157 196 255
157 196 255
157 196 255
157 196 255
157 196 255
157 197 255
157 197 255
157 197 255
158 197 255
158 197 255
158 197 255
158 197 255
158 197 255
158 197 255
158 197 255
158 197 255
158 197 255
158 197 255
159 197 255
159 197 255
159 197 255
159 198 255
159 198 255
159 198 255
159 198 255
159 198 255
159 198 255
160 198 255
160 198 255
160 198 255
160 198 255
160 198 255
160 198 255
160 198 255
160 198 255
160 198 255
160 198 255
161 199 255
161 199 255
161 199 255
161 199 255
161 199 255
161 199 255
161 199 255
161 199 255
161 199 255
162 199 255
162 199 255
162 199 255
162 199 255
162 199 255
162 199 255
162 199 255
162 200 255
162 200 255
162 200 255
162 200 255
163 200 255
163 200 255
163 200 255
163 200 255
163 200 255
163 200 255
163 200 255
163 200 255
163 200 255
163 200 255
164 200 255
164 200 255
164 200 255
164 200 255
164 201 255
164 201 255
164 201 255
164 201 255
164 201 255
164 201 255
164 201 255
165 201 255
165 201 255
165 201 255
165 201 255
165 201 255
165 201 255
165 201 255
165 201 255
165 201 255
165 201 255
165 201 255
165 201 255
166 202 255
166 202 255
166 202 255
166 202 255
166 202 255
166 202 255
166 202 255
166 202 255
166 202 255
166 202 255
167 202 255
166 202 255
166 202 255
166 202 255
166 202 255
166 202 255
166 202 255
166 202 255
166 202 255
166 202 255
166 202 255
166 202 255
166 202 255
165 201 255
165 201 255
165 201 255
165 201 255
165 201 255
165 201 255
165 201 255
165 201 255
165 201 255
165 201 255
165 201 255
164 201 255
164 201 255
164 201 255
164 201 255
164 201 255
164 201 255
164 201 255
164 201 255
164 200 255
164 200 255
164 200 255
163 200 255
163 200 255
163 200 255
163 200 255
163 200 255
163 200 255
163 200 255
163 200 255
163 200 255
163 200 255
163 200 255
162 200 255
162 200 255
162 200 255
162 199 255
162 199 255
162 199 255
162 199 255
162 199 255
162 199 255
162 199 255
161 199 255
161 199 255
161 199 255
161 199 255
161 199 255
161 199 255
161 199 255
161 199 255
161 199 255
161 199 255
160 198 255
160 198 255
160 198 255
160 198 255
160 198 255
160 198 255
160 198 255
160 198 255
160 198 255
159 198 255
159 198 255
159 198 255
159 198 255
159 198 255
159 198 255
159 198 255
159 197 255
159 197 255
159 197 255
158 197 255
158 197 255
158 197 255
158 197 255
158 197 255
158 197 255
158 197 255
158 197 255
158 197 255
157 197 255
157 197 255
157 197 255
157 196 255
157 196 255
157 196 255
157 196 255
157 196 255
157 196 255
156 196 255
156 196 255
156 196 255
156 196 255
156 196 255
156 196 255
156 196 255
156 196 255
156 196 255
155 195 255
155 195 255
155 195 255
155 195 255
155 195 255
155 195 255
155 195 255
155 195 255
155 195 255
155 195 255
154 195 255
154 195 255
154 195 255
154 195 255
154 195 255
154 195 255
154 195 255
154 194 255
154 194 255
154 194 255
153 194 255
153 194 255
153 194 255
153 194 255
153 194 255
153 194 255
153 194 255
153 194 255
153 194 255
153 194 255
153 194 255
152 194 255
152 194 255
152 194 255
152 194 255
152 193 255
152 193 255
152 193 255
152 193 255
152 193 255
152 193 255
152 193 255
152 193 255
151 193 255
151 193 255
151 193 255
151 193 255
151 193 255
151 193 255
151 193 255
151 193 255
151 193 255
151 193 255
151 193 255
151 193 255
151 193 255
151 193 255
151 193 255
150 192 255
150 192 255
150 192 255
150 192 255
150 192 255
150 192 255
150 192 255
150 192 255
150 192 255
150 192 255
150 192 255
150 192 255
150 192 255
150 192 255
150 192 255
150 192 255
150 192 255
150 192 255
150 192 255
150 192 255
150 192 255
150 192 255
150 192 255
150 192 255
150 192 255
150 192 255
150 192 255
150 192 255
150 192 255
150 192 255
150 192 255
150 192 255
150 192 255
150 192 255
150 192 255
150 192 255
150 192 255
150 192 255
150 192 255
150 192 255
150 192 255
150 192 255
150 192 255
150 192 255
150 192 255
150 192 255
150 192 255
150 192 255
150 192 255
150 192 255
150 192 255
150 192 255
150 192 255
150 192 255
150 192 255
150 192 255
150 192 255
150 192 255
150 192 255
151 193 255
151 193 255
151 193 255
151 193 255
151 193 255
151 193 255
151 193 255
151 193 255
151 193 255
151 193 255
151 193 255
151 193 255
151 193 255
151 193 255
151 193 255
151 193 255
152 193 255
152 193 255
152 193 255
152 193 255
152 193 255
152 193 255
152 193 255
152 193 255
152 194 255
152 194 255
152 194 255
152 194 255
153 194 255
153 194 255
153 194 255
153 194 255
153 194 255
153 194 255
153 194 255
153 194 255
153 194 255
153 194 255
153 194 255
154 194 255
154 194 255
154 194 255
154 195 255
154 195 255
154 195 255
154 195 255
154 195 255
154 195 255
154 195 255
155 195 255
155 195 255
155 195 255
155 195 255
155 195 255
155 195 255
155 195 255
155 195 255
155 195 255
155 195 255
156 196 255
156 196 255
156 196 255
156 196 255
156 196 255
156 196 255
156 196 255
156 196 255
156 196 255
157 196 255
157 196 255
157 196 255
157 196 255
157 196 255
157 196 255
157 197 255
157 197 255
157 197 255
158 197 255
158 197 255
158 197 255
158 197 255
158 197 255
158 197 255
158 197 255
158 197 255
158 197 255
159 197 255
159 197 255
159 197 255
159 197 255
159 198 255
159 198 255
159 198 255
159 198 255
159 198 255
159 198 255
160 198 255
160 198 255
160 198 255
160 198 255
160 198 255
160 198 255
160 198 255
160 198 255
160 198 255
161 199 255
161 199 255
161 199 255
161 199 255
161 199 255
161 199 255
161 199 255
161 199 255
161 199 255
161 199 255
162 199 255
162 199 255
162 199 255
162 199 255
162 199 255
162 199 255
162 199 255
162 200 255
162 200 255
162 200 255
163 200 255
163 200 255
163 200 255
163 200 255
163 200 255
163 200 255
163 200 255
163 200 255
163 200 255
163 200 255
163 200 255
164 200 255
164 200 255
164 200 255
164 201 255
164 201 255
164 201 255
164 201 255
164 201 255
164 201 255
164 201 255
165 201 255
165 201 255
165 201 255
165 201 255
165 201 255
165 201 255
165 201 255
165 201 255
165 201 255
165 201 255
165 201 255
165 201 255
166 202 255
166 202 255
166 202 255
166 202 255
166 202 255
166 202 255
166 202 255
166 202 255
166 202 255
166 202 255
166 202 255
166 202 255
167 202 255
167 202 255
167 202 255
167 202 255
167 202 255
166 202 255
166 202 255
166 202 255
166 202 255
166 202 255
166 202 255
166 202 255
166 202 255
166 202 255
166 202 255
166 202 255
166 202 255
165 201 255
165 201 255
165 201 255
165 201 255
165 201 255
165 201 255
165 201 255
165 201 255
165 201 255
165 201 255
165 201 255
164 201 255
164 201 255
164 201 255
164 201 255
164 201 255
164 201 255
164 201 255
164 200 255
164 200 255
164 200 255
164 200 255
163 200 255
163 200 255
163 200 255
163 200 255
163 200 255
163 200 255
163 200 255
163 200 255
163 200 255
163 200 255
162 200 255
162 200 255
162 200 255
162 200 255
162 199 255
162 199 255
162 199 255
162 199 255
162 199 255
162 199 255
161 199 255
161 199 255
161 199 255
161 199 255
161 199 255
161 199 255
161 199 255
161 199 255
161 199 255
161 199 255
160 198 255
160 198 255
160 198 255
160 198 255
160 198 255
160 198 255
160 198 255
160 198 255
160 198 255
160 198 255
159 198 255
159 198 255
159 198 255
159 198 255
159 198 255
159 198 255
159 197 255
159 197 255
159 197 255
158 197 255
158 197 255
158 197 255
158 197 255
158 197 255
158 197 255
158 197 255
158 197 255
158 197 255
157 197 255
157 197 255
157 197 255
157 196 255
157 196 255
157 196 255
157 196 255
157 196 255
157 196 255
156 196 255
156 196 255
156 196 255
156 196 255
156 196 255
156 196 255
156 196 255
156 196 255
156 196 255
156 196 255
155 195 255
155 195 255
155 195 255
155 195 255
155 195 255
155 195 255
155 195 255
155 195 255
155 195 255
155 195 255
154 195 255
154 195 255
154 195 255
154 195 255
154 195 255
154 195 255
154 194 255
154 194 255
154 194 255
154 194 255
153 194 255
153 194 255
153 194 255
153 194 255
153 194 255
153 194 255
153 194 255
153 194 255
153 194 255
153 194 255
153 194 255
152 194 255
152 194 255
152 194 255
152 194 255
152 193 255
152 193 255
152 193 255
152 193 255
152 193 255
152 193 255
152 193 255
152 193 255
152 193 255
151 193 255
151 193 255
151 193 255
151 193 255
151 193 255
151 193 255
151 193 255
151 193 255
151 193 255
151 193 255
151 193 255
151 193 255
151 193 255
151 193 255
151 193 255
151 193 255
151 193 255
150 192 255
150 192 255
150 192 255
150 192 255
150 192 255
150 192 255
150 192 255
150 192 255
150 192 255
150 192 255
150 192 255
150 192 255
150 192 255
150 192 255
150 192 255
150 192 255
150 192 255
150 192 255
150 192 255
150 192 255
150 192 255
150 192 255
150 192 255
150 192 255
150 192 255
150 192 255
150 192 255
150 192 255
150 192 255
150 192 255
150 192 255
150 192 255
150 192 255
150 192 255
150 192 255
150 192 255
150 192 255
150 192 255
150 192 255
150 192 255
150 192 255
150 192 255
150 192 255
150 192 255
150 192 255
150 192 255
150 192 255
150 192 255
151 193 255
151 193 255
151 193 255
151 193 255
151 193 255
151 193 255
151 193 255
151 193 255
151 193 255
151 193 255
151 193 255
151 193 255
151 193 255
151 193 255
151 193 255
151 193 255
151 193 255
152 193 255
152 193 255
152 193 255
152 193 255
152 193 255
152 193 255
152 193 255
152 193 255
152 193 255
152 194 255
152 194 255
152 194 255
152 194 255
153 194 255
153 194 255
153 194 255
153 194 255
153 194 255
153 194 255
153 194 255
153 194 255
153 194 255
153 194 255
153 194 255
154 194 255
154 194 255
154 194 255
154 194 255
154 195 255
154 195 255
154 195 255
154 195 255
154 195 255
154 195 255
155 195 255
155 195 255
155 195 255
155 195 255
155 195 255
155 195 255
155 195 255
155 195 255
155 195 255
155 195 255
156 196 255
156 196 255
156 196 255
156 196 255
156 196 255
156 196 255
156 196 255
156 196 255
156 196 255
156 196 255
157 196 255
157 196 255
157 196 255
157 196 255
157 196 255
157 196 255
157 197 255
157 197 255
157 197 255
158 197 255
158 197 255
158 197 255
158 197 255
158 197 255
158 197 255
158 197 255
158 197 255
158 197 255
159 197 255
159 197 255
159 197 255
159 198 255
159 198 255
159 198 255
159 198 255
159 198 255
159 198 255
160 198 255
160 198 255
160 198 255
160 198 255
160 198 255
160 198 255
160 198 255
160 198 255
160 198 255
160 198 255
161 199 255
161 199 255
161 199 255
161 199 255
161 199 255
161 199 255
161 199 255
161 199 255
161 199 255
161 199 255
162 199 255
162 199 255
162 199 255
162 199 255
162 199 255
162 199 255
162 200 255
162 200 255
162 200 255
162 200 255
163 200 255
163 200 255
163 200 255
163 200 255
163 200 255
163 200 255
163 200 255
163 200 255
163 200 255
163 200 255
164 200 255
164 200 255
164 200 255
164 200 255
164 201 255
164 201 255
164 201 255
164 201 255
164 201 255
164 201 255
164 201 255
165 201 255
165 201 255
165 201 255
165 201 255
165 201 255
165 201 255
165 201 255
165 201 255
165 201 255
165 201 255
165 201 255
166 202 255
166 202 255
166 202 255
166 202 255
166 202 255
166 202 255
166 202 255
166 202 255
166 202 255
166 202 255
166 202 255
166 202 255
167 202 255
167 202 255
167 202 255
167 202 255
167 202 255
167 202 255
167 202 255
167 202 255
167 202 255
167 202 255
166 202 255
166 202 255
166 202 255
166 202 255
166 202 255
166 202 255
166 202 255
166 202 255
166 202 255
166 202 255
166 202 255
166 202 255
165 201 255
165 201 255
165 201 255
165 201 255
165 201 255
165 201 255
165 201 255
165 201 255
165 201 255
165 201 255
165 201 255
165 201 255
164 201 255
164 201 255
164 201 255
164 201 255
164 201 255
164 201 255
164 201 255
164 200 255
164 200 255
164 200 255
163 200 255
163 200 255
163 200 255
163 200 255
163 200 255
163 200 255
163 200 255
163 200 255
163 200 255
163 200 255
163 200 255
162 200 255
162 200 255
162 200 255
162 199 255
162 199 255
162 199 255
162 199 255
162 199 255
162 199 255
162 199 255
161 199 255
161 199 255
161 199 255
161 199 255
161 199 255
161 199 255
161 199 255
161 199 255
161 199 255
160 198 255
160 198 255
160 198 255
160 198 255
160 198 255
160 198 255
160 198 255
160 198 255
160 198 255
160 198 255
159 198 255
159 198 255
159 198 255
159 198 255
159 198 255
159 198 255
159 197 255
159 197 255
159 197 255
158 197 255
158 197 255
158 197 255
158 197 255
158 197 255
158 197 255
158 197 255
158 197 255
158 197 255
157 197 255
157 197 255
157 197 255
157 197 255
157 196 255
157 196 255
157 196 255
157 196 255
157 196 255
157 196 255
156 196 255
156 196 255
156 196 255
156 196 255
156 196 255
156 196 255
156 196 255
156 196 255
156 196 255
155 195 255
155 195 255
155 195 255
155 195 255
155 195 255
155 195 255
155 195 255
155 195 255
155 195 255
155 195 255
154 195 255
154 195 255
154 195 255
154 195 255
154 195 255
154 195 255
154 195 255
154 194 255
154 194 255
154 194 255
153 194 255
153 194 255
153 194 255
153 194 255
153 194 255
153 194 255
153 194 255
153 194 255
153 194 255
153 194 255
153 194 255
153 194 255
152 194 255
152 194 255
152 194 255
152 194 255
152 193 255
152 193 255
152 193 255
152 193 255
152 193 255
152 193 255
152 193 255
152 193 255
152 193 255
151 193 255
151 193 255
151 193 255
151 193 255
151 193 255
151 193 255
151 193 255
151 193 255
151 193 255
151 193 255
151 193 255
151 193 255
151 193 255
151 193 255
151 193 255
151 193 255
151 193 255
151 193 255
151 193 255
151 193 255
151 193 255
150 192 255
150 192 255
150 192 255
150 192 255
150 192 255
150 192 255
150 192 255
150 192 255
150 192 255
150 192 255
150 192 255
150 192 255
150 192 255
150 192 255
150 192 255
150 192 255
150 192 255
150 192 255
150 192 255
150 192 255
150 192 255
150 192 255
150 192 255
150 192 255
150 192 255
150 192 255
150 192 255
150 192 255
150 192 255
150 192 255
150 192 255
150 192 255
150 192 255
150 192 255
150 192 255
151 193 255
151 193 255
151 193 255
151 193 255
151 193 255
151 193 255
151 193 255
151 193 255
151 193 255
151 193 255
151 193 255
151 193 255
151 193 255
151 193 255
151 193 255
151 193 255
151 193 255
151 193 255
151 193 255
151 193 255
152 193 255
152 193 255
152 193 255
152 193 255
152 193 255
152 193 255
152 193 255
152 193 255
152 193 255
152 194 255
152 194 255
152 194 255
152 194 255
153 194 255
153 194 255
153 194 255
153 194 255
153 194 255
153 194 255
153 194 255
153 194 255
153 194 255
153 194 255
153 194 255
153 194 255
154 194 255
154 194 255
154 194 255
154 195 255
154 195 255
154 195 255
154 195 255
154 195 255
154 195 255
154 195 255
155 195 255
155 195 255
155 195 255
155 195 255
155 195 255
155 195 255
155 195 255
155 195 255
155 195 255
155 195 255
156 196 255
156 196 255
156 196 255
156 196 255
156 196 255
156 196 255
156 196 255
156 196 255
156 196 255
157 196 255
157 196 255
157 196 255
157 196 255
157 196 255
157 196 255
157 197 255
157 197 255
157 197 255
158 197 255
158 197 255
158 197 255
158 197 255
158 197 255
158 197 255
158 197 255
158 197 255
158 197 255
158 197 255
159 197 255
159 197 255
159 197 255
159 198 255
159 198 255
159 198 255
159 198 255
159 198 255
159 198 255
160 198 255
160 198 255
160 198 255
160 198 255
160 198 255
160 198 255
160 198 255
160 198 255
160 198 255
161 199 255
161 199 255
161 199 255
161 199 255
161 199 255
161 199 255
161 199 255
161 199 255
161 199 255
161 199 255
162 199 255
162 199 255
162 199 255
162 199 255
162 199 255
162 199 255
162 199 255
162 200 255
162 200 255
162 200 255
163 200 255
163 200 255
163 200 255
163 200 255
163 200 255
163 200 255
163 200 255
163 200 255
163 200 255
163 200 255
163 200 255
164 200 255
164 200 255
164 200 255
164 201 255
164 201 255
164 201 255
164 201 255
164 201 255
164 201 255
164 201 255
165 201 255
165 201 255
165 201 255
165 201 255
165 201 255
165 201 255
165 201 255
165 201 255
165 201 255
165 201 255
165 201 255
165 201 255
166 202 255
166 202 255
166 202 255
166 202 255
166 202 255
166 202 255
166 202 255
166 202 255
166 202 255
166 202 255
166 202 255
166 202 255
167 202 255
167 202 255
167 202 255
167 202 255
167 202 255
167 202 255
167 203 255
167 202 255
167 202 255
167 202 255
167 202 255
167 202 255
167 202 255
167 202 255
167 202 255
166 202 255
166 202 255
166 202 255
166 202 255
166 202 255
166 202 255
166 202 255
166 202 255
166 202 255
166 202 255
166 202 255
166 202 255
165 201 255
165 201 255
165 201 255
165 201 255
165 201 255
165 201 255
165 201 255
165 201 255
165 201 255
165 201 255
165 201 255
164 201 255
164 201 255
164 201 255
164 201 255
164 201 255
164 201 255
164 201 255
164 200 255
164 200 255
164 200 255
164 200 255
163 200 255
163 200 255
163 200 255
163 200 255
163 200 255
163 200 255
163 200 255
163 200 255
163 200 255
163 200 255
162 200 255
162 200 255
162 200 255
162 200 255
162 199 255
162 199 255
162 199 255
162 199 255
162 199 255
162 199 255
161 199 255
161 199 255
161 199 255
161 199 255
161 199 255
161 199 255
161 199 255
161 199 255
161 199 255
161 199 255
160 198 255
160 198 255
160 198 255
160 198 255
160 198 255
160 198 255
160 198 255
160 198 255
160 198 255
159 198 255
159 198 255
159 198 255
159 198 255
159 198 255
159 198 255
159 198 255
159 197 255
159 197 255
159 197 255
158 197 255
158 197 255
158 197 255
158 197 255
158 197 255
158 197 255
158 197 255
158 197 255
158 197 255
157 197 255
157 197 255
157 197 255
157 196 255
157 196 255
157 196 255
157 196 255
157 196 255
157 196 255
156 196 255
156 196 255
156 196 255
156 196 255
156 196 255
156 196 255
156 196 255
156 196 255
156 196 255
156 196 255
155 195 255
155 195 255
155 195 255
155 195 255
155 195 255
155 195 255
155 195 255
155 195 255
155 195 255
155 195 255
154 195 255
154 195 255
154 195 255
154 195 255
154 195 255
154 195 255
154 195 255
154 194 255
154 194 255
154 194 255
153 194 255
153 194 255
153 194 255
153 194 255
153 194 255
153 194 255
153 194 255
153 194 255
153 194 255
153 194 255
153 194 255
153 194 255
152 194 255
152 194 255
152 194 255
152 194 255
152 193 255
152 193 255
152 193 255
152 193 255
152 193 255
152 193 255
152 193 255
152 193 255
152 193 255
152 193 255
151 193 255
151 193 255
151 193 255
151 193 255
151 193 255
151 193 255
151 193 255
151 193 255
151 193 255
151 193 255
151 193 255
151 193 255
151 193 255
151 193 255
151 193 255
151 193 255
151 193 255
151 193 255
151 193 255
151 193 255
151 193 255
151 193 255
151 193 255
151 193 255
151 193 255
151 193 255
151 193 255
151 193 255
150 192 255
150 192 255
150 192 255
150 192 255
150 192 255
150 192 255
150 192 255
150 192 255
150 192 255
150 192 255
150 192 255
150 192 255
151 193 255
151 193 255
151 193 255
151 193 255
151 193 255
151 193 255
151 193 255
151 193 255
151 193 255
151 193 255
151 193 255
151 193 255
151 193 255
151 193 255
151 193 255
151 193 255
151 193 255
151 193 255
151 193 255
151 193 255
151 193 255
151 193 255
151 193 255
151 193 255
151 193 255
151 193 255
151 193 255
151 193 255
152 193 255
152 193 255
152 193 255
152 193 255
152 193 255
152 193 255
152 193 255
152 193 255
152 193 255
152 194 255
152 194 255
152 194 255
152 194 255
152 194 255
153 194 255
153 194 255
153 194 255
153 194 255
153 194 255
153 194 255
153 194 255
153 194 255
153 194 255
153 194 255
153 194 255
153 194 255
154 194 255
154 194 255
154 194 255
154 195 255
154 195 255
154 195 255
154 195 255
154 195 255
154 195 255
154 195 255
155 195 255
155 195 255
155 195 255
155 195 255
155 195 255
155 195 255
155 195 255
155 195 255
155 195 255
155 195 255
156 196 255
156 196 255
156 196 255
156 196 255
156 196 255
156 196 255
156 196 255
156 196 255
156 196 255
156 196 255
157 196 255
157 196 255
157 196 255
157 196 255
157 196 255
157 196 255
157 197 255
157 197 255
157 197 255
158 197 255
158 197 255
158 197 255
158 197 255
158 197 255
158 197 255
158 197 255
158 197 255
158 197 255
159 197 255
159 197 255
159 197 255
159 198 255
159 198 255
159 198 255
159 198 255
159 198 255
159 198 255
159 198 255
160 198 255
160 198 255
160 198 255
160 198 255
160 198 255
160 198 255
160 198 255
160 198 255
160 198 255
161 199 255
161 199 255
161 199 255
161 199 255
161 199 255
161 199 255
161 199 255
161 199 255
161 199 255
161 199 255
162 199 255
162 199 255
162 199 255
162 199 255
162 199 255
162 199 255
162 200 255
162 200 255
162 200 255
162 200 255
163 200 255
163 200 255
163 200 255
163 200 255
163 200 255
163 200 255
163 200 255
163 200 255
163 200 255
163 200 255
164 200 255
164 200 255
164 200 255
164 200 255
164 201 255
164 201 255
164 201 255
164 201 255
164 201 255
164 201 255
164 201 255
165 201 255
165 201 255
165 201 255
165 201 255
165 201 255
165 201 255
165 201 255
165 201 255
165 201 255
165 201 255
165 201 255
166 202 255
166 202 255
166 202 255
166 202 255
166 202 255
166 202 255
166 202 255
166 202 255
166 202 255
166 202 255
166 202 255
166 202 255
167 202 255
167 202 255
167 202 255
167 202 255
167 202 255
167 202 255
167 202 255
167 202 255
167 203 255
167 203 255
167 203 255
167 203 255
167 203 255
167 202 255
167 202 255
167 202 255
167 202 255
167 202 255
167 202 255
167 202 255
167 202 255
166 202 255
166 202 255
166 202 255
166 202 255
166 202 255
166 202 255
166 202 255
166 202 255
166 202 255
166 202 255
166 202 255
166 202 255
165 201 255
165 201 255
165 201 255
165 201 255
165 201 255
165 201 255
165 201 255
165 201 255
165 201 255
165 201 255
165 201 255
164 201 255
164 201 255
164 201 255
164 201 255
164 201 255
164 201 255
164 201 255
164 200 255
164 200 255
164 200 255
163 200 255
163 200 255
163 200 255
163 200 255
163 200 255
163 200 255
163 200 255
163 200 255
163 200 255
163 200 255
163 200 255
162 200 255
162 200 255
162 200 255
162 199 255
162 199 255
162 199 255
162 199 255
162 199 255
162 199 255
162 199 255
161 199 255
161 199 255
161 199 255
161 199 255
161 199 255
161 199 255
161 199 255
161 199 255
161 199 255
160 198 255
160 198 255
160 198 255
160 198 255
160 198 255
160 198 255
160 198 255
160 198 255
160 198 255
160 198 255
159 198 255
159 198 255
159 198 255
159 198 255
159 198 255
159 198 255
159 197 255
159 197 255
159 197 255
158 197 255
158 197 255
158 197 255
158 197 255
158 197 255
158 197 255
158 197 255
158 197 255
158 197 255
157 197 255
157 197 255
157 197 255
157 197 255
157 196 255
157 196 255
157 196 255
157 196 255
157 196 255
157 196 255
156 196 255
156 196 255
156 196 255
156 196 255
156 196 255
156 196 255
156 196 255
156 196 255
156 196 255
155 195 255
155 195 255
155 195 255
155 195 255
155 195 255
155 195 255
155 195 255
155 195 255
155 195 255
155 195 255
154 195 255
154 195 255
154 195 255
154 195 255
154 195 255
154 195 255
154 195 255
154 195 255
154 194 255
154 194 255
154 194 255
153 194 255
153 194 255
153 194 255
153 194 255
153 194 255
153 194 255
153 194 255
153 194 255
153 194 255
153 194 255
153 194 255
153 194 255
152 194 255
152 194 255
152 194 255
152 194 255
152 194 255
152 193 255
152 193 255
152 193 255
152 193 255
152 193 255
152 193 255
152 193 255
152 193 255
152 193 255
152 193 255
152 193 255
151 193 255
151 193 255
151 193 255
151 193 255
151 193 255
151 193 255
151 193 255
151 193 255
151 193 255
151 193 255
151 193 255
151 193 255
151 193 255
151 193 255
151 193 255
151 193 255
151 193 255
151 193 255
151 193 255
151 193 255
151 193 255
151 193 255
151 193 255
151 193 255
151 193 255
151 193 255
151 193 255
151 193 255
151 193 255
151 193 255
151 193 255
151 193 255
151 193 255
151 193 255
151 193 255
151 193 255
151 193 255
151 193 255
151 193 255
151 193 255
151 193 255
151 193 255
151 193 255
151 193 255
151 193 255
151 193 255
151 193 255
151 193 255
151 193 255
151 193 255
151 193 255
151 193 255
151 193 255
151 193 255
151 193 255
151 193 255
151 193 255
151 193 255
152 193 255
152 193 255
152 193 255
152 193 255
152 193 255
152 193 255
152 193 255
152 193 255
152 193 255
152 193 255
152 193 255
152 194 255
152 194 255
152 194 255
152 194 255
153 194 255
153 194 255
153 194 255
153 194 255
153 194 255
153 194 255
153 194 255
153 194 255
153 194 255
153 194 255
153 194 255
153 194 255
153 194 255
154 194 255
154 194 255
154 194 255
154 195 255
154 195 255
154 195 255
154 195 255
154 195 255
154 195 255
154 195 255
154 195 255
155 195 255
155 195 255
155 195 255
155 195 255
155 195 255
155 195 255
155 195 255
155 195 255
155 195 255
155 195 255
156 196 255
156 196 255
156 196 255
156 196 255
156 196 255
156 196 255
156 196 255
156 196 255
156 196 255
157 196 255
157 196 255
157 196 255
157 196 255
157 196 255
157 196 255
157 197 255
157 197 255
157 197 255
157 197 255
158 197 255
158 197 255
158 197 255
158 197 255
158 197 255
158 197 255
158 197 255
158 197 255
158 197 255
159 197 255
159 197 255
159 197 255
159 198 255
159 198 255
159 198 255
159 198 255
159 198 255
159 198 255
160 198 255
160 198 255
160 198 255
160 198 255
160 198 255
160 198 255
160 198 255
160 198 255
160 198 255
160 198 255
161 199 255
161 199 255
161 199 255
161 199 255
161 199 255
161 199 255
161 199 255
161 199 255
161 199 255
162 199 255
162 199 255
162 199 255
162 199 255
162 199 255
162 199 255
162 199 255
162 200 255
162 200 255
162 200 255
163 200 255
163 200 255
163 200 255
163 200 255
163 200 255
163 200 255
163 200 255
163 200 255
163 200 255
163 200 255
163 200 255
164 200 255
164 200 255
164 200 255
164 201 255
164 201 255
164 201 255
164 201 255
164 201 255
164 201 255
164 201 255
165 201 255
165 201 255
165 201 255
165 201 255
165 201 255
165 201 255
165 201 255
165 201 255
165 201 255
165 201 255
165 201 255
166 202 255
166 202 255
166 202 255
166 202 255
166 202 255
166 202 255
166 202 255
166 202 255
166 202 255
166 202 255
166 202 255
166 202 255
167 202 255
167 202 255
167 202 255
167 202 255
167 202 255
167 202 255
167 202 255
167 202 255
167 203 255
167 203 255
167 203 255
167 203 255
168 203 255
168 203 255
167 203 255
167 203 255
167 203 255
167 203 255
167 203 255
167 202 255
167 202 255
167 202 255
167 202 255
167 202 255
167 202 255
167 202 255
167 202 255
166 202 255
166 202 255
166 202 255
166 202 255
166 202 255
166 202 255
166 202 255
166 202 255
166 202 255
166 202 255
166 202 255
165 201 255
165 201 255
165 201 255
165 201 255
165 201 255
165 201 255
165 201 255
165 201 255
165 201 255
165 201 255
165 201 255
164 201 255
164 201 255
164 201 255
164 201 255
164 201 255
164 201 255
164 201 255
164 200 255
164 200 255
164 200 255
164 200 255
163 200 255
163 200 255
163 200 255
163 200 255
163 200 255
163 200 255
163 200 255
163 200 255
163 200 255
163 200 255
162 200 255
162 200 255
162 200 255
162 200 255
162 199 255
162 199 255
162 199 255
162 199 255
162 199 255
162 199 255
161 199 255
161 199 255
161 199 255
161 199 255
161 199 255
161 199 255
161 199 255
161 199 255
161 199 255
161 199 255
160 198 255
160 198 255
160 198 255
160 198 255
160 198 255
160 198 255
160 198 255
160 198 255
160 198 255
159 198 255
159 198 255
159 198 255
159 198 255
159 198 255
159 198 255
159 197 255
159 197 255
159 197 255
158 197 255
158 197 255
158 197 255
158 197 255
158 197 255
158 197 255
158 197 255
158 197 255
158 197 255
158 197 255
157 197 255
157 197 255
157 197 255
157 196 255
157 196 255
157 196 255
157 196 255
157 196 255
157 196 255
156 196 255
156 196 255
156 196 255
156 196 255
156 196 255
156 196 255
156 196 255
156 196 255
156 196 255
156 196 255
155 195 255
155 195 255
155 195 255
155 195 255
155 195 255
155 195 255
155 195 255
155 195 255
155 195 255
155 195 255
154 195 255
154 195 255
154 195 255
154 195 255
154 195 255
154 195 255
154 195 255
154 194 255
154 194 255
154 194 255
154 194 255
153 194 255
153 194 255
153 194 255
153 194 255
153 194 255
153 194 255
153 194 255
153 194 255
153 194 255
153 194 255
153 194 255
153 194 255
153 194 255
152 194 255
152 194 255
152 194 255
152 194 255
152 194 255
152 193 255
152 193 255
152 193 255
152 193 255
152 193 255
152 193 255
152 193 255
152 193 255
152 193 255
152 193 255
152 193 255
152 193 255
151 193 255
151 193 255
151 193 255
151 193 255
151 193 255
151 193 255
151 193 255
151 193 255
151 193 255
151 193 255
151 193 255
151 193 255
151 193 255
151 193 255
151 193 255
151 193 255
151 193 255
151 193 255
151 193 255
151 193 255
151 193 255
151 193 255
151 193 255
151 193 255
151 193 255
151 193 255
151 193 255
151 193 255
151 193 255
151 193 255
151 193 255
151 193 255
151 193 255
151 193 255
151 193 255
151 193 255
151 193 255
151 193 255
151 193 255
151 193 255
151 193 255
151 193 255
151 193 255
151 193 255
151 193 255
151 193 255
151 193 255
152 193 255
152 193 255
152 193 255
152 193 255
152 193 255
152 193 255
152 193 255
152 193 255
152 193 255
152 193 255
152 193 255
152 193 255
152 193 255
152 194 255
152 194 255
152 194 255
152 194 255
152 194 255
153 194 255
153 194 255
153 194 255
153 194 255
153 194 255
153 194 255
153 194 255
153 194 255
153 194 255
153 194 255
153 194 255
153 194 255
153 194 255
154 194 255
154 194 255
154 194 255
154 194 255
154 195 255
154 195 255
154 195 255
154 195 255
154 195 255
154 195 255
154 195 255
155 195 255
155 195 255
155 195 255
155 195 255
155 195 255
155 195 255
155 195 255
155 195 255
155 195 255
155 195 255
156 196 255
156 196 255
156 196 255
156 196 255
156 196 255
156 196 255
156 196 255
156 196 255
156 196 255
156 196 255
157 196 255
157 196 255
157 196 255
157 196 255
157 196 255
157 196 255
157 197 255
157 197 255
157 197 255
158 197 255
158 197 255
158 197 255
158 197 255
158 197 255
158 197 255
158 197 255
158 197 255
158 197 255
158 197 255
159 197 255
159 197 255
159 197 255
159 198 255
159 198 255
159 198 255
159 198 255
159 198 255
159 198 255
160 198 255
160 198 255
160 198 255
160 198 255
160 198 255
160 198 255
160 198 255
160 198 255
160 198 255
161 199 255
161 199 255
161 199 255
161 199 255
161 199 255
161 199 255
161 199 255
161 199 255
161 199 255
161 199 255
162 199 255
162 199 255
162 199 255
162 199 255
162 199 255
162 199 255
162 200 255
162 200 255
162 200 255
162 200 255
163 200 255
163 200 255
163 200 255
163 200 255
163 200 255
163 200 255
163 200 255
163 200 255
163 200 255
163 200 255
164 200 255
164 200 255
164 200 255
164 201 255
164 201 255
164 201 255
164 201 255
164 201 255
164 201 255
164 201 255
164 201 255
165 201 255
165 201 255
165 201 255
165 201 255
165 201 255
165 201 255
165 201 255
165 201 255
165 201 255
165 201 255
165 201 255
166 202 255
166 202 255
166 202 255
166 202 255
166 202 255
166 202 255
166 202 255
166 202 255
166 202 255
166 202 255
166 202 255
167 202 255
167 202 255
167 202 255
167 202 255
167 202 255
167 202 255
167 202 255
167 202 255
167 203 255
167 203 255
167 203 255
167 203 255
167 203 255
168 203 255
168 203 255
168 203 255
168 203 255
168 203 255
168 203 255
168 203 255
167 203 255
167 203 255
167 203 255
167 203 255
167 202 255
167 202 255
167 202 255
167 202 255
167 202 255
167 202 255
167 202 255
167 202 255
166 202 255
166 202 255
166 202 255
166 202 255
166 202 255
166 202 255
166 202 255
166 202 255
166 202 255
166 202 255
166 202 255
166 202 255
165 201 255
165 201 255
165 201 255
165 201 255
165 201 255
165 201 255
165 201 255
165 201 255
165 201 255
165 201 255
165 201 255
164 201 255
164 201 255
164 201 255
164 201 255
164 201 255
164 201 255
164 201 255
164 200 255
164 200 255
164 200 255
164 200 255
163 200 255
163 200 255
163 200 255
163 200 255
163 200 255
163 200 255
163 200 255
163 200 255
163 200 255
163 200 255
162 200 255
162 200 255
162 200 255
162 199 255
162 199 255
162 199 255
162 199 255
162 199 255
162 199 255
162 199 255
161 199 255
161 199 255
161 199 255
161 199 255
161 199 255
161 199 255
161 199 255
161 199 255
161 199 255
160 198 255
160 198 255
160 198 255
160 198 255
160 198 255
160 198 255
160 198 255
160 198 255
160 198 255
160 198 255
159 198 255
159 198 255
159 198 255
159 198 255
159 198 255
159 198 255
159 197 255
159 197 255
159 197 255
158 197 255
158 197 255
158 197 255
158 197 255
158 197 255
158 197 255
158 197 255
158 197 255
158 197 255
157 197 255
157 197 255
157 197 255
157 197 255
157 196 255
157 196 255
157 196 255
157 196 255
157 196 255
157 196 255
156 196 255
156 196 255
156 196 255
156 196 255
156 196 255
156 196 255
156 196 255
156 196 255
156 196 255
156 196 255
155 195 255
155 195 255
155 195 255
155 195 255
155 195 255
155 195 255
155 195 255
155 195 255
155 195 255
155 195 255
154 195 255
154 195 255
154 195 255
154 195 255
154 195 255
154 195 255
154 195 255
154 195 255
154 194 255
154 194 255
154 194 255
154 194 255
153 194 255
153 194 255
153 194 255
153 194 255
153 194 255
153 194 255
153 194 255
153 194 255
153 194 255
153 194 255
153 194 255
153 194 255
153 194 255
152 194 255
152 194 255
152 194 255
152 194 255
152 194 255
152 193 255
152 193 255
152 193 255
152 193 255
152 193 255
152 193 255
152 193 255
152 193 255
152 193 255
152 193 255
152 193 255
152 193 255
152 193 255
152 193 255
152 193 255
152 193 255
151 193 255
151 193 255
151 193 255
151 193 255
151 193 255
151 193 255
151 193 255
151 193 255
151 193 255
151 193 255
151 193 255
151 193 255
151 193 255
151 193 255
151 193 255
151 193 255
151 193 255
151 193 255
151 193 255
151 193 255
151 193 255
151 193 255
151 193 255
151 193 255
151 193 255
151 193 255
151 193 255
151 193 255
151 193 255
151 193 255
151 193 255
151 193 255
152 193 255
152 193 255
152 193 255
152 193 255
152 193 255
152 193 255
152 193 255
152 193 255
152 193 255
152 193 255
152 193 255
152 193 255
152 193 255
152 193 255
152 193 255
152 194 255
152 194 255
152 194 255
152 194 255
152 194 255
152 194 255
153 194 255
153 194 255
153 194 255
153 194 255
153 194 255
153 194 255
153 194 255
153 194 255
153 194 255
153 194 255
153 194 255
153 194 255
153 194 255
153 194 255
154 194 255
154 194 255
154 194 255
154 194 255
154 195 255
154 195 255
154 195 255
154 195 255
154 195 255
154 195 255
154 195 255
155 195 255
155 195 255
155 195 255
155 195 255
155 195 255
155 195 255
155 195 255
155 195 255
155 195 255
155 195 255
156 196 255
156 196 255
156 196 255
156 196 255
156 196 255
156 196 255
156 196 255
156 196 255
156 196 255
156 196 255
157 196 255
157 196 255
157 196 255
157 196 255
157 196 255
157 196 255
157 197 255
157 197 255
157 197 255
157 197 255
158 197 255
158 197 255
158 197 255
158 197 255
158 197 255
158 197 255
158 197 255
158 197 255
158 197 255
159 197 255
159 197 255
159 197 255
159 198 255
159 198 255
159 198 255
159 198 255
159 198 255
159 198 255
160 198 255
160 198 255
160 198 255
160 198 255
160 198 255
160 198 255
160 198 255
160 198 255
160 198 255
160 198 255
161 199 255
161 199 255
161 199 255
161 199 255
161 199 255
161 199 255
161 199 255
161 199 255
161 199 255
162 199 255
162 199 255
162 199 255
162 199 255
162 199 255
162 199 255
162 199 255
162 200 255
162 200 255
162 200 255
163 200 255
163 200 255
163 200 255
163 200 255
163 200 255
163 200 255
163 200 255
163 200 255
163 200 255
163 200 255
164 200 255
164 200 255
164 200 255
164 200 255
164 201 255
164 201 255
164 201 255
164 201 255
164 201 255
164 201 255
164 201 255
165 201 255
165 201 255
165 201 255
165 201 255
165 201 255
165 201 255
165 201 255
165 201 255
165 201 255
165 201 255
165 201 255
166 202 255
166 202 255
166 202 255
166 202 255
166 202 255
166 202 255
166 202 255
166 202 255
166 202 255
166 202 255
166 202 255
167 202 255
167 202 255
167 202 255
167 202 255
167 202 255
167 202 255
167 202 255
167 202 255
167 202 255
167 203 255
167 203 255
167 203 255
167 203 255
168 203 255
168 203 255
168 203 255
168 203 255
168 203 255
168 203 255
168 203 255
168 203 255
168 203 255
168 203 255
168 203 255
168 203 255
168 203 255
167 203 255
167 203 255
167 203 255
167 203 255
167 202 255
167 202 255
167 202 255
167 202 255
167 202 255
167 202 255
167 202 255
167 202 255
166 202 255
166 202 255
166 202 255
166 202 255
166 202 255
166 202 255
166 202 255
166 202 255
166 202 255
166 202 255
166 202 255
166 202 255
165 201 255
165 201 255
165 201 255
165 201 255
165 201 255
165 201 255
165 201 255
165 201 255
165 201 255
165 201 255
165 201 255
164 201 255
164 201 255
164 201 255
164 201 255
164 201 255
164 201 255
164 201 255
164 200 255
164 200 255
164 200 255
163 200 255
163 200 255
163 200 255
163 200 255
163 200 255
163 200 255
163 200 255
163 200 255
163 200 255
163 200 255
162 200 255
162 200 255
162 200 255
162 200 255
162 199 255
162 199 255
162 199 255
162 199 255
162 199 255
162 199 255
161 199 255
161 199 255
161 199 255
161 199 255
161 199 255
161 199 255
161 199 255
161 199 255
161 199 255
161 199 255
160 198 255
160 198 255
160 198 255
160 198 255
160 198 255
160 198 255
160 198 255
160 198 255
160 198 255
159 198 255
159 198 255
159 198 255
159 198 255
159 198 255
159 198 255
159 198 255
159 197 255
159 197 255
158 197 255
158 197 255
158 197 255
158 197 255
158 197 255
158 197 255
158 197 255
158 197 255
158 197 255
158 197 255
157 197 255
157 197 255
157 197 255
157 196 255
157 196 255
157 196 255
157 196 255
157 196 255
157 196 255
156 196 255
156 196 255
156 196 255
156 196 255
156 196 255
156 196 255
156 196 255
156 196 255
156 196 255
156 196 255
155 195 255
155 195 255
155 195 255
155 195 255
155 195 255
155 195 255
155 195 255
155 195 255
155 195 255
155 195 255
155 195 255
154 195 255
154 195 255
154 195 255
154 195 255
154 195 255
154 195 255
154 195 255
154 195 255
154 194 255
154 194 255
154 194 255
154 194 255
153 194 255
153 194 255
153 194 255
153 194 255
153 194 255
153 194 255
153 194 255
153 194 255
153 194 255
153 194 255
153 194 255
153 194 255
153 194 255
153 194 255
153 194 255
152 194 255
152 194 255
152 194 255
152 194 255
152 194 255
152 194 255
152 193 255
152 193 255
152 193 255
152 193 255
152 193 255
152 193 255
152 193 255
152 193 255
152 193 255
152 193 255
152 193 255
152 193 255
152 193 255
152 193 255
152 193 255
152 193 255
152 193 255
152 193 255
152 193 255
152 193 255
152 193 255
152 193 255
152 193 255
152 193 255
152 193 255
152 193 255
152 193 255
152 193 255
152 193 255
152 193 255
152 193 255
152 193 255
152 193 255
152 193 255
152 193 255
152 193 255
152 193 255
152 193 255
152 193 255
152 193 255
152 193 255
152 193 255
152 193 255
152 193 255
152 193 255
152 193 255
152 193 255
152 193 255
152 193 255
152 193 255
152 193 255
152 193 255
152 194 255
152 194 255
152 194 255
152 194 255
152 194 255
152 194 255
153 194 255
153 194 255
153 194 255
153 194 255
153 194 255
153 194 255
153 194 255
153 194 255
153 194 255
153 194 255
153 194 255
153 194 255
153 194 255
153 194 255
153 194 255
154 194 255
154 194 255
154 194 255
154 194 255
154 195 255
154 195 255
154 195 255
154 195 255
154 195 255
154 195 255
154 195 255
154 195 255
155 195 255
155 195 255
155 195 255
155 195 255
155 195 255
155 195 255
155 195 255
155 195 255
155 195 255
155 195 255
156 196 255
156 196 255
156 196 255
156 196 255
156 196 255
156 196 255
156 196 255
156 196 255
156 196 255
156 196 255
156 196 255
157 196 255
157 196 255
157 196 255
157 196 255
157 196 255
157 196 255
157 197 255
157 197 255
157 197 255
158 197 255
158 197 255
158 197 255
158 197 255
158 197 255
158 197 255
158 197 255
158 197 255
158 197 255
158 197 255
159 197 255
159 197 255
159 197 255
159 198 255
159 198 255
159 198 255
159 198 255
159 198 255
159 198 255
160 198 255
160 198 255
160 198 255
160 198 255
160 198 255
160 198 255
160 198 255
160 198 255
160 198 255
161 199 255
161 199 255
161 199 255
161 199 255
161 199 255
161 199 255
161 199 255
161 199 255
161 199 255
161 199 255
162 199 255
162 199 255
162 199 255
162 199 255
162 199 255
162 199 255
162 200 255
162 200 255
162 200 255
162 200 255
163 200 255
163 200 255
163 200 255
163 200 255
163 200 255
163 200 255
163 200 255
163 200 255
163 200 255
163 200 255
164 200 255
164 200 255
164 200 255
164 201 255
164 201 255
164 201 255
164 201 255
164 201 255
164 201 255
164 201 255
165 201 255
165 201 255
165 201 255
165 201 255
165 201 255
165 201 255
165 201 255
165 201 255
165 201 255
165 201 255
165 201 255
166 202 255
166 202 255
166 202 255
166 202 255
166 202 255
166 202 255
166 202 255
166 202 255
166 202 255
166 202 255
166 202 255
166 202 255
167 202 255
167 202 255
167 202 255
167 202 255
167 202 255
167 202 255
167 202 255
167 202 255
167 203 255
167 203 255
167 203 255
167 203 255
168 203 255
168 203 255
168 203 255
168 203 255
168 203 255
168 203 255
168 203 255
168 203 255
168 203 255
168 203 255
168 203 255
168 203 255
168 203 255
168 203 255
168 203 255
168 203 255
168 203 255
168 203 255
168 203 255
167 203 255
167 203 255
167 203 255
167 203 255
167 202 255
167 202 255
167 202 255
167 202 255
167 202 255
167 202 255
167 202 255
167 202 255
166 202 255
166 202 255
166 202 255
166 202 255
166 202 255
166 202 255
166 202 255
166 202 255
166 202 255
166 202 255
166 202 255
165 201 255
165 201 255
165 201 255
165 201 255
165 201 255
165 201 255
165 201 255
165 201 255
165 201 255
165 201 255
165 201 255
164 201 255
164 201 255
164 201 255
164 201 255
164 201 255
164 201 255
164 201 255
164 200 255
164 200 255
164 200 255
164 200 255
163 200 255
163 200 255
163 200 255
163 200 255
163 200 255
163 200 255
163 200 255
163 200 255
163 200 255
163 200 255
162 200 255
162 200 255
162 200 255
162 199 255
162 199 255
162 199 255
162 199 255
162 199 255
162 199 255
162 199 255
161 199 255
161 199 255
161 199 255
161 199 255
161 199 255
161 199 255
161 199 255
161 199 255
161 199 255
160 198 255
160 198 255
160 198 255
160 198 255
160 198 255
160 198 255
160 198 255
160 198 255
160 198 255
160 198 255
159 198 255
159 198 255
159 198 255
159 198 255
159 198 255
159 198 255
159 197 255
159 197 255
159 197 255
158 197 255
158 197 255
158 197 255
158 197 255
158 197 255
158 197 255
158 197 255
158 197 255
158 197 255
157 197 255
157 197 255
157 197 255
157 197 255
157 196 255
157 196 255
157 196 255
157 196 255
157 196 255
157 196 255
156 196 255
156 196 255
156 196 255
156 196 255
156 196 255
156 196 255
156 196 255
156 196 255
156 196 255
156 196 255
155 195 255
155 195 255
155 195 255
155 195 255
155 195 255
155 195 255
155 195 255
155 195 255
155 195 255
155 195 255
155 195 255
154 195 255
154 195 255
154 195 255
154 195 255
154 195 255
154 195 255
154 195 255
154 195 255
154 194 255
154 194 255
154 194 255
154 194 255
153 194 255
153 194 255
153 194 255
153 194 255
153 194 255
153 194 255
153 194 255
153 194 255
153 194 255
153 194 255
153 194 255
153 194 255
153 194 255
153 194 255
153 194 255
153 194 255
153 194 255
152 194 255
152 194 255
152 194 255
152 194 255
152 194 255
152 194 255
152 194 255
152 193 255
152 193 255
152 193 255
152 193 255
152 193 255
152 193 255
152 193 255
152 193 255
152 193 255
152 193 255
152 193 255
152 193 255
152 193 255
152 193 255
152 193 255
152 193 255
152 193 255
152 193 255
152 193 255
152 193 255
152 193 255
152 193 255
152 193 255
152 193 255
152 193 255
152 193 255
152 193 255
152 193 255
152 193 255
152 193 255
152 193 255
152 193 255
152 193 255
152 193 255
152 193 255
152 193 255
152 193 255
152 193 255
152 193 255
152 193 255
152 194 255
152 194 255
152 194 255
152 194 255
152 194 255
152 194 255
152 194 255
153 194 255
153 194 255
153 194 255
153 194 255
153 194 255
153 194 255
153 194 255
153 194 255
153 194 255
153 194 255
153 194 255
153 194 255
153 194 255
153 194 255
153 194 255
153 194 255
153 194 255
154 194 255
154 194 255
154 194 255
154 194 255
154 195 255
154 195 255
154 195 255
154 195 255
154 195 255
154 195 255
154 195 255
154 195 255
155 195 255
155 195 255
155 195 255
155 195 255
155 195 255
155 195 255
155 195 255
155 195 255
155 195 255
155 195 255
155 195 255
156 196 255
156 196 255
156 196 255
156 196 255
156 196 255
156 196 255
156 196 255
156 196 255
156 196 255
156 196 255
157 196 255
157 196 255
157 196 255
157 196 255
157 196 255
157 196 255
157 197 255
157 197 255
157 197 255
157 197 255
158 197 255
158 197 255
158 197 255
158 197 255
158 197 255
158 197 255
158 197 255
158 197 255
158 197 255
159 197 255
159 197 255
159 197 255
159 198 255
159 198 255
159 198 255
159 198 255
159 198 255
159 198 255
160 198 255
160 198 255
160 198 255
160 198 255
160 198 255
160 198 255
160 198 255
160 198 255
160 198 255
160 198 255
161 199 255
161 199 255
161 199 255
161 199 255
161 199 255
161 199 255
161 199 255
161 199 255
161 199 255
162 199 255
162 199 255
162 199 255
162 199 255
162 199 255
162 199 255
162 199 255
162 200 255
162 200 255
162 200 255
163 200 255
163 200 255
163 200 255
163 200 255
163 200 255
163 200 255
163 200 255
163 200 255
163 200 255
163 200 255
164 200 255
164 200 255
164 200 255
164 200 255
164 201 255
164 201 255
164 201 255
164 201 255
164 201 255
164 201 255
164 201 255
165 201 255
165 201 255
165 201 255
165 201 255
165 201 255
165 201 255
165 201 255
165 201 255
165 201 255
165 201 255
165 201 255
166 202 255
166 202 255
166 202 255
166 202 255
166 202 255
166 202 255
166 202 255
166 202 255
166 202 255
166 202 255
166 202 255
167 202 255
167 202 255
167 202 255
167 202 255
167 202 255
167 202 255
167 202 255
167 202 255
167 203 255
167 203 255
167 203 255
167 203 255
168 203 255
168 203 255
168 203 255
168 203 255
168 203 255
168 203 255
168 203 255
168 203 255
168 203 255
168 203 255
168 203 255
169 203 255
168 203 255
168 203 255
168 203 255
168 203 255
168 203 255
168 203 255
168 203 255
168 203 255
168 203 255
168 203 255
168 203 255
168 203 255
168 203 255
167 203 255
167 203 255
167 203 255
167 203 255
167 202 255
167 202 255
167 202 255
167 202 255
167 202 255
167 202 255
167 202 255
167 202 255
166 202 255
166 202 255
166 202 255
166 202 255
166 202 255
166 202 255
166 202 255
166 202 255
166 202 255
166 202 255
166 202 255
165 201 255
165 201 255
165 201 255
165 201 255
165 201 255
165 201 255
165 201 255
165 201 255
165 201 255
165 201 255
165 201 255
164 201 255
164 201 255
164 201 255
164 201 255
164 201 255
164 201 255
164 201 255
164 200 255
164 200 255
164 200 255
163 200 255
163 200 255
163 200 255
163 200 255
163 200 255
163 200 255
163 200 255
163 200 255
163 200 255
163 200 255
163 200 255
162 200 255
162 200 255
162 200 255
162 199 255
162 199 255
162 199 255
162 199 255
162 199 255
162 199 255
161 199 255
161 199 255
161 199 255
161 199 255
161 199 255
161 199 255
161 199 255
161 199 255
161 199 255
161 199 255
160 198 255
160 198 255
160 198 255
160 198 255
160 198 255
160 198 255
160 198 255
160 198 255
160 198 255
159 198 255
159 198 255
159 198 255
159 198 255
159 198 255
159 198 255
159 197 255
159 197 255
159 197 255
159 197 255
158 197 255
158 197 255
158 197 255
158 197 255
158 197 255
158 197 255
158 197 255
158 197 255
158 197 255
157 197 255
157 197 255
157 197 255
157 196 255
157 196 255
157 196 255
157 196 255
157 196 255
157 196 255
157 196 255
156 196 255
156 196 255
156 196 255
156 196 255
156 196 255
156 196 255
156 196 255
156 196 255
156 196 255
156 196 255
155 195 255
155 195 255
155 195 255
155 195 255
155 195 255
155 195 255
155 195 255
155 195 255
155 195 255
155 195 255
155 195 255
154 195 255
154 195 255
154 195 255
154 195 255
154 195 255
154 195 255
154 195 255
154 195 255
154 195 255
154 194 255
154 194 255
154 194 255
154 194 255
153 194 255
153 194 255
153 194 255
153 194 255
153 194 255
153 194 255
153 194 255
153 194 255
153 194 255
153 194 255
153 194 255
153 194 255
153 194 255
153 194 255
153 194 255
153 194 255
153 194 255
153 194 255
153 194 255
152 194 255
152 194 255
152 194 255
152 194 255
152 194 255
152 194 255
152 194 255
152 194 255
152 194 255
152 194 255
152 194 255
152 193 255
152 193 255
152 193 255
152 193 255
152 193 255
152 193 255
152 193 255
152 193 255
152 193 255
152 193 255
152 193 255
152 193 255
152 193 255
152 193 255
152 193 255
152 193 255
152 193 255
152 193 255
152 193 255
152 194 255
152 194 255
152 194 255
152 194 255
152 194 255
152 194 255
152 194 255
152 194 255
152 194 255
152 194 255
152 194 255
152 194 255
153 194 255
153 194 255
153 194 255
153 194 255
153 194 255
153 194 255
153 194 255
153 194 255
153 194 255
153 194 255
153 194 255
153 194 255
153 194 255
153 194 255
153 194 255
153 194 255
153 194 255
153 194 255
153 194 255
154 194 255
154 194 255
154 194 255
154 194 255
154 195 255
154 195 255
154 195 255
154 195 255
154 195 255
154 195 255
154 195 255
154 195 255
154 195 255
155 195 255
155 195 255
155 195 255
155 195 255
155 195 255
155 195 255
155 195 255
155 195 255
155 195 255
155 195 255
155 195 255
156 196 255
156 196 255
156 196 255
156 196 255
156 196 255
156 196 255
156 196 255
156 196 255
156 196 255
156 196 255
157 196 255
157 196 255
157 196 255
157 196 255
157 196 255
157 196 255
157 196 255
157 197 255
157 197 255
157 197 255
158 197 255
158 197 255
158 197 255
158 197 255
158 197 255
158 197 255
158 197 255
158 197 255
158 197 255
158 197 255
159 197 255
159 197 255
159 198 255
159 198 255
159 198 255
159 198 255
159 198 255
159 198 255
159 198 255
160 198 255
160 198 255
160 198 255
160 198 255
160 198 255
160 198 255
160 198 255
160 198 255
160 198 255
161 199 255
161 199 255
161 199 255
161 199 255
161 199 255
161 199 255
161 199 255
161 199 255
161 199 255
161 199 255
162 199 255
162 199 255
162 199 255
162 199 255
162 199 255
162 199 255
162 200 255
162 200 255
162 200 255
162 200 255
163 200 255
163 200 255
163 200 255
163 200 255
163 200 255
163 200 255
163 200 255
163 200 255
163 200 255
163 200 255
164 200 255
164 200 255
164 200 255
164 201 255
164 201 255
164 201 255
164 201 255
164 201 255
164 201 255
164 201 255
165 201 255
165 201 255
165 201 255
165 201 255
165 201 255
165 201 255
165 201 255
165 201 255
165 201 255
165 201 255
165 201 255
166 202 255
166 202 255
166 202 255
166 202 255
166 202 255
166 202 255
166 202 255
166 202 255
166 202 255
166 202 255
166 202 255
167 202 255
167 202 255
167 202 255
167 202 255
167 202 255
167 202 255
167 202 255
167 202 255
167 203 255
167 203 255
167 203 255
167 203 255
168 203 255
168 203 255
168 203 255
168 203 255
168 203 255
168 203 255
168 203 255
168 203 255
168 203 255
168 203 255
168 203 255
168 203 255
168 203 255
169 203 255
169 203 255
169 203 255
169 203 255
169 203 255
168 203 255
168 203 255
168 203 255
168 203 255
168 203 255
168 203 255
168 203 255
168 203 255
168 203 255
168 203 255
168 203 255
168 203 255
168 203 255
167 203 255
167 203 255
167 203 255
167 203 255
167 202 255
167 202 255
167 202 255
167 202 255
167 202 255
167 202 255
167 202 255
167 202 255
166 202 255
166 202 255
166 202 255
166 202 255
166 202 255
166 202 255
166 202 255
166 202 255
166 202 255
166 202 255
166 202 255
165 201 255
165 201 255
165 201 255
165 201 255
165 201 255
165 201 255
165 201 255
165 201 255
165 201 255
165 201 255
165 201 255
164 201 255
164 201 255
164 201 255
164 201 255
164 201 255
164 201 255
164 200 255
164 200 255
164 200 255
164 200 255
163 200 255
163 200 255
163 200 255
163 200 255
163 200 255
163 200 255
163 200 255
163 200 255
163 200 255
163 200 255
162 200 255
162 200 255
162 200 255
162 199 255
162 199 255
162 199 255
162 199 255
162 199 255
162 199 255
162 199 255
161 199 255
161 199 255
161 199 255
161 199 255
161 199 255
161 199 255
161 199 255
161 199 255
161 199 255
160 198 255
160 198 255
160 198 255
160 198 255
160 198 255
160 198 255
160 198 255
160 198 255
160 198 255
160 198 255
159 198 255
159 198 255
159 198 255
159 198 255
159 198 255
159 198 255
159 197 255
159 197 255
159 197 255
158 197 255
158 197 255
158 197 255
158 197 255
158 197 255
158 197 255
158 197 255
158 197 255
158 197 255
158 197 255
157 197 255
157 197 255
157 197 255
157 196 255
157 196 255
157 196 255
157 196 255
157 196 255
157 196 255
157 196 255
156 196 255
156 196 255
156 196 255
156 196 255
156 196 255
156 196 255
156 196 255
156 196 255
156 196 255
156 196 255
155 195 255
155 195 255
155 195 255
155 195 255
155 195 255
155 195 255
155 195 255
155 195 255
155 195 255
155 195 255
155 195 255
155 195 255
154 195 255
154 195 255
154 195 255
154 195 255
154 195 255
154 195 255
154 195 255
154 195 255
154 195 255
154 194 255
154 194 255
154 194 255
154 194 255
154 194 255
153 194 255
153 194 255
153 194 255
153 194 255
153 194 255
153 194 255
153 194 255
153 194 255
153 194 255
153 194 255
153 194 255
153 194 255
153 194 255
153 194 255
153 194 255
153 194 255
153 194 255
153 194 255
153 194 255
153 194 255
153 194 255
153 194 255
152 194 255
152 194 255
152 194 255
152 194 255
152 194 255
152 194 255
152 194 255
152 194 255
152 194 255
152 194 255
152 194 255
152 194 255
152 194 255
152 194 255
152 194 255
152 194 255
152 194 255
152 194 255
152 194 255
152 194 255
152 194 255
152 194 255
152 194 255
152 194 255
152 194 255
152 194 255
153 194 255
153 194 255
153 194 255
153 194 255
153 194 255
153 194 255
153 194 255
153 194 255
153 194 255
153 194 255
153 194 255
153 194 255
153 194 255
153 194 255
153 194 255
153 194 255
153 194 255
153 194 255
153 194 255
153 194 255
153 194 255
153 194 255
154 194 255
154 194 255
154 194 255
154 194 255
154 194 255
154 195 255
154 195 255
154 195 255
154 195 255
154 195 255
154 195 255
154 195 255
154 195 255
154 195 255
155 195 255
155 195 255
155 195 255
155 195 255
155 195 255
155 195 255
155 195 255
155 195 255
155 195 255
155 195 255
155 195 255
155 195 255
156 196 255
156 196 255
156 196 255
156 196 255
156 196 255
156 196 255
156 196 255
156 196 255
156 196 255
156 196 255
157 196 255
157 196 255
157 196 255
157 196 255
157 196 255
157 196 255
157 196 255
157 197 255
157 197 255
157 197 255
158 197 255
158 197 255
158 197 255
158 197 255
158 197 255
158 197 255
158 197 255
158 197 255
158 197 255
158 197 255
159 197 255
159 197 255
159 197 255
159 198 255
159 198 255
159 198 255
159 198 255
159 198 255
159 198 255
160 198 255
160 198 255
160 198 255
160 198 255
160 198 255
160 198 255
160 198 255
160 198 255
160 198 255
160 198 255
161 199 255
161 199 255
161 199 255
161 199 255
161 199 255
161 199 255
161 199 255
161 199 255
161 199 255
162 199 255
162 199 255
162 199 255
162 199 255
162 199 255
162 199 255
162 199 255
162 200 255
162 200 255
162 200 255
163 200 255
163 200 255
163 200 255
163 200 255
163 200 255
163 200 255
163 200 255
163 200 255
163 200 255
163 200 255
164 200 255
164 200 255
164 200 255
164 201 255
164 201 255
164 201 255
164 201 255
164 201 255
164 201 255
164 201 255
165 201 255
165 201 255
165 201 255
165 201 255
165 201 255
165 201 255
165 201 255
165 201 255
165 201 255
165 201 255
165 201 255
166 202 255
166 202 255
166 202 255
166 202 255
166 202 255
166 202 255
166 202 255
166 202 255
166 202 255
166 202 255
166 202 255
167 202 255
167 202 255
167 202 255
167 202 255
167 202 255
167 202 255
167 202 255
167 202 255
167 203 255
167 203 255
167 203 255
167 203 255
168 203 255
168 203 255
168 203 255
168 203 255
168 203 255
168 203 255
168 203 255
168 203 255
168 203 255
168 203 255
168 203 255
168 203 255
168 203 255
169 203 255
169 203 255
169 203 255
169 203 255
169 204 255
169 204 255
169 204 255
169 203 255
169 203 255
169 203 255
169 203 255
168 203 255
168 203 255
168 203 255
168 203 255
168 203 255
168 203 255
168 203 255
168 203 255
168 203 255
168 203 255
168 203 255
168 203 255
168 203 255
167 203 255
167 203 255
167 203 255
167 203 255
167 202 255
167 202 255
167 202 255
167 202 255
167 202 255
167 202 255
167 202 255
166 202 255
166 202 255
166 202 255
166 202 255
166 202 255
166 202 255
166 202 255
166 202 255
166 202 255
166 202 255
166 202 255
166 202 255
165 201 255
165 201 255
165 201 255
165 201 255
165 201 255
165 201 255
165 201 255
165 201 255
165 201 255
165 201 255
164 201 255
164 201 255
164 201 255
164 201 255
164 201 255
164 201 255
164 201 255
164 200 255
164 200 255
164 200 255
164 200 255
163 200 255
163 200 255
163 200 255
163 200 255
163 200 255
163 200 255
163 200 255
163 200 255
163 200 255
163 200 255
162 200 255
162 200 255
162 200 255
162 199 255
162 199 255
162 199 255
162 199 255
162 199 255
162 199 255
161 199 255
161 199 255
161 199 255
161 199 255
161 199 255
161 199 255
161 199 255
161 199 255
161 199 255
161 199 255
160 198 255
160 198 255
160 198 255
160 198 255
160 198 255
160 198 255
160 198 255
160 198 255
160 198 255
159 198 255
159 198 255
159 198 255
159 198 255
159 198 255
159 198 255
159 198 255
159 197 255
159 197 255
159 197 255
158 197 255
158 197 255
158 197 255
158 197 255
158 197 255
158 197 255
158 197 255
158 197 255
158 197 255
157 197 255
157 197 255
157 197 255
157 197 255
157 196 255
157 196 255
157 196 255
157 196 255
157 196 255
157 196 255
157 196 255
156 196 255
156 196 255
156 196 255
156 196 255
156 196 255
156 196 255
156 196 255
156 196 255
156 196 255
156 196 255
155 195 255
155 195 255
155 195 255
155 195 255
155 195 255
155 195 255
155 195 255
155 195 255
155 195 255
155 195 255
155 195 255
155 195 255
154 195 255
154 195 255
154 195 255
154 195 255
154 195 255
154 195 255
154 195 255
154 195 255
154 195 255
154 195 255
154 194 255
154 194 255
154 194 255
154 194 255
154 194 255
154 194 255
153 194 255
153 194 255
153 194 255
153 194 255
153 194 255
153 194 255
153 194 255
153 194 255
153 194 255
153 194 255
153 194 255
153 194 255
153 194 255
153 194 255
153 194 255
153 194 255
153 194 255
153 194 255
153 194 255
153 194 255
153 194 255
153 194 255
153 194 255
153 194 255
153 194 255
153 194 255
153 194 255
153 194 255
153 194 255
153 194 255
153 194 255
153 194 255
153 194 255
153 194 255
153 194 255
153 194 255
153 194 255
153 194 255
153 194 255
153 194 255
153 194 255
153 194 255
153 194 255
153 194 255
153 194 255
153 194 255
153 194 255
153 194 255
153 194 255
153 194 255
153 194 255
153 194 255
153 194 255
153 194 255
153 194 255
153 194 255
153 194 255
153 194 255
153 194 255
153 194 255
153 194 255
154 194 255
154 194 255
154 194 255
154 194 255
154 194 255
154 195 255
154 195 255
154 195 255
154 195 255
154 195 255
154 195 255
154 195 255
154 195 255
154 195 255
154 195 255
155 195 255
155 195 255
155 195 255
155 195 255
155 195 255
155 195 255
155 195 255
155 195 255
155 195 255
155 195 255
155 195 255
155 195 255
156 196 255
156 196 255
156 196 255
156 196 255
156 196 255
156 196 255
156 196 255
156 196 255
156 196 255
156 196 255
157 196 255
157 196 255
157 196 255
157 196 255
157 196 255
157 196 255
157 196 255
157 197 255
157 197 255
157 197 255
158 197 255
158 197 255
158 197 255
158 197 255
158 197 255
158 197 255
158 197 255
158 197 255
158 197 255
158 197 255
159 197 255
159 197 255
159 197 255
159 198 255
159 198 255
159 198 255
159 198 255
159 198 255
159 198 255
159 198 255
160 198 255
160 198 255
160 198 255
160 198 255
160 198 255
160 198 255
160 198 255
160 198 255
160 198 255
161 199 255
161 199 255
161 199 255
161 199 255
161 199 255
161 199 255
161 199 255
161 199 255
161 199 255
161 199 255
162 199 255
162 199 255
162 199 255
162 199 255
162 199 255
162 199 255
162 200 255
162 200 255
162 200 255
163 200 255
163 200 255
163 200 255
163 200 255
163 200 255
163 200 255
163 200 255
163 200 255
163 200 255
163 200 255
164 200 255
164 200 255
164 200 255
164 200 255
164 201 255
164 201 255
164 201 255
164 201 255
164 201 255
164 201 255
164 201 255
165 201 255
165 201 255
165 201 255
165 201 255
165 201 255
165 201 255
165 201 255
165 201 255
165 201 255
165 201 255
166 202 255
166 202 255
166 202 255
166 202 255
166 202 255
166 202 255
166 202 255
166 202 255
166 202 255
166 202 255
166 202 255
166 202 255
167 202 255
167 202 255
167 202 255
167 202 255
167 202 255
167 202 255
167 202 255
167 203 255
167 203 255
167 203 255
167 203 255
167 203 255
168 203 255
168 203 255
168 203 255
168 203 255
168 203 255
168 203 255
168 203 255
168 203 255
168 203 255
168 203 255
168 203 255
168 203 255
169 203 255
169 203 255
169 203 255
169 203 255
169 204 255
169 204 255
169 204 255
169 204 255
169 204 255
169 204 255
169 204 255
169 204 255
169 204 255
169 203 255
169 203 255
169 203 255
169 203 255
168 203 255
168 203 255
168 203 255
168 203 255
168 203 255
168 203 255
168 203 255
168 203 255
168 203 255
168 203 255
168 203 255
168 203 255
168 203 255
167 203 255
167 203 255
167 203 255
167 202 255
167 202 255
167 202 255
167 202 255
167 202 255
167 202 255
167 202 255
167 202 255
166 202 255
166 202 255
166 202 255
166 202 255
166 202 255
166 202 255
166 202 255
166 202 255
166 202 255
166 202 255
166 202 255
165 201 255
165 201 255
165 201 255
165 201 255
165 201 255
165 201 255
165 201 255
165 201 255
165 201 255
165 201 255
165 201 255
164 201 255
164 201 255
164 201 255
164 201 255
164 201 255
164 201 255
164 201 255
164 200 255
164 200 255
164 200 255
163 200 255
163 200 255
163 200 255
163 200 255
163 200 255
163 200 255
163 200 255
163 200 255
163 200 255
163 200 255
162 200 255
162 200 255
162 200 255
162 200 255
162 199 255
162 199 255
162 199 255
162 199 255
162 199 255
162 199 255
161 199 255
161 199 255
161 199 255
161 199 255
161 199 255
161 199 255
161 199 255
161 199 255
161 199 255
161 199 255
160 198 255
160 198 255
160 198 255
160 198 255
160 198 255
160 198 255
160 198 255
160 198 255
160 198 255
159 198 255
159 198 255
159 198 255
159 198 255
159 198 255
159 198 255
159 197 255
159 197 255
159 197 255
158 197 255
158 197 255
158 197 255
158 197 255
158 197 255
158 197 255
158 197 255
158 197 255
158 197 255
158 197 255
157 197 255
157 197 255
157 197 255
157 197 255
157 196 255
157 196 255
157 196 255
157 196 255
157 196 255
157 196 255
157 196 255
156 196 255
156 196 255
156 196 255
156 196 255
156 196 255
156 196 255
156 196 255
156 196 255
156 196 255
156 196 255
156 196 255
155 195 255
155 195 255
155 195 255
155 195 255
155 195 255
155 195 255
155 195 255
155 195 255
155 195 255
155 195 255
155 195 255
155 195 255
154 195 255
154 195 255
154 195 255
154 195 255
154 195 255
154 195 255
154 195 255
154 195 255
154 195 255
154 195 255
154 195 255
154 194 255
154 194 255
154 194 255
154 194 255
154 194 255
154 194 255
153 194 255
153 194 255
153 194 255
153 194 255
153 194 255
153 194 255
153 194 255
153 194 255
153 194 255
153 194 255
153 194 255
153 194 255
153 194 255
153 194 255
153 194 255
153 194 255
153 194 255
153 194 255
153 194 255
153 194 255
153 194 255
153 194 255
153 194 255
153 194 255
153 194 255
153 194 255
153 194 255
153 194 255
153 194 255
153 194 255
153 194 255
153 194 255
153 194 255
153 194 255
153 194 255
153 194 255
153 194 255
153 194 255
153 194 255
153 194 255
153 194 255
153 194 255
153 194 255
153 194 255
153 194 255
153 194 255
153 194 255
153 194 255
153 194 255
153 194 255
154 194 255
154 194 255
154 194 255
154 194 255
154 194 255
154 194 255
154 195 255
154 195 255
154 195 255
154 195 255
154 195 255
154 195 255
154 195 255
154 195 255
154 195 255
154 195 255
154 195 255
155 195 255
155 195 255
155 195 255
155 195 255
155 195 255
155 195 255
155 195 255
155 195 255
155 195 255
155 195 255
155 195 255
155 195 255
156 196 255
156 196 255
156 196 255
156 196 255
156 196 255
156 196 255
156 196 255
156 196 255
156 196 255
156 196 255
156 196 255
157 196 255
157 196 255
157 196 255
157 196 255
157 196 255
157 196 255
157 196 255
157 197 255
157 197 255
157 197 255
157 197 255
158 197 255
158 197 255
158 197 255
158 197 255
158 197 255
158 197 255
158 197 255
158 197 255
158 197 255
159 197 255
159 197 255
159 197 255
159 197 255
159 198 255
159 198 255
159 198 255
159 198 255
159 198 255
159 198 255
160 198 255
160 198 255
160 198 255
160 198 255
160 198 255
160 198 255
160 198 255
160 198 255
160 198 255
161 199 255
161 199 255
161 199 255
161 199 255
161 199 255
161 199 255
161 199 255
161 199 255
161 199 255
161 199 255
162 199 255
162 199 255
162 199 255
162 199 255
162 199 255
162 199 255
162 200 255
162 200 255
162 200 255
162 200 255
163 200 255
163 200 255
163 200 255
163 200 255
163 200 255
163 200 255
163 200 255
163 200 255
163 200 255
163 200 255
164 200 255
164 200 255
164 200 255
164 201 255
164 201 255
164 201 255
164 201 255
164 201 255
164 201 255
164 201 255
165 201 255
165 201 255
165 201 255
165 201 255
165 201 255
165 201 255
165 201 255
165 201 255
165 201 255
165 201 255
165 201 255
166 202 255
166 202 255
166 202 255
166 202 255
166 202 255
166 202 255
166 202 255
166 202 255
166 202 255
166 202 255
166 202 255
167 202 255
167 202 255
167 202 255
167 202 255
167 202 255
167 202 255
167 202 255
167 202 255
167 203 255
167 203 255
167 203 255
167 203 255
168 203 255
168 203 255
168 203 255
168 203 255
168 203 255
168 203 255
168 203 255
168 203 255
168 203 255
168 203 255
168 203 255
168 203 255
169 203 255
169 203 255
169 203 255
169 203 255
169 204 255
169 204 255
169 204 255
169 204 255
169 204 255
169 204 255
169 204 255
169 204 255
169 204 255
169 204 255
169 204 255
169 204 255
169 204 255
169 204 255
169 204 255
169 203 255
169 203 255
169 203 255
169 203 255
168 203 255
168 203 255
168 203 255
168 203 255
168 203 255
168 203 255
168 203 255
168 203 255
168 203 255
168 203 255
168 203 255
168 203 255
167 203 255
167 203 255
167 203 255
167 203 255
167 202 255
167 202 255
167 202 255
167 202 255
167 202 255
167 202 255
167 202 255
167 202 255
166 202 255
166 202 255
166 202 255
166 202 255
166 202 255
166 202 255
166 202 255
166 202 255
166 202 255
166 202 255
166 202 255
165 201 255
165 201 255
165 201 255
165 201 255
165 201 255
165 201 255
165 201 255
165 201 255
165 201 255
165 201 255
165 201 255
164 201 255
164 201 255
164 201 255
164 201 255
164 201 255
164 201 255
164 201 255
164 200 255
164 200 255
164 200 255
163 200 255
163 200 255
163 200 255
163 200 255
163 200 255
163 200 255
163 200 255
163 200 255
163 200 255
163 200 255
162 200 255
162 200 255
162 200 255
162 199 255
162 199 255
162 199 255
162 199 255
162 199 255
162 199 255
162 199 255
161 199 255
161 199 255
161 199 255
161 199 255
161 199 255
161 199 255
161 199 255
161 199 255
161 199 255
160 198 255
160 198 255
160 198 255
160 198 255
160 198 255
160 198 255
160 198 255
160 198 255
160 198 255
160 198 255
159 198 255
159 198 255
159 198 255
159 198 255
159 198 255
159 198 255
159 197 255
159 197 255
159 197 255
158 197 255
158 197 255
158 197 255
158 197 255
158 197 255
158 197 255
158 197 255
158 197 255
158 197 255
158 197 255
157 197 255
157 197 255
157 197 255
157 197 255
157 196 255
157 196 255
157 196 255
157 196 255
157 196 255
157 196 255
157 196 255
156 196 255
156 196 255
156 196 255
156 196 255
156 196 255
156 196 255
156 196 255
156 196 255
156 196 255
156 196 255
156 196 255
155 195 255
155 195 255
155 195 255
155 195 255
155 195 255
155 195 255
155 195 255
155 195 255
155 195 255
155 195 255
155 195 255
155 195 255
155 195 255
155 195 255
154 195 255
154 195 255
154 195 255
154 195 255
154 195 255
154 195 255
154 195 255
154 195 255
154 195 255
154 195 255
154 195 255
154 194 255
154 194 255
154 194 255
154 194 255
154 194 255
154 194 255
154 194 255
154 194 255
154 194 255
153 194 255
153 194 255
153 194 255
153 194 255
153 194 255
153 194 255
153 194 255
153 194 255
153 194 255
153 194 255
153 194 255
153 194 255
153 194 255
153 194 255
153 194 255
153 194 255
153 194 255
153 194 255
153 194 255
153 194 255
153 194 255
153 194 255
153 194 255
153 194 255
153 194 255
153 194 255
153 194 255
153 194 255
153 194 255
153 194 255
153 194 255
153 194 255
153 194 255
153 194 255
153 194 255
154 194 255
154 194 255
154 194 255
154 194 255
154 194 255
154 194 255
154 194 255
154 194 255
154 195 255
154 195 255
154 195 255
154 195 255
154 195 255
154 195 255
154 195 255
154 195 255
154 195 255
154 195 255
154 195 255
154 195 255
155 195 255
155 195 255
155 195 255
155 195 255
155 195 255
155 195 255
155 195 255
155 195 255
155 195 255
155 195 255
155 195 255
155 195 255
155 195 255
156 196 255
156 196 255
156 196 255
156 196 255
156 196 255
156 196 255
156 196 255
156 196 255
156 196 255
156 196 255
156 196 255
157 196 255
157 196 255
157 196 255
157 196 255
157 196 255
157 196 255
157 196 255
157 197 255
157 197 255
157 197 255
157 197 255
158 197 255
158 197 255
158 197 255
158 197 255
158 197 255
158 197 255
158 197 255
158 197 255
158 197 255
158 197 255
159 197 255
159 197 255
159 197 255
159 198 255
159 198 255
159 198 255
159 198 255
159 198 255
159 198 255
160 198 255
160 198 255
160 198 255
160 198 255
160 198 255
160 198 255
160 198 255
160 198 255
160 198 255
160 198 255
161 199 255
161 199 255
161 199 255
161 199 255
161 199 255
161 199 255
161 199 255
161 199 255
161 199 255
161 199 255
162 199 255
162 199 255
162 199 255
162 199 255
162 199 255
162 199 255
162 200 255
162 200 255
162 200 255
163 200 255
163 200 255
163 200 255
163 200 255
163 200 255
163 200 255
163 200 255
163 200 255
163 200 255
163 200 255
164 200 255
164 200 255
164 200 255
164 201 255
164 201 255
164 201 255
164 201 255
164 201 255
164 201 255
164 201 255
165 201 255
165 201 255
165 201 255
165 201 255
165 201 255
165 201 255
165 201 255
165 201 255
165 201 255
165 201 255
165 201 255
166 202 255
166 202 255
166 202 255
166 202 255
166 202 255
166 202 255
166 202 255
166 202 255
166 202 255
166 202 255
166 202 255
167 202 255
167 202 255
167 202 255
167 202 255
167 202 255
167 202 255
167 202 255
167 203 255
167 203 255
167 203 255
167 203 255
168 203 255
168 203 255
168 203 255
168 203 255
168 203 255
168 203 255
168 203 255
168 203 255
168 203 255
168 203 255
168 203 255
168 203 255
168 203 255
169 203 255
169 203 255
169 203 255
169 203 255
169 204 255
169 204 255
169 204 255
169 204 255
169 204 255
169 204 255
169 204 255
169 204 255
169 204 255
170 204 255
170 204 255
170 204 255
169 204 255
169 204 255
169 204 255
169 204 255
169 204 255
169 204 255
169 204 255
169 204 255
169 204 255
169 203 255
169 203 255
169 203 255
169 203 255
168 203 255
168 203 255
168 203 255
168 203 255
168 203 255
168 203 255
168 203 255
168 203 255
168 203 255
168 203 255
168 203 255
168 203 255
167 203 255
167 203 255
167 203 255
167 203 255
167 202 255
167 202 255
167 202 255
167 202 255
167 202 255
167 202 255
167 202 255
167 202 255
166 202 255
166 202 255
166 202 255
166 202 255
166 202 255
166 202 255
166 202 255
166 202 255
166 202 255
166 202 255
166 202 255
165 201 255
165 201 255
165 201 255
165 201 255
165 201 255
165 201 255
165 201 255
165 201 255
165 201 255
165 201 255
165 201 255
164 201 255
164 201 255
164 201 255
164 201 255
164 201 255
164 201 255
164 200 255
164 200 255
164 200 255
164 200 255
163 200 255
163 200 255
163 200 255
163 200 255
163 200 255
163 200 255
163 200 255
163 200 255
163 200 255
163 200 255
162 200 255
162 200 255
162 200 255
162 199 255
162 199 255
162 199 255
162 199 255
162 199 255
162 199 255
161 199 255
161 199 255
161 199 255
161 199 255
161 199 255
161 199 255
161 199 255
161 199 255
161 199 255
161 199 255
160 198 255
160 198 255
160 198 255
160 198 255
160 198 255
160 198 255
160 198 255
160 198 255
160 198 255
160 198 255
159 198 255
159 198 255
159 198 255
159 198 255
159 198 255
159 198 255
159 197 255
159 197 255
159 197 255
158 197 255
158 197 255
158 197 255
158 197 255
158 197 255
158 197 255
158 197 255
158 197 255
158 197 255
158 197 255
157 197 255
157 197 255
157 197 255
157 197 255
157 196 255
157 196 255
157 196 255
157 196 255
157 196 255
157 196 255
157 196 255
156 196 255
156 196 255
156 196 255
156 196 255
156 196 255
156 196 255
156 196 255
156 196 255
156 196 255
156 196 255
156 196 255
156 196 255
155 195 255
155 195 255
155 195 255
155 195 255
155 195 255
155 195 255
155 195 255
155 195 255
155 195 255
155 195 255
155 195 255
155 195 255
155 195 255
155 195 255
154 195 255
154 195 255
154 195 255
154 195 255
154 195 255
154 195 255
154 195 255
154 195 255
154 195 255
154 195 255
154 195 255
154 195 255
154 195 255
154 195 255
154 194 255
154 194 255
154 194 255
154 194 255
154 194 255
154 194 255
154 194 255
154 194 255
154 194 255
154 194 255
154 194 255
154 194 255
154 194 255
154 194 255
154 194 255
154 194 255
154 194 255
154 194 255
154 194 255
154 194 255
154 194 255
154 194 255
154 194 255
154 194 255
154 194 255
154 194 255
154 194 255
154 194 255
154 194 255
154 194 255
154 194 255
154 194 255
154 194 255
154 194 255
154 194 255
154 194 255
154 194 255
154 195 255
154 195 255
154 195 255
154 195 255
154 195 255
154 195 255
154 195 255
154 195 255
154 195 255
154 195 255
154 195 255
154 195 255
154 195 255
154 195 255
154 195 255
155 195 255
155 195 255
155 195 255
155 195 255
155 195 255
155 195 255
155 195 255
155 195 255
155 195 255
155 195 255
155 195 255
155 195 255
155 195 255
155 195 255
156 196 255
156 196 255
156 196 255
156 196 255
156 196 255
156 196 255
156 196 255
156 196 255
156 196 255
156 196 255
156 196 255
156 196 255
157 196 255
157 196 255
157 196 255
157 196 255
157 196 255
157 196 255
157 196 255
157 197 255
157 197 255
157 197 255
157 197 255
158 197 255
158 197 255
158 197 255
158 197 255
158 197 255
158 197 255
158 197 255
158 197 255
158 197 255
158 197 255
159 197 255
159 197 255
159 197 255
159 198 255
159 198 255
159 198 255
159 198 255
159 198 255
159 198 255
160 198 255
160 198 255
160 198 255
160 198 255
160 198 255
160 198 255
160 198 255
160 198 255
160 198 255
160 198 255
161 199 255
161 199 255
161 199 255
161 199 255
161 199 255
161 199 255
161 199 255
161 199 255
161 199 255
161 199 255
162 199 255
162 199 255
162 199 255
162 199 255
162 199 255
162 199 255
162 200 255
162 200 255
162 200 255
163 200 255
163 200 255
163 200 255
163 200 255
163 200 255
163 200 255
163 200 255
163 200 255
163 200 255
163 200 255
164 200 255
164 200 255
164 200 255
164 200 255
164 201 255
164 201 255
164 201 255
164 201 255
164 201 255
164 201 255
165 201 255
165 201 255
165 201 255
165 201 255
165 201 255
165 201 255
165 201 255
165 201 255
165 201 255
165 201 255
165 201 255
166 202 255
166 202 255
166 202 255
166 202 255
166 202 255
166 202 255
166 202 255
166 202 255
166 202 255
166 202 255
166 202 255
167 202 255
167 202 255
167 202 255
167 202 255
167 202 255
167 202 255
167 202 255
167 202 255
167 203 255
167 203 255
167 203 255
167 203 255
168 203 255
168 203 255
168 203 255
168 203 255
168 203 255
168 203 255
168 203 255
168 203 255
168 203 255
168 203 255
168 203 255
168 203 255
169 203 255
169 203 255
169 203 255
169 203 255
169 204 255
169 204 255
169 204 255
169 204 255
169 204 255
169 204 255
169 204 255
169 204 255
169 204 255
170 204 255
170 204 255
170 204 255
170 204 255
170 204 255
170 204 255
170 204 255
170 204 255
170 204 255
169 204 255
169 204 255
169 204 255
169 204 255
169 204 255
169 204 255
169 204 255
169 204 255
169 204 255
169 203 255
169 203 255
169 203 255
169 203 255
168 203 255
168 203 255
168 203 255
168 203 255
168 203 255
168 203 255
168 203 255
168 203 255
168 203 255
168 203 255
168 203 255
168 203 255
167 203 255
167 203 255
167 203 255
167 203 255
167 202 255
167 202 255
167 202 255
167 202 255
167 202 255
167 202 255
167 202 255
167 202 255
166 202 255
166 202 255
166 202 255
166 202 255
166 202 255
166 202 255
166 202 255
166 202 255
166 202 255
166 202 255
166 202 255
165 201 255
165 201 255
165 201 255
165 201 255
165 201 255
165 201 255
165 201 255
165 201 255
165 201 255
165 201 255
164 201 255
164 201 255
164 201 255
164 201 255
164 201 255
164 201 255
164 201 255
164 200 255
164 200 255
164 200 255
163 200 255
163 200 255
163 200 255
163 200 255
163 200 255
163 200 255
163 200 255
163 200 255
163 200 255
163 200 255
162 200 255
162 200 255
162 200 255
162 200 255
162 199 255
162 199 255
162 199 255
162 199 255
162 199 255
162 199 255
161 199 255
161 199 255
161 199 255
161 199 255
161 199 255
161 199 255
161 199 255
161 199 255
161 199 255
161 199 255
160 198 255
160 198 255
160 198 255
160 198 255
160 198 255
160 198 255
160 198 255
160 198 255
160 198 255
159 198 255
159 198 255
159 198 255
159 198 255
159 198 255
159 198 255
159 198 255
159 197 255
159 197 255
159 197 255
158 197 255
158 197 255
158 197 255
158 197 255
158 197 255
158 197 255
158 197 255
158 197 255
158 197 255
158 197 255
157 197 255
157 197 255
157 197 255
157 197 255
157 196 255
157 196 255
157 196 255
157 196 255
157 196 255
157 196 255
157 196 255
156 196 255
156 196 255
156 196 255
156 196 255
156 196 255
156 196 255
156 196 255
156 196 255
156 196 255
156 196 255
156 196 255
156 196 255
156 196 255
155 195 255
155 195 255
155 195 255
155 195 255
155 195 255
155 195 255
155 195 255
155 195 255
155 195 255
155 195 255
155 195 255
155 195 255
155 195 255
155 195 255
155 195 255
155 195 255
154 195 255
154 195 255
154 195 255
154 195 255
154 195 255
154 195 255
154 195 255
154 195 255
154 195 255
154 195 255
154 195 255
154 195 255
154 195 255
154 195 255
154 195 255
154 195 255
154 195 255
154 195 255
154 195 255
154 195 255
154 195 255
154 194 255
154 194 255
154 194 255
154 194 255
154 194 255
154 194 255
154 194 255
154 194 255
154 194 255
154 194 255
154 194 255
154 194 255
154 195 255
154 195 255
154 195 255
154 195 255
154 195 255
154 195 255
154 195 255
154 195 255
154 195 255
154 195 255
154 195 255
154 195 255
154 195 255
154 195 255
154 195 255
154 195 255
154 195 255
154 195 255
154 195 255
154 195 255
154 195 255
155 195 255
155 195 255
155 195 255
155 195 255
155 195 255
155 195 255
155 195 255
155 195 255
155 195 255
155 195 255
155 195 255
155 195 255
155 195 255
155 195 255
155 195 255
155 195 255
156 196 255
156 196 255
156 196 255
156 196 255
156 196 255
156 196 255
156 196 255
156 196 255
156 196 255
156 196 255
156 196 255
156 196 255
156 196 255
157 196 255
157 196 255
157 196 255
157 196 255
157 196 255
157 196 255
157 196 255
157 197 255
157 197 255
157 197 255
157 197 255
158 197 255
158 197 255
158 197 255
158 197 255
158 197 255
158 197 255
158 197 255
158 197 255
158 197 255
158 197 255
159 197 255
159 197 255
159 197 255
159 198 255
159 198 255
159 198 255
159 198 255
159 198 255
159 198 255
159 198 255
160 198 255
160 198 255
160 198 255
160 198 255
160 198 255
160 198 255
160 198 255
160 198 255
160 198 255
161 199 255
161 199 255
161 199 255
161 199 255
161 199 255
161 199 255
161 199 255
161 199 255
161 199 255
161 199 255
162 199 255
162 199 255
162 199 255
162 199 255
162 199 255
162 199 255
162 200 255
162 200 255
162 200 255
162 200 255
163 200 255
163 200 255
163 200 255
163 200 255
163 200 255
163 200 255
163 200 255
163 200 255
163 200 255
164 200 255
164 200 255
164 200 255
164 200 255
164 201 255
164 201 255
164 201 255
164 201 255
164 201 255
164 201 255
164 201 255
165 201 255
165 201 255
165 201 255
165 201 255
165 201 255
165 201 255
165 201 255
165 201 255
165 201 255
165 201 255
166 202 255
166 202 255
166 202 255
166 202 255
166 202 255
166 202 255
166 202 255
166 202 255
166 202 255
166 202 255
166 202 255
167 202 255
167 202 255
167 202 255
167 202 255
167 202 255
167 202 255
167 202 255
167 202 255
167 203 255
167 203 255
167 203 255
168 203 255
168 203 255
168 203 255
168 203 255
168 203 255
168 203 255
168 203 255
168 203 255
168 203 255
168 203 255
168 203 255
168 203 255
168 203 255
169 203 255
169 203 255
169 203 255
169 203 255
169 204 255
169 204 255
169 204 255
169 204 255
169 204 255
169 204 255
169 204 255
169 204 255
169 204 255
170 204 255
170 204 255
170 204 255
170 204 255
170 204 255
170 204 255
170 204 255
170 204 255
170 204 255
170 204 255
170 204 255
170 204 255
170 204 255
170 204 255
170 204 255
170 204 255
169 204 255
169 204 255
169 204 255
169 204 255
169 204 255
169 204 255
169 204 255
169 204 255
169 203 255
169 203 255
169 203 255
169 203 255
169 203 255
168 203 255
168 203 255
168 203 255
168 203 255
168 203 255
168 203 255
168 203 255
168 203 255
168 203 255
168 203 255
168 203 255
167 203 255
167 203 255
167 203 255
167 203 255
167 202 255
167 202 255
167 202 255
167 202 255
167 202 255
167 202 255
167 202 255
167 202 255
166 202 255
166 202 255
166 202 255
166 202 255
166 202 255
166 202 255
166 202 255
166 202 255
166 202 255
166 202 255
166 202 255
165 201 255
165 201 255
165 201 255
165 201 255
165 201 255
165 201 255
165 201 255
165 201 255
165 201 255
165 201 255
164 201 255
164 201 255
164 201 255
164 201 255
164 201 255
164 201 255
164 201 255
164 200 255
164 200 255
164 200 255
163 200 255
163 200 255
163 200 255
163 200 255
163 200 255
163 200 255
163 200 255
163 200 255
163 200 255
163 200 255
162 200 255
162 200 255
162 200 255
162 199 255
162 199 255
162 199 255
162 199 255
162 199 255
162 199 255
162 199 255
161 199 255
161 199 255
161 199 255
161 199 255
161 199 255
161 199 255
161 199 255
161 199 255
161 199 255
161 199 255
160 198 255
160 198 255
160 198 255
160 198 255
160 198 255
160 198 255
160 198 255
160 198 255
160 198 255
159 198 255
159 198 255
159 198 255
159 198 255
159 198 255
159 198 255
159 198 255
159 197 255
159 197 255
159 197 255
158 197 255
158 197 255
158 197 255
158 197 255
158 197 255
158 197 255
158 197 255
158 197 255
158 197 255
158 197 255
158 197 255
157 197 255
157 197 255
157 197 255
157 196 255
157 196 255
157 196 255
157 196 255
157 196 255
157 196 255
157 196 255
157 196 255
156 196 255
156 196 255
156 196 255
156 196 255
156 196 255
156 196 255
156 196 255
156 196 255
156 196 255
156 196 255
156 196 255
156 196 255
156 196 255
155 195 255
155 195 255
155 195 255
155 195 255
155 195 255
155 195 255
155 195 255
155 195 255
155 195 255
155 195 255
155 195 255
155 195 255
155 195 255
155 195 255
155 195 255
155 195 255
155 195 255
155 195 255
154 195 255
154 195 255
154 195 255
154 195 255
154 195 255
154 195 255
154 195 255
154 195 255
154 195 255
154 195 255
154 195 255
154 195 255
154 195 255
154 195 255
154 195 255
154 195 255
154 195 255
154 195 255
154 195 255
154 195 255
154 195 255
154 195 255
154 195 255
154 195 255
154 195 255
154 195 255
154 195 255
154 195 255
154 195 255
154 195 255
154 195 255
154 195 255
154 195 255
154 195 255
154 195 255
154 195 255
154 195 255
154 195 255
154 195 255
154 195 255
154 195 255
154 195 255
155 195 255
155 195 255
155 195 255
155 195 255
155 195 255
155 195 255
155 195 255
155 195 255
155 195 255
155 195 255
155 195 255
155 195 255
155 195 255
155 195 255
155 195 255
155 195 255
155 195 255
155 195 255
156 196 255
156 196 255
156 196 255
156 196 255
156 196 255
156 196 255
156 196 255
156 196 255
156 196 255
156 196 255
156 196 255
156 196 255
156 196 255
157 196 255
157 196 255
157 196 255
157 196 255
157 196 255
157 196 255
157 196 255
157 196 255
157 197 255
157 197 255
157 197 255
158 197 255
158 197 255
158 197 255
158 197 255
158 197 255
158 197 255
158 197 255
158 197 255
158 197 255
158 197 255
158 197 255
159 197 255
159 197 255
159 197 255
159 198 255
159 198 255
159 198 255
159 198 255
159 198 255
159 198 255
159 198 255
160 198 255
160 198 255
160 198 255
160 198 255
160 198 255
160 198 255
160 198 255
160 198 255
160 198 255
160 198 255
161 199 255
161 199 255
161 199 255
161 199 255
161 199 255
161 199 255
161 199 255
161 199 255
161 199 255
162 199 255
162 199 255
162 199 255
162 199 255
162 199 255
162 199 255
162 200 255
162 200 255
162 200 255
162 200 255
163 200 255
163 200 255
163 200 255
163 200 255
163 200 255
163 200 255
163 200 255
163 200 255
163 200 255
163 200 255
164 200 255
164 200 255
164 200 255
164 201 255
164 201 255
164 201 255
164 201 255
164 201 255
164 201 255
164 201 255
165 201 255
165 201 255
165 201 255
165 201 255
165 201 255
165 201 255
165 201 255
165 201 255
165 201 255
165 201 255
166 202 255
166 202 255
166 202 255
166 202 255
166 202 255
166 202 255
166 202 255
166 202 255
166 202 255
166 202 255
166 202 255
167 202 255
167 202 255
167 202 255
167 202 255
167 202 255
167 202 255
167 202 255
167 202 255
167 203 255
167 203 255
167 203 255
167 203 255
168 203 255
168 203 255
168 203 255
168 203 255
168 203 255
168 203 255
168 203 255
168 203 255
168 203 255
168 203 255
168 203 255
168 203 255
169 203 255
169 203 255
169 203 255
169 203 255
169 204 255
169 204 255
169 204 255
169 204 255
169 204 255
169 204 255
169 204 255
169 204 255
169 204 255
170 204 255
170 204 255
170 204 255
170 204 255
170 204 255
170 204 255
170 204 255
170 204 255
170 204 255
170 204 255
170 204 255
170 204 255
170 204 255
170 204 255
170 204 255
170 204 255
170 204 255
170 204 255
170 204 255
170 204 255
170 204 255
170 204 255
169 204 255
169 204 255
169 204 255
169 204 255
169 204 255
169 204 255
169 204 255
169 204 255
169 203 255
169 203 255
169 203 255
169 203 255
168 203 255
168 203 255
168 203 255
168 203 255
168 203 255
168 203 255
168 203 255
168 203 255
168 203 255
168 203 255
168 203 255
168 203 255
167 203 255
167 203 255
167 203 255
167 203 255
167 202 255
167 202 255
167 202 255
167 202 255
167 202 255
167 202 255
167 202 255
167 202 255
166 202 255
166 202 255
166 202 255
166 202 255
166 202 255
166 202 255
166 202 255
166 202 255
166 202 255
166 202 255
166 202 255
165 201 255
165 201 255
165 201 255
165 201 255
165 201 255
165 201 255
165 201 255
165 201 255
165 201 255
165 201 255
164 201 255
164 201 255
164 201 255
164 201 255
164 201 255
164 201 255
164 201 255
164 200 255
164 200 255
164 200 255
163 200 255
163 200 255
163 200 255
163 200 255
163 200 255
163 200 255
163 200 255
163 200 255
163 200 255
163 200 255
162 200 255
162 200 255
162 200 255
162 199 255
162 199 255
162 199 255
162 199 255
162 199 255
162 199 255
162 199 255
161 199 255
161 199 255
161 199 255
161 199 255
161 199 255
161 199 255
161 199 255
161 199 255
161 199 255
160 198 255
160 198 255
160 198 255
160 198 255
160 198 255
160 198 255
160 198 255
160 198 255
160 198 255
160 198 255
159 198 255
159 198 255
159 198 255
159 198 255
159 198 255
159 198 255
159 198 255
159 197 255
159 197 255
159 197 255
158 197 255
158 197 255
158 197 255
158 197 255
158 197 255
158 197 255
158 197 255
158 197 255
158 197 255
158 197 255
158 197 255
157 197 255
157 197 255
157 197 255
157 197 255
157 196 255
157 196 255
157 196 255
157 196 255
157 196 255
157 196 255
157 196 255
157 196 255
156 196 255
156 196 255
156 196 255
156 196 255
156 196 255
156 196 255
156 196 255
156 196 255
156 196 255
156 196 255
156 196 255
156 196 255
156 196 255
156 196 255
155 195 255
155 195 255
155 195 255
155 195 255
155 195 255
155 195 255
155 195 255
155 195 255
155 195 255
155 195 255
155 195 255
155 195 255
155 195 255
155 195 255
155 195 255
155 195 255
155 195 255
155 195 255
155 195 255
155 195 255
155 195 255
155 195 255
155 195 255
155 195 255
155 195 255
154 195 255
154 195 255
154 195 255
154 195 255
154 195 255
154 195 255
154 195 255
154 195 255
154 195 255
154 195 255
154 195 255
154 195 255
154 195 255
154 195 255
154 195 255
154 195 255
154 195 255
154 195 255
155 195 255
155 195 255
155 195 255
155 195 255
155 195 255
155 195 255
155 195 255
155 195 255
155 195 255
155 195 255
155 195 255
155 195 255
155 195 255
155 195 255
155 195 255
155 195 255
155 195 255
155 195 255
155 195 255
155 195 255
155 195 255
155 195 255
155 195 255
155 195 255
155 195 255
156 196 255
156 196 255
156 196 255
156 196 255
156 196 255
156 196 255
156 196 255
156 196 255
156 196 255
156 196 255
156 196 255
156 196 255
156 196 255
156 196 255
157 196 255
157 196 255
157 196 255
157 196 255
157 196 255
157 196 255
157 196 255
157 196 255
157 197 255
157 197 255
157 197 255
157 197 255
158 197 255
158 197 255
158 197 255
158 197 255
158 197 255
158 197 255
158 197 255
158 197 255
158 197 255
158 197 255
158 197 255
159 197 255
159 197 255
159 197 255
159 198 255
159 198 255
159 198 255
159 198 255
159 198 255
159 198 255
159 198 255
160 198 255
160 198 255
160 198 255
160 198 255
160 198 255
160 198 255
160 198 255
160 198 255
160 198 255
160 198 255
161 199 255
161 199 255
161 199 255
161 199 255
161 199 255
161 199 255
161 199 255
161 199 255
161 199 255
162 199 255
162 199 255
162 199 255
162 199 255
162 199 255
162 199 255
162 199 255
162 200 255
162 200 255
162 200 255
163 200 255
163 200 255
163 200 255
163 200 255
163 200 255
163 200 255
163 200 255
163 200 255
163 200 255
163 200 255
164 200 255
164 200 255
164 200 255
164 201 255
164 201 255
164 201 255
164 201 255
164 201 255
164 201 255
164 201 255
165 201 255
165 201 255
165 201 255
165 201 255
165 201 255
165 201 255
165 201 255
165 201 255
165 201 255
165 201 255
166 202 255
166 202 255
166 202 255
166 202 255
166 202 255
166 202 255
166 202 255
166 202 255
166 202 255
166 202 255
166 202 255
167 202 255
167 202 255
167 202 255
167 202 255
167 202 255
167 202 255
167 202 255
167 202 255
167 203 255
167 203 255
167 203 255
167 203 255
168 203 255
168 203 255
168 203 255
168 203 255
168 203 255
168 203 255
168 203 255
168 203 255
168 203 255
168 203 255
168 203 255
168 203 255
169 203 255
169 203 255
169 203 255
169 203 255
169 204 255
169 204 255
169 204 255
169 204 255
169 204 255
169 204 255
169 204 255
169 204 255
170 204 255
170 204 255
170 204 255
170 204 255
170 204 255
170 204 255
170 204 255
170 204 255
170 204 255
170 204 255
170 204 255
170 204 255
170 204 255
171 205 255
171 205 255
170 204 255
170 204 255
170 204 255
170 204 255
170 204 255
170 204 255
170 204 255
170 204 255
170 204 255
170 204 255
170 204 255
170 204 255
170 204 255
170 204 255
169 204 255
169 204 255
169 204 255
169 204 255
169 204 255
169 204 255
169 204 255
169 204 255
169 203 255
169 203 255
169 203 255
169 203 255
168 203 255
168 203 255
168 203 255
168 203 255
168 203 255
168 203 255
168 203 255
168 203 255
168 203 255
168 203 255
168 203 255
168 203 255
168 203 255
167 203 255
167 203 255
167 203 255
167 202 255
167 202 255
167 202 255
167 202 255
167 202 255
167 202 255
167 202 255
167 202 255
166 202 255
166 202 255
166 202 255
166 202 255
166 202 255
166 202 255
166 202 255
166 202 255
166 202 255
166 202 255
166 202 255
165 201 255
165 201 255
165 201 255
165 201 255
165 201 255
165 201 255
165 201 255
165 201 255
165 201 255
165 201 255
164 201 255
164 201 255
164 201 255
164 201 255
164 201 255
164 201 255
164 201 255
164 200 255
164 200 255
164 200 255
163 200 255
163 200 255
163 200 255
163 200 255
163 200 255
163 200 255
163 200 255
163 200 255
163 200 255
163 200 255
162 200 255
162 200 255
162 200 255
162 199 255
162 199 255
162 199 255
162 199 255
162 199 255
162 199 255
161 199 255
161 199 255
161 199 255
161 199 255
161 199 255
161 199 255
161 199 255
161 199 255
161 199 255
161 199 255
160 198 255
160 198 255
160 198 255
160 198 255
160 198 255
160 198 255
160 198 255
160 198 255
160 198 255
160 198 255
159 198 255
159 198 255
159 198 255
159 198 255
159 198 255
159 198 255
159 198 255
159 197 255
159 197 255
159 197 255
159 197 255
158 197 255
158 197 255
158 197 255
158 197 255
158 197 255
158 197 255
158 197 255
158 197 255
158 197 255
158 197 255
157 197 255
157 197 255
157 197 255
157 197 255
157 196 255
157 196 255
157 196 255
157 196 255
157 196 255
157 196 255
157 196 255
157 196 255
157 196 255
156 196 255
156 196 255
156 196 255
156 196 255
156 196 255
156 196 255
156 196 255
156 196 255
156 196 255
156 196 255
156 196 255
156 196 255
156 196 255
156 196 255
156 196 255
155 195 255
155 195 255
155 195 255
155 195 255
155 195 255
155 195 255
155 195 255
155 195 255
155 195 255
155 195 255
155 195 255
155 195 255
155 195 255
155 195 255
155 195 255
155 195 255
155 195 255
155 195 255
155 195 255
155 195 255
155 195 255
155 195 255
155 195 255
155 195 255
155 195 255
155 195 255
155 195 255
155 195 255
155 195 255
155 195 255
155 195 255
155 195 255
155 195 255
155 195 255
155 195 255
155 195 255
155 195 255
155 195 255
155 195 255
155 195 255
155 195 255
155 195 255
155 195 255
155 195 255
155 195 255
155 195 255
155 195 255
155 195 255
155 195 255
155 195 255
155 195 255
155 195 255
155 195 255
155 195 255
155 195 255
155 195 255
155 195 255
155 195 255
156 196 255
156 196 255
156 196 255
156 196 255
156 196 255
156 196 255
156 196 255
156 196 255
156 196 255
156 196 255
156 196 255
156 196 255
156 196 255
156 196 255
156 196 255
157 196 255
157 196 255
157 196 255
157 196 255
157 196 255
157 196 255
157 196 255
157 196 255
157 196 255
157 197 255
157 197 255
157 197 255
157 197 255
158 197 255
158 197 255
158 197 255
158 197 255
158 197 255
158 197 255
158 197 255
158 197 255
158 197 255
158 197 255
158 197 255
159 197 255
159 197 255
159 197 255
159 198 255
159 198 255
159 198 255
159 198 255
159 198 255
159 198 255
159 198 255
160 198 255
160 198 255
160 198 255
160 198 255
160 198 255
160 198 255
160 198 255
160 198 255
160 198 255
160 198 255
161 199 255
161 199 255
161 199 255
161 199 255
161 199 255
161 199 255
161 199 255
161 199 255
161 199 255
161 199 255
162 199 255
162 199 255
162 199 255
162 199 255
162 199 255
162 199 255
162 200 255
162 200 255
162 200 255
163 200 255
163 200 255
163 200 255
163 200 255
163 200 255
163 200 255
163 200 255
163 200 255
163 200 255
163 200 255
164 200 255
164 200 255
164 200 255
164 200 255
164 201 255
164 201 255
164 201 255
164 201 255
164 201 255
164 201 255
165 201 255
165 201 255
165 201 255
165 201 255
165 201 255
165 201 255
165 201 255
165 201 255
165 201 255
165 201 255
165 201 255
166 202 255
166 202 255
166 202 255
166 202 255
166 202 255
166 202 255
166 202 255
166 202 255
166 202 255
166 202 255
167 202 255
167 202 255
167 202 255
167 202 255
167 202 255
167 202 255
167 202 255
167 202 255
167 203 255
167 203 255
167 203 255
167 203 255
168 203 255
168 203 255
168 203 255
168 203 255
168 203 255
168 203 255
168 203 255
168 203 255
168 203 255
168 203 255
168 203 255
168 203 255
169 203 255
169 203 255
169 203 255
169 203 255
169 204 255
169 204 255
169 204 255
169 204 255
169 204 255
169 204 255
169 204 255
169 204 255
170 204 255
170 204 255
170 204 255
170 204 255
170 204 255
170 204 255
170 204 255
170 204 255
170 204 255
170 204 255
170 204 255
170 204 255
170 204 255
170 204 255
171 205 255
171 205 255
171 205 255
171 205 255
171 205 255
171 205 255
171 205 255
170 204 255
170 204 255
170 204 255
170 204 255
170 204 255
170 204 255
170 204 255
170 204 255
170 204 255
170 204 255
170 204 255
170 204 255
170 204 255
170 204 255
169 204 255
169 204 255
169 204 255
169 204 255
169 204 255
169 204 255
169 204 255
169 204 255
169 203 255
169 203 255
169 203 255
169 203 255
169 203 255
168 203 255
168 203 255
168 203 255
168 203 255
168 203 255
168 203 255
168 203 255
168 203 255
168 203 255
168 203 255
168 203 255
167 203 255
167 203 255
167 203 255
167 203 255
167 202 255
167 202 255
167 202 255
167 202 255
167 202 255
167 202 255
167 202 255
166 202 255
166 202 255
166 202 255
166 202 255
166 202 255
166 202 255
166 202 255
166 202 255
166 202 255
166 202 255
166 202 255
165 201 255
165 201 255
165 201 255
165 201 255
165 201 255
165 201 255
165 201 255
165 201 255
165 201 255
165 201 255
165 201 255
164 201 255
164 201 255
164 201 255
164 201 255
164 201 255
164 201 255
164 201 255
164 200 255
164 200 255
164 200 255
163 200 255
163 200 255
163 200 255
163 200 255
163 200 255
163 200 255
163 200 255
163 200 255
163 200 255
163 200 255
162 200 255
162 200 255
162 200 255
162 199 255
162 199 255
162 199 255
162 199 255
162 199 255
162 199 255
161 199 255
161 199 255
161 199 255
161 199 255
161 199 255
161 199 255
161 199 255
161 199 255
161 199 255
161 199 255
160 198 255
160 198 255
160 198 255
160 198 255
160 198 255
160 198 255
160 198 255
160 198 255
160 198 255
160 198 255
159 198 255
159 198 255
159 198 255
159 198 255
159 198 255
159 198 255
159 198 255
159 197 255
159 197 255
159 197 255
159 197 255
158 197 255
158 197 255
158 197 255
158 197 255
158 197 255
158 197 255
158 197 255
158 197 255
158 197 255
158 197 255
158 197 255
157 197 255
157 197 255
157 197 255
157 197 255
157 196 255
157 196 255
157 196 255
157 196 255
157 196 255
157 196 255
157 196 255
157 196 255
157 196 255
156 196 255
156 196 255
156 196 255
156 196 255
156 196 255
156 196 255
156 196 255
156 196 255
156 196 255
156 196 255
156 196 255
156 196 255
156 196 255
156 196 255
156 196 255
156 196 255
156 196 255
156 196 255
155 195 255
155 195 255
155 195 255
155 195 255
155 195 255
155 195 255
155 195 255
155 195 255
155 195 255
155 195 255
155 195 255
155 195 255
155 195 255
155 195 255
155 195 255
155 195 255
155 195 255
155 195 255
155 195 255
155 195 255
155 195 255
155 195 255
155 195 255
155 195 255
155 195 255
155 195 255
155 195 255
155 195 255
155 195 255
155 195 255
155 195 255
155 195 255
155 195 255
155 195 255
155 195 255
155 195 255
155 195 255
155 195 255
155 195 255
155 195 255
155 195 255
155 195 255
155 195 255
155 195 255
156 196 255
156 196 255
156 196 255
156 196 255
156 196 255
156 196 255
156 196 255
156 196 255
156 196 255
156 196 255
156 196 255
156 196 255
156 196 255
156 196 255
156 196 255
156 196 255
156 196 255
156 196 255
157 196 255
157 196 255
157 196 255
157 196 255
157 196 255
157 196 255
157 196 255
157 196 255
157 196 255
157 197 255
157 197 255
157 197 255
157 197 255
158 197 255
158 197 255
158 197 255
158 197 255
158 197 255
158 197 255
158 197 255
158 197 255
158 197 255
158 197 255
158 197 255
159 197 255
159 197 255
159 197 255
159 197 255
159 198 255
159 198 255
159 198 255
159 198 255
159 198 255
159 198 255
159 198 255
160 198 255
160 198 255
160 198 255
160 198 255
160 198 255
160 198 255
160 198 255
160 198 255
160 198 255
160 198 255
161 199 255
161 199 255
161 199 255
161 199 255
161 199 255
161 199 255
161 199 255
161 199 255
161 199 255
161 199 255
162 199 255
162 199 255
162 199 255
162 199 255
162 199 255
162 199 255
162 200 255
162 200 255
162 200 255
163 200 255
163 200 255
163 200 255
163 200 255
163 200 255
163 200 255
163 200 255
163 200 255
163 200 255
163 200 255
164 200 255
164 200 255
164 200 255
164 200 255
164 201 255
164 201 255
164 201 255
164 201 255
164 201 255
164 201 255
165 201 255
165 201 255
165 201 255
165 201 255
165 201 255
165 201 255
165 201 255
165 201 255
165 201 255
165 201 255
166 202 255
166 202 255
166 202 255
166 202 255
166 202 255
166 202 255
166 202 255
166 202 255
166 202 255
166 202 255
166 202 255
167 202 255
167 202 255
167 202 255
167 202 255
167 202 255
167 202 255
167 202 255
167 202 255
167 203 255
167 203 255
167 203 255
167 203 255
168 203 255
168 203 255
168 203 255
168 203 255
168 203 255
168 203 255
168 203 255
168 203 255
168 203 255
168 203 255
168 203 255
168 203 255
169 203 255
169 203 255
169 203 255
169 203 255
169 204 255
169 204 255
169 204 255
169 204 255
169 204 255
169 204 255
169 204 255
169 204 255
170 204 255
170 204 255
170 204 255
170 204 255
170 204 255
170 204 255
170 204 255
170 204 255
170 204 255
170 204 255
170 204 255
170 204 255
170 204 255
171 205 255
171 205 255
171 205 255
171 205 255
171 205 255
171 205 255
171 205 255
171 205 255
171 205 255
171 205 255
171 205 255
171 205 255
171 205 255
171 205 255
171 205 255
170 204 255
170 204 255
170 204 255
170 204 255
170 204 255
170 204 255
170 204 255
170 204 255
170 204 255
170 204 255
170 204 255
170 204 255
170 204 255
169 204 255
169 204 255
169 204 255
169 204 255
169 204 255
169 204 255
169 204 255
169 204 255
169 204 255
169 203 255
169 203 255
169 203 255
169 203 255
168 203 255
168 203 255
168 203 255
168 203 255
168 203 255
168 203 255
168 203 255
168 203 255
168 203 255
168 203 255
168 203 255
167 203 255
167 203 255
167 203 255
167 203 255
167 202 255
167 202 255
167 202 255
167 202 255
167 202 255
167 202 255
167 202 255
167 202 255
166 202 255
166 202 255
166 202 255
166 202 255
166 202 255
166 202 255
166 202 255
166 202 255
166 202 255
166 202 255
165 201 255
165 201 255
165 201 255
165 201 255
165 201 255
165 201 255
165 201 255
165 201 255
165 201 255
165 201 255
165 201 255
164 201 255
164 201 255
164 201 255
164 201 255
164 201 255
164 201 255
164 200 255
164 200 255
164 200 255
164 200 255
163 200 255
163 200 255
163 200 255
163 200 255
163 200 255
163 200 255
163 200 255
163 200 255
163 200 255
163 200 255
162 200 255
162 200 255
162 200 255
162 199 255
162 199 255
162 199 255
162 199 255
162 199 255
162 199 255
161 199 255
161 199 255
161 199 255
161 199 255
161 199 255
161 199 255
161 199 255
161 199 255
161 199 255
161 199 255
160 198 255
160 198 255
160 198 255
160 198 255
160 198 255
160 198 255
160 198 255
160 198 255
160 198 255
160 198 255
159 198 255
159 198 255
159 198 255
159 198 255
159 198 255
159 198 255
159 198 255
159 197 255
159 197 255
159 197 255
159 197 255
158 197 255
158 197 255
158 197 255
158 197 255
158 197 255
158 197 255
158 197 255
158 197 255
158 197 255
158 197 255
158 197 255
158 197 255
157 197 255
157 197 255
157 197 255
157 197 255
157 196 255
157 196 255
157 196 255
157 196 255
157 196 255
157 196 255
157 196 255
157 196 255
157 196 255
157 196 255
156 196 255
156 196 255
156 196 255
156 196 255
156 196 255
156 196 255
156 196 255
156 196 255
156 196 255
156 196 255
156 196 255
156 196 255
156 196 255
156 196 255
156 196 255
156 196 255
156 196 255
156 196 255
156 196 255
156 196 255
156 196 255
156 196 255
155 195 255
155 195 255
155 195 255
155 195 255
155 195 255
155 195 255
155 195 255
155 195 255
155 195 255
155 195 255
155 195 255
155 195 255
155 195 255
155 195 255
155 195 255
155 195 255
155 195 255
155 195 255
155 195 255
155 195 255
155 195 255
155 195 255
155 195 255
155 195 255
155 195 255
156 196 255
156 196 255
156 196 255
156 196 255
156 196 255
156 196 255
156 196 255
156 196 255
156 196 255
156 196 255
156 196 255
156 196 255
156 196 255
156 196 255
156 196 255
156 196 255
156 196 255
156 196 255
156 196 255
156 196 255
156 196 255
156 196 255
156 196 255
157 196 255
157 196 255
157 196 255
157 196 255
157 196 255
157 196 255
157 196 255
157 196 255
157 196 255
157 196 255
157 197 255
157 197 255
157 197 255
157 197 255
158 197 255
158 197 255
158 197 255
158 197 255
158 197 255
158 197 255
158 197 255
158 197 255
158 197 255
158 197 255
158 197 255
158 197 255
159 197 255
159 197 255
159 197 255
159 197 255
159 198 255
159 198 255
159 198 255
159 198 255
159 198 255
159 198 255
159 198 255
160 198 255
160 198 255
160 198 255
160 198 255
160 198 255
160 198 255
160 198 255
160 198 255
160 198 255
160 198 255
161 199 255
161 199 255
161 199 255
161 199 255
161 199 255
161 199 255
161 199 255
161 199 255
161 199 255
161 199 255
162 199 255
162 199 255
162 199 255
162 199 255
162 199 255
162 199 255
162 200 255
162 200 255
162 200 255
162 200 255
163 200 255
163 200 255
163 200 255
163 200 255
163 200 255
163 200 255
163 200 255
163 200 255
163 200 255
164 200 255
164 200 255
164 200 255
164 200 255
164 201 255
164 201 255
164 201 255
164 201 255
164 201 255
164 201 255
165 201 255
165 201 255
165 201 255
165 201 255
165 201 255
165 201 255
165 201 255
165 201 255
165 201 255
165 201 255
165 201 255
166 202 255
166 202 255
166 202 255
166 202 255
166 202 255
166 202 255
166 202 255
166 202 255
166 202 255
166 202 255
167 202 255
167 202 255
167 202 255
167 202 255
167 202 255
167 202 255
167 202 255
167 202 255
167 203 255
167 203 255
167 203 255
167 203 255
168 203 255
168 203 255
168 203 255
168 203 255
168 203 255
168 203 255
168 203 255
168 203 255
168 203 255
168 203 255
168 203 255
169 203 255
169 203 255
169 203 255
169 203 255
169 204 255
169 204 255
169 204 255
169 204 255
169 204 255
169 204 255
169 204 255
169 204 255
169 204 255
170 204 255
170 204 255
170 204 255
170 204 255
170 204 255
170 204 255
170 204 255
170 204 255
170 204 255
170 204 255
170 204 255
170 204 255
170 204 255
171 205 255
171 205 255
171 205 255
171 205 255
171 205 255
171 205 255
171 205 255
171 205 255
171 205 255
171 205 255
171 205 255
171 205 255
171 205 255
171 205 255
171 205 255
171 205 255
171 205 255
171 205 255
171 205 255
171 205 255
171 205 255
170 204 255
170 204 255
170 204 255
170 204 255
170 204 255
170 204 255
170 204 255
170 204 255
170 204 255
170 204 255
170 204 255
170 204 255
170 204 255
169 204 255
169 204 255
169 204 255
169 204 255
169 204 255
169 204 255
169 204 255
169 204 255
169 204 255
169 203 255
169 203 255
169 203 255
169 203 255
168 203 255
168 203 255
168 203 255
168 203 255
168 203 255
168 203 255
168 203 255
168 203 255
168 203 255
168 203 255
168 203 255
167 203 255
167 203 255
167 203 255
167 203 255
167 202 255
167 202 255
167 202 255
167 202 255
167 202 255
167 202 255
167 202 255
167 202 255
166 202 255
166 202 255
166 202 255
166 202 255
166 202 255
166 202 255
166 202 255
166 202 255
166 202 255
166 202 255
165 201 255
165 201 255
165 201 255
165 201 255
165 201 255
165 201 255
165 201 255
165 201 255
165 201 255
165 201 255
165 201 255
164 201 255
164 201 255
164 201 255
164 201 255
164 201 255
164 201 255
164 201 255
164 200 255
164 200 255
164 200 255
163 200 255
163 200 255
163 200 255
163 200 255
163 200 255
163 200 255
163 200 255
163 200 255
163 200 255
163 200 255
162 200 255
162 200 255
162 200 255
162 199 255
162 199 255
162 199 255
162 199 255
162 199 255
162 199 255
161 199 255
161 199 255
161 199 255
161 199 255
161 199 255
161 199 255
161 199 255
161 199 255
161 199 255
161 199 255
160 198 255
160 198 255
160 198 255
160 198 255
160 198 255
160 198 255
160 198 255
160 198 255
160 198 255
160 198 255
160 198 255
159 198 255
159 198 255
159 198 255
159 198 255
159 198 255
159 198 255
159 198 255
159 197 255
159 197 255
159 197 255
159 197 255
158 197 255
158 197 255
158 197 255
158 197 255
158 197 255
158 197 255
158 197 255
158 197 255
158 197 255
158 197 255
158 197 255
158 197 255
157 197 255
157 197 255
157 197 255
157 197 255
157 197 255
157 196 255
157 196 255
157 196 255
157 196 255
157 196 255
157 196 255
157 196 255
157 196 255
157 196 255
157 196 255
156 196 255
156 196 255
156 196 255
156 196 255
156 196 255
156 196 255
156 196 255
156 196 255
156 196 255
156 196 255
156 196 255
156 196 255
156 196 255
156 196 255
156 196 255
156 196 255
156 196 255
156 196 255
156 196 255
156 196 255
156 196 255
156 196 255
156 196 255
156 196 255
156 196 255
156 196 255
156 196 255
156 196 255
156 196 255
156 196 255
156 196 255
156 196 255
156 196 255
156 196 255
156 196 255
156 196 255
156 196 255
156 196 255
156 196 255
156 196 255
156 196 255
156 196 255
156 196 255
156 196 255
156 196 255
156 196 255
156 196 255
156 196 255
156 196 255
156 196 255
156 196 255
156 196 255
156 196 255
156 196 255
156 196 255
156 196 255
156 196 255
156 196 255
156 196 255
157 196 255
157 196 255
157 196 255
157 196 255
157 196 255
157 196 255
157 196 255
157 196 255
157 196 255
157 196 255
157 196 255
157 197 255
157 197 255
157 197 255
157 197 255
157 197 255
158 197 255
158 197 255
158 197 255
158 197 255
158 197 255
158 197 255
158 197 255
158 197 255
158 197 255
158 197 255
158 197 255
158 197 255
158 197 255
159 197 255
159 197 255
159 197 255
159 198 255
159 198 255
159 198 255
159 198 255
159 198 255
159 198 255
159 198 255
160 198 255
160 198 255
160 198 255
160 198 255
160 198 255
160 198 255
160 198 255
160 198 255
160 198 255
160 198 255
160 198 255
161 199 255
161 199 255
161 199 255
161 199 255
161 199 255
161 199 255
161 199 255
161 199 255
161 199 255
161 199 255
162 199 255
162 199 255
162 199 255
162 199 255
162 199 255
162 199 255
162 200 255
162 200 255
162 200 255
163 200 255
163 200 255
163 200 255
163 200 255
163 200 255
163 200 255
163 200 255
163 200 255
163 200 255
163 200 255
164 200 255
164 200 255
164 200 255
164 200 255
164 201 255
164 201 255
164 201 255
164 201 255
164 201 255
164 201 255
165 201 255
165 201 255
165 201 255
165 201 255
165 201 255
165 201 255
165 201 255
165 201 255
165 201 255
165 201 255
165 201 255
166 202 255
166 202 255
166 202 255
166 202 255
166 202 255
166 202 255
166 202 255
166 202 255
166 202 255
166 202 255
167 202 255
167 202 255
167 202 255
167 202 255
167 202 255
167 202 255
167 202 255
167 202 255
167 203 255
167 203 255
167 203 255
168 203 255
168 203 255
168 203 255
168 203 255
168 203 255
168 203 255
168 203 255
168 203 255
168 203 255
168 203 255
168 203 255
168 203 255
169 203 255
169 203 255
169 203 255
169 203 255
169 204 255
169 204 255
169 204 255
169 204 255
169 204 255
169 204 255
169 204 255
169 204 255
170 204 255
170 204 255
170 204 255
170 204 255
170 204 255
170 204 255
170 204 255
170 204 255
170 204 255
170 204 255
170 204 255
170 204 255
170 204 255
170 204 255
171 205 255
171 205 255
171 205 255
171 205 255
171 205 255
171 205 255
171 205 255
171 205 255
171 205 255
171 205 255
171 205 255
171 205 255
172 205 255
172 205 255
171 205 255
171 205 255
171 205 255
171 205 255
171 205 255
171 205 255
171 205 255
171 205 255
171 205 255
171 205 255
171 205 255
171 205 255
171 205 255
171 205 255
170 204 255
170 204 255
170 204 255
170 204 255
170 204 255
170 204 255
170 204 255
170 204 255
170 204 255
170 204 255
170 204 255
170 204 255
170 204 255
169 204 255
169 204 255
169 204 255
169 204 255
169 204 255
169 204 255
169 204 255
169 204 255
169 203 255
169 203 255
169 203 255
169 203 255
168 203 255
168 203 255
168 203 255
168 203 255
168 203 255
168 203 255
168 203 255
168 203 255
168 203 255
168 203 255
168 203 255
168 203 255
167 203 255
167 203 255
167 203 255
167 202 255
167 202 255
167 202 255
167 202 255
167 202 255
167 202 255
167 202 255
167 202 255
166 202 255
166 202 255
166 202 255
166 202 255
166 202 255
166 202 255
166 202 255
166 202 255
166 202 255
166 202 255
165 201 255
165 201 255
165 201 255
165 201 255
165 201 255
165 201 255
165 201 255
165 201 255
165 201 255
165 201 255
165 201 255
164 201 255
164 201 255
164 201 255
164 201 255
164 201 255
164 201 255
164 200 255
164 200 255
164 200 255
164 200 255
163 200 255
163 200 255
163 200 255
163 200 255
163 200 255
163 200 255
163 200 255
163 200 255
163 200 255
163 200 255
162 200 255
162 200 255
162 200 255
162 199 255
162 199 255
162 199 255
162 199 255
162 199 255
162 199 255
161 199 255
161 199 255
161 199 255
161 199 255
161 199 255
161 199 255
161 199 255
161 199 255
161 199 255
161 199 255
161 199 255
160 198 255
160 198 255
160 198 255
160 198 255
160 198 255
160 198 255
160 198 255
160 198 255
160 198 255
160 198 255
159 198 255
159 198 255
159 198 255
159 198 255
159 198 255
159 198 255
159 198 255
159 197 255
159 197 255
159 197 255
159 197 255
158 197 255
158 197 255
158 197 255
158 197 255
158 197 255
158 197 255
158 197 255
158 197 255
158 197 255
158 197 255
158 197 255
158 197 255
158 197 255
157 197 255
157 197 255
157 197 255
157 197 255
157 197 255
157 197 255
157 196 255
157 196 255
157 196 255
157 196 255
157 196 255
157 196 255
157 196 255
157 196 255
157 196 255
157 196 255
157 196 255
157 196 255
156 196 255
156 196 255
156 196 255
156 196 255
156 196 255
156 196 255
156 196 255
156 196 255
156 196 255
156 196 255
156 196 255
156 196 255
156 196 255
156 196 255
156 196 255
156 196 255
156 196 255
156 196 255
156 196 255
156 196 255
156 196 255
156 196 255
156 196 255
156 196 255
156 196 255
156 196 255
156 196 255
156 196 255
156 196 255
156 196 255
156 196 255
156 196 255
156 196 255
156 196 255
156 196 255
156 196 255
156 196 255
156 196 255
156 196 255
156 196 255
156 196 255
156 196 255
156 196 255
156 196 255
156 196 255
156 196 255
157 196 255
157 196 255
157 196 255
157 196 255
157 196 255
157 196 255
157 196 255
157 196 255
157 196 255
157 196 255
157 196 255
157 196 255
157 197 255
157 197 255
157 197 255
157 197 255
157 197 255
157 197 255
158 197 255
158 197 255
158 197 255
158 197 255
158 197 255
158 197 255
158 197 255
158 197 255
158 197 255
158 197 255
158 197 255
158 197 255
158 197 255
159 197 255
159 197 255
159 197 255
159 197 255
159 198 255
159 198 255
159 198 255
159 198 255
159 198 255
159 198 255
159 198 255
160 198 255
160 198 255
160 198 255
160 198 255
160 198 255
160 198 255
160 198 255
160 198 255
160 198 255
160 198 255
160 198 255
161 199 255
161 199 255
161 199 255
161 199 255
161 199 255
161 199 255
161 199 255
161 199 255
161 199 255
161 199 255
162 199 255
162 199 255
162 199 255
162 199 255
162 199 255
162 199 255
162 200 255
162 200 255
162 200 255
162 200 255
163 200 255
163 200 255
163 200 255
163 200 255
163 200 255
163 200 255
163 200 255
163 200 255
163 200 255
164 200 255
164 200 255
164 200 255
164 200 255
164 201 255
164 201 255
164 201 255
164 201 255
164 201 255
164 201 255
165 201 255
165 201 255
165 201 255
165 201 255
165 201 255
165 201 255
165 201 255
165 201 255
165 201 255
165 201 255
165 201 255
166 202 255
166 202 255
166 202 255
166 202 255
166 202 255
166 202 255
166 202 255
166 202 255
166 202 255
166 202 255
167 202 255
167 202 255
167 202 255
167 202 255
167 202 255
167 202 255
167 202 255
167 202 255
167 203 255
167 203 255
167 203 255
168 203 255
168 203 255
168 203 255
168 203 255
168 203 255
168 203 255
168 203 255
168 203 255
168 203 255
168 203 255
168 203 255
168 203 255
169 203 255
169 203 255
169 203 255
169 203 255
169 204 255
169 204 255
169 204 255
169 204 255
169 204 255
169 204 255
169 204 255
169 204 255
170 204 255
170 204 255
170 204 255
170 204 255
170 204 255
170 204 255
170 204 255
170 204 255
170 204 255
170 204 255
170 204 255
170 204 255
170 204 255
171 205 255
171 205 255
171 205 255
171 205 255
171 205 255
171 205 255
171 205 255
171 205 255
171 205 255
171 205 255
171 205 255
171 205 255
171 205 255
171 205 255
172 205 255
172 205 255
172 205 255
172 205 255
172 205 255
172 205 255
172 205 255
171 205 255
171 205 255
171 205 255
171 205 255
171 205 255
171 205 255
171 205 255
171 205 255
171 205 255
171 205 255
171 205 255
171 205 255
171 205 255
171 205 255
170 204 255
170 204 255
170 204 255
170 204 255
170 204 255
170 204 255
170 204 255
170 204 255
170 204 255
170 204 255
170 204 255
170 204 255
170 204 255
169 204 255
169 204 255
169 204 255
169 204 255
169 204 255
169 204 255
169 204 255
169 204 255
169 203 255
169 203 255
169 203 255
169 203 255
168 203 255
168 203 255
168 203 255
168 203 255
168 203 255
168 203 255
168 203 255
168 203 255
168 203 255
168 203 255
168 203 255
168 203 255
167 203 255
167 203 255
167 203 255
167 202 255
167 202 255
167 202 255
167 202 255
167 202 255
167 202 255
167 202 255
167 202 255
166 202 255
166 202 255
166 202 255
166 202 255
166 202 255
166 202 255
166 202 255
166 202 255
166 202 255
166 202 255
165 201 255
165 201 255
165 201 255
165 201 255
165 201 255
165 201 255
165 201 255
165 201 255
165 201 255
165 201 255
165 201 255
164 201 255
164 201 255
164 201 255
164 201 255
164 201 255
164 201 255
164 201 255
164 200 255
164 200 255
164 200 255
163 200 255
163 200 255
163 200 255
163 200 255
163 200 255
163 200 255
163 200 255
163 200 255
163 200 255
163 200 255
162 200 255
162 200 255
162 200 255
162 199 255
162 199 255
162 199 255
162 199 255
162 199 255
162 199 255
161 199 255
161 199 255
161 199 255
161 199 255
161 199 255
161 199 255
161 199 255
161 199 255
161 199 255
161 199 255
161 199 255
160 198 255
160 198 255
160 198 255
160 198 255
160 198 255
160 198 255
160 198 255
160 198 255
160 198 255
160 198 255
160 198 255
159 198 255
159 198 255
159 198 255
159 198 255
159 198 255
159 198 255
159 198 255
159 197 255
159 197 255
159 197 255
159 197 255
158 197 255
158 197 255
158 197 255
158 197 255
158 197 255
158 197 255
158 197 255
158 197 255
158 197 255
158 197 255
158 197 255
158 197 255
158 197 255
158 197 255
157 197 255
157 197 255
157 197 255
157 197 255
157 197 255
157 197 255
157 196 255
157 196 255
157 196 255
157 196 255
157 196 255
157 196 255
157 196 255
157 196 255
157 196 255
157 196 255
157 196 255
157 196 255
157 196 255
157 196 255
157 196 255
157 196 255
156 196 255
156 196 255
156 196 255
156 196 255
156 196 255
156 196 255
156 196 255
156 196 255
156 196 255
156 196 255
156 196 255
156 196 255
156 196 255
156 196 255
156 196 255
156 196 255
156 196 255
156 196 255
156 196 255
156 196 255
156 196 255
156 196 255
156 196 255
156 196 255
156 196 255
156 196 255
156 196 255
157 196 255
157 196 255
157 196 255
157 196 255
157 196 255
157 196 255
157 196 255
157 196 255
157 196 255
157 196 255
157 196 255
157 196 255
157 196 255
157 196 255
157 196 255
157 196 255
157 196 255
157 197 255
157 197 255
157 197 255
157 197 255
157 197 255
158 197 255
158 197 255
158 197 255
158 197 255
158 197 255
158 197 255
158 197 255
158 197 255
158 197 255
158 197 255
158 197 255
158 197 255
158 197 255
158 197 255
158 197 255
159 197 255
159 197 255
159 197 255
159 197 255
159 198 255
159 198 255
159 198 255
159 198 255
159 198 255
159 198 255
159 198 255
159 198 255
160 198 255
160 198 255
160 198 255
160 198 255
160 198 255
160 198 255
160 198 255
160 198 255
160 198 255
160 198 255
161 199 255
161 199 255
161 199 255
161 199 255
161 199 255
161 199 255
161 199 255
161 199 255
161 199 255
161 199 255
162 199 255
162 199 255
162 199 255
162 199 255
162 199 255
162 199 255
162 199 255
162 200 255
162 200 255
162 200 255
163 200 255
163 200 255
163 200 255
163 200 255
163 200 255
163 200 255
163 200 255
163 200 255
163 200 255
163 200 255
164 200 255
164 200 255
164 200 255
164 200 255
164 201 255
164 201 255
164 201 255
164 201 255
164 201 255
164 201 255
164 201 255
165 201 255
165 201 255
165 201 255
165 201 255
165 201 255
165 201 255
165 201 255
165 201 255
165 201 255
165 201 255
166 202 255
166 202 255
166 202 255
166 202 255
166 202 255
166 202 255
166 202 255
166 202 255
166 202 255
166 202 255
167 202 255
167 202 255
167 202 255
167 202 255
167 202 255
167 202 255
167 202 255
167 202 255
167 203 255
167 203 255
167 203 255
168 203 255
168 203 255
168 203 255
168 203 255
168 203 255
168 203 255
168 203 255
168 203 255
168 203 255
168 203 255
168 203 255
168 203 255
169 203 255
169 203 255
169 203 255
169 203 255
169 204 255
169 204 255
169 204 255
169 204 255
169 204 255
169 204 255
169 204 255
169 204 255
170 204 255
170 204 255
170 204 255
170 204 255
170 204 255
170 204 255
170 204 255
170 204 255
170 204 255
170 204 255
170 204 255
170 204 255
170 204 255
171 205 255
171 205 255
171 205 255
171 205 255
171 205 255
171 205 255
171 205 255
171 205 255
171 205 255
171 205 255
171 205 255
171 205 255
171 205 255
171 205 255
172 205 255
172 205 255
172 205 255
172 205 255
172 205 255
172 205 255
172 205 255
172 205 255
172 205 255
172 205 255
172 205 255
172 205 255
172 205 255
172 205 255
171 205 255
171 205 255
171 205 255
171 205 255
171 205 255
171 205 255
171 205 255
171 205 255
171 205 255
171 205 255
171 205 255
171 205 255
171 205 255
170 204 255
170 204 255
170 204 255
170 204 255
170 204 255
170 204 255
170 204 255
170 204 255
170 204 255
170 204 255
170 204 255
170 204 255
170 204 255
169 204 255
169 204 255
169 204 255
169 204 255
169 204 255
169 204 255
169 204 255
169 204 255
169 203 255
169 203 255
169 203 255
169 203 255
169 203 255
168 203 255
168 203 255
168 203 255
168 203 255
168 203 255
168 203 255
168 203 255
168 203 255
168 203 255
168 203 255
168 203 255
167 203 255
167 203 255
167 203 255
167 202 255
167 202 255
167 202 255
167 202 255
167 202 255
167 202 255
167 202 255
167 202 255
166 202 255
166 202 255
166 202 255
166 202 255
166 202 255
166 202 255
166 202 255
166 202 255
166 202 255
166 202 255
165 201 255
165 201 255
165 201 255
165 201 255
165 201 255
165 201 255
165 201 255
165 201 255
165 201 255
165 201 255
165 201 255
164 201 255
164 201 255
164 201 255
164 201 255
164 201 255
164 201 255
164 201 255
164 200 255
164 200 255
164 200 255
163 200 255
163 200 255
163 200 255
163 200 255
163 200 255
163 200 255
163 200 255
163 200 255
163 200 255
163 200 255
162 200 255
162 200 255
162 200 255
162 199 255
162 199 255
162 199 255
162 199 255
162 199 255
162 199 255
162 199 255
161 199 255
161 199 255
161 199 255
161 199 255
161 199 255
161 199 255
161 199 255
161 199 255
161 199 255
161 199 255
160 198 255
160 198 255
160 198 255
160 198 255
160 198 255
160 198 255
160 198 255
160 198 255
160 198 255
160 198 255
160 198 255
159 198 255
159 198 255
159 198 255
159 198 255
159 198 255
159 198 255
159 198 255
159 198 255
159 197 255
159 197 255
159 197 255
159 197 255
159 197 255
158 197 255
158 197 255
158 197 255
158 197 255
158 197 255
158 197 255
158 197 255
158 197 255
158 197 255
158 197 255
158 197 255
158 197 255
158 197 255
158 197 255
158 197 255
157 197 255
157 197 255
157 197 255
157 197 255
157 197 255
157 197 255
157 197 255
157 196 255
157 196 255
157 196 255
157 196 255
157 196 255
157 196 255
157 196 255
157 196 255
157 196 255
157 196 255
157 196 255
157 196 255
157 196 255
157 196 255
157 196 255
157 196 255
157 196 255
157 196 255
157 196 255
157 196 255
157 196 255
157 196 255
157 196 255
157 196 255
157 196 255
157 196 255
157 196 255
157 196 255
157 196 255
157 196 255
157 196 255
157 196 255
157 196 255
157 196 255
157 196 255
157 196 255
157 196 255
157 196 255
157 196 255
157 196 255
157 196 255
157 196 255
157 196 255
157 196 255
157 196 255
157 196 255
157 197 255
157 197 255
157 197 255
157 197 255
157 197 255
157 197 255
157 197 255
158 197 255
158 197 255
158 197 255
158 197 255
158 197 255
158 197 255
158 197 255
158 197 255
158 197 255
158 197 255
158 197 255
158 197 255
158 197 255
158 197 255
158 197 255
159 197 255
159 197 255
159 197 255
159 197 255
159 197 255
159 198 255
159 198 255
159 198 255
159 198 255
159 198 255
159 198 255
159 198 255
159 198 255
160 198 255
160 198 255
160 198 255
160 198 255
160 198 255
160 198 255
160 198 255
160 198 255
160 198 255
160 198 255
160 198 255
161 199 255
161 199 255
161 199 255
161 199 255
161 199 255
161 199 255
161 199 255
161 199 255
161 199 255
161 199 255
162 199 255
162 199 255
162 199 255
162 199 255
162 199 255
162 199 255
162 199 255
162 200 255
162 200 255
162 200 255
163 200 255
163 200 255
163 200 255
163 200 255
163 200 255
163 200 255
163 200 255
163 200 255
163 200 255
163 200 255
164 200 255
164 200 255
164 200 255
164 200 255
164 201 255
164 201 255
164 201 255
164 201 255
164 201 255
164 201 255
165 201 255
165 201 255
165 201 255
165 201 255
165 201 255
165 201 255
165 201 255
165 201 255
165 201 255
165 201 255
165 201 255
166 202 255
166 202 255
166 202 255
166 202 255
166 202 255
166 202 255
166 202 255
166 202 255
166 202 255
166 202 255
167 202 255
167 202 255
167 202 255
167 202 255
167 202 255
167 202 255
167 202 255
167 203 255
167 203 255
167 203 255
167 203 255
168 203 255
168 203 255
168 203 255
168 203 255
168 203 255
168 203 255
168 203 255
168 203 255
168 203 255
168 203 255
168 203 255
168 203 255
169 203 255
169 203 255
169 203 255
169 203 255
169 204 255
169 204 255
169 204 255
169 204 255
169 204 255
169 204 255
169 204 255
169 204 255
170 204 255
170 204 255
170 204 255
170 204 255
170 204 255
170 204 255
170 204 255
170 204 255
170 204 255
170 204 255
170 204 255
170 204 255
170 204 255
171 205 255
171 205 255
171 205 255
171 205 255
171 205 255
171 205 255
171 205 255
171 205 255
171 205 255
171 205 255
171 205 255
171 205 255
171 205 255
172 205 255
172 205 255
172 205 255
172 205 255
172 205 255
172 205 255
172 205 255
172 205 255
172 205 255
172 206 255
172 206 255
172 206 255
172 205 255
172 205 255
172 205 255
172 205 255
172 205 255
172 205 255
172 205 255
172 205 255
172 205 255
171 205 255
171 205 255
171 205 255
171 205 255
171 205 255
171 205 255
171 205 255
171 205 255
171 205 255
171 205 255
171 205 255
171 205 255
171 205 255
171 205 255
170 204 255
170 204 255
170 204 255
170 204 255
170 204 255
170 204 255
170 204 255
170 204 255
170 204 255
170 204 255
170 204 255
170 204 255
170 204 255
169 204 255
169 204 255
169 204 255
169 204 255
169 204 255
169 204 255
169 204 255
169 204 255
169 203 255
169 203 255
169 203 255
169 203 255
168 203 255
168 203 255
168 203 255
168 203 255
168 203 255
168 203 255
168 203 255
168 203 255
168 203 255
168 203 255
168 203 255
167 203 255
167 203 255
167 203 255
167 203 255
167 202 255
167 202 255
167 202 255
167 202 255
167 202 255
167 202 255
167 202 255
166 202 255
166 202 255
166 202 255
166 202 255
166 202 255
166 202 255
166 202 255
166 202 255
166 202 255
166 202 255
166 202 255
165 201 255
165 201 255
165 201 255
165 201 255
165 201 255
165 201 255
165 201 255
165 201 255
165 201 255
165 201 255
164 201 255
164 201 255
164 201 255
164 201 255
164 201 255
164 201 255
164 201 255
164 200 255
164 200 255
164 200 255
163 200 255
163 200 255
163 200 255
163 200 255
163 200 255
163 200 255
163 200 255
163 200 255
163 200 255
163 200 255
162 200 255
162 200 255
162 200 255
162 199 255
162 199 255
162 199 255
162 199 255
162 199 255
162 199 255
162 199 255
161 199 255
161 199 255
161 199 255
161 199 255
161 199 255
161 199 255
161 199 255
161 199 255
161 199 255
161 199 255
161 199 255
160 198 255
160 198 255
160 198 255
160 198 255
160 198 255
160 198 255
160 198 255
160 198 255
160 198 255
160 198 255
160 198 255
159 198 255
159 198 255
159 198 255
159 198 255
159 198 255
159 198 255
159 198 255
159 198 255
159 198 255
159 197 255
159 197 255
159 197 255
159 197 255
158 197 255
158 197 255
158 197 255
158 197 255
158 197 255
158 197 255
158 197 255
158 197 255
158 197 255
158 197 255
158 197 255
158 197 255
158 197 255
158 197 255
158 197 255
158 197 255
158 197 255
158 197 255
157 197 255
157 197 255
157 197 255
157 197 255
157 197 255
157 197 255
157 197 255
157 197 255
157 197 255
157 197 255
157 196 255
157 196 255
157 196 255
157 196 255
157 196 255
157 196 255
157 196 255
157 196 255
157 196 255
157 196 255
157 196 255
157 196 255
157 196 255
157 196 255
157 196 255
157 196 255
157 196 255
157 196 255
157 196 255
157 196 255
157 196 255
157 196 255
157 196 255
157 196 255
157 196 255
157 196 255
157 197 255
157 197 255
157 197 255
157 197 255
157 197 255
157 197 255
157 197 255
157 197 255
157 197 255
157 197 255
158 197 255
158 197 255
158 197 255
158 197 255
158 197 255
158 197 255
158 197 255
158 197 255
158 197 255
158 197 255
158 197 255
158 197 255
158 197 255
158 197 255
158 197 255
158 197 255
158 197 255
158 197 255
159 197 255
159 197 255
159 197 255
159 197 255
159 198 255
159 198 255
159 198 255
159 198 255
159 198 255
159 198 255
159 198 255
159 198 255
159 198 255
160 198 255
160 198 255
160 198 255
160 198 255
160 198 255
160 198 255
160 198 255
160 198 255
160 198 255
160 198 255
160 198 255
161 199 255
161 199 255
161 199 255
161 199 255
161 199 255
161 199 255
161 199 255
161 199 255
161 199 255
161 199 255
161 199 255
162 199 255
162 199 255
162 199 255
162 199 255
162 199 255
162 199 255
162 199 255
162 200 255
162 200 255
162 200 255
163 200 255
163 200 255
163 200 255
163 200 255
163 200 255
163 200 255
163 200 255
163 200 255
163 200 255
163 200 255
164 200 255
164 200 255
164 200 255
164 201 255
164 201 255
164 201 255
164 201 255
164 201 255
164 201 255
164 201 255
165 201 255
165 201 255
165 201 255
165 201 255
165 201 255
165 201 255
165 201 255
165 201 255
165 201 255
165 201 255
165 201 255
166 202 255
166 202 255
166 202 255
166 202 255
166 202 255
166 202 255
166 202 255
166 202 255
166 202 255
166 202 255
167 202 255
167 202 255
167 202 255
167 202 255
167 202 255
167 202 255
167 202 255
167 203 255
167 203 255
167 203 255
167 203 255
168 203 255
168 203 255
168 203 255
168 203 255
168 203 255
168 203 255
168 203 255
168 203 255
168 203 255
168 203 255
168 203 255
169 203 255
169 203 255
169 203 255
169 203 255
169 204 255
169 204 255
169 204 255
169 204 255
169 204 255
169 204 255
169 204 255
169 204 255
170 204 255
170 204 255
170 204 255
170 204 255
170 204 255
170 204 255
170 204 255
170 204 255
170 204 255
170 204 255
170 204 255
170 204 255
170 204 255
171 205 255
171 205 255
171 205 255
171 205 255
171 205 255
171 205 255
171 205 255
171 205 255
171 205 255
171 205 255
171 205 255
171 205 255
171 205 255
172 205 255
172 205 255
172 205 255
172 205 255
172 205 255
172 205 255
172 205 255
172 205 255
172 205 255
172 205 255
172 206 255
172 206 255
172 206 255
173 206 255
172 206 255
172 206 255
172 206 255
172 206 255
172 206 255
172 205 255
172 205 255
172 205 255
172 205 255
172 205 255
172 205 255
172 205 255
172 205 255
172 205 255
172 205 255
171 205 255
171 205 255
171 205 255
171 205 255
171 205 255
171 205 255
171 205 255
171 205 255
171 205 255
171 205 255
171 205 255
171 205 255
171 205 255
170 204 255
170 204 255
170 204 255
170 204 255
170 204 255
170 204 255
170 204 255
170 204 255
170 204 255
170 204 255
170 204 255
170 204 255
170 204 255
169 204 255
169 204 255
169 204 255
169 204 255
169 204 255
169 204 255
169 204 255
169 204 255
169 203 255
169 203 255
169 203 255
169 203 255
168 203 255
168 203 255
168 203 255
168 203 255
168 203 255
168 203 255
168 203 255
168 203 255
168 203 255
168 203 255
168 203 255
167 203 255
167 203 255
167 203 255
167 203 255
167 202 255
167 202 255
167 202 255
167 202 255
167 202 255
167 202 255
167 202 255
166 202 255
166 202 255
166 202 255
166 202 255
166 202 255
166 202 255
166 202 255
166 202 255
166 202 255
166 202 255
166 202 255
165 201 255
165 201 255
165 201 255
165 201 255
165 201 255
165 201 255
165 201 255
165 201 255
165 201 255
165 201 255
164 201 255
164 201 255
164 201 255
164 201 255
164 201 255
164 201 255
164 201 255
164 200 255
164 200 255
164 200 255
163 200 255
163 200 255
163 200 255
163 200 255
163 200 255
163 200 255
163 200 255
163 200 255
163 200 255
163 200 255
162 200 255
162 200 255
162 200 255
162 200 255
162 199 255
162 199 255
162 199 255
162 199 255
162 199 255
162 199 255
162 199 255
161 199 255
161 199 255
161 199 255
161 199 255
161 199 255
161 199 255
161 199 255
161 199 255
161 199 255
161 199 255
160 198 255
160 198 255
160 198 255
160 198 255
160 198 255
160 198 255
160 198 255
160 198 255
160 198 255
160 198 255
160 198 255
160 198 255
159 198 255
159 198 255
159 198 255
159 198 255
159 198 255
159 198 255
159 198 255
159 198 255
159 198 255
159 197 255
159 197 255
159 197 255
159 197 255
159 197 255
159 197 255
158 197 255
158 197 255
158 197 255
158 197 255
158 197 255
158 197 255
158 197 255
158 197 255
158 197 255
158 197 255
158 197 255
158 197 255
158 197 255
158 197 255
158 197 255
158 197 255
158 197 255
158 197 255
158 197 255
158 197 255
158 197 255
158 197 255
157 197 255
157 197 255
157 197 255
157 197 255
157 197 255
157 197 255
157 197 255
157 197 255
157 197 255
157 197 255
157 197 255
157 197 255
157 197 255
157 197 255
157 197 255
157 197 255
157 197 255
157 197 255
157 197 255
157 197 255
157 197 255
157 197 255
157 197 255
157 197 255
157 197 255
157 197 255
158 197 255
158 197 255
158 197 255
158 197 255
158 197 255
158 197 255
158 197 255
158 197 255
158 197 255
158 197 255
158 197 255
158 197 255
158 197 255
158 197 255
158 197 255
158 197 255
158 197 255
158 197 255
158 197 255
158 197 255
158 197 255
158 197 255
159 197 255
159 197 255
159 197 255
159 197 255
159 197 255
159 197 255
159 198 255
159 198 255
159 198 255
159 198 255
159 198 255
159 198 255
159 198 255
159 198 255
159 198 255
160 198 255
160 198 255
160 198 255
160 198 255
160 198 255
160 198 255
160 198 255
160 198 255
160 198 255
160 198 255
160 198 255
160 198 255
161 199 255
161 199 255
161 199 255
161 199 255
161 199 255
161 199 255
161 199 255
161 199 255
161 199 255
161 199 255
161 199 255
162 199 255
162 199 255
162 199 255
162 199 255
162 199 255
162 199 255
162 199 255
162 200 255
162 200 255
162 200 255
163 200 255
163 200 255
163 200 255
163 200 255
163 200 255
163 200 255
163 200 255
163 200 255
163 200 255
163 200 255
164 200 255
164 200 255
164 200 255
164 201 255
164 201 255
164 201 255
164 201 255
164 201 255
164 201 255
164 201 255
165 201 255
165 201 255
165 201 255
165 201 255
165 201 255
165 201 255
165 201 255
165 201 255
165 201 255
165 201 255
166 202 255
166 202 255
166 202 255
166 202 255
166 202 255
166 202 255
166 202 255
166 202 255
166 202 255
166 202 255
166 202 255
167 202 255
167 202 255
167 202 255
167 202 255
167 202 255
167 202 255
167 202 255
167 203 255
167 203 255
167 203 255
167 203 255
168 203 255
168 203 255
168 203 255
168 203 255
168 203 255
168 203 255
168 203 255
168 203 255
168 203 255
168 203 255
168 203 255
169 203 255
169 203 255
169 203 255
169 203 255
169 204 255
169 204 255
169 204 255
169 204 255
169 204 255
169 204 255
169 204 255
169 204 255
170 204 255
170 204 255
170 204 255
170 204 255
170 204 255
170 204 255
170 204 255
170 204 255
170 204 255
170 204 255
170 204 255
170 204 255
170 204 255
171 205 255
171 205 255
171 205 255
171 205 255
171 205 255
171 205 255
171 205 255
171 205 255
171 205 255
171 205 255
171 205 255
171 205 255
171 205 255
172 205 255
172 205 255
172 205 255
172 205 255
172 205 255
172 205 255
172 205 255
172 205 255
172 205 255
172 205 255
172 206 255
172 206 255
172 206 255
172 206 255
172 206 255
173 206 255
173 206 255
173 206 255
173 206 255
173 206 255
173 206 255
172 206 255
172 206 255
172 206 255
172 206 255
172 206 255
172 205 255
172 205 255
172 205 255
172 205 255
172 205 255
172 205 255
172 205 255
172 205 255
172 205 255
171 205 255
171 205 255
171 205 255
171 205 255
171 205 255
171 205 255
171 205 255
171 205 255
171 205 255
171 205 255
171 205 255
171 205 255
171 205 255
171 205 255
170 204 255
170 204 255
170 204 255
170 204 255
170 204 255
170 204 255
170 204 255
170 204 255
170 204 255
170 204 255
170 204 255
170 204 255
169 204 255
169 204 255
169 204 255
169 204 255
169 204 255
169 204 255
169 204 255
169 204 255
169 203 255
169 203 255
169 203 255
169 203 255
168 203 255
168 203 255
168 203 255
168 203 255
168 203 255
168 203 255
168 203 255
168 203 255
168 203 255
168 203 255
168 203 255
168 203 255
167 203 255
167 203 255
167 203 255
167 202 255
167 202 255
167 202 255
167 202 255
167 202 255
167 202 255
167 202 255
166 202 255
166 202 255
166 202 255
166 202 255
166 202 255
166 202 255
166 202 255
166 202 255
166 202 255
166 202 255
166 202 255
165 201 255
165 201 255
165 201 255
165 201 255
165 201 255
165 201 255
165 201 255
165 201 255
165 201 255
165 201 255
164 201 255
164 201 255
164 201 255
164 201 255
164 201 255
164 201 255
164 201 255
164 200 255
164 200 255
164 200 255
163 200 255
163 200 255
163 200 255
163 200 255
163 200 255
163 200 255
163 200 255
163 200 255
163 200 255
163 200 255
162 200 255
162 200 255
162 200 255
162 200 255
162 199 255
162 199 255
162 199 255
162 199 255
162 199 255
162 199 255
162 199 255
161 199 255
161 199 255
161 199 255
161 199 255
161 199 255
161 199 255
161 199 255
161 199 255
161 199 255
161 199 255
161 199 255
160 198 255
160 198 255
160 198 255
160 198 255
160 198 255
160 198 255
160 198 255
160 198 255
160 198 255
160 198 255
160 198 255
160 198 255
160 198 255
159 198 255
159 198 255
159 198 255
159 198 255
159 198 255
159 198 255
159 198 255
159 198 255
159 198 255
159 198 255
159 197 255
159 197 255
159 197 255
159 197 255
159 197 255
159 197 255
158 197 255
158 197 255
158 197 255
158 197 255
158 197 255
158 197 255
158 197 255
158 197 255
158 197 255
158 197 255
158 197 255
158 197 255
158 197 255
158 197 255
158 197 255
158 197 255
158 197 255
158 197 255
158 197 255
158 197 255
158 197 255
158 197 255
158 197 255
158 197 255
158 197 255
158 197 255
158 197 255
158 197 255
158 197 255
158 197 255
158 197 255
158 197 255
158 197 255
158 197 255
158 197 255
158 197 255
158 197 255
158 197 255
158 197 255
158 197 255
158 197 255
158 197 255
158 197 255
158 197 255
158 197 255
158 197 255
158 197 255
158 197 255
158 197 255
158 197 255
158 197 255
158 197 255
158 197 255
158 197 255
158 197 255
158 197 255
158 197 255
158 197 255
159 197 255
159 197 255
159 197 255
159 197 255
159 197 255
159 197 255
159 197 255
159 198 255
159 198 255
159 198 255
159 198 255
159 198 255
159 198 255
159 198 255
159 198 255
159 198 255
160 198 255
160 198 255
160 198 255
160 198 255
160 198 255
160 198 255
160 198 255
160 198 255
160 198 255
160 198 255
160 198 255
160 198 255
160 198 255
161 199 255
161 199 255
161 199 255
161 199 255
161 199 255
161 199 255
161 199 255
161 199 255
161 199 255
161 199 255
161 199 255
162 199 255
162 199 255
162 199 255
162 199 255
162 199 255
162 199 255
162 199 255
162 200 255
162 200 255
162 200 255
163 200 255
163 200 255
163 200 255
163 200 255
163 200 255
163 200 255
163 200 255
163 200 255
163 200 255
163 200 255
163 200 255
164 200 255
164 200 255
164 200 255
164 201 255
164 201 255
164 201 255
164 201 255
164 201 255
164 201 255
164 201 255
165 201 255
165 201 255
165 201 255
165 201 255
165 201 255
165 201 255
165 201 255
165 201 255
165 201 255
165 201 255
166 202 255
166 202 255
166 202 255
166 202 255
166 202 255
166 202 255
166 202 255
166 202 255
166 202 255
166 202 255
166 202 255
167 202 255
167 202 255
167 202 255
167 202 255
167 202 255
167 202 255
167 202 255
167 203 255
167 203 255
167 203 255
168 203 255
168 203 255
168 203 255
168 203 255
168 203 255
168 203 255
168 203 255
168 203 255
168 203 255
168 203 255
168 203 255
168 203 255
169 203 255
169 203 255
169 203 255
169 203 255
169 204 255
169 204 255
169 204 255
169 204 255
169 204 255
169 204 255
169 204 255
169 204 255
170 204 255
170 204 255
170 204 255
170 204 255
170 204 255
170 204 255
170 204 255
170 204 255
170 204 255
170 204 255
170 204 255
170 204 255
171 205 255
171 205 255
171 205 255
171 205 255
171 205 255
171 205 255
171 205 255
171 205 255
171 205 255
171 205 255
171 205 255
171 205 255
171 205 255
171 205 255
172 205 255
172 205 255
172 205 255
172 205 255
172 205 255
172 205 255
172 205 255
172 205 255
172 205 255
172 206 255
172 206 255
172 206 255
172 206 255
172 206 255
173 206 255
173 206 255
173 206 255
173 206 255
173 206 255
173 206 255
173 206 255
173 206 255
173 206 255
173 206 255
173 206 255
173 206 255
173 206 255
173 206 255
172 206 255
172 206 255
172 206 255
172 206 255
172 206 255
172 205 255
172 205 255
172 205 255
172 205 255
172 205 255
172 205 255
172 205 255
172 205 255
172 205 255
171 205 255
171 205 255
171 205 255
171 205 255
171 205 255
171 205 255
171 205 255
171 205 255
171 205 255
171 205 255
171 205 255
171 205 255
171 205 255
170 204 255
170 204 255
170 204 255
170 204 255
170 204 255
170 204 255
170 204 255
170 204 255
170 204 255
170 204 255
170 204 255
170 204 255
170 204 255
169 204 255
169 204 255
169 204 255
169 204 255
169 204 255
169 204 255
169 204 255
169 204 255
169 203 255
169 203 255
169 203 255
169 203 255
168 203 255
168 203 255
168 203 255
168 203 255
168 203 255
168 203 255
168 203 255
168 203 255
168 203 255
168 203 255
168 203 255
167 203 255
167 203 255
167 203 255
167 203 255
167 202 255
167 202 255
167 202 255
167 202 255
167 202 255
167 202 255
167 202 255
166 202 255
166 202 255
166 202 255
166 202 255
166 202 255
166 202 255
166 202 255
166 202 255
166 202 255
166 202 255
165 201 255
165 201 255
165 201 255
165 201 255
165 201 255
165 201 255
165 201 255
165 201 255
165 201 255
165 201 255
164 201 255
164 201 255
164 201 255
164 201 255
164 201 255
164 201 255
164 201 255
164 200 255
164 200 255
164 200 255
164 200 255
163 200 255
163 200 255
163 200 255
163 200 255
163 200 255
163 200 255
163 200 255
163 200 255
163 200 255
163 200 255
162 200 255
162 200 255
162 200 255
162 200 255
162 199 255
162 199 255
162 199 255
162 199 255
162 199 255
162 199 255
162 199 255
161 199 255
161 199 255
161 199 255
161 199 255
161 199 255
161 199 255
161 199 255
161 199 255
161 199 255
161 199 255
161 199 255
160 198 255
160 198 255
160 198 255
160 198 255
160 198 255
160 198 255
160 198 255
160 198 255
160 198 255
160 198 255
160 198 255
160 198 255
160 198 255
160 198 255
159 198 255
159 198 255
159 198 255
159 198 255
159 198 255
159 198 255
159 198 255
159 198 255
159 198 255
159 198 255
159 197 255
159 197 255
159 197 255
159 197 255
159 197 255
159 197 255
159 197 255
159 197 255
158 197 255
158 197 255
158 197 255
158 197 255
158 197 255
158 197 255
158 197 255
158 197 255
158 197 255
158 197 255
158 197 255
158 197 255
158 197 255
158 197 255
158 197 255
158 197 255
158 197 255
158 197 255
158 197 255
158 197 255
158 197 255
158 197 255
158 197 255
158 197 255
158 197 255
158 197 255
158 197 255
158 197 255
158 197 255
158 197 255
158 197 255
158 197 255
158 197 255
158 197 255
158 197 255
158 197 255
158 197 255
158 197 255
158 197 255
158 197 255
158 197 255
158 197 255
158 197 255
158 197 255
159 197 255
159 197 255
159 197 255
159 197 255
159 197 255
159 197 255
159 197 255
159 198 255
159 198 255
159 198 255
159 198 255
159 198 255
159 198 255
159 198 255
159 198 255
159 198 255
159 198 255
159 198 255
160 198 255
160 198 255
160 198 255
160 198 255
160 198 255
160 198 255
160 198 255
160 198 255
160 198 255
160 198 255
160 198 255
160 198 255
160 198 255
160 198 255
161 199 255
161 199 255
161 199 255
161 199 255
161 199 255
161 199 255
161 199 255
161 199 255
161 199 255
161 199 255
161 199 255
162 199 255
162 199 255
162 199 255
162 199 255
162 199 255
162 199 255
162 199 255
162 200 255
162 200 255
162 200 255
162 200 255
163 200 255
163 200 255
163 200 255
163 200 255
163 200 255
163 200 255
163 200 255
163 200 255
163 200 255
163 200 255
164 200 255
164 200 255
164 200 255
164 200 255
164 201 255
164 201 255
164 201 255
164 201 255
164 201 255
164 201 255
164 201 255
165 201 255
165 201 255
165 201 255
165 201 255
165 201 255
165 201 255
165 201 255
165 201 255
165 201 255
165 201 255
166 202 255
166 202 255
166 202 255
166 202 255
166 202 255
166 202 255
166 202 255
166 202 255
166 202 255
166 202 255
167 202 255
167 202 255
167 202 255
167 202 255
167 202 255
167 202 255
167 202 255
167 202 255
167 203 255
167 203 255
167 203 255
168 203 255
168 203 255
168 203 255
168 203 255
168 203 255
168 203 255
168 203 255
168 203 255
168 203 255
168 203 255
168 203 255
169 203 255
169 203 255
169 203 255
169 203 255
169 204 255
169 204 255
169 204 255
169 204 255
169 204 255
169 204 255
169 204 255
169 204 255
170 204 255
170 204 255
170 204 255
170 204 255
170 204 255
170 204 255
170 204 255
170 204 255
170 204 255
170 204 255
170 204 255
170 204 255
170 204 255
171 205 255
171 205 255
171 205 255
171 205 255
171 205 255
171 205 255
171 205 255
171 205 255
171 205 255
171 205 255
171 205 255
171 205 255
171 205 255
172 205 255
172 205 255
172 205 255
172 205 255
172 205 255
172 205 255
172 205 255
172 205 255
172 205 255
172 206 255
172 206 255
172 206 255
172 206 255
172 206 255
173 206 255
173 206 255
173 206 255
173 206 255
173 206 255
173 206 255
173 206 255
173 206 255
173 206 255
173 206 255
173 206 255
173 206 255
173 206 255
173 206 255
173 206 255
173 206 255
173 206 255
173 206 255
173 206 255
173 206 255
173 206 255
172 206 255
172 206 255
172 206 255
172 206 255
172 206 255
172 205 255
172 205 255
172 205 255
172 205 255
172 205 255
172 205 255
172 205 255
172 205 255
172 205 255
171 205 255
171 205 255
171 205 255
171 205 255
171 205 255
171 205 255
171 205 255
171 205 255
171 205 255
171 205 255
171 205 255
171 205 255
171 205 255
171 205 255
170 204 255
170 204 255
170 204 255
170 204 255
170 204 255
170 204 255
170 204 255
170 204 255
170 204 255
170 204 255
170 204 255
170 204 255
169 204 255
169 204 255
169 204 255
169 204 255
169 204 255
169 204 255
169 204 255
169 204 255
169 203 255
169 203 255
169 203 255
169 203 255
168 203 255
168 203 255
168 203 255
168 203 255
168 203 255
168 203 255
168 203 255
168 203 255
168 203 255
168 203 255
168 203 255
167 203 255
167 203 255
167 203 255
167 203 255
167 202 255
167 202 255
167 202 255
167 202 255
167 202 255
167 202 255
167 202 255
166 202 255
166 202 255
166 202 255
166 202 255
166 202 255
166 202 255
166 202 255
166 202 255
166 202 255
166 202 255
166 202 255
165 201 255
165 201 255
165 201 255
165 201 255
165 201 255
165 201 255
165 201 255
165 201 255
165 201 255
165 201 255
164 201 255
164 201 255
164 201 255
164 201 255
164 201 255
164 201 255
164 201 255
164 200 255
164 200 255
164 200 255
163 200 255
163 200 255
163 200 255
163 200 255
163 200 255
163 200 255
163 200 255
163 200 255
163 200 255
163 200 255
163 200 255
162 200 255
162 200 255
162 200 255
162 199 255
162 199 255
162 199 255
162 199 255
162 199 255
162 199 255
162 199 255
162 199 255
161 199 255
161 199 255
161 199 255
161 199 255
161 199 255
161 199 255
161 199 255
161 199 255
161 199 255
161 199 255
161 199 255
161 199 255
160 198 255
160 198 255
160 198 255
160 198 255
160 198 255
160 198 255
160 198 255
160 198 255
160 198 255
160 198 255
160 198 255
160 198 255
160 198 255
160 198 255
159 198 255
159 198 255
159 198 255
159 198 255
159 198 255
159 198 255
159 198 255
159 198 255
159 198 255
159 198 255
159 198 255
159 198 255
159 198 255
159 197 255
159 197 255
159 197 255
159 197 255
159 197 255
159 197 255
159 197 255
159 197 255
159 197 255
159 197 255
159 197 255
159 197 255
158 197 255
158 197 255
158 197 255
158 197 255
158 197 255
158 197 255
158 197 255
158 197 255
158 197 255
158 197 255
158 197 255
158 197 255
158 197 255
158 197 255
158 197 255
158 197 255
158 197 255
158 197 255
158 197 255
158 197 255
158 197 255
159 197 255
159 197 255
159 197 255
159 197 255
159 197 255
159 197 255
159 197 255
159 197 255
159 197 255
159 197 255
159 198 255
159 198 255
159 198 255
159 198 255
159 198 255
159 198 255
159 198 255
159 198 255
159 198 255
159 198 255
159 198 255
159 198 255
159 198 255
159 198 255
160 198 255
160 198 255
160 198 255
160 198 255
160 198 255
160 198 255
160 198 255
160 198 255
160 198 255
160 198 255
160 198 255
160 198 255
160 198 255
160 198 255
161 199 255
161 199 255
161 199 255
161 199 255
161 199 255
161 199 255
161 199 255
161 199 255
161 199 255
161 199 255
161 199 255
161 199 255
162 199 255
162 199 255
162 199 255
162 199 255
162 199 255
162 199 255
162 199 255
162 199 255
162 200 255
162 200 255
162 200 255
163 200 255
163 200 255
163 200 255
163 200 255
163 200 255
163 200 255
163 200 255
163 200 255
163 200 255
163 200 255
163 200 255
164 200 255
164 200 255
164 200 255
164 201 255
164 201 255
164 201 255
164 201 255
164 201 255
164 201 255
164 201 255
165 201 255
165 201 255
165 201 255
165 201 255
165 201 255
165 201 255
165 201 255
165 201 255
165 201 255
165 201 255
165 201 255
166 202 255
166 202 255
166 202 255
166 202 255
166 202 255
166 202 255
166 202 255
166 202 255
166 202 255
166 202 255
167 202 255
167 202 255
167 202 255
167 202 255
167 202 255
167 202 255
167 202 255
167 203 255
167 203 255
167 203 255
167 203 255
168 203 255
168 203 255
168 203 255
168 203 255
168 203 255
168 203 255
168 203 255
168 203 255
168 203 255
168 203 255
168 203 255
169 203 255
169 203 255
169 203 255
169 203 255
169 204 255
169 204 255
169 204 255
169 204 255
169 204 255
169 204 255
169 204 255
169 204 255
170 204 255
170 204 255
170 204 255
170 204 255
170 204 255
170 204 255
170 204 255
170 204 255
170 204 255
170 204 255
170 204 255
170 204 255
171 205 255
171 205 255
171 205 255
171 205 255
171 205 255
171 205 255
171 205 255
171 205 255
171 205 255
171 205 255
171 205 255
171 205 255
171 205 255
171 205 255
172 205 255
172 205 255
172 205 255
172 205 255
172 205 255
172 205 255
172 205 255
172 205 255
172 205 255
172 206 255
172 206 255
172 206 255
172 206 255
172 206 255
173 206 255
173 206 255
173 206 255
173 206 255
173 206 255
173 206 255
173 206 255
173 206 255
173 206 255
173 206 255
173 206 255
173 206 255
174 206 255
173 206 255
173 206 255
173 206 255
173 206 255
173 206 255
173 206 255
173 206 255
173 206 255
173 206 255
173 206 255
173 206 255
173 206 255
173 206 255
173 206 255
173 206 255
172 206 255
172 206 255
172 206 255
172 206 255
172 206 255
172 205 255
172 205 255
172 205 255
172 205 255
172 205 255
172 205 255
172 205 255
172 205 255
172 205 255
171 205 255
171 205 255
171 205 255
171 205 255
171 205 255
171 205 255
171 205 255
171 205 255
171 205 255
171 205 255
171 205 255
171 205 255
171 205 255
170 204 255
170 204 255
170 204 255
170 204 255
170 204 255
170 204 255
170 204 255
170 204 255
170 204 255
170 204 255
170 204 255
170 204 255
170 204 255
169 204 255
169 204 255
169 204 255
169 204 255
169 204 255
169 204 255
169 204 255
169 203 255
169 203 255
169 203 255
169 203 255
168 203 255
168 203 255
168 203 255
168 203 255
168 203 255
168 203 255
168 203 255
168 203 255
168 203 255
168 203 255
168 203 255
168 203 255
167 203 255
167 203 255
167 203 255
167 202 255
167 202 255
167 202 255
167 202 255
167 202 255
167 202 255
167 202 255
166 202 255
166 202 255
166 202 255
166 202 255
166 202 255
166 202 255
166 202 255
166 202 255
166 202 255
166 202 255
166 202 255
165 201 255
165 201 255
165 201 255
165 201 255
165 201 255
165 201 255
165 201 255
165 201 255
165 201 255
165 201 255
164 201 255
164 201 255
164 201 255
164 201 255
164 201 255
164 201 255
164 201 255
164 200 255
164 200 255
164 200 255
163 200 255
163 200 255
163 200 255
163 200 255
163 200 255
163 200 255
163 200 255
163 200 255
163 200 255
163 200 255
163 200 255
162 200 255
162 200 255
162 200 255
162 200 255
162 199 255
162 199 255
162 199 255
162 199 255
162 199 255
162 199 255
162 199 255
162 199 255
161 199 255
161 199 255
161 199 255
161 199 255
161 199 255
161 199 255
161 199 255
161 199 255
161 199 255
161 199 255
161 199 255
161 199 255
161 199 255
160 198 255
160 198 255
160 198 255
160 198 255
160 198 255
160 198 255
160 198 255
160 198 255
160 198 255
160 198 255
160 198 255
160 198 255
160 198 255
160 198 255
160 198 255
159 198 255
159 198 255
159 198 255
159 198 255
159 198 255
159 198 255
159 198 255
159 198 255
159 198 255
159 198 255
159 198 255
159 198 255
159 198 255
159 198 255
159 198 255
159 198 255
159 198 255
159 198 255
159 198 255
159 198 255
159 197 255
159 197 255
159 197 255
159 197 255
159 197 255
159 197 255
159 197 255
159 197 255
159 197 255
159 197 255
159 197 255
159 197 255
159 197 255
159 197 255
159 197 255
159 197 255
159 197 255
159 197 255
159 198 255
159 198 255
159 198 255
159 198 255
159 198 255
159 198 255
159 198 255
159 198 255
159 198 255
159 198 255
159 198 255
159 198 255
159 198 255
159 198 255
159 198 255
159 198 255
159 198 255
159 198 255
159 198 255
160 198 255
160 198 255
160 198 255
160 198 255
160 198 255
160 198 255
160 198 255
160 198 255
160 198 255
160 198 255
160 198 255
160 198 255
160 198 255
160 198 255
160 198 255
160 198 255
160 198 255
161 199 255
161 199 255
161 199 255
161 199 255
161 199 255
161 199 255
161 199 255
161 199 255
161 199 255
161 199 255
161 199 255
161 199 255
162 199 255
162 199 255
162 199 255
162 199 255
162 199 255
162 199 255
162 199 255
162 199 255
162 200 255
162 200 255
162 200 255
162 200 255
163 200 255
163 200 255
163 200 255
163 200 255
163 200 255
163 200 255
163 200 255
163 200 255
163 200 255
163 200 255
164 200 255
164 200 255
164 200 255
164 200 255
164 201 255
164 201 255
164 201 255
164 201 255
164 201 255
164 201 255
164 201 255
165 201 255
165 201 255
165 201 255
165 201 255
165 201 255
165 201 255
165 201 255
165 201 255
165 201 255
165 201 255
166 202 255
166 202 255
166 202 255
166 202 255
166 202 255
166 202 255
166 202 255
166 202 255
166 202 255
166 202 255
166 202 255
167 202 255
167 202 255
167 202 255
167 202 255
167 202 255
167 202 255
167 202 255
167 203 255
167 203 255
167 203 255
167 203 255
168 203 255
168 203 255
168 203 255
168 203 255
168 203 255
168 203 255
168 203 255
168 203 255
168 203 255
168 203 255
168 203 255
169 203 255
169 203 255
169 203 255
169 204 255
169 204 255
169 204 255
169 204 255
169 204 255
169 204 255
169 204 255
169 204 255
170 204 255
170 204 255
170 204 255
170 204 255
170 204 255
170 204 255
170 204 255
170 204 255
170 204 255
170 204 255
170 204 255
170 204 255
170 204 255
171 205 255
171 205 255
171 205 255
171 205 255
171 205 255
171 205 255
171 205 255
171 205 255
171 205 255
171 205 255
171 205 255
171 205 255
171 205 255
172 205 255
172 205 255
172 205 255
172 205 255
172 205 255
172 205 255
172 205 255
172 205 255
172 205 255
172 206 255
172 206 255
172 206 255
172 206 255
172 206 255
173 206 255
173 206 255
173 206 255
173 206 255
173 206 255
173 206 255
173 206 255
173 206 255
173 206 255
173 206 255
173 206 255
173 206 255
173 206 255
173 206 255
173 206 255
174 206 255
174 206 255
174 206 255
174 206 255
174 206 255
174 206 255
173 206 255
173 206 255
173 206 255
173 206 255
173 206 255
173 206 255
173 206 255
173 206 255
173 206 255
173 206 255
173 206 255
173 206 255
173 206 255
173 206 255
173 206 255
172 206 255
172 206 255
172 206 255
172 206 255
172 206 255
172 205 255
172 205 255
172 205 255
172 205 255
172 205 255
172 205 255
172 205 255
172 205 255
172 205 255
171 205 255
171 205 255
171 205 255
171 205 255
171 205 255
171 205 255
171 205 255
171 205 255
171 205 255
171 205 255
171 205 255
171 205 255
171 205 255
170 204 255
170 204 255
170 204 255
170 204 255
170 204 255
170 204 255
170 204 255
170 204 255
170 204 255
170 204 255
170 204 255
170 204 255
169 204 255
169 204 255
169 204 255
169 204 255
169 204 255
169 204 255
169 204 255
169 204 255
169 203 255
169 203 255
169 203 255
169 203 255
168 203 255
168 203 255
168 203 255
168 203 255
168 203 255
168 203 255
168 203 255
168 203 255
168 203 255
168 203 255
168 203 255
167 203 255
167 203 255
167 203 255
167 203 255
167 202 255
167 202 255
167 202 255
167 202 255
167 202 255
167 202 255
167 202 255
166 202 255
166 202 255
166 202 255
166 202 255
166 202 255
166 202 255
166 202 255
166 202 255
166 202 255
166 202 255
165 201 255
165 201 255
165 201 255
165 201 255
165 201 255
165 201 255
165 201 255
165 201 255
165 201 255
165 201 255
165 201 255
164 201 255
164 201 255
164 201 255
164 201 255
164 201 255
164 201 255
164 201 255
164 200 255
164 200 255
164 200 255
163 200 255
163 200 255
163 200 255
163 200 255
163 200 255
163 200 255
163 200 255
163 200 255
163 200 255
163 200 255
163 200 255
162 200 255
162 200 255
162 200 255
162 200 255
162 199 255
162 199 255
162 199 255
162 199 255
162 199 255
162 199 255
162 199 255
162 199 255
161 199 255
161 199 255
161 199 255
161 199 255
161 199 255
161 199 255
161 199 255
161 199 255
161 199 255
161 199 255
161 199 255
161 199 255
161 199 255
161 199 255
160 198 255
160 198 255
160 198 255
160 198 255
160 198 255
160 198 255
160 198 255
160 198 255
160 198 255
160 198 255
160 198 255
160 198 255
160 198 255
160 198 255
160 198 255
160 198 255
160 198 255
160 198 255
160 198 255
159 198 255
159 198 255
159 198 255
159 198 255
159 198 255
159 198 255
159 198 255
159 198 255
159 198 255
159 198 255
159 198 255
159 198 255
159 198 255
159 198 255
159 198 255
159 198 255
159 198 255
159 198 255
159 198 255
159 198 255
159 198 255
159 198 255
159 198 255
159 198 255
159 198 255
159 198 255
159 198 255
159 198 255
159 198 255
159 198 255
159 198 255
159 198 255
159 198 255
159 198 255
159 198 255
159 198 255
159 198 255
159 198 255
159 198 255
159 198 255
160 198 255
160 198 255
160 198 255
160 198 255
160 198 255
160 198 255
160 198 255
160 198 255
160 198 255
160 198 255
160 198 255
160 198 255
160 198 255
160 198 255
160 198 255
160 198 255
160 198 255
160 198 255
160 198 255
161 199 255
161 199 255
161 199 255
161 199 255
161 199 255
161 199 255
161 199 255
161 199 255
161 199 255
161 199 255
161 199 255
161 199 255
161 199 255
161 199 255
162 199 255
162 199 255
162 199 255
162 199 255
162 199 255
162 199 255
162 199 255
162 199 255
162 200 255
162 200 255
162 200 255
162 200 255
163 200 255
163 200 255
163 200 255
163 200 255
163 200 255
163 200 255
163 200 255
163 200 255
163 200 255
163 200 255
163 200 255
164 200 255
164 200 255
164 200 255
164 201 255
164 201 255
164 201 255
164 201 255
164 201 255
164 201 255
164 201 255
165 201 255
165 201 255
165 201 255
165 201 255
165 201 255
165 201 255
165 201 255
165 201 255
165 201 255
165 201 255
165 201 255
166 202 255
166 202 255
166 202 255
166 202 255
166 202 255
166 202 255
166 202 255
166 202 255
166 202 255
166 202 255
166 202 255
167 202 255
167 202 255
167 202 255
167 202 255
167 202 255
167 202 255
167 203 255
167 203 255
167 203 255
167 203 255
168 203 255
168 203 255
168 203 255
168 203 255
168 203 255
168 203 255
168 203 255
168 203 255
168 203 255
168 203 255
168 203 255
169 203 255
169 203 255
169 203 255
169 203 255
169 204 255
169 204 255
169 204 255
169 204 255
169 204 255
169 204 255
169 204 255
169 204 255
170 204 255
170 204 255
170 204 255
170 204 255
170 204 255
170 204 255
170 204 255
170 204 255
170 204 255
170 204 255
170 204 255
170 204 255
171 205 255
171 205 255
171 205 255
171 205 255
171 205 255
171 205 255
171 205 255
171 205 255
171 205 255
171 205 255
171 205 255
171 205 255
171 205 255
172 205 255
172 205 255
172 205 255
172 205 255
172 205 255
172 205 255
172 205 255
172 205 255
172 205 255
172 206 255
172 206 255
172 206 255
172 206 255
172 206 255
173 206 255
173 206 255
173 206 255
173 206 255
173 206 255
173 206 255
173 206 255
173 206 255
173 206 255
173 206 255
173 206 255
173 206 255
173 206 255
173 206 255
173 206 255
174 206 255
174 206 255
174 206 255
174 206 255
174 206 255
174 207 255
174 207 255
174 207 255
174 207 255
174 206 255
174 206 255
174 206 255
174 206 255
174 206 255
173 206 255
173 206 255
173 206 255
173 206 255
173 206 255
173 206 255
173 206 255
173 206 255
173 206 255
173 206 255
173 206 255
173 206 255
173 206 255
173 206 255
173 206 255
172 206 255
172 206 255
172 206 255
172 206 255
172 206 255
172 205 255
172 205 255
172 205 255
172 205 255
172 205 255
172 205 255
172 205 255
172 205 255
171 205 255
171 205 255
171 205 255
171 205 255
171 205 255
171 205 255
171 205 255
171 205 255
171 205 255
171 205 255
171 205 255
171 205 255
171 205 255
170 204 255
170 204 255
170 204 255
170 204 255
170 204 255
170 204 255
170 204 255
170 204 255
170 204 255
170 204 255
170 204 255
170 204 255
170 204 255
169 204 255
169 204 255
169 204 255
169 204 255
169 204 255
169 204 255
169 204 255
169 203 255
169 203 255
169 203 255
169 203 255
168 203 255
168 203 255
168 203 255
168 203 255
168 203 255
168 203 255
168 203 255
168 203 255
168 203 255
168 203 255
168 203 255
167 203 255
167 203 255
167 203 255
167 203 255
167 202 255
167 202 255
167 202 255
167 202 255
167 202 255
167 202 255
167 202 255
166 202 255
166 202 255
166 202 255
166 202 255
166 202 255
166 202 255
166 202 255
166 202 255
166 202 255
166 202 255
166 202 255
165 201 255
165 201 255
165 201 255
165 201 255
165 201 255
165 201 255
165 201 255
165 201 255
165 201 255
165 201 255
164 201 255
164 201 255
164 201 255
164 201 255
164 201 255
164 201 255
164 201 255
164 200 255
164 200 255
164 200 255
164 200 255
163 200 255
163 200 255
163 200 255
163 200 255
163 200 255
163 200 255
163 200 255
163 200 255
163 200 255
163 200 255
163 200 255
162 200 255
162 200 255
162 200 255
162 200 255
162 199 255
162 199 255
162 199 255
162 199 255
162 199 255
162 199 255
162 199 255
162 199 255
161 199 255
161 199 255
161 199 255
161 199 255
161 199 255
161 199 255
161 199 255
161 199 255
161 199 255
161 199 255
161 199 255
161 199 255
161 199 255
161 199 255
161 199 255
160 198 255
160 198 255
160 198 255
160 198 255
160 198 255
160 198 255
160 198 255
160 198 255
160 198 255
160 198 255
160 198 255
160 198 255
160 198 255
160 198 255
160 198 255
160 198 255
160 198 255
160 198 255
160 198 255
160 198 255
160 198 255
160 198 255
160 198 255
160 198 255
160 198 255
160 198 255
155 193 249
142 176 228
132 164 212
119 147 191
107 133 172
110 136 176
88 110 142
97 121 156
108 135 174
105 130 168
106 131 170
110 137 177
111 138 179
123 153 198
149 185 239
158 196 253
160 198 255
160 198 255
160 198 255
160 198 255
160 198 255
160 198 255
160 198 255
160 198 255
160 198 255
160 198 255
160 198 255
160 198 255
160 198 255
160 198 255
160 198 255
160 198 255
160 198 255
160 198 255
160 198 255
160 198 255
160 198 255
160 198 255
160 198 255
160 198 255
160 198 255
161 199 255
161 199 255
161 199 255
161 199 255
161 199 255
161 199 255
161 199 255
161 199 255
161 199 255
161 199 255
161 199 255
161 199 255
161 199 255
161 199 255
161 199 255
162 199 255
162 199 255
162 199 255
162 199 255
162 199 255
162 199 255
162 199 255
162 199 255
162 199 255
162 200 255
162 200 255
162 200 255
162 200 255
163 200 255
163 200 255
163 200 255
163 200 255
163 200 255
163 200 255
163 200 255
163 200 255
163 200 255
163 200 255
163 200 255
164 200 255
164 200 255
164 200 255
164 200 255
164 201 255
164 201 255
164 201 255
164 201 255
164 201 255
164 201 255
164 201 255
165 201 255
165 201 255
165 201 255
165 201 255
165 201 255
165 201 255
165 201 255
165 201 255
165 201 255
165 201 255
166 202 255
166 202 255
166 202 255
166 202 255
166 202 255
166 202 255
166 202 255
166 202 255
166 202 255
166 202 255
166 202 255
167 202 255
167 202 255
167 202 255
167 202 255
167 202 255
167 202 255
167 202 255
167 203 255
167 203 255
167 203 255
167 203 255
168 203 255
168 203 255
168 203 255
168 203 255
168 203 255
168 203 255
168 203 255
168 203 255
168 203 255
168 203 255
168 203 255
169 203 255
169 203 255
169 203 255
169 203 255
169 204 255
169 204 255
169 204 255
169 204 255
169 204 255
169 204 255
169 204 255
170 204 255
170 204 255
170 204 255
170 204 255
170 204 255
170 204 255
170 204 255
170 204 255
170 204 255
170 204 255
170 204 255
170 204 255
171 205 255
171 205 255
171 205 255
171 205 255
171 205 255
171 205 255
171 205 255
171 205 255
171 205 255
171 205 255
171 205 255
171 205 255
171 205 255
172 205 255
172 205 255
172 205 255
172 205 255
172 205 255
172 205 255
172 205 255
172 205 255
172 205 255
172 205 255
172 206 255
172 206 255
172 206 255
172 206 255
173 206 255
173 206 255
173 206 255
173 206 255
173 206 255
173 206 255
173 206 255
173 206 255
173 206 255
173 206 255
173 206 255
173 206 255
173 206 255
173 206 255
173 206 255
174 206 255
174 206 255
174 206 255
174 206 255
174 206 255
174 207 255
174 207 255
174 207 255
174 207 255
174 207 255
174 207 255
174 207 255
174 207 255
174 207 255
174 207 255
174 207 255
174 206 255
174 206 255
174 206 255
174 206 255
174 206 255
174 206 255
173 206 255
173 206 255
173 206 255
173 206 255
173 206 255
173 206 255
173 206 255
173 206 255
173 206 255
173 206 255
173 206 255
173 206 255
173 206 255
173 206 255
172 206 255
172 206 255
172 206 255
172 206 255
172 206 255
172 205 255
172 205 255
172 205 255
172 205 255
172 205 255
172 205 255
172 205 255
172 205 255
172 205 255
171 205 255
171 205 255
171 205 255
171 205 255
171 205 255
171 205 255
171 205 255
171 205 255
171 205 255
171 205 255
171 205 255
171 205 255
171 205 255
170 204 255
170 204 255
170 204 255
170 204 255
170 204 255
170 204 255
170 204 255
170 204 255
170 204 255
170 204 255
170 204 255
170 204 255
169 204 255
169 204 255
169 204 255
169 204 255
169 204 255
169 204 255
169 204 255
169 204 255
169 203 255
169 203 255
169 203 255
169 203 255
168 203 255
168 203 255
168 203 255
168 203 255
168 203 255
168 203 255
168 203 255
168 203 255
168 203 255
168 203 255
168 203 255
167 203 255
167 203 255
167 203 255
167 202 255
167 202 255
167 202 255
167 202 255
167 202 255
167 202 255
167 202 255
167 202 255
166 202 255
166 202 255
166 202 255
166 202 255
166 202 255
166 202 255
166 202 255
166 202 255
166 202 255
166 202 255
165 201 255
165 201 255
165 201 255
165 201 255
165 201 255
165 201 255
165 201 255
165 201 255
165 201 255
165 201 255
165 201 255
164 201 255
164 201 255
164 201 255
164 201 255
164 201 255
164 201 255
164 201 255
164 200 255
164 200 255
164 200 255
164 200 255
163 200 255
163 200 255
163 200 255
163 200 255
163 200 255
163 200 255
163 200 255
163 200 255
163 200 255
163 200 255
163 200 255
162 200 255
162 200 255
162 200 255
162 200 255
162 199 255
162 199 255
162 199 255
162 199 255
162 199 255
162 199 255
162 199 255
162 199 255
162 199 255
161 199 255
161 199 255
161 199 255
161 199 255
161 199 255
161 199 255
161 199 255
161 199 255
161 199 255
161 199 255
161 199 255
161 199 255
161 199 255
161 199 255
161 199 255
161 199 255
161 199 255
160 198 255
160 198 255
160 198 255
160 198 255
160 198 255
160 198 255
160 198 255
160 198 255
160 198 255
160 198 255
160 198 255
160 198 255
160 198 255
157 194 251
122 151 195
87 108 140
71 89 115
55 69 89
26 33 43
15 19 24
14 18 24
14 18 24
14 18 24
14 18 23
15 19 24
14 18 23
13 16 21
14 18 24
14 18 24
14 18 24
15 19 24
15 18 24
14 18 24
15 19 24
15 20 26
21 27 35
46 57 74
66 82 106
87 108 140
131 162 209
157 195 251
160 198 255
160 198 255
160 198 255
160 198 255
160 198 255
160 198 255
160 198 255
160 198 255
160 198 255
160 198 255
160 198 255
160 198 255
161 199 255
161 199 255
161 199 255
161 199 255
161 199 255
161 199 255
161 199 255
161 199 255
161 199 255
161 199 255
161 199 255
161 199 255
161 199 255
161 199 255
161 199 255
161 199 255
161 199 255
162 199 255
162 199 255
162 199 255
162 199 255
162 199 255
162 199 255
162 199 255
162 199 255
162 199 255
162 200 255
162 200 255
162 200 255
162 200 255
162 200 255
163 200 255
163 200 255
163 200 255
163 200 255
163 200 255
163 200 255
163 200 255
163 200 255
163 200 255
163 200 255
163 200 255
164 200 255
164 200 255
164 200 255
164 200 255
164 201 255
164 201 255
164 201 255
164 201 255
164 201 255
164 201 255
164 201 255
165 201 255
165 201 255
165 201 255
165 201 255
165 201 255
165 201 255
165 201 255
165 201 255
165 201 255
165 201 255
165 201 255
166 202 255
166 202 255
166 202 255
166 202 255
166 202 255
166 202 255
166 202 255
166 202 255
166 202 255
166 202 255
167 202 255
167 202 255
167 202 255
167 202 255
167 202 255
167 202 255
167 202 255
167 203 255
167 203 255
167 203 255
167 203 255
168 203 255
168 203 255
168 203 255
168 203 255
168 203 255
168 203 255
168 203 255
168 203 255
168 203 255
168 203 255
168 203 255
169 203 255
169 203 255
169 203 255
169 203 255
169 204 255
169 204 255
169 204 255
169 204 255
169 204 255
169 204 255
169 204 255
169 204 255
170 204 255
170 204 255
170 204 255
170 204 255
170 204 255
170 204 255
170 204 255
170 204 255
170 204 255
170 204 255
170 204 255
170 204 255
171 205 255
171 205 255
171 205 255
171 205 255
171 205 255
171 205 255
171 205 255
171 205 255
171 205 255
171 205 255
171 205 255
171 205 255
171 205 255
172 205 255
172 205 255
172 205 255
172 205 255
172 205 255
172 205 255
172 205 255
172 205 255
172 205 255
172 206 255
172 206 255
172 206 255
172 206 255
173 206 255
173 206 255
173 206 255
173 206 255
173 206 255
173 206 255
173 206 255
173 206 255
173 206 255
173 206 255
173 206 255
173 206 255
173 206 255
173 206 255
173 206 255
174 206 255
174 206 255
174 206 255
174 206 255
174 206 255
174 207 255
174 207 255
174 207 255
174 207 255
174 207 255
174 207 255
174 207 255
174 207 255
175 207 255
174 207 255
174 207 255
174 207 255
174 207 255
174 207 255
174 207 255
174 207 255
174 207 255
174 207 255
174 207 255
174 207 255
174 206 255
174 206 255
174 206 255
174 206 255
174 206 255
173 206 255
173 206 255
173 206 255
173 206 255
173 206 255
173 206 255
173 206 255
173 206 255
173 206 255
173 206 255
173 206 255
173 206 255
173 206 255
173 206 255
172 206 255
172 206 255
172 206 255
172 206 255
172 206 255
172 205 255
172 205 255
172 205 255
172 205 255
172 205 255
172 205 255
172 205 255
172 205 255
172 205 255
171 205 255
171 205 255
171 205 255
171 205 255
171 205 255
171 205 255
171 205 255
171 205 255
171 205 255
171 205 255
171 205 255
171 205 255
171 205 255
170 204 255
170 204 255
170 204 255
170 204 255
170 204 255
170 204 255
170 204 255
170 204 255
170 204 255
170 204 255
170 204 255
170 204 255
169 204 255
169 204 255
169 204 255
169 204 255
169 204 255
169 204 255
169 204 255
169 203 255
169 203 255
169 203 255
169 203 255
168 203 255
168 203 255
168 203 255
168 203 255
168 203 255
168 203 255
168 203 255
168 203 255
168 203 255
168 203 255
168 203 255
167 203 255
167 203 255
167 203 255
167 203 255
167 202 255
167 202 255
167 202 255
167 202 255
167 202 255
167 202 255
167 202 255
166 202 255
166 202 255
166 202 255
166 202 255
166 202 255
166 202 255
166 202 255
166 202 255
166 202 255
166 202 255
166 202 255
165 201 255
165 201 255
165 201 255
165 201 255
165 201 255
165 201 255
165 201 255
165 201 255
165 201 255
165 201 255
165 201 255
164 201 255
164 201 255
164 201 255
164 201 255
164 201 255
164 201 255
164 201 255
164 200 255
164 200 255
164 200 255
164 200 255
163 200 255
163 200 255
163 200 255
163 200 255
163 200 255
163 200 255
163 200 255
163 200 255
163 200 255
163 200 255
163 200 255
163 200 255
162 200 255
162 200 255
162 200 255
162 200 255
162 199 255
162 199 255
162 199 255
162 199 255
162 199 255
162 199 255
162 199 255
162 199 255
162 199 255
162 199 255
161 199 255
161 199 255
161 199 255
161 199 255
161 199 255
161 199 255
161 199 255
161 199 255
161 199 255
161 199 255
161 199 255
161 199 255
161 199 255
161 199 255
161 199 255
161 199 255
161 199 255
161 199 255
161 199 255
161 199 255
145 179 230
111 137 177
83 102 132
36 45 58
15 19 25
14 18 24
15 18 24
14 17 23
14 17 23
15 18 24
14 18 23
14 18 23
14 18 23
14 18 23
14 17 23
15 18 24
14 18 24
14 18 24
14 18 23
14 18 24
14 18 24
15 18 24
14 18 23
15 18 24
14 18 23
14 18 23
14 18 23
14 18 23
14 18 24
14 18 24
14 18 24
17 21 28
50 63 82
83 103 133
108 134 173
146 181 232
161 199 255
161 199 255
161 199 255
161 199 255
161 199 255
161 199 255
161 199 255
161 199 255
161 199 255
161 199 255
161 199 255
161 199 255
161 199 255
161 199 255
161 199 255
161 199 255
161 199 255
161 199 255
161 199 255
161 199 255
162 199 255
162 199 255
162 199 255
162 199 255
162 199 255
162 199 255
162 199 255
162 199 255
162 199 255
162 199 255
162 200 255
162 200 255
162 200 255
162 200 255
163 200 255
163 200 255
163 200 255
163 200 255
163 200 255
163 200 255
163 200 255
163 200 255
163 200 255
163 200 255
163 200 255
163 200 255
164 200 255
164 200 255
164 200 255
164 200 255
164 201 255
164 201 255
164 201 255
164 201 255
164 201 255
164 201 255
164 201 255
165 201 255
165 201 255
165 201 255
165 201 255
165 201 255
165 201 255
165 201 255
165 201 255
165 201 255
165 201 255
165 201 255
166 202 255
166 202 255
166 202 255
166 202 255
166 202 255
166 202 255
166 202 255
166 202 255
166 202 255
166 202 255
166 202 255
167 202 255
167 202 255
167 202 255
167 202 255
167 202 255
167 202 255
167 202 255
167 203 255
167 203 255
167 203 255
167 203 255
168 203 255
168 203 255
168 203 255
168 203 255
168 203 255
168 203 255
168 203 255
168 203 255
168 203 255
168 203 255
168 203 255
169 203 255
169 203 255
169 203 255
169 204 255
169 204 255
169 204 255
169 204 255
169 204 255
169 204 255
169 204 255
169 204 255
170 204 255
170 204 255
170 204 255
170 204 255
170 204 255
170 204 255
170 204 255
170 204 255
170 204 255
170 204 255
170 204 255
170 204 255
171 205 255
171 205 255
171 205 255
171 205 255
171 205 255
171 205 255
171 205 255
171 205 255
171 205 255
171 205 255
171 205 255
171 205 255
171 205 255
172 205 255
172 205 255
172 205 255
172 205 255
172 205 255
172 205 255
172 205 255
172 205 255
172 205 255
172 206 255
172 206 255
172 206 255
172 206 255
172 206 255
173 206 255
173 206 255
173 206 255
173 206 255
173 206 255
173 206 255
173 206 255
173 206 255
173 206 255
173 206 255
173 206 255
173 206 255
173 206 255
173 206 255
174 206 255
174 206 255
174 206 255
174 206 255
174 206 255
174 207 255
174 207 255
174 207 255
174 207 255
174 207 255
174 207 255
174 207 255
174 207 255
174 207 255
174 207 255
174 207 255
175 207 255
175 207 255
175 207 255
175 207 255
175 207 255
175 207 255
174 207 255
174 207 255
174 207 255
174 207 255
174 207 255
174 207 255
174 207 255
174 207 255
174 207 255
174 207 255
174 207 255
174 206 255
174 206 255
174 206 255
174 206 255
174 206 255
173 206 255
173 206 255
173 206 255
173 206 255
173 206 255
173 206 255
173 206 255
173 206 255
173 206 255
173 206 255
173 206 255
173 206 255
173 206 255
173 206 255
172 206 255
172 206 255
172 206 255
172 206 255
172 206 255
172 205 255
172 205 255
172 205 255
172 205 255
172 205 255
172 205 255
172 205 255
172 205 255
172 205 255
171 205 255
171 205 255
171 205 255
171 205 255
171 205 255
171 205 255
171 205 255
171 205 255
171 205 255
171 205 255
171 205 255
171 205 255
170 204 255
170 204 255
170 204 255
170 204 255
170 204 255
170 204 255
170 204 255
170 204 255
170 204 255
170 204 255
170 204 255
170 204 255
169 204 255
169 204 255
169 204 255
169 204 255
169 204 255
169 204 255
169 204 255
169 204 255
169 203 255
169 203 255
169 203 255
169 203 255
168 203 255
168 203 255
168 203 255
168 203 255
168 203 255
168 203 255
168 203 255
168 203 255
168 203 255
168 203 255
168 203 255
167 203 255
167 203 255
167 203 255
167 203 255
167 202 255
167 202 255
167 202 255
167 202 255
167 202 255
167 202 255
167 202 255
166 202 255
166 202 255
166 202 255
166 202 255
166 202 255
166 202 255
166 202 255
166 202 255
166 202 255
166 202 255
166 202 255
165 201 255
165 201 255
165 201 255
165 201 255
165 201 255
165 201 255
165 201 255
165 201 255
165 201 255
165 201 255
164 201 255
164 201 255
164 201 255
164 201 255
164 201 255
164 201 255
164 201 255
164 201 255
164 200 255
164 200 255
164 200 255
164 200 255
163 200 255
163 200 255
163 200 255
163 200 255
163 200 255
163 200 255
163 200 255
163 200 255
163 200 255
163 200 255
163 200 255
163 200 255
163 200 255
162 200 255
162 200 255
162 200 255
162 200 255
162 200 255
162 199 255
162 199 255
162 199 255
162 199 255
162 199 255
162 199 255
162 199 255
162 199 255
162 199 255
162 199 255
161 199 255
161 199 255
161 199 255
161 199 255
161 199 255
161 199 255
161 199 255
161 199 255
161 199 255
161 199 255
161 199 255
149 184 237
88 108 140
50 62 80
17 22 28
14 18 24
14 18 23
14 17 23
14 18 24
14 18 23
14 17 23
14 18 23
14 18 24
14 18 24
14 18 23
14 18 24
14 18 23
14 18 23
14 18 23
14 17 23
14 17 23
14 18 23
14 17 23
14 17 23
14 17 22
14 18 24
14 18 23
15 19 24
15 19 24
14 18 23
15 18 24
14 18 24
14 17 22
13 17 23
14 18 23
14 18 23
14 18 24
14 18 24
14 17 23
13 17 23
48 60 77
96 119 154
139 172 221
161 199 255
161 199 255
161 199 255
161 199 255
161 199 255
161 199 255
161 199 255
161 199 255
161 199 255
161 199 255
162 199 255
162 199 255
162 199 255
162 199 255
162 199 255
162 199 255
162 199 255
162 199 255
162 199 255
162 199 255
162 199 255
162 200 255
162 200 255
162 200 255
162 200 255
162 200 255
163 200 255
163 200 255
163 200 255
163 200 255
163 200 255
163 200 255
163 200 255
163 200 255
163 200 255
163 200 255
163 200 255
163 200 255
163 200 255
164 200 255
164 200 255
164 200 255
164 200 255
164 201 255
164 201 255
164 201 255
164 201 255
164 201 255
164 201 255
164 201 255
165 201 255
165 201 255
165 201 255
165 201 255
165 201 255
165 201 255
165 201 255
165 201 255
165 201 255
165 201 255
165 201 255
166 202 255
166 202 255
166 202 255
166 202 255
166 202 255
166 202 255
166 202 255
166 202 255
166 202 255
166 202 255
166 202 255
167 202 255
167 202 255
167 202 255
167 202 255
167 202 255
167 202 255
167 202 255
167 202 255
167 203 255
167 203 255
167 203 255
168 203 255
168 203 255
168 203 255
168 203 255
168 203 255
168 203 255
168 203 255
168 203 255
168 203 255
168 203 255
168 203 255
169 203 255
169 203 255
169 203 255
169 203 255
169 204 255
169 204 255
169 204 255
169 204 255
169 204 255
169 204 255
169 204 255
169 204 255
170 204 255
170 204 255
170 204 255
170 204 255
170 204 255
170 204 255
170 204 255
170 204 255
170 204 255
170 204 255
170 204 255
170 204 255
171 205 255
171 205 255
171 205 255
171 205 255
171 205 255
171 205 255
171 205 255
171 205 255
171 205 255
171 205 255
171 205 255
171 205 255
172 205 255
172 205 255
172 205 255
172 205 255
172 205 255
172 205 255
172 205 255
172 205 255
172 205 255
172 206 255
172 206 255
172 206 255
172 206 255
172 206 255
173 206 255
173 206 255
173 206 255
173 206 255
173 206 255
173 206 255
173 206 255
173 206 255
173 206 255
173 206 255
173 206 255
173 206 255
173 206 255
173 206 255
174 206 255
174 206 255
174 206 255
174 206 255
174 206 255
174 207 255
174 207 255
174 207 255
174 207 255
174 207 255
174 207 255
174 207 255
174 207 255
174 207 255
174 207 255
174 207 255
175 207 255
175 207 255
175 207 255
175 207 255
175 207 255
175 207 255
175 207 255
175 207 255
175 207 255
175 207 255
175 207 255
175 207 255
175 207 255
175 207 255
174 207 255
174 207 255
174 207 255
174 207 255
174 207 255
174 207 255
174 207 255
174 207 255
174 207 255
174 207 255
174 207 255
174 206 255
174 206 255
174 206 255
174 206 255
174 206 255
173 206 255
173 206 255
173 206 255
173 206 255
173 206 255
173 206 255
173 206 255
173 206 255
173 206 255
173 206 255
173 206 255
173 206 255
173 206 255
173 206 255
172 206 255
172 206 255
172 206 255
172 206 255
172 206 255
172 205 255
172 205 255
172 205 255
172 205 255
172 205 255
172 205 255
172 205 255
172 205 255
172 205 255
171 205 255
171 205 255
171 205 255
171 205 255
171 205 255
171 205 255
171 205 255
171 205 255
171 205 255
171 205 255
171 205 255
171 205 255
170 204 255
170 204 255
170 204 255
170 204 255
170 204 255
170 204 255
170 204 255
170 204 255
170 204 255
170 204 255
170 204 255
170 204 255
169 204 255
169 204 255
169 204 255
169 204 255
169 204 255
169 204 255
169 204 255
169 204 255
169 203 255
169 203 255
169 203 255
169 203 255
168 203 255
168 203 255
168 203 255
168 203 255
168 203 255
168 203 255
168 203 255
168 203 255
168 203 255
168 203 255
168 203 255
167 203 255
167 203 255
167 203 255
167 202 255
167 202 255
167 202 255
167 202 255
167 202 255
167 202 255
167 202 255
167 202 255
166 202 255
166 202 255
166 202 255
166 202 255
166 202 255
166 202 255
166 202 255
166 202 255
166 202 255
166 202 255
165 201 255
165 201 255
165 201 255
165 201 255
165 201 255
165 201 255
165 201 255
165 201 255
165 201 255
165 201 255
165 201 255
165 201 255
164 201 255
164 201 255
164 201 255
164 201 255
164 201 255
164 201 255
164 201 255
164 200 255
164 200 255
164 200 255
164 200 255
164 200 255
163 200 255
163 200 255
163 200 255
163 200 255
163 200 255
163 200 255
163 200 255
163 200 255
163 200 255
163 200 255
163 200 255
163 200 255
163 200 255
162 200 255
162 200 255
162 200 255
162 200 255
162 200 255
162 199 255
162 199 255
162 199 255
162 199 255
162 199 255
162 199 255
162 199 255
162 199 255
162 199 255
162 199 255
162 199 255
162 199 255
162 199 255
148 182 234
101 125 161
45 56 73
15 20 26
14 18 23
14 17 23
14 17 23
14 18 23
14 18 23
14 18 24
14 18 23
14 18 23
14 17 23
14 18 23
14 18 23
14 18 24
13 17 22
14 18 23
14 17 23
14 17 22
14 18 23
14 18 24
15 18 24
13 16 21
14 18 24
14 18 23
14 18 23
14 17 23
13 17 22
14 18 23
14 17 23
14 17 23
14 18 23
15 19 24
14 18 23
15 19 24
14 18 23
14 17 23
14 18 23
15 18 24
15 18 24
14 17 23
14 18 23
14 18 24
15 19 24
46 57 74
95 117 151
148 183 235
162 199 255
162 199 255
162 199 255
162 199 255
162 199 255
162 199 255
162 199 255
162 199 255
162 199 255
162 199 255
162 199 255
162 199 255
162 200 255
162 200 255
162 200 255
162 200 255
162 200 255
162 200 255
163 200 255
163 200 255
163 200 255
163 200 255
163 200 255
163 200 255
163 200 255
163 200 255
163 200 255
163 200 255
163 200 255
163 200 255
163 200 255
163 200 255
164 200 255
164 200 255
164 200 255
164 201 255
164 201 255
164 201 255
164 201 255
164 201 255
164 201 255
164 201 255
164 201 255
165 201 255
165 201 255
165 201 255
165 201 255
165 201 255
165 201 255
165 201 255
165 201 255
165 201 255
165 201 255
165 201 255
165 201 255
166 202 255
166 202 255
166 202 255
166 202 255
166 202 255
166 202 255
166 202 255
166 202 255
166 202 255
166 202 255
167 202 255
167 202 255
167 202 255
167 202 255
167 202 255
167 202 255
167 202 255
167 202 255
167 203 255
167 203 255
167 203 255
168 203 255
168 203 255
168 203 255
168 203 255
168 203 255
168 203 255
168 203 255
168 203 255
168 203 255
168 203 255
168 203 255
169 203 255
169 203 255
169 203 255
169 203 255
169 204 255
169 204 255
169 204 255
169 204 255
169 204 255
169 204 255
169 204 255
169 204 255
170 204 255
170 204 255
170 204 255
170 204 255
170 204 255
170 204 255
170 204 255
170 204 255
170 204 255
170 204 255
170 204 255
170 204 255
171 205 255
171 205 255
171 205 255
171 205 255
171 205 255
171 205 255
171 205 255
171 205 255
171 205 255
171 205 255
171 205 255
171 205 255
172 205 255
172 205 255
172 205 255
172 205 255
172 205 255
172 205 255
172 205 255
172 205 255
172 205 255
172 206 255
172 206 255
172 206 255
172 206 255
172 206 255
173 206 255
173 206 255
173 206 255
173 206 255
173 206 255
173 206 255
173 206 255
173 206 255
173 206 255
173 206 255
173 206 255
173 206 255
173 206 255
173 206 255
174 206 255
174 206 255
174 206 255
174 206 255
174 206 255
174 207 255
174 207 255
174 207 255
174 207 255
174 207 255
174 207 255
174 207 255
174 207 255
174 207 255
174 207 255
174 207 255
175 207 255
175 207 255
175 207 255
175 207 255
175 207 255
175 207 255
175 207 255
175 207 255
175 207 255
175 207 255
175 207 255
175 207 255
175 207 255
175 207 255
175 207 255
175 207 255
175 207 255
175 207 255
175 207 255
175 207 255
175 207 255
175 207 255
174 207 255
174 207 255
174 207 255
174 207 255
174 207 255
174 207 255
174 207 255
174 207 255
174 207 255
174 207 255
174 207 255
174 206 255
174 206 255
174 206 255
174 206 255
174 206 255
173 206 255
173 206 255
173 206 255
173 206 255
173 206 255
173 206 255
173 206 255
173 206 255
173 206 255
173 206 255
173 206 255
173 206 255
173 206 255
173 206 255
172 206 255
172 206 255
172 206 255
172 206 255
172 206 255
172 205 255
172 205 255
172 205 255
172 205 255
172 205 255
172 205 255
172 205 255
172 205 255
171 205 255
171 205 255
171 205 255
171 205 255
171 205 255
171 205 255
171 205 255
171 205 255
171 205 255
171 205 255
171 205 255
171 205 255
171 205 255
170 204 255
170 204 255
170 204 255
170 204 255
170 204 255
170 204 255
170 204 255
170 204 255
170 204 255
170 204 255
170 204 255
170 204 255
169 204 255
169 204 255
169 204 255
169 204 255
169 204 255
169 204 255
169 204 255
169 203 255
169 203 255
169 203 255
169 203 255
169 203 255
168 203 255
168 203 255
168 203 255
168 203 255
168 203 255
168 203 255
168 203 255
168 203 255
168 203 255
168 203 255
167 203 255
167 203 255
167 203 255
167 203 255
167 202 255
167 202 255
167 202 255
167 202 255
167 202 255
167 202 255
167 202 255
166 202 255
166 202 255
166 202 255
166 202 255
166 202 255
166 202 255
166 202 255
166 202 255
166 202 255
166 202 255
166 202 255
165 201 255
165 201 255
165 201 255
165 201 255
165 201 255
165 201 255
165 201 255
165 201 255
165 201 255
165 201 255
165 201 255
165 201 255
164 201 255
164 201 255
164 201 255
164 201 255
164 201 255
164 201 255
164 201 255
164 201 255
164 200 255
164 200 255
164 200 255
164 200 255
164 200 255
163 200 255
163 200 255
163 200 255
163 200 255
163 200 255
163 200 255
163 200 255
163 200 255
163 200 255
163 200 255
163 200 255
163 200 255
163 200 255
163 200 255
162 200 255
162 200 255
162 200 255
162 200 255
162 200 255
162 200 255
162 199 255
162 199 255
162 199 255
162 199 255
128 157 202
61 75 97
17 22 28
14 17 23
15 18 24
14 18 23
14 18 24
15 18 24
13 17 22
13 17 23
14 17 23
14 17 23
15 19 24
14 17 23
13 17 22
13 17 22
15 18 24
13 17 22
14 18 23
15 18 24
14 17 23
13 16 21
14 18 23
13 16 21
14 17 22
13 17 22
13 16 21
13 16 22
14 18 24
14 18 24
14 17 23
14 18 23
14 17 22
13 17 22
14 17 23
14 17 23
14 17 23
14 17 23
14 18 23
14 18 23
15 18 24
14 18 24
13 16 21
14 18 23
14 17 23
13 16 22
14 18 24
15 19 24
14 18 23
19 24 31
49 61 79
124 152 195
162 199 255
162 199 255
162 199 255
162 199 255
162 200 255
162 200 255
162 200 255
162 200 255
162 200 255
162 200 255
163 200 255
163 200 255
163 200 255
163 200 255
163 200 255
163 200 255
163 200 255
163 200 255
163 200 255
163 200 255
163 200 255
163 200 255
163 200 255
163 200 255
163 200 255
164 200 255
164 200 255
164 200 255
164 200 255
164 201 255
164 201 255
164 201 255
164 201 255
164 201 255
164 201 255
164 201 255
164 201 255
165 201 255
165 201 255
165 201 255
165 201 255
165 201 255
165 201 255
165 201 255
165 201 255
165 201 255
165 201 255
165 201 255
166 202 255
166 202 255
166 202 255
166 202 255
166 202 255
166 202 255
166 202 255
166 202 255
166 202 255
166 202 255
166 202 255
166 202 255
167 202 255
167 202 255
167 202 255
167 202 255
167 202 255
167 202 255
167 202 255
167 203 255
167 203 255
167 203 255
167 203 255
168 203 255
168 203 255
168 203 255
168 203 255
168 203 255
168 203 255
168 203 255
168 203 255
168 203 255
168 203 255
168 203 255
169 203 255
169 203 255
169 203 255
169 203 255
169 204 255
169 204 255
169 204 255
169 204 255
169 204 255
169 204 255
169 204 255
170 204 255
170 204 255
170 204 255
170 204 255
170 204 255
170 204 255
170 204 255
170 204 255
170 204 255
170 204 255
170 204 255
170 204 255
171 205 255
171 205 255
171 205 255
171 205 255
171 205 255
171 205 255
171 205 255
171 205 255
171 205 255
171 205 255
171 205 255
171 205 255
172 205 255
172 205 255
172 205 255
172 205 255
172 205 255
172 205 255
172 205 255
172 205 255
172 205 255
172 206 255
172 206 255
172 206 255
172 206 255
172 206 255
173 206 255
173 206 255
173 206 255
173 206 255
173 206 255
173 206 255
173 206 255
173 206 255
173 206 255
173 206 255
173 206 255
173 206 255
173 206 255
173 206 255
174 206 255
174 206 255
174 206 255
174 206 255
174 206 255
174 207 255
174 207 255
174 207 255
174 207 255
174 207 255
174 207 255
174 207 255
174 207 255
174 207 255
174 207 255
174 207 255
175 207 255
175 207 255
175 207 255
175 207 255
175 207 255
175 207 255
175 207 255
175 207 255
175 207 255
175 207 255
175 207 255
175 207 255
175 207 255
176 208 255
175 207 255
175 207 255
175 207 255
175 207 255
175 207 255
175 207 255
175 207 255
175 207 255
175 207 255
175 207 255
175 207 255
175 207 255
175 207 255
175 207 255
175 207 255
175 207 255
175 207 255
174 207 255
174 207 255
174 207 255
174 207 255
174 207 255
174 207 255
174 207 255
174 207 255
174 207 255
174 207 255
174 206 255
174 206 255
174 206 255
174 206 255
174 206 255
173 206 255
173 206 255
173 206 255
173 206 255
173 206 255
173 206 255
173 206 255
173 206 255
173 206 255
173 206 255
173 206 255
173 206 255
173 206 255
173 206 255
172 206 255
172 206 255
172 206 255
172 206 255
172 205 255
172 205 255
172 205 255
172 205 255
172 205 255
172 205 255
172 205 255
172 205 255
172 205 255
171 205 255
171 205 255
171 205 255
171 205 255
171 205 255
171 205 255
171 205 255
171 205 255
171 205 255
171 205 255
171 205 255
171 205 255
170 204 255
170 204 255
170 204 255
170 204 255
170 204 255
170 204 255
170 204 255
170 204 255
170 204 255
170 204 255
170 204 255
170 204 255
170 204 255
169 204 255
169 204 255
169 204 255
169 204 255
169 204 255
169 204 255
169 204 255
169 203 255
169 203 255
169 203 255
169 203 255
168 203 255
168 203 255
168 203 255
168 203 255
168 203 255
168 203 255
168 203 255
168 203 255
168 203 255
168 203 255
168 203 255
167 203 255
167 203 255
167 203 255
167 203 255
167 202 255
167 202 255
167 202 255
167 202 255
167 202 255
167 202 255
167 202 255
166 202 255
166 202 255
166 202 255
166 202 255
166 202 255
166 202 255
166 202 255
166 202 255
166 202 255
166 202 255
166 202 255
166 202 255
165 201 255
165 201 255
165 201 255
165 201 255
165 201 255
165 201 255
165 201 255
165 201 255
165 201 255
165 201 255
165 201 255
164 201 255
164 201 255
164 201 255
164 201 255
164 201 255
164 201 255
164 201 255
164 201 255
164 201 255
164 200 255
164 200 255
164 200 255
164 200 255
164 200 255
163 200 255
163 200 255
163 200 255
163 200 255
163 200 255
163 200 255
163 200 255
163 200 255
163 200 255
163 200 255
163 200 255
163 200 255
163 200 255
163 200 255
163 200 255
163 200 255
160 196 251
115 142 181
34 43 56
13 17 23
14 18 23
14 18 24
14 18 23
14 18 23
14 18 24
13 17 22
13 17 22
13 16 21
14 18 23
13 17 22
14 17 22
13 17 22
14 18 23
14 18 23
13 17 22
13 17 22
13 17 22
14 17 22
14 17 23
13 17 22
14 17 23
14 17 23
13 17 22
13 16 22
14 17 23
14 17 22
14 17 22
14 17 23
13 17 22
14 18 23
14 17 23
13 17 22
14 17 23
14 17 22
14 18 23
13 17 22
13 16 21
14 18 23
14 18 23
13 17 22
14 18 24
13 16 21
14 18 23
15 18 24
14 17 23
13 16 22
14 18 23
14 18 23
14 18 23
14 18 23
14 18 23
42 52 67
122 151 193
162 200 255
163 200 255
163 200 255
163 200 255
163 200 255
163 200 255
163 200 255
163 200 255
163 200 255
163 200 255
163 200 255
163 200 255
163 200 255
163 200 255
163 200 255
163 200 255
163 200 255
164 200 255
164 200 255
164 200 255
164 200 255
164 200 255
164 201 255
164 201 255
164 201 255
164 201 255
164 201 255
164 201 255
164 201 255
164 201 255
165 201 255
165 201 255
165 201 255
165 201 255
165 201 255
165 201 255
165 201 255
165 201 255
165 201 255
165 201 255
165 201 255
165 201 255
166 202 255
166 202 255
166 202 255
166 202 255
166 202 255
166 202 255
166 202 255
166 202 255
166 202 255
166 202 255
166 202 255
166 202 255
167 202 255
167 202 255
167 202 255
167 202 255
167 202 255
167 202 255
167 202 255
167 203 255
167 203 255
167 203 255
167 203 255
168 203 255
168 203 255
168 203 255
168 203 255
168 203 255
168 203 255
168 203 255
168 203 255
168 203 255
168 203 255
168 203 255
169 203 255
169 203 255
169 203 255
169 203 255
169 204 255
169 204 255
169 204 255
169 204 255
169 204 255
169 204 255
169 204 255
170 204 255
170 204 255
170 204 255
170 204 255
170 204 255
170 204 255
170 204 255
170 204 255
170 204 255
170 204 255
170 204 255
170 204 255
171 205 255
171 205 255
171 205 255
171 205 255
171 205 255
171 205 255
171 205 255
171 205 255
171 205 255
171 205 255
171 205 255
171 205 255
171 205 255
172 205 255
172 205 255
172 205 255
172 205 255
172 205 255
172 205 255
172 205 255
172 205 255
172 206 255
172 206 255
172 206 255
172 206 255
172 206 255
173 206 255
173 206 255
173 206 255
173 206 255
173 206 255
173 206 255
173 206 255
173 206 255
173 206 255
173 206 255
173 206 255
173 206 255
173 206 255
173 206 255
174 206 255
174 206 255
174 206 255
174 206 255
174 206 255
174 207 255
174 207 255
174 207 255
174 207 255
174 207 255
174 207 255
174 207 255
174 207 255
174 207 255
174 207 255
175 207 255
175 207 255
175 207 255
175 207 255
175 207 255
175 207 255
175 207 255
175 207 255
175 207 255
175 207 255
175 207 255
175 207 255
175 207 255
175 207 255
175 207 255
175 207 255
175 207 255
176 208 255
176 208 255
176 208 255
176 208 255
176 208 255
176 208 255
176 208 255
175 207 255
175 207 255
175 207 255
175 207 255
175 207 255
175 207 255
175 207 255
175 207 255
175 207 255
175 207 255
175 207 255
175 207 255
175 207 255
175 207 255
175 207 255
175 207 255
174 207 255
174 207 255
174 207 255
174 207 255
174 207 255
174 207 255
174 207 255
174 207 255
174 207 255
174 207 255
174 206 255
174 206 255
174 206 255
174 206 255
174 206 255
173 206 255
173 206 255
173 206 255
173 206 255
173 206 255
173 206 255
173 206 255
173 206 255
173 206 255
173 206 255
173 206 255
173 206 255
173 206 255
173 206 255
172 206 255
172 206 255
172 206 255
172 206 255
172 205 255
172 205 255
172 205 255
172 205 255
172 205 255
172 205 255
172 205 255
172 205 255
172 205 255
172 205 255
171 205 255
171 205 255
171 205 255
171 205 255
171 205 255
171 205 255
171 205 255
171 205 255
171 205 255
171 205 255
171 205 255
171 205 255
170 204 255
170 204 255
170 204 255
170 204 255
170 204 255
170 204 255
170 204 255
170 204 255
170 204 255
170 204 255
170 204 255
169 204 255
169 204 255
169 204 255
169 204 255
169 204 255
169 204 255
169 204 255
169 204 255
169 203 255
169 203 255
169 203 255
169 203 255
168 203 255
168 203 255
168 203 255
168 203 255
168 203 255
168 203 255
168 203 255
168 203 255
168 203 255
168 203 255
168 203 255
167 203 255
167 203 255
167 203 255
167 203 255
167 202 255
167 202 255
167 202 255
167 202 255
167 202 255
167 202 255
167 202 255
166 202 255
166 202 255
166 202 255
166 202 255
166 202 255
166 202 255
166 202 255
166 202 255
166 202 255
166 202 255
166 202 255
166 202 255
165 201 255
165 201 255
165 201 255
165 201 255
165 201 255
165 201 255
165 201 255
165 201 255
165 201 255
165 201 255
165 201 255
165 201 255
164 201 255
164 201 255
164 201 255
164 201 255
164 201 255
164 201 255
164 201 255
164 201 255
164 201 255
164 201 255
164 200 255
164 200 255
164 200 255
164 200 255
164 200 255
163 200 255
163 200 255
163 200 255
163 200 255
163 200 255
163 200 255
163 200 255
163 200 255
160 196 251
111 136 175
36 45 58
14 18 23
14 17 23
14 18 23
13 17 22
14 17 23
13 17 22
14 17 23
14 18 23
13 17 22
14 18 23
14 18 23
13 17 22
14 17 23
15 18 23
13 17 22
13 17 23
14 17 22
13 17 22
13 16 21
13 17 22
14 17 22
14 17 22
13 17 22
14 17 23
13 17 22
13 17 22
14 18 23
13 17 22
15 18 24
13 17 22
14 17 23
14 17 23
13 16 22
13 17 22
15 18 24
14 18 23
13 17 22
14 17 23
14 18 23
13 17 22
13 17 22
14 18 23
13 17 22
13 17 22
12 16 20
14 18 23
13 17 22
14 18 23
13 16 22
13 17 22
14 17 23
14 17 23
14 18 23
14 17 23
14 17 23
14 18 23
41 50 65
102 125 161
163 200 255
163 200 255
163 200 255
163 200 255
163 200 255
163 200 255
163 200 255
163 200 255
163 200 255
164 200 255
164 200 255
164 200 255
164 200 255
164 200 255
164 201 255
164 201 255
164 201 255
164 201 255
164 201 255
164 201 255
164 201 255
164 201 255
164 201 255
164 201 255
165 201 255
165 201 255
165 201 255
165 201 255
165 201 255
165 201 255
165 201 255
165 201 255
165 201 255
165 201 255
165 201 255
165 201 255
166 202 255
166 202 255
166 202 255
166 202 255
166 202 255
166 202 255
166 202 255
166 202 255
166 202 255
166 202 255
166 202 255
166 202 255
167 202 255
167 202 255
167 202 255
167 202 255
167 202 255
167 202 255
167 202 255
167 203 255
167 203 255
167 203 255
167 203 255
168 203 255
168 203 255
168 203 255
168 203 255
168 203 255
168 203 255
168 203 255
168 203 255
168 203 255
168 203 255
168 203 255
169 203 255
169 203 255
169 203 255
169 203 255
169 204 255
169 204 255
169 204 255
169 204 255
169 204 255
169 204 255
169 204 255
169 204 255
170 204 255
170 204 255
170 204 255
170 204 255
170 204 255
170 204 255
170 204 255
170 204 255
170 204 255
170 204 255
170 204 255
170 204 255
171 205 255
171 205 255
171 205 255
171 205 255
171 205 255
171 205 255
171 205 255
171 205 255
171 205 255
171 205 255
171 205 255
171 205 255
172 205 255
172 205 255
172 205 255
172 205 255
172 205 255
172 205 255
172 205 255
172 205 255
172 205 255
172 206 255
172 206 255
172 206 255
172 206 255
173 206 255
173 206 255
173 206 255
173 206 255
173 206 255
173 206 255
173 206 255
173 206 255
173 206 255
173 206 255
173 206 255
173 206 255
173 206 255
173 206 255
174 206 255
174 206 255
174 206 255
174 206 255
174 206 255
174 207 255
174 207 255
174 207 255
174 207 255
174 207 255
174 207 255
174 207 255
174 207 255
174 207 255
174 207 255
175 207 255
175 207 255
175 207 255
175 207 255
175 207 255
175 207 255
175 207 255
175 207 255
175 207 255
175 207 255
175 207 255
175 207 255
175 207 255
175 207 255
175 207 255
175 207 255
175 207 255
176 208 255
176 208 255
176 208 255
176 208 255
176 208 255
176 208 255
176 208 255
176 208 255
176 208 255
176 208 255
176 208 255
176 208 255
176 208 255
176 208 255
176 208 255
175 207 255
175 207 255
175 207 255
175 207 255
175 207 255
175 207 255
175 207 255
175 207 255
175 207 255
175 207 255
175 207 255
175 207 255
175 207 255
175 207 255
175 207 255
175 207 255
174 207 255
174 207 255
174 207 255
174 207 255
174 207 255
174 207 255
174 207 255
174 207 255
174 207 255
174 207 255
174 206 255
174 206 255
174 206 255
174 206 255
174 206 255
173 206 255
173 206 255
173 206 255
173 206 255
173 206 255
173 206 255
173 206 255
173 206 255
173 206 255
173 206 255
173 206 255
173 206 255
173 206 255
173 206 255
173 206 255
172 206 255
172 206 255
172 206 255
172 206 255
172 205 255
172 205 255
172 205 255
172 205 255
172 205 255
172 205 255
172 205 255
172 205 255
171 205 255
171 205 255
171 205 255
171 205 255
171 205 255
171 205 255
171 205 255
171 205 255
171 205 255
171 205 255
171 205 255
171 205 255
170 204 255
170 204 255
170 204 255
170 204 255
170 204 255
170 204 255
170 204 255
170 204 255
170 204 255
170 204 255
170 204 255
170 204 255
169 204 255
169 204 255
169 204 255
169 204 255
169 204 255
169 204 255
169 204 255
169 204 255
169 203 255
169 203 255
169 203 255
169 203 255
168 203 255
168 203 255
168 203 255
168 203 255
168 203 255
168 203 255
168 203 255
168 203 255
168 203 255
168 203 255
168 203 255
167 203 255
167 203 255
167 203 255
167 203 255
167 202 255
167 202 255
167 202 255
167 202 255
167 202 255
167 202 255
167 202 255
167 202 255
166 202 255
166 202 255
166 202 255
166 202 255
166 202 255
166 202 255
166 202 255
166 202 255
166 202 255
166 202 255
166 202 255
166 202 255
165 201 255
165 201 255
165 201 255
165 201 255
165 201 255
165 201 255
165 201 255
165 201 255
165 201 255
165 201 255
165 201 255
165 201 255
165 201 255
164 201 255
164 201 255
164 201 255
164 201 255
164 201 255
164 201 255
164 201 255
164 201 255
164 201 255
164 201 255
164 200 255
164 200 255
164 200 255
164 200 255
164 200 255
163 200 255
123 151 193
28 35 46
14 17 23
14 18 23
14 18 23
14 18 24
14 17 22
14 17 23
14 18 24
14 17 23
14 18 23
13 16 21
14 17 22
14 17 23
13 17 22
14 18 23
14 17 23
14 17 23
13 16 21
14 17 22
13 16 20
13 16 21
13 17 22
13 17 21
13 17 22
14 17 23
13 16 21
13 16 21
13 16 21
14 18 23
13 17 22
13 16 21
13 17 22
14 17 23
15 18 23
14 18 23
13 16 22
13 17 22
14 17 22
13 17 22
14 17 22
13 17 22
13 16 21
14 18 23
14 17 22
13 17 22
13 16 21
13 17 22
13 17 22
14 17 23
13 16 21
14 18 23
14 18 23
14 18 23
14 18 23
14 17 23
14 17 23
14 18 24
14 17 23
14 18 23
14 18 24
14 18 23
44 54 69
120 147 188
163 200 255
164 200 255
164 200 255
164 200 255
164 200 255
164 200 255
164 201 255
164 201 255
164 201 255
164 201 255
164 201 255
164 201 255
164 201 255
164 201 255
164 201 255
164 201 255
165 201 255
165 201 255
165 201 255
165 201 255
165 201 255
165 201 255
165 201 255
165 201 255
165 201 255
165 201 255
165 201 255
165 201 255
165 201 255
166 202 255
166 202 255
166 202 255
166 202 255
166 202 255
166 202 255
166 202 255
166 202 255
166 202 255
166 202 255
166 202 255
166 202 255
167 202 255
167 202 255
167 202 255
167 202 255
167 202 255
167 202 255
167 202 255
167 202 255
167 203 255
167 203 255
167 203 255
167 203 255
168 203 255
168 203 255
168 203 255
168 203 255
168 203 255
168 203 255
168 203 255
168 203 255
168 203 255
168 203 255
168 203 255
169 203 255
169 203 255
169 203 255
169 203 255
169 204 255
169 204 255
169 204 255
169 204 255
169 204 255
169 204 255
169 204 255
169 204 255
170 204 255
170 204 255
170 204 255
170 204 255
170 204 255
170 204 255
170 204 255
170 204 255
170 204 255
170 204 255
170 204 255
170 204 255
171 205 255
171 205 255
171 205 255
171 205 255
171 205 255
171 205 255
171 205 255
171 205 255
171 205 255
171 205 255
171 205 255
171 205 255
172 205 255
172 205 255
172 205 255
172 205 255
172 205 255
172 205 255
172 205 255
172 205 255
172 206 255
172 206 255
172 206 255
172 206 255
172 206 255
173 206 255
173 206 255
173 206 255
173 206 255
173 206 255
173 206 255
173 206 255
173 206 255
173 206 255
173 206 255
173 206 255
173 206 255
173 206 255
174 206 255
174 206 255
174 206 255
174 206 255
174 206 255
174 206 255
174 207 255
174 207 255
174 207 255
174 207 255
174 207 255
174 207 255
174 207 255
174 207 255
174 207 255
174 207 255
175 207 255
175 207 255
175 207 255
175 207 255
175 207 255
175 207 255
175 207 255
175 207 255
175 207 255
175 207 255
175 207 255
175 207 255
175 207 255
175 207 255
175 207 255
175 207 255
176 208 255
176 208 255
176 208 255
176 208 255
176 208 255
176 208 255
176 208 255
176 208 255
176 208 255
176 208 255
176 208 255
176 208 255
176 208 255
176 208 255
176 208 255
176 208 255
176 208 255
176 208 255
176 208 255
176 208 255
176 208 255
176 208 255
176 208 255
176 208 255
176 208 255
175 207 255
175 207 255
175 207 255
175 207 255
175 207 255
175 207 255
175 207 255
175 207 255
175 207 255
175 207 255
175 207 255
175 207 255
175 207 255
175 207 255
175 207 255
175 207 255
174 207 255
174 207 255
174 207 255
174 207 255
174 207 255
174 207 255
174 207 255
174 207 255
174 207 255
174 207 255
174 206 255
174 206 255
174 206 255
174 206 255
173 206 255
173 206 255
173 206 255
173 206 255
173 206 255
173 206 255
173 206 255
173 206 255
173 206 255
173 206 255
173 206 255
173 206 255
173 206 255
173 206 255
172 206 255
172 206 255
172 206 255
172 206 255
172 206 255
172 205 255
172 205 255
172 205 255
172 205 255
172 205 255
172 205 255
172 205 255
172 205 255
171 205 255
171 205 255
171 205 255
171 205 255
171 205 255
171 205 255
171 205 255
171 205 255
171 205 255
171 205 255
171 205 255
171 205 255
171 205 255
170 204 255
170 204 255
170 204 255
170 204 255
170 204 255
170 204 255
170 204 255
170 204 255
170 204 255
170 204 255
170 204 255
169 204 255
169 204 255
169 204 255
169 204 255
169 204 255
169 204 255
169 204 255
169 204 255
169 203 255
169 203 255
169 203 255
169 203 255
168 203 255
168 203 255
168 203 255
168 203 255
168 203 255
168 203 255
168 203 255
168 203 255
168 203 255
168 203 255
168 203 255
167 203 255
167 203 255
167 203 255
167 203 255
167 202 255
167 202 255
167 202 255
167 202 255
167 202 255
167 202 255
167 202 255
167 202 255
166 202 255
166 202 255
166 202 255
166 202 255
166 202 255
166 202 255
166 202 255
166 202 255
166 202 255
166 202 255
166 202 255
166 202 255
165 201 255
165 201 255
165 201 255
165 201 255
165 201 255
165 201 255
165 201 255
165 201 255
165 201 255
165 201 255
165 201 255
165 201 255
165 201 255
165 201 255
164 201 255
164 201 255
164 201 255
164 201 255
164 201 255
164 201 255
164 201 255
164 201 255
164 201 255
137 168 214
42 52 67
13 17 22
14 18 23
14 18 23
14 17 23
14 17 22
13 17 22
13 16 21
13 17 22
14 17 23
14 18 23
14 17 22
13 16 21
13 16 21
13 16 21
14 17 23
14 17 22
14 17 22
14 17 23
13 17 22
13 17 22
14 18 23
13 16 21
13 16 21
14 18 23
13 17 22
13 17 22
13 17 22
13 17 22
13 17 22
13 17 22
13 16 21
13 17 22
14 17 22
13 16 21
14 17 23
13 16 21
13 17 22
13 16 21
13 16 21
14 17 22
14 18 23
14 17 22
14 17 22
13 17 22
13 17 22
14 17 22
13 17 22
13 17 22
14 17 22
13 17 22
14 17 23
13 16 21
13 17 22
14 17 22
14 18 23
14 17 23
14 18 23
14 18 23
13 16 21
14 17 22
14 17 23
13 17 22
14 18 23
14 18 24
49 60 77
142 173 221
164 201 255
164 201 255
164 201 255
164 201 255
164 201 255
164 201 255
164 201 255
164 201 255
164 201 255
165 201 255
165 201 255
165 201 255
165 201 255
165 201 255
165 201 255
165 201 255
165 201 255
165 201 255
165 201 255
165 201 255
165 201 255
165 201 255
165 201 255
166 202 255
166 202 255
166 202 255
166 202 255
166 202 255
166 202 255
166 202 255
166 202 255
166 202 255
166 202 255
166 202 255
166 202 255
167 202 255
167 202 255
167 202 255
167 202 255
167 202 255
167 202 255
167 202 255
167 202 255
167 203 255
167 203 255
167 203 255
167 203 255
168 203 255
168 203 255
168 203 255
168 203 255
168 203 255
168 203 255
168 203 255
168 203 255
168 203 255
168 203 255
168 203 255
169 203 255
169 203 255
169 203 255
169 203 255
169 204 255
169 204 255
169 204 255
169 204 255
169 204 255
169 204 255
169 204 255
169 204 255
170 204 255
170 204 255
170 204 255
170 204 255
170 204 255
170 204 255
170 204 255
170 204 255
170 204 255
170 204 255
170 204 255
170 204 255
171 205 255
171 205 255
171 205 255
171 205 255
171 205 255
171 205 255
171 205 255
171 205 255
171 205 255
171 205 255
171 205 255
171 205 255
172 205 255
172 205 255
172 205 255
172 205 255
172 205 255
172 205 255
172 205 255
172 205 255
172 206 255
172 206 255
172 206 255
172 206 255
172 206 255
173 206 255
173 206 255
173 206 255
173 206 255
173 206 255
173 206 255
173 206 255
173 206 255
173 206 255
173 206 255
173 206 255
173 206 255
173 206 255
174 206 255
174 206 255
174 206 255
174 206 255
174 206 255
174 207 255
174 207 255
174 207 255
174 207 255
174 207 255
174 207 255
174 207 255
174 207 255
174 207 255
174 207 255
175 207 255
175 207 255
175 207 255
175 207 255
175 207 255
175 207 255
175 207 255
175 207 255
175 207 255
175 207 255
175 207 255
175 207 255
175 207 255
175 207 255
175 207 255
175 207 255
176 208 255
176 208 255
176 208 255
176 208 255
176 208 255
176 208 255
176 208 255
176 208 255
176 208 255
176 208 255
176 208 255
176 208 255
176 208 255
176 208 255
176 208 255
177 208 255
177 208 255
176 208 255
176 208 255
176 208 255
176 208 255
176 208 255
176 208 255
176 208 255
176 208 255
176 208 255
176 208 255
176 208 255
176 208 255
176 208 255
176 208 255
176 208 255
176 208 255
176 208 255
175 207 255
175 207 255
175 207 255
175 207 255
175 207 255
175 207 255
175 207 255
175 207 255
175 207 255
175 207 255
175 207 255
175 207 255
175 207 255
175 207 255
175 207 255
175 207 255
174 207 255
174 207 255
174 207 255
174 207 255
174 207 255
174 207 255
174 207 255
174 207 255
174 207 255
174 207 255
174 206 255
174 206 255
174 206 255
174 206 255
174 206 255
173 206 255
173 206 255
173 206 255
173 206 255
173 206 255
173 206 255
173 206 255
173 206 255
173 206 255
173 206 255
173 206 255
173 206 255
173 206 255
172 206 255
172 206 255
172 206 255
172 206 255
172 206 255
172 205 255
172 205 255
172 205 255
172 205 255
172 205 255
172 205 255
172 205 255
172 205 255
171 205 255
171 205 255
171 205 255
171 205 255
171 205 255
171 205 255
171 205 255
171 205 255
171 205 255
171 205 255
171 205 255
171 205 255
171 205 255
170 204 255
170 204 255
170 204 255
170 204 255
170 204 255
170 204 255
170 204 255
170 204 255
170 204 255
170 204 255
170 204 255
169 204 255
169 204 255
169 204 255
169 204 255
169 204 255
169 204 255
169 204 255
169 204 255
169 203 255
169 203 255
169 203 255
169 203 255
168 203 255
168 203 255
168 203 255
168 203 255
168 203 255
168 203 255
168 203 255
168 203 255
168 203 255
168 203 255
168 203 255
168 203 255
167 203 255
167 203 255
167 203 255
167 203 255
167 202 255
167 202 255
167 202 255
167 202 255
167 202 255
167 202 255
167 202 255
167 202 255
166 202 255
166 202 255
166 202 255
166 202 255
166 202 255
166 202 255
166 202 255
166 202 255
166 202 255
166 202 255
166 202 255
166 202 255
165 201 255
165 201 255
165 201 255
165 201 255
165 201 255
165 201 255
165 201 255
165 201 255
165 201 255
165 201 255
165 201 255
165 201 255
165 201 255
165 201 255
165 201 255
165 201 255
157 192 244
91 111 141
15 19 25
14 17 23
15 18 24
14 18 23
13 17 23
13 17 22
14 17 23
13 17 22
14 17 23
13 16 21
13 16 21
13 17 22
13 16 21
12 16 20
13 16 20
12 16 20
14 17 22
14 17 22
13 16 21
13 16 21
14 18 23
13 17 22
13 17 22
13 16 21
13 17 22
14 18 23
14 17 22
13 16 21
13 16 21
12 16 21
13 16 21
13 16 21
13 16 21
14 17 23
13 17 22
13 17 22
14 17 22
14 18 23
14 17 22
12 16 20
13 16 21
13 16 20
12 15 20
14 17 22
12 16 21
14 17 22
14 17 23
13 16 21
13 16 21
13 17 22
14 17 22
14 17 23
14 17 23
13 17 22
14 18 23
14 18 23
14 18 23
13 16 21
13 17 22
14 17 23
13 16 21
13 16 21
14 17 23
13 16 21
14 18 23
13 17 22
13 17 22
20 25 32
82 100 128
156 190 242
165 201 255
165 201 255
165 201 255
165 201 255
165 201 255
165 201 255
165 201 255
165 201 255
165 201 255
165 201 255
165 201 255
165 201 255
165 201 255
165 201 255
165 201 255
165 201 255
166 202 255
166 202 255
166 202 255
166 202 255
166 202 255
166 202 255
166 202 255
166 202 255
166 202 255
166 202 255
166 202 255
166 202 255
167 202 255
167 202 255
167 202 255
167 202 255
167 202 255
167 202 255
167 202 255
167 202 255
167 203 255
167 203 255
167 203 255
167 203 255
168 203 255
168 203 255
168 203 255
168 203 255
168 203 255
168 203 255
168 203 255
168 203 255
168 203 255
168 203 255
168 203 255
168 203 255
169 203 255
169 203 255
169 203 255
169 203 255
169 204 255
169 204 255
169 204 255
169 204 255
169 204 255
169 204 255
169 204 255
169 204 255
170 204 255
170 204 255
170 204 255
170 204 255
170 204 255
170 204 255
170 204 255
170 204 255
170 204 255
170 204 255
170 204 255
171 205 255
171 205 255
171 205 255
171 205 255
171 205 255
171 205 255
171 205 255
171 205 255
171 205 255
171 205 255
171 205 255
171 205 255
171 205 255
172 205 255
172 205 255
172 205 255
172 205 255
172 205 255
172 205 255
172 205 255
172 205 255
172 206 255
172 206 255
172 206 255
172 206 255
173 206 255
173 206 255
173 206 255
173 206 255
173 206 255
173 206 255
173 206 255
173 206 255
173 206 255
173 206 255
173 206 255
173 206 255
173 206 255
173 206 255
174 206 255
174 206 255
174 206 255
174 206 255
174 206 255
174 207 255
174 207 255
174 207 255
174 207 255
174 207 255
174 207 255
174 207 255
174 207 255
174 207 255
174 207 255
175 207 255
175 207 255
175 207 255
175 207 255
175 207 255
175 207 255
175 207 255
175 207 255
175 207 255
175 207 255
175 207 255
175 207 255
175 207 255
175 207 255
175 207 255
175 207 255
176 208 255
176 208 255
176 208 255
176 208 255
176 208 255
176 208 255
176 208 255
176 208 255
176 208 255
176 208 255
176 208 255
176 208 255
176 208 255
176 208 255
176 208 255
176 208 255
176 208 255
177 208 255
177 208 255
177 208 255
177 208 255
177 208 255
177 208 255
177 208 255
177 208 255
176 208 255
176 208 255
176 208 255
176 208 255
176 208 255
176 208 255
176 208 255
176 208 255
176 208 255
176 208 255
176 208 255
176 208 255
176 208 255
176 208 255
176 208 255
176 208 255
176 208 255
176 208 255
175 207 255
175 207 255
175 207 255
175 207 255
175 207 255
175 207 255
175 207 255
175 207 255
175 207 255
175 207 255
175 207 255
175 207 255
175 207 255
175 207 255
175 207 255
175 207 255
174 207 255
174 207 255
174 207 255
174 207 255
174 207 255
174 207 255
174 207 255
174 207 255
174 207 255
174 206 255
174 206 255
174 206 255
174 206 255
174 206 255
173 206 255
173 206 255
173 206 255
173 206 255
173 206 255
173 206 255
173 206 255
173 206 255
173 206 255
173 206 255
173 206 255
173 206 255
173 206 255
173 206 255
172 206 255
172 206 255
172 206 255
172 206 255
172 205 255
172 205 255
172 205 255
172 205 255
172 205 255
172 205 255
172 205 255
172 205 255
171 205 255
171 205 255
171 205 255
171 205 255
171 205 255
171 205 255
171 205 255
171 205 255
171 205 255
171 205 255
171 205 255
171 205 255
171 205 255
170 204 255
170 204 255
170 204 255
170 204 255
170 204 255
170 204 255
170 204 255
170 204 255
170 204 255
170 204 255
170 204 255
170 204 255
169 204 255
169 204 255
169 204 255
169 204 255
169 204 255
169 204 255
169 204 255
169 204 255
169 203 255
169 203 255
169 203 255
168 203 255
168 203 255
168 203 255
168 203 255
168 203 255
168 203 255
168 203 255
168 203 255
168 203 255
168 203 255
168 203 255
168 203 255
167 203 255
167 203 255
167 203 255
167 203 255
167 202 255
167 202 255
167 202 255
167 202 255
167 202 255
167 202 255
167 202 255
167 202 255
166 202 255
166 202 255
166 202 255
166 202 255
166 202 255
166 202 255
166 202 255
166 202 255
166 202 255
166 202 255
166 202 255
166 202 255
166 202 255
166 202 255
165 201 255
165 201 255
165 201 255
165 201 255
165 201 255
165 201 255
165 201 255
165 201 255
165 201 255
122 150 190
28 35 46
14 17 22
14 17 22
13 16 21
13 17 22
12 15 20
12 16 21
13 16 21
14 17 23
13 17 22
14 17 22
13 16 22
13 17 22
14 17 22
14 18 23
13 17 22
14 18 23
13 16 21
12 15 20
13 17 22
14 17 22
14 18 23
14 17 22
13 17 22
14 17 22
13 16 21
13 17 22
13 17 22
13 17 21
13 17 22
15 18 23
12 16 20
13 17 21
12 15 20
13 16 21
12 16 20
13 17 22
13 16 21
14 17 23
14 17 22
13 16 21
14 17 22
13 17 21
13 17 22
13 17 22
14 17 22
13 17 21
13 17 22
13 17 22
13 16 21
13 16 21
14 17 22
14 17 23
14 18 23
15 18 23
13 16 21
14 17 22
13 17 22
14 17 22
13 17 22
13 17 22
13 16 21
13 17 22
13 16 22
13 16 21
13 17 22
13 16 20
13 17 22
14 18 24
13 16 21
14 17 23
27 34 44
126 154 196
165 201 255
165 201 255
165 201 255
165 201 255
165 201 255
165 201 255
165 201 255
165 201 255
165 201 255
166 202 255
166 202 255
166 202 255
166 202 255
166 202 255
166 202 255
166 202 255
166 202 255
166 202 255
166 202 255
166 202 255
166 202 255
166 202 255
166 202 255
167 202 255
167 202 255
167 202 255
167 202 255
167 202 255
167 202 255
167 202 255
167 202 255
167 203 255
167 203 255
167 203 255
167 203 255
168 203 255
168 203 255
168 203 255
168 203 255
168 203 255
168 203 255
168 203 255
168 203 255
168 203 255
168 203 255
168 203 255
168 203 255
169 203 255
169 203 255
169 203 255
169 203 255
169 204 255
169 204 255
169 204 255
169 204 255
169 204 255
169 204 255
169 204 255
170 204 255
170 204 255
170 204 255
170 204 255
170 204 255
170 204 255
170 204 255
170 204 255
170 204 255
170 204 255
170 204 255
170 204 255
171 205 255
171 205 255
171 205 255
171 205 255
171 205 255
171 205 255
171 205 255
171 205 255
171 205 255
171 205 255
171 205 255
171 205 255
171 205 255
172 205 255
172 205 255
172 205 255
172 205 255
172 205 255
172 205 255
172 205 255
172 205 255
172 206 255
172 206 255
172 206 255
172 206 255
173 206 255
173 206 255
173 206 255
173 206 255
173 206 255
173 206 255
173 206 255
173 206 255
173 206 255
173 206 255
173 206 255
173 206 255
173 206 255
173 206 255
174 206 255
174 206 255
174 206 255
174 206 255
174 206 255
174 207 255
174 207 255
174 207 255
174 207 255
174 207 255
174 207 255
174 207 255
174 207 255
174 207 255
174 207 255
175 207 255
175 207 255
175 207 255
175 207 255
175 207 255
175 207 255
175 207 255
175 207 255
175 207 255
175 207 255
175 207 255
175 207 255
175 207 255
175 207 255
175 207 255
176 208 255
176 208 255
176 208 255
176 208 255
176 208 255
176 208 255
176 208 255
176 208 255
176 208 255
176 208 255
176 208 255
176 208 255
176 208 255
176 208 255
176 208 255
176 208 255
176 208 255
176 208 255
177 208 255
177 208 255
177 208 255
177 208 255
177 208 255
177 208 255
177 208 255
177 208 255
177 208 255
177 208 255
177 208 255
177 208 255
177 208 255
177 208 255
177 208 255
177 208 255
177 208 255
176 208 255
176 208 255
176 208 255
176 208 255
176 208 255
176 208 255
176 208 255
176 208 255
176 208 255
176 208 255
176 208 255
176 208 255
176 208 255
176 208 255
176 208 255
176 208 255
176 208 255
175 207 255
175 207 255
175 207 255
175 207 255
175 207 255
175 207 255
175 207 255
175 207 255
175 207 255
175 207 255
175 207 255
175 207 255
175 207 255
175 207 255
175 207 255
175 207 255
174 207 255
174 207 255
174 207 255
174 207 255
174 207 255
174 207 255
174 207 255
174 207 255
174 207 255
174 207 255
174 206 255
174 206 255
174 206 255
174 206 255
173 206 255
173 206 255
173 206 255
173 206 255
173 206 255
173 206 255
173 206 255
173 206 255
173 206 255
173 206 255
173 206 255
173 206 255
173 206 255
173 206 255
172 206 255
172 206 255
172 206 255
172 206 255
172 205 255
172 205 255
172 205 255
172 205 255
172 205 255
172 205 255
172 205 255
172 205 255
171 205 255
171 205 255
171 205 255
171 205 255
171 205 255
171 205 255
171 205 255
171 205 255
171 205 255
171 205 255
171 205 255
171 205 255
171 205 255
170 204 255
170 204 255
170 204 255
170 204 255
170 204 255
170 204 255
170 204 255
170 204 255
170 204 255
170 204 255
170 204 255
170 204 255
169 204 255
169 204 255
169 204 255
169 204 255
169 204 255
169 204 255
169 204 255
169 204 255
169 203 255
169 203 255
169 203 255
169 203 255
168 203 255
168 203 255
168 203 255
168 203 255
168 203 255
168 203 255
168 203 255
168 203 255
168 203 255
168 203 255
168 203 255
168 203 255
167 203 255
167 203 255
167 203 255
167 203 255
167 202 255
167 202 255
167 202 255
167 202 255
167 202 255
167 202 255
167 202 255
167 202 255
167 202 255
166 202 255
166 202 255
166 202 255
166 202 255
166 202 255
166 202 255
166 202 255
166 202 255
166 202 255
166 202 255
166 202 255
166 202 255
166 202 255
166 202 255
166 202 255
155 189 239
82 100 127
15 19 25
13 17 22
14 17 23
13 17 22
14 18 23
13 17 22
13 16 21
13 16 21
14 17 22
13 16 21
13 17 22
14 17 22
14 17 22
13 16 21
13 16 20
13 16 21
13 17 22
13 16 21
13 16 21
14 17 22
12 15 20
13 16 21
13 17 22
12 16 20
14 18 23
13 16 21
13 16 20
13 16 22
13 16 21
12 15 20
14 17 22
13 16 20
13 16 22
12 15 20
13 16 21
13 16 21
13 16 20
13 17 22
13 16 20
13 17 21
13 16 21
12 15 20
12 15 20
14 17 22
13 17 22
13 17 22
14 17 23
13 16 21
13 16 21
13 16 22
13 16 21
14 18 23
13 17 22
14 17 22
13 16 20
13 16 21
13 16 21
12 16 20
14 17 22
13 17 22
14 18 23
14 17 23
13 16 21
12 15 20
13 17 22
14 18 23
13 16 21
13 16 21
14 17 23
13 16 21
13 16 22
14 17 23
14 18 23
14 18 23
98 120 152
162 198 251
166 202 255
166 202 255
166 202 255
166 202 255
166 202 255
166 202 255
166 202 255
166 202 255
166 202 255
166 202 255
166 202 255
166 202 255
166 202 255
166 202 255
166 202 255
167 202 255
167 202 255
167 202 255
167 202 255
167 202 255
167 202 255
167 202 255
167 202 255
167 202 255
167 203 255
167 203 255
167 203 255
167 203 255
168 203 255
168 203 255
168 203 255
168 203 255
168 203 255
168 203 255
168 203 255
168 203 255
168 203 255
168 203 255
168 203 255
168 203 255
169 203 255
169 203 255
169 203 255
169 203 255
169 204 255
169 204 255
169 204 255
169 204 255
169 204 255
169 204 255
169 204 255
169 204 255
170 204 255
170 204 255
170 204 255
170 204 255
170 204 255
170 204 255
170 204 255
170 204 255
170 204 255
170 204 255
170 204 255
170 204 255
171 205 255
171 205 255
171 205 255
171 205 255
171 205 255
171 205 255
171 205 255
171 205 255
171 205 255
171 205 255
171 205 255
171 205 255
172 205 255
172 205 255
172 205 255
172 205 255
172 205 255
172 205 255
172 205 255
172 205 255
172 205 255
172 206 255
172 206 255
172 206 255
172 206 255
173 206 255
173 206 255
173 206 255
173 206 255
173 206 255
173 206 255
173 206 255
173 206 255
173 206 255
173 206 255
173 206 255
173 206 255
173 206 255
173 206 255
174 206 255
174 206 255
174 206 255
174 206 255
174 207 255
174 207 255
174 207 255
174 207 255
174 207 255
174 207 255
174 207 255
174 207 255
174 207 255
174 207 255
175 207 255
175 207 255
175 207 255
175 207 255
175 207 255
175 207 255
175 207 255
175 207 255
175 207 255
175 207 255
175 207 255
175 207 255
175 207 255
175 207 255
175 207 255
175 207 255
176 208 255
176 208 255
176 208 255
176 208 255
176 208 255
176 208 255
176 208 255
176 208 255
176 208 255
176 208 255
176 208 255
176 208 255
176 208 255
176 208 255
176 208 255
176 208 255
176 208 255
177 208 255
177 208 255
177 208 255
177 208 255
177 208 255
177 208 255
177 208 255
177 208 255
177 208 255
177 208 255
177 208 255
177 209 255
177 209 255
177 209 255
177 209 255
177 208 255
177 208 255
177 208 255
177 208 255
177 208 255
177 208 255
177 208 255
177 208 255
177 208 255
177 208 255
177 208 255
177 208 255
176 208 255
176 208 255
176 208 255
176 208 255
176 208 255
176 208 255
176 208 255
176 208 255
176 208 255
176 208 255
176 208 255
176 208 255
176 208 255
176 208 255
176 208 255
176 208 255
176 208 255
175 207 255
175 207 255
175 207 255
175 207 255
175 207 255
175 207 255
175 207 255
175 207 255
175 207 255
175 207 255
175 207 255
175 207 255
175 207 255
175 207 255
175 207 255
174 207 255
174 207 255
174 207 255
174 207 255
174 207 255
174 207 255
174 207 255
174 207 255
174 207 255
174 207 255
174 206 255
174 206 255
174 206 255
174 206 255
174 206 255
173 206 255
173 206 255
173 206 255
173 206 255
173 206 255
173 206 255
173 206 255
173 206 255
173 206 255
173 206 255
173 206 255
173 206 255
173 206 255
172 206 255
172 206 255
172 206 255
172 206 255
172 206 255
172 205 255
172 205 255
172 205 255
172 205 255
172 205 255
172 205 255
172 205 255
172 205 255
171 205 255
171 205 255
171 205 255
171 205 255
171 205 255
171 205 255
171 205 255
171 205 255
171 205 255
171 205 255
171 205 255
171 205 255
170 204 255
170 204 255
170 204 255
170 204 255
170 204 255
170 204 255
170 204 255
170 204 255
170 204 255
170 204 255
170 204 255
170 204 255
170 204 255
169 204 255
169 204 255
169 204 255
169 204 255
169 204 255
169 204 255
169 204 255
169 203 255
169 203 255
169 203 255
169 203 255
168 203 255
168 203 255
168 203 255
168 203 255
168 203 255
168 203 255
168 203 255
168 203 255
168 203 255
168 203 255
168 203 255
168 203 255
168 203 255
167 203 255
167 203 255
167 203 255
167 203 255
167 202 255
167 202 255
167 202 255
167 202 255
167 202 255
167 202 255
167 202 255
167 202 255
167 202 255
166 202 255
166 202 255
166 202 255
166 202 255
166 202 255
166 202 255
166 202 255
166 202 255
166 202 255
148 180 228
48 59 76
14 17 23
14 17 23
14 17 23
14 18 23
13 17 22
12 15 20
14 17 23
14 17 22
14 17 22
14 17 22
12 16 20
14 18 23
12 16 20
14 17 22
14 17 23
13 17 22
13 16 21
13 16 21
13 16 21
13 16 20
13 16 20
13 17 22
13 17 22
14 17 23
13 17 22
13 16 21
14 17 22
13 17 22
14 17 22
14 18 23
13 16 20
13 17 22
13 16 20
13 17 21
14 18 23
14 17 22
14 17 22
12 15 20
14 17 22
12 15 20
13 16 21
13 16 21
14 17 22
13 17 21
12 16 20
13 16 22
13 16 21
14 17 22
13 16 20
13 16 21
14 17 23
13 17 22
13 17 22
14 17 21
13 16 20
13 16 20
13 16 21
13 17 22
14 17 22
14 17 22
13 16 21
13 16 21
14 17 22
14 18 23
13 17 22
13 17 22
13 16 21
12 15 19
13 17 21
13 16 21
13 17 22
13 17 23
14 17 22
13 16 22
13 17 22
14 17 23
37 46 59
136 166 211
166 202 255
166 202 255
166 202 255
166 202 255
166 202 255
166 202 255
166 202 255
166 202 255
166 202 255
167 202 255
167 202 255
167 202 255
167 202 255
167 202 255
167 202 255
167 202 255
167 202 255
167 202 255
167 203 255
167 203 255
167 203 255
167 203 255
168 203 255
168 203 255
168 203 255
168 203 255
168 203 255
168 203 255
168 203 255
168 203 255
168 203 255
168 203 255
168 203 255
168 203 255
168 203 255
169 203 255
169 203 255
169 203 255
169 203 255
169 204 255
169 204 255
169 204 255
169 204 255
169 204 255
169 204 255
169 204 255
169 204 255
170 204 255
170 204 255
170 204 255
170 204 255
170 204 255
170 204 255
170 204 255
170 204 255
170 204 255
170 204 255
170 204 255
170 204 255
171 205 255
171 205 255
171 205 255
171 205 255
171 205 255
171 205 255
171 205 255
171 205 255
171 205 255
171 205 255
171 205 255
171 205 255
172 205 255
172 205 255
172 205 255
172 205 255
172 205 255
172 205 255
172 205 255
172 205 255
172 205 255
172 206 255
172 206 255
172 206 255
172 206 255
173 206 255
173 206 255
173 206 255
173 206 255
173 206 255
173 206 255
173 206 255
173 206 255
173 206 255
173 206 255
173 206 255
173 206 255
173 206 255
174 206 255
174 206 255
174 206 255
174 206 255
174 206 255
174 207 255
174 207 255
174 207 255
174 207 255
174 207 255
174 207 255
174 207 255
174 207 255
174 207 255
174 207 255
175 207 255
175 207 255
175 207 255
175 207 255
175 207 255
175 207 255
175 207 255
175 207 255
175 207 255
175 207 255
175 207 255
175 207 255
175 207 255
175 207 255
175 207 255
176 208 255
176 208 255
176 208 255
176 208 255
176 208 255
176 208 255
176 208 255
176 208 255
176 208 255
176 208 255
176 208 255
176 208 255
176 208 255
176 208 255
176 208 255
176 208 255
176 208 255
177 208 255
177 208 255
177 208 255
177 208 255
177 208 255
177 208 255
177 208 255
177 208 255
177 208 255
177 208 255
177 208 255
177 208 255
177 209 255
177 209 255
177 209 255
177 209 255
178 209 255
178 209 255
177 209 255
177 209 255
177 209 255
177 209 255
177 209 255
177 209 255
177 209 255
177 208 255
177 208 255
177 208 255
177 208 255
177 208 255
177 208 255
177 208 255
177 208 255
177 208 255
177 208 255
177 208 255
177 208 255
176 208 255
176 208 255
176 208 255
176 208 255
176 208 255
176 208 255
176 208 255
176 208 255
176 208 255
176 208 255
176 208 255
176 208 255
176 208 255
176 208 255
176 208 255
176 208 255
176 208 255
175 207 255
175 207 255
175 207 255
175 207 255
175 207 255
175 207 255
175 207 255
175 207 255
175 207 255
175 207 255
175 207 255
175 207 255
175 207 255
175 207 255
175 207 255
174 207 255
174 207 255
174 207 255
174 207 255
174 207 255
174 207 255
174 207 255
174 207 255
174 207 255
174 206 255
174 206 255
174 206 255
174 206 255
174 206 255
173 206 255
173 206 255
173 206 255
173 206 255
173 206 255
173 206 255
173 206 255
173 206 255
173 206 255
173 206 255
173 206 255
173 206 255
173 206 255
173 206 255
172 206 255
172 206 255
172 206 255
172 206 255
172 205 255
172 205 255
172 205 255
172 205 255
172 205 255
172 205 255
172 205 255
172 205 255
171 205 255
171 205 255
171 205 255
171 205 255
171 205 255
171 205 255
171 205 255
171 205 255
171 205 255
171 205 255
171 205 255
171 205 255
171 205 255
170 204 255
170 204 255
170 204 255
170 204 255
170 204 255
170 204 255
170 204 255
170 204 255
170 204 255
170 204 255
170 204 255
170 204 255
169 204 255
169 204 255
169 204 255
169 204 255
169 204 255
169 204 255
169 204 255
169 204 255
169 203 255
169 203 255
169 203 255
169 203 255
168 203 255
168 203 255
168 203 255
168 203 255
168 203 255
168 203 255
168 203 255
168 203 255
168 203 255
168 203 255
168 203 255
168 203 255
168 203 255
167 203 255
167 203 255
167 203 255
167 203 255
167 203 255
167 202 255
167 202 255
167 202 255
167 202 255
167 202 255
167 202 255
167 202 255
167 202 255
167 202 255
166 202 255
166 202 255
130 157 199
28 35 45
14 17 23
14 18 23
13 17 22
13 17 22
13 17 22
13 17 22
13 17 22
13 17 21
13 16 21
13 16 21
13 17 22
12 15 20
13 17 21
12 16 21
13 17 22
14 17 22
13 16 21
13 16 21
13 16 21
13 17 22
14 17 22
12 15 20
12 15 20
13 16 21
14 17 22
13 16 20
13 16 20
13 16 21
13 16 20
13 16 20
12 15 19
13 17 22
14 17 22
13 16 21
14 17 22
13 16 21
12 15 19
13 16 21
13 17 21
13 16 21
13 17 22
14 18 23
13 16 21
12 15 20
13 16 21
13 16 21
13 17 21
12 15 19
14 17 22
13 17 22
13 16 21
13 16 21
13 16 21
13 15 20
13 16 21
14 17 22
13 16 21
13 16 21
12 15 20
14 18 23
13 16 21
13 16 21
13 16 21
13 16 21
13 16 21
13 16 21
13 17 22
14 17 23
12 15 20
13 16 21
14 17 23
14 17 22
13 17 22
13 17 22
13 17 22
13 17 22
14 17 23
13 17 21
28 34 43
116 141 178
166 202 255
166 202 255
167 202 255
167 202 255
167 202 255
167 202 255
167 202 255
167 202 255
167 202 255
167 202 255
167 202 255
167 203 255
167 203 255
167 203 255
167 203 255
167 203 255
168 203 255
168 203 255
168 203 255
168 203 255
168 203 255
168 203 255
168 203 255
168 203 255
168 203 255
168 203 255
168 203 255
168 203 255
168 203 255
169 203 255
169 203 255
169 203 255
169 203 255
169 204 255
169 204 255
169 204 255
169 204 255
169 204 255
169 204 255
169 204 255
169 204 255
170 204 255
170 204 255
170 204 255
170 204 255
170 204 255
170 204 255
170 204 255
170 204 255
170 204 255
170 204 255
170 204 255
170 204 255
171 205 255
171 205 255
171 205 255
171 205 255
171 205 255
171 205 255
171 205 255
171 205 255
171 205 255
171 205 255
171 205 255
171 205 255
171 205 255
172 205 255
172 205 255
172 205 255
172 205 255
172 205 255
172 205 255
172 205 255
172 205 255
172 206 255
172 206 255
172 206 255
172 206 255
173 206 255
173 206 255
173 206 255
173 206 255
173 206 255
173 206 255
173 206 255
173 206 255
173 206 255
173 206 255
173 206 255
173 206 255
173 206 255
173 206 255
174 206 255
174 206 255
174 206 255
174 206 255
174 207 255
174 207 255
174 207 255
174 207 255
174 207 255
174 207 255
174 207 255
174 207 255
174 207 255
174 207 255
175 207 255
175 207 255
175 207 255
175 207 255
175 207 255
175 207 255
175 207 255
175 207 255
175 207 255
175 207 255
175 207 255
175 207 255
175 207 255
175 207 255
175 207 255
176 208 255
176 208 255
176 208 255
176 208 255
176 208 255
176 208 255
176 208 255
176 208 255
176 208 255
176 208 255
176 208 255
176 208 255
176 208 255
176 208 255
176 208 255
176 208 255
176 208 255
177 208 255
177 208 255
177 208 255
177 208 255
177 208 255
177 208 255
177 208 255
177 208 255
177 208 255
177 208 255
177 208 255
177 208 255
177 209 255
177 209 255
177 209 255
177 209 255
177 209 255
177 209 255
177 209 255
178 209 255
178 209 255
178 209 255
178 209 255
178 209 255
178 209 255
178 209 255
178 209 255
178 209 255
177 209 255
177 209 255
177 209 255
177 209 255
177 209 255
177 209 255
177 209 255
177 208 255
177 208 255
177 208 255
177 208 255
177 208 255
177 208 255
177 208 255
177 208 255
177 208 255
177 208 255
177 208 255
177 208 255
176 208 255
176 208 255
176 208 255
176 208 255
176 208 255
176 208 255
176 208 255
176 208 255
176 208 255
176 208 255
176 208 255
176 208 255
176 208 255
176 208 255
176 208 255
176 208 255
175 207 255
175 207 255
175 207 255
175 207 255
175 207 255
175 207 255
175 207 255
175 207 255
175 207 255
175 207 255
175 207 255
175 207 255
175 207 255
175 207 255
175 207 255
174 207 255
174 207 255
174 207 255
174 207 255
174 207 255
174 207 255
174 207 255
174 207 255
174 207 255
174 207 255
174 206 255
174 206 255
174 206 255
174 206 255
174 206 255
173 206 255
173 206 255
173 206 255
173 206 255
173 206 255
173 206 255
173 206 255
173 206 255
173 206 255
173 206 255
173 206 255
173 206 255
173 206 255
172 206 255
172 206 255
172 206 255
172 206 255
172 205 255
172 205 255
172 205 255
172 205 255
172 205 255
172 205 255
172 205 255
172 205 255
172 205 255
171 205 255
171 205 255
171 205 255
171 205 255
171 205 255
171 205 255
171 205 255
171 205 255
171 205 255
171 205 255
171 205 255
171 205 255
170 204 255
170 204 255
170 204 255
170 204 255
170 204 255
170 204 255
170 204 255
170 204 255
170 204 255
170 204 255
170 204 255
170 204 255
170 204 255
169 204 255
169 204 255
169 204 255
169 204 255
169 204 255
169 204 255
169 204 255
169 204 255
169 203 255
169 203 255
169 203 255
169 203 255
168 203 255
168 203 255
168 203 255
168 203 255
168 203 255
168 203 255
168 203 255
168 203 255
168 203 255
168 203 255
168 203 255
168 203 255
168 203 255
168 203 255
167 203 255
167 203 255
167 203 255
167 203 255
167 203 255
167 202 255
167 202 255
167 202 255
167 202 255
92 111 141
14 17 22
14 17 23
13 17 22
14 17 23
14 17 22
12 16 20
13 16 21
13 16 21
12 15 20
12 15 20
13 16 21
13 16 21
13 17 22
13 16 20
14 17 23
12 16 20
14 17 22
13 17 22
13 16 21
13 16 21
12 15 20
13 17 22
14 17 22
13 17 21
14 17 22
13 16 21
13 16 20
13 16 20
13 16 20
12 16 20
13 16 20
12 15 20
14 17 22
12 15 20
13 17 22
13 17 22
14 18 23
13 16 21
13 16 20
13 16 21
12 15 20
13 16 20
13 16 20
12 15 20
14 17 23
13 16 21
14 17 22
12 15 19
12 15 20
13 17 22
14 17 22
14 17 23
12 15 20
13 16 21
12 15 19
12 15 20
12 15 20
13 16 21
13 16 21
13 16 21
13 16 21
13 16 21
13 16 21
13 16 21
13 16 20
14 17 22
13 16 20
13 17 22
13 16 20
14 17 23
14 17 22
13 16 21
12 15 20
13 16 21
14 17 22
13 17 21
14 17 22
14 17 23
14 18 23
13 17 22
14 17 23
15 18 24
99 121 153
167 202 255
167 202 255
167 202 255
167 202 255
167 203 255
167 203 255
167 203 255
167 203 255
167 203 255
168 203 255
168 203 255
168 203 255
168 203 255
168 203 255
168 203 255
168 203 255
168 203 255
168 203 255
168 203 255
168 203 255
168 203 255
168 203 255
168 203 255
169 203 255
169 203 255
169 203 255
169 203 255
169 204 255
169 204 255
169 204 255
169 204 255
169 204 255
169 204 255
169 204 255
169 204 255
170 204 255
170 204 255
170 204 255
170 204 255
170 204 255
170 204 255
170 204 255
170 204 255
170 204 255
170 204 255
170 204 255
170 204 255
170 204 255
171 205 255
171 205 255
171 205 255
171 205 255
171 205 255
171 205 255
171 205 255
171 205 255
171 205 255
171 205 255
171 205 255
171 205 255
172 205 255
172 205 255
172 205 255
172 205 255
172 205 255
172 205 255
172 205 255
172 205 255
172 205 255
172 206 255
172 206 255
172 206 255
172 206 255
173 206 255
173 206 255
173 206 255
173 206 255
173 206 255
173 206 255
173 206 255
173 206 255
173 206 255
173 206 255
173 206 255
173 206 255
173 206 255
174 206 255
174 206 255
174 206 255
174 206 255
174 206 255
174 207 255
174 207 255
174 207 255
174 207 255
174 207 255
174 207 255
174 207 255
174 207 255
174 207 255
175 207 255
175 207 255
175 207 255
175 207 255
175 207 255
175 207 255
175 207 255
175 207 255
175 207 255
175 207 255
175 207 255
175 207 255
175 207 255
175 207 255
175 207 255
176 208 255
176 208 255
176 208 255
176 208 255
176 208 255
176 208 255
176 208 255
176 208 255
176 208 255
176 208 255
176 208 255
176 208 255
176 208 255
176 208 255
176 208 255
176 208 255
176 208 255
177 208 255
177 208 255
177 208 255
177 208 255
177 208 255
177 208 255
177 208 255
177 208 255
177 208 255
177 208 255
177 208 255
177 208 255
177 209 255
177 209 255
177 209 255
177 209 255
177 209 255
177 209 255
178 209 255
178 209 255
178 209 255
178 209 255
178 209 255
178 209 255
178 209 255
178 209 255
178 209 255
178 209 255
178 209 255
178 209 255
178 209 255
178 209 255
178 209 255
178 209 255
178 209 255
178 209 255
178 209 255
178 209 255
178 209 255
177 209 255
177 209 255
177 209 255
177 209 255
177 209 255
177 209 255
177 208 255
177 208 255
177 208 255
177 208 255
177 208 255
177 208 255
177 208 255
177 208 255
177 208 255
177 208 255
177 208 255
177 208 255
176 208 255
176 208 255
176 208 255
176 208 255
176 208 255
176 208 255
176 208 255
176 208 255
176 208 255
176 208 255
176 208 255
176 208 255
176 208 255
176 208 255
176 208 255
176 208 255
175 207 255
175 207 255
175 207 255
175 207 255
175 207 255
175 207 255
175 207 255
175 207 255
175 207 255
175 207 255
175 207 255
175 207 255
175 207 255
175 207 255
175 207 255
174 207 255
174 207 255
174 207 255
174 207 255
174 207 255
174 207 255
174 207 255
174 207 255
174 207 255
174 207 255
174 206 255
174 206 255
174 206 255
174 206 255
173 206 255
173 206 255
173 206 255
173 206 255
173 206 255
173 206 255
173 206 255
173 206 255
173 206 255
173 206 255
173 206 255
173 206 255
173 206 255
173 206 255
172 206 255
172 206 255
172 206 255
172 206 255
172 205 255
172 205 255
172 205 255
172 205 255
172 205 255
172 205 255
172 205 255
172 205 255
171 205 255
171 205 255
171 205 255
171 205 255
171 205 255
171 205 255
171 205 255
171 205 255
171 205 255
171 205 255
171 205 255
171 205 255
171 205 255
170 204 255
170 204 255
170 204 255
170 204 255
170 204 255
170 204 255
170 204 255
170 204 255
170 204 255
170 204 255
170 204 255
170 204 255
169 204 255
169 204 255
169 204 255
169 204 255
169 204 255
169 204 255
169 204 255
169 204 255
169 204 255
169 203 255
169 203 255
169 203 255
169 203 255
169 203 255
168 203 255
168 203 255
168 203 255
168 203 255
168 203 255
168 203 255
168 203 255
168 203 255
168 203 255
168 203 255
168 203 255
168 203 255
168 203 255
168 203 255
167 203 255
167 203 255
65 79 101
15 18 23
13 17 22
13 16 21
14 17 22
14 17 22
13 16 20
14 17 22
13 16 20
14 17 23
13 16 20
13 16 21
13 16 21
12 16 20
12 15 20
13 16 21
14 17 23
13 16 21
12 15 20
13 16 20
13 16 21
13 16 20
12 15 20
13 16 21
13 16 21
13 17 21
13 16 21
13 16 20
13 16 21
14 17 22
13 16 21
13 16 21
12 15 20
12 16 20
13 16 21
13 16 21
12 16 20
13 16 21
12 16 20
12 15 20
14 17 22
13 17 21
12 15 19
13 16 21
12 15 20
12 16 20
12 15 19
12 15 20
13 16 20
13 16 20
13 16 20
13 16 21
13 16 20
13 16 20
13 16 21
13 16 21
13 16 21
12 16 20
12 15 19
12 15 20
13 16 21
13 16 22
13 16 22
13 16 21
13 16 21
12 15 20
12 15 19
13 16 21
13 16 21
12 15 20
13 16 21
13 16 21
13 16 21
14 17 22
14 17 23
13 17 22
13 16 21
13 16 21
13 16 21
12 16 20
14 17 22
13 17 22
13 17 22
14 18 23
13 16 21
63 76 97
167 203 255
167 203 255
168 203 255
168 203 255
168 203 255
168 203 255
168 203 255
168 203 255
168 203 255
168 203 255
168 203 255
168 203 255
168 203 255
168 203 255
168 203 255
168 203 255
169 203 255
169 203 255
169 203 255
169 203 255
169 203 255
169 204 255
169 204 255
169 204 255
169 204 255
169 204 255
169 204 255
169 204 255
169 204 255
170 204 255
170 204 255
170 204 255
170 204 255
170 204 255
170 204 255
170 204 255
170 204 255
170 204 255
170 204 255
170 204 255
170 204 255
170 204 255
171 205 255
171 205 255
171 205 255
171 205 255
171 205 255
171 205 255
171 205 255
171 205 255
171 205 255
171 205 255
171 205 255
171 205 255
171 205 255
172 205 255
172 205 255
172 205 255
172 205 255
172 205 255
172 205 255
172 205 255
172 205 255
172 206 255
172 206 255
172 206 255
172 206 255
172 206 255
173 206 255
173 206 255
173 206 255
173 206 255
173 206 255
173 206 255
173 206 255
173 206 255
173 206 255
173 206 255
173 206 255
173 206 255
173 206 255
174 206 255
174 206 255
174 206 255
174 206 255
174 207 255
174 207 255
174 207 255
174 207 255
174 207 255
174 207 255
174 207 255
174 207 255
174 207 255
174 207 255
175 207 255
175 207 255
175 207 255
175 207 255
175 207 255
175 207 255
175 207 255
175 207 255
175 207 255
175 207 255
175 207 255
175 207 255
175 207 255
175 207 255
175 207 255
176 208 255
176 208 255
176 208 255
176 208 255
176 208 255
176 208 255
176 208 255
176 208 255
176 208 255
176 208 255
176 208 255
176 208 255
176 208 255
176 208 255
176 208 255
176 208 255
176 208 255
177 208 255
177 208 255
177 208 255
177 208 255
177 208 255
177 208 255
177 208 255
177 208 255
177 208 255
177 208 255
177 208 255
177 209 255
177 209 255
177 209 255
177 209 255
177 209 255
177 209 255
177 209 255
178 209 255
178 209 255
178 209 255
178 209 255
178 209 255
178 209 255
178 209 255
178 209 255
178 209 255
178 209 255
178 209 255
178 209 255
178 209 255
178 209 255
178 209 255
178 209 255
178 209 255
178 209 255
178 209 255
178 209 255
178 209 255
178 209 255
178 209 255
178 209 255
178 209 255
178 209 255
178 209 255
178 209 255
178 209 255
178 209 255
177 209 255
177 209 255
177 209 255
177 209 255
177 209 255
177 209 255
177 208 255
177 208 255
177 208 255
177 208 255
177 208 255
177 208 255
177 208 255
177 208 255
177 208 255
177 208 255
177 208 255
177 208 255
176 208 255
176 208 255
176 208 255
176 208 255
176 208 255
176 208 255
176 208 255
176 208 255
176 208 255
176 208 255
176 208 255
176 208 255
176 208 255
176 208 255
176 208 255
176 208 255
175 207 255
175 207 255
175 207 255
175 207 255
175 207 255
175 207 255
175 207 255
175 207 255
175 207 255
175 207 255
175 207 255
175 207 255
175 207 255
175 207 255
175 207 255
174 207 255
174 207 255
174 207 255
174 207 255
174 207 255
174 207 255
174 207 255
174 207 255
174 207 255
174 206 255
174 206 255
174 206 255
174 206 255
174 206 255
173 206 255
173 206 255
173 206 255
173 206 255
173 206 255
173 206 255
173 206 255
173 206 255
173 206 255
173 206 255
173 206 255
173 206 255
173 206 255
172 206 255
172 206 255
172 206 255
172 206 255
172 206 255
172 205 255
172 205 255
172 205 255
172 205 255
172 205 255
172 205 255
172 205 255
172 205 255
171 205 255
171 205 255
171 205 255
171 205 255
171 205 255
171 205 255
171 205 255
171 205 255
171 205 255
171 205 255
171 205 255
171 205 255
171 205 255
170 204 255
170 204 255
170 204 255
170 204 255
170 204 255
170 204 255
170 204 255
170 204 255
170 204 255
170 204 255
170 204 255
170 204 255
170 204 255
169 204 255
169 204 255
169 204 255
169 204 255
169 204 255
169 204 255
169 204 255
169 204 255
169 204 255
169 203 255
169 203 255
169 203 255
169 203 255
168 203 255
168 203 255
168 203 255
168 203 255
168 203 255
168 203 255
168 203 255
168 203 255
168 203 255
163 197 248
73 89 113
13 17 22
13 16 21
13 17 22
13 16 21
14 18 23
13 16 21
14 17 23
13 17 22
13 16 21
14 17 23
13 16 21
13 16 21
14 17 22
13 16 21
13 16 21
14 17 22
13 16 21
14 17 23
12 15 20
13 17 21
14 17 22
14 17 22
13 16 21
13 17 22
14 17 22
12 15 20
12 16 20
12 16 20
13 16 20
13 16 21
11 14 18
14 17 22
13 16 21
13 16 21
13 17 22
13 16 21
12 15 20
13 16 21
14 17 22
13 16 21
12 15 20
12 14 19
13 17 22
13 16 21
12 15 20
13 16 21
13 16 20
13 16 20
13 16 21
13 17 22
12 15 20
14 17 22
12 15 20
13 17 22
13 16 20
12 16 20
12 15 20
11 14 18
13 16 20
14 17 23
14 17 22
13 17 22
14 17 22
13 16 21
13 16 21
12 15 19
13 16 20
13 16 21
12 15 20
13 16 21
13 16 21
14 17 22
12 15 20
13 16 21
12 15 20
11 14 18
13 16 21
13 17 22
12 16 21
12 15 20
14 17 22
13 17 22
13 16 21
14 17 23
14 17 22
14 17 22
53 65 82
160 194 244
168 203 255
168 203 255
168 203 255
168 203 255
168 203 255
168 203 255
168 203 255
168 203 255
169 203 255
169 203 255
169 203 255
169 203 255
169 203 255
169 204 255
169 204 255
169 204 255
169 204 255
169 204 255
169 204 255
169 204 255
169 204 255
169 204 255
170 204 255
170 204 255
170 204 255
170 204 255
170 204 255
170 204 255
170 204 255
170 204 255
170 204 255
170 204 255
170 204 255
170 204 255
170 204 255
171 205 255
171 205 255
171 205 255
171 205 255
171 205 255
171 205 255
171 205 255
171 205 255
171 205 255
171 205 255
171 205 255
171 205 255
171 205 255
172 205 255
172 205 255
172 205 255
172 205 255
172 205 255
172 205 255
172 205 255
172 205 255
172 206 255
172 206 255
172 206 255
172 206 255
172 206 255
173 206 255
173 206 255
173 206 255
173 206 255
173 206 255
173 206 255
173 206 255
173 206 255
173 206 255
173 206 255
173 206 255
173 206 255
173 206 255
174 206 255
174 206 255
174 206 255
174 206 255
174 206 255
174 207 255
174 207 255
174 207 255
174 207 255
174 207 255
174 207 255
174 207 255
174 207 255
174 207 255
175 207 255
175 207 255
175 207 255
175 207 255
175 207 255
175 207 255
175 207 255
175 207 255
175 207 255
175 207 255
175 207 255
175 207 255
175 207 255
175 207 255
175 207 255
176 208 255
176 208 255
176 208 255
176 208 255
176 208 255
176 208 255
176 208 255
176 208 255
176 208 255
176 208 255
176 208 255
176 208 255
176 208 255
176 208 255
176 208 255
176 208 255
176 208 255
177 208 255
177 208 255
177 208 255
177 208 255
177 208 255
177 208 255
177 208 255
177 208 255
177 208 255
177 208 255
177 208 255
177 209 255
177 209 255
177 209 255
177 209 255
177 209 255
177 209 255
177 209 255
178 209 255
178 209 255
178 209 255
178 209 255
178 209 255
178 209 255
178 209 255
178 209 255
178 209 255
178 209 255
178 209 255
178 209 255
178 209 255
178 209 255
178 209 255
178 209 255
178 209 255
179 209 255
179 209 255
179 209 255
178 209 255
178 209 255
178 209 255
178 209 255
178 209 255
178 209 255
178 209 255
178 209 255
178 209 255
178 209 255
178 209 255
178 209 255
178 209 255
178 209 255
178 209 255
178 209 255
178 209 255
178 209 255
178 209 255
178 209 255
177 209 255
177 209 255
177 209 255
177 209 255
177 209 255
177 209 255
177 208 255
177 208 255
177 208 255
177 208 255
177 208 255
177 208 255
177 208 255
177 208 255
177 208 255
177 208 255
177 208 255
177 208 255
176 208 255
176 208 255
176 208 255
176 208 255
176 208 255
176 208 255
176 208 255
176 208 255
176 208 255
176 208 255
176 208 255
176 208 255
176 208 255
176 208 255
176 208 255
176 208 255
175 207 255
175 207 255
175 207 255
175 207 255
175 207 255
175 207 255
175 207 255
175 207 255
175 207 255
175 207 255
175 207 255
175 207 255
175 207 255
175 207 255
175 207 255
174 207 255
174 207 255
174 207 255
174 207 255
174 207 255
174 207 255
174 207 255
174 207 255
174 207 255
174 206 255
174 206 255
174 206 255
174 206 255
174 206 255
173 206 255
173 206 255
173 206 255
173 206 255
173 206 255
173 206 255
173 206 255
173 206 255
173 206 255
173 206 255
173 206 255
173 206 255
173 206 255
172 206 255
172 206 255
172 206 255
172 206 255
172 205 255
172 205 255
172 205 255
172 205 255
172 205 255
172 205 255
172 205 255
172 205 255
172 205 255
171 205 255
171 205 255
171 205 255
171 205 255
171 205 255
171 205 255
171 205 255
171 205 255
171 205 255
171 205 255
171 205 255
171 205 255
171 205 255
170 204 255
170 204 255
170 204 255
170 204 255
170 204 255
170 204 255
170 204 255
170 204 255
170 204 255
170 204 255
170 204 255
170 204 255
170 204 255
169 204 255
169 204 255
169 204 255
169 204 255
169 204 255
169 204 255
169 204 255
169 204 255
169 204 255
169 204 255
169 203 255
169 203 255
169 203 255
169 203 255
169 203 255
168 203 255
156 188 237
58 71 90
14 18 23
13 17 22
13 16 21
12 16 20
14 18 23
13 16 21
13 17 22
12 15 20
14 17 22
12 16 20
13 16 21
13 16 21
13 17 21
13 17 22
13 16 20
12 15 20
13 16 20
13 16 21
12 15 20
12 15 20
12 15 20
14 17 21
12 15 20
13 17 22
13 16 21
14 17 22
14 17 22
13 16 20
13 16 20
13 16 20
13 16 21
12 15 20
13 16 21
13 16 20
13 16 21
13 16 21
13 16 21
13 16 21
13 16 21
12 15 20
13 16 20
13 16 21
12 15 20
12 15 20
13 16 20
13 16 21
13 16 20
13 16 21
13 16 20
13 16 20
12 15 19
12 16 21
13 16 21
13 16 20
12 15 19
14 17 22
13 17 22
13 16 21
13 16 20
13 16 20
12 15 20
12 15 20
13 17 21
13 16 21
13 16 21
13 17 22
13 16 21
13 16 21
13 16 21
13 16 20
12 14 19
13 16 21
13 16 21
13 16 21
14 17 23
13 17 22
13 16 21
12 15 19
14 17 22
13 16 21
13 16 21
12 15 20
13 16 20
13 16 21
13 17 22
14 18 23
14 18 23
14 17 22
54 66 84
161 194 244
168 203 255
169 203 255
169 203 255
169 203 255
169 203 255
169 203 255
169 204 255
169 204 255
169 204 255
169 204 255
169 204 255
169 204 255
169 204 255
169 204 255
169 204 255
169 204 255
170 204 255
170 204 255
170 204 255
170 204 255
170 204 255
170 204 255
170 204 255
170 204 255
170 204 255
170 204 255
170 204 255
170 204 255
170 204 255
171 205 255
171 205 255
171 205 255
171 205 255
171 205 255
171 205 255
171 205 255
171 205 255
171 205 255
171 205 255
171 205 255
171 205 255
171 205 255
172 205 255
172 205 255
172 205 255
172 205 255
172 205 255
172 205 255
172 205 255
172 205 255
172 206 255
172 206 255
172 206 255
172 206 255
172 206 255
173 206 255
173 206 255
173 206 255
173 206 255
173 206 255
173 206 255
173 206 255
173 206 255
173 206 255
173 206 255
173 206 255
173 206 255
173 206 255
173 206 255
174 206 255
174 206 255
174 206 255
174 206 255
174 207 255
174 207 255
174 207 255
174 207 255
174 207 255
174 207 255
174 207 255
174 207 255
174 207 255
175 207 255
175 207 255
175 207 255
175 207 255
175 207 255
175 207 255
175 207 255
175 207 255
175 207 255
175 207 255
175 207 255
175 207 255
175 207 255
175 207 255
175 207 255
176 208 255
176 208 255
176 208 255
176 208 255
176 208 255
176 208 255
176 208 255
176 208 255
176 208 255
176 208 255
176 208 255
176 208 255
176 208 255
176 208 255
176 208 255
176 208 255
177 208 255
177 208 255
177 208 255
177 208 255
177 208 255
177 208 255
177 208 255
177 208 255
177 208 255
177 208 255
177 208 255
177 208 255
177 209 255
177 209 255
177 209 255
177 209 255
177 209 255
177 209 255
178 209 255
178 209 255
178 209 255
178 209 255
178 209 255
178 209 255
178 209 255
178 209 255
178 209 255
178 209 255
178 209 255
178 209 255
178 209 255
178 209 255
178 209 255
178 209 255
178 209 255
178 209 255
178 209 255
178 209 255
179 209 255
179 209 255
179 209 255
179 210 255
179 210 255
179 209 255
179 209 255
179 209 255
179 209 255
179 209 255
179 209 255
179 209 255
178 209 255
178 209 255
178 209 255
178 209 255
178 209 255
178 209 255
178 209 255
178 209 255
178 209 255
178 209 255
178 209 255
178 209 255
178 209 255
178 209 255
178 209 255
178 209 255
178 209 255
178 209 255
178 209 255
177 209 255
177 209 255
177 209 255
177 209 255
177 209 255
177 209 255
177 209 255
177 208 255
177 208 255
177 208 255
177 208 255
177 208 255
177 208 255
177 208 255
177 208 255
177 208 255
177 208 255
177 208 255
176 208 255
176 208 255
176 208 255
176 208 255
176 208 255
176 208 255
176 208 255
176 208 255
176 208 255
176 208 255
176 208 255
176 208 255
176 208 255
176 208 255
176 208 255
176 208 255
175 207 255
175 207 255
175 207 255
175 207 255
175 207 255
175 207 255
175 207 255
175 207 255
175 207 255
175 207 255
175 207 255
175 207 255
175 207 255
175 207 255
175 207 255
174 207 255
174 207 255
174 207 255
174 207 255
174 207 255
174 207 255
174 207 255
174 207 255
174 207 255
174 206 255
174 206 255
174 206 255
174 206 255
173 206 255
173 206 255
173 206 255
173 206 255
173 206 255
173 206 255
173 206 255
173 206 255
173 206 255
173 206 255
173 206 255
173 206 255
173 206 255
173 206 255
172 206 255
172 206 255
172 206 255
172 206 255
172 205 255
172 205 255
172 205 255
172 205 255
172 205 255
172 205 255
172 205 255
172 205 255
172 205 255
171 205 255
171 205 255
171 205 255
171 205 255
171 205 255
171 205 255
171 205 255
171 205 255
171 205 255
171 205 255
171 205 255
171 205 255
171 205 255
170 204 255
170 204 255
170 204 255
170 204 255
170 204 255
170 204 255
170 204 255
170 204 255
170 204 255
170 204 255
170 204 255
170 204 255
170 204 255
170 204 255
169 204 255
169 204 255
169 204 255
169 204 255
169 204 255
169 204 255
169 204 255
169 204 255
169 204 255
161 194 244
43 52 66
12 15 20
14 17 22
13 17 22
12 15 20
12 15 20
14 18 23
13 17 22
13 17 21
14 17 21
13 16 21
12 15 20
13 16 21
13 16 21
13 16 21
13 16 21
13 16 20
13 16 20
13 17 21
12 15 20
12 16 20
13 16 21
12 15 19
13 16 21
13 16 21
14 17 22
13 16 21
13 16 21
13 16 20
14 17 22
12 15 20
12 15 20
13 16 21
13 16 21
13 17 21
13 16 21
13 16 20
12 14 19
12 16 20
13 16 20
13 16 20
12 15 20
14 17 22
12 15 19
12 15 20
13 16 21
12 15 19
13 16 21
12 15 20
13 16 21
13 16 21
13 17 22
13 16 20
12 15 20
13 16 21
12 16 20
13 16 21
11 14 18
13 16 20
13 16 21
13 16 20
13 17 21
12 15 19
12 15 19
12 15 19
12 16 20
13 16 21
12 15 20
13 16 21
12 15 20
13 16 20
13 16 21
13 17 22
13 16 21
13 16 21
14 17 22
13 16 21
12 15 19
14 18 23
14 17 21
12 16 20
14 17 23
12 15 20
13 17 21
14 17 22
12 16 20
13 16 21
13 16 20
13 17 22
13 17 22
14 17 23
38 46 58
162 196 246
169 204 255
169 204 255
169 204 255
169 204 255
169 204 255
169 204 255
169 204 255
169 204 255
169 204 255
170 204 255
170 204 255
170 204 255
170 204 255
170 204 255
170 204 255
170 204 255
170 204 255
170 204 255
170 204 255
170 204 255
170 204 255
170 204 255
170 204 255
171 205 255
171 205 255
171 205 255
171 205 255
171 205 255
171 205 255
171 205 255
171 205 255
171 205 255
171 205 255
171 205 255
171 205 255
171 205 255
172 205 255
172 205 255
172 205 255
172 205 255
172 205 255
172 205 255
172 205 255
172 205 255
172 205 255
172 206 255
172 206 255
172 206 255
172 206 255
173 206 255
173 206 255
173 206 255
173 206 255
173 206 255
173 206 255
173 206 255
173 206 255
173 206 255
173 206 255
173 206 255
173 206 255
173 206 255
174 206 255
174 206 255
174 206 255
174 206 255
174 206 255
174 207 255
174 207 255
174 207 255
174 207 255
174 207 255
174 207 255
174 207 255
174 207 255
174 207 255
175 207 255
175 207 255
175 207 255
175 207 255
175 207 255
175 207 255
175 207 255
175 207 255
175 207 255
175 207 255
175 207 255
175 207 255
175 207 255
175 207 255
175 207 255
176 208 255
176 208 255
176 208 255
176 208 255
176 208 255
176 208 255
176 208 255
176 208 255
176 208 255
176 208 255
176 208 255
176 208 255
176 208 255
176 208 255
176 208 255
176 208 255
177 208 255
177 208 255
177 208 255
177 208 255
177 208 255
177 208 255
177 208 255
177 208 255
177 208 255
177 208 255
177 208 255
177 209 255
177 209 255
177 209 255
177 209 255
177 209 255
177 209 255
177 209 255
178 209 255
178 209 255
178 209 255
178 209 255
178 209 255
178 209 255
178 209 255
178 209 255
178 209 255
178 209 255
178 209 255
178 209 255
178 209 255
178 209 255
178 209 255
178 209 255
178 209 255
178 209 255
178 209 255
179 209 255
179 209 255
179 209 255
179 209 255
179 209 255
179 209 255
179 209 255
179 210 255
179 210 255
179 210 255
179 210 255
179 210 255
179 210 255
179 210 255
179 210 255
179 210 255
179 210 255
179 209 255
179 209 255
179 209 255
179 209 255
179 209 255
179 209 255
179 209 255
178 209 255
178 209 255
178 209 255
178 209 255
178 209 255
178 209 255
178 209 255
178 209 255
178 209 255
178 209 255
178 209 255
178 209 255
178 209 255
178 209 255
178 209 255
178 209 255
178 209 255
178 209 255
178 209 255
177 209 255
177 209 255
177 209 255
177 209 255
177 209 255
177 209 255
177 208 255
177 208 255
177 208 255
177 208 255
177 208 255
177 208 255
177 208 255
177 208 255
177 208 255
177 208 255
177 208 255
176 208 255
176 208 255
176 208 255
176 208 255
176 208 255
176 208 255
176 208 255
176 208 255
176 208 255
176 208 255
176 208 255
176 208 255
176 208 255
176 208 255
176 208 255
176 208 255
175 207 255
175 207 255
175 207 255
175 207 255
175 207 255
175 207 255
175 207 255
175 207 255
175 207 255
175 207 255
175 207 255
175 207 255
175 207 255
175 207 255
175 207 255
174 207 255
174 207 255
174 207 255
174 207 255
174 207 255
174 207 255
174 207 255
174 207 255
174 207 255
174 206 255
174 206 255
174 206 255
174 206 255
173 206 255
173 206 255
173 206 255
173 206 255
173 206 255
173 206 255
173 206 255
173 206 255
173 206 255
173 206 255
173 206 255
173 206 255
173 206 255
173 206 255
172 206 255
172 206 255
172 206 255
172 206 255
172 205 255
172 205 255
172 205 255
172 205 255
172 205 255
172 205 255
172 205 255
172 205 255
172 205 255
171 205 255
171 205 255
171 205 255
171 205 255
171 205 255
171 205 255
171 205 255
171 205 255
171 205 255
171 205 255
171 205 255
171 205 255
171 205 255
171 205 255
170 204 255
170 204 255
170 204 255
170 204 255
170 204 255
170 204 255
170 204 255
170 204 255
170 204 255
170 204 255
170 204 255
170 204 255
170 204 255
170 204 255
169 204 255
169 204 255
163 196 246
49 60 76
12 15 20
14 18 23
13 17 21
13 16 21
13 16 22
13 16 21
13 16 21
13 16 20
13 16 21
13 17 22
13 16 21
13 16 21
13 17 22
12 15 20
13 16 20
13 16 20
11 14 18
11 14 18
12 15 20
12 16 20
13 16 20
14 17 22
12 15 20
14 18 23
12 15 19
13 16 21
13 16 20
13 16 21
12 15 20
13 17 21
12 15 20
13 16 21
12 15 20
13 16 21
12 15 20
12 15 20
14 17 22
12 15 20
14 17 22
12 16 20
12 15 20
13 16 20
13 16 20
12 15 20
14 17 22
12 15 20
13 16 20
14 17 22
14 17 22
14 17 22
12 15 19
12 15 19
12 15 20
12 15 19
12 15 19
12 16 20
12 15 19
13 16 21
12 15 20
14 17 22
14 17 22
13 16 20
13 16 21
12 15 20
14 17 23
13 16 21
13 16 20
12 15 20
12 15 20
12 15 20
12 15 20
12 15 20
13 16 20
13 16 20
12 15 20
13 16 21
12 15 20
12 15 20
13 16 21
13 16 20
12 15 20
13 17 22
12 16 20
13 17 22
12 15 20
13 15 20
13 16 21
14 17 22
13 17 21
13 16 21
12 16 21
14 17 22
42 51 65
159 191 239
169 204 255
169 204 255
170 204 255
170 204 255
170 204 255
170 204 255
170 204 255
170 204 255
170 204 255
170 204 255
170 204 255
170 204 255
170 204 255
170 204 255
170 204 255
170 204 255
171 205 255
171 205 255
171 205 255
171 205 255
171 205 255
171 205 255
171 205 255
171 205 255
171 205 255
171 205 255
171 205 255
171 205 255
171 205 255
171 205 255
172 205 255
172 205 255
172 205 255
172 205 255
172 205 255
172 205 255
172 205 255
172 205 255
172 205 255
172 206 255
172 206 255
172 206 255
172 206 255
173 206 255
173 206 255
173 206 255
173 206 255
173 206 255
173 206 255
173 206 255
173 206 255
173 206 255
173 206 255
173 206 255
173 206 255
173 206 255
173 206 255
174 206 255
174 206 255
174 206 255
174 206 255
174 207 255
174 207 255
174 207 255
174 207 255
174 207 255
174 207 255
174 207 255
174 207 255
174 207 255
175 207 255
175 207 255
175 207 255
175 207 255
175 207 255
175 207 255
175 207 255
175 207 255
175 207 255
175 207 255
175 207 255
175 207 255
175 207 255
175 207 255
175 207 255
175 207 255
176 208 255
176 208 255
176 208 255
176 208 255
176 208 255
176 208 255
176 208 255
176 208 255
176 208 255
176 208 255
176 208 255
176 208 255
176 208 255
176 208 255
176 208 255
177 208 255
177 208 255
177 208 255
177 208 255
177 208 255
177 208 255
177 208 255
177 208 255
177 208 255
177 208 255
177 208 255
177 209 255
177 209 255
177 209 255
177 209 255
177 209 255
177 209 255
178 209 255
178 209 255
178 209 255
178 209 255
178 209 255
178 209 255
178 209 255
178 209 255
178 209 255
178 209 255
178 209 255
178 209 255
178 209 255
178 209 255
178 209 255
178 209 255
178 209 255
178 209 255
178 209 255
179 209 255
179 209 255
179 209 255
179 209 255
179 209 255
179 209 255
179 209 255
179 210 255
179 210 255
179 210 255
179 210 255
179 210 255
179 210 255
179 210 255
179 210 255
179 210 255
179 210 255
179 210 255
179 210 255
179 210 255
179 210 255
179 210 255
179 210 255
179 210 255
179 210 255
179 210 255
179 210 255
179 210 255
179 209 255
179 209 255
179 209 255
179 209 255
179 209 255
179 209 255
179 209 255
178 209 255
178 209 255
178 209 255
178 209 255
178 209 255
178 209 255
178 209 255
178 209 255
178 209 255
178 209 255
178 209 255
178 209 255
178 209 255
178 209 255
178 209 255
178 209 255
178 209 255
178 209 255
178 209 255
177 209 255
177 209 255
177 209 255
177 209 255
177 209 255
177 209 255
177 208 255
177 208 255
177 208 255
177 208 255
177 208 255
177 208 255
177 208 255
177 208 255
177 208 255
177 208 255
177 208 255
176 208 255
176 208 255
176 208 255
176 208 255
176 208 255
176 208 255
176 208 255
176 208 255
176 208 255
176 208 255
176 208 255
176 208 255
176 208 255
176 208 255
176 208 255
176 208 255
175 207 255
175 207 255
175 207 255
175 207 255
175 207 255
175 207 255
175 207 255
175 207 255
175 207 255
175 207 255
175 207 255
175 207 255
175 207 255
175 207 255
175 207 255
174 207 255
174 207 255
174 207 255
174 207 255
174 207 255
174 207 255
174 207 255
174 207 255
174 207 255
174 206 255
174 206 255
174 206 255
174 206 255
173 206 255
173 206 255
173 206 255
173 206 255
173 206 255
173 206 255
173 206 255
173 206 255
173 206 255
173 206 255
173 206 255
173 206 255
173 206 255
173 206 255
172 206 255
172 206 255
172 206 255
172 206 255
172 205 255
172 205 255
172 205 255
172 205 255
172 205 255
172 205 255
172 205 255
172 205 255
172 205 255
172 205 255
171 205 255
171 205 255
171 205 255
171 205 255
171 205 255
171 205 255
171 205 255
171 205 255
171 205 255
171 205 255
171 205 255
171 205 255
171 205 255
171 205 255
170 204 255
170 204 255
170 204 255
170 204 255
170 204 255
170 204 255
170 204 255
170 204 255
170 204 255
168 202 253
63 76 96
14 17 22
13 17 22
13 16 20
14 17 22
13 16 20
13 16 21
13 17 22
13 16 20
12 15 19
13 16 21
14 17 22
12 15 20
14 17 22
13 16 20
13 16 20
12 15 20
12 16 20
13 16 21
13 16 20
13 16 21
13 16 21
11 14 18
12 15 19
13 16 21
13 17 21
12 15 20
14 17 22
13 16 21
12 15 20
13 16 20
14 17 22
12 15 20
12 15 20
13 16 20
12 16 20
13 15 20
13 16 21
11 14 18
13 16 21
13 17 21
12 16 20
13 15 20
12 15 20
13 16 20
12 15 19
14 17 22
12 15 19
12 15 19
13 16 20
11 14 19
12 14 18
13 16 21
12 15 20
12 15 19
13 16 21
13 16 21
13 16 20
13 16 21
13 16 21
12 14 19
13 16 20
12 15 20
13 16 20
12 15 19
12 15 20
11 14 18
13 16 21
13 16 20
14 17 22
13 16 21
13 16 20
13 16 20
13 16 21
12 15 19
13 16 21
13 17 21
13 16 20
12 15 20
12 15 20
13 17 21
14 17 22
12 15 20
13 16 21
12 15 19
13 16 21
13 16 21
12 15 19
13 17 22
13 16 20
13 16 20
13 17 21
13 16 21
14 17 22
13 17 22
40 48 61
165 199 249
170 204 255
170 204 255
170 204 255
170 204 255
170 204 255
170 204 255
170 204 255
170 204 255
170 204 255
171 205 255
171 205 255
171 205 255
171 205 255
171 205 255
171 205 255
171 205 255
171 205 255
171 205 255
171 205 255
171 205 255
171 205 255
171 205 255
171 205 255
172 205 255
172 205 255
172 205 255
172 205 255
172 205 255
172 205 255
172 205 255
172 205 255
172 205 255
172 205 255
172 206 255
172 206 255
172 206 255
172 206 255
173 206 255
173 206 255
173 206 255
173 206 255
173 206 255
173 206 255
173 206 255
173 206 255
173 206 255
173 206 255
173 206 255
173 206 255
173 206 255
174 206 255
174 206 255
174 206 255
174 206 255
174 206 255
174 207 255
174 207 255
174 207 255
174 207 255
174 207 255
174 207 255
174 207 255
174 207 255
174 207 255
175 207 255
175 207 255
175 207 255
175 207 255
175 207 255
175 207 255
175 207 255
175 207 255
175 207 255
175 207 255
175 207 255
175 207 255
175 207 255
175 207 255
175 207 255
176 208 255
176 208 255
176 208 255
176 208 255
176 208 255
176 208 255
176 208 255
176 208 255
176 208 255
176 208 255
176 208 255
176 208 255
176 208 255
176 208 255
176 208 255
176 208 255
177 208 255
177 208 255
177 208 255
177 208 255
177 208 255
177 208 255
177 208 255
177 208 255
177 208 255
177 208 255
177 208 255
177 209 255
177 209 255
177 209 255
177 209 255
177 209 255
177 209 255
178 209 255
178 209 255
178 209 255
178 209 255
178 209 255
178 209 255
178 209 255
178 209 255
178 209 255
178 209 255
178 209 255
178 209 255
178 209 255
178 209 255
178 209 255
178 209 255
178 209 255
178 209 255
178 209 255
179 209 255
179 209 255
179 209 255
179 209 255
179 209 255
179 209 255
179 209 255
179 210 255
179 210 255
179 210 255
179 210 255
179 210 255
179 210 255
179 210 255
179 210 255
179 210 255
179 210 255
179 210 255
179 210 255
179 210 255
180 210 255
180 210 255
180 210 255
180 210 255
180 210 255
179 210 255
179 210 255
179 210 255
179 210 255
179 210 255
179 210 255
179 210 255
179 210 255
179 210 255
179 210 255
179 210 255
179 210 255
179 210 255
179 210 255
179 209 255
179 209 255
179 209 255
179 209 255
179 209 255
179 209 255
179 209 255
178 209 255
178 209 255
178 209 255
178 209 255
178 209 255
178 209 255
178 209 255
178 209 255
178 209 255
178 209 255
178 209 255
178 209 255
178 209 255
178 209 255
178 209 255
178 209 255
178 209 255
178 209 255
177 209 255
177 209 255
177 209 255
177 209 255
177 209 255
177 209 255
177 208 255
177 208 255
177 208 255
177 208 255
177 208 255
177 208 255
177 208 255
177 208 255
177 208 255
177 208 255
177 208 255
177 208 255
176 208 255
176 208 255
176 208 255
176 208 255
176 208 255
176 208 255
176 208 255
176 208 255
176 208 255
176 208 255
176 208 255
176 208 255
176 208 255
176 208 255
176 208 255
175 207 255
175 207 255
175 207 255
175 207 255
175 207 255
175 207 255
175 207 255
175 207 255
175 207 255
175 207 255
175 207 255
175 207 255
175 207 255
175 207 255
175 207 255
174 207 255
174 207 255
174 207 255
174 207 255
174 207 255
174 207 255
174 207 255
174 207 255
174 207 255
174 206 255
174 206 255
174 206 255
174 206 255
174 206 255
173 206 255
173 206 255
173 206 255
173 206 255
173 206 255
173 206 255
173 206 255
173 206 255
173 206 255
173 206 255
173 206 255
173 206 255
173 206 255
173 206 255
172 206 255
172 206 255
172 206 255
172 206 255
172 205 255
172 205 255
172 205 255
172 205 255
172 205 255
172 205 255
172 205 255
172 205 255
172 205 255
171 205 255
171 205 255
171 205 255
171 205 255
171 205 255
171 205 255
171 205 255
171 205 255
171 205 255
171 205 255
171 205 255
171 205 255
171 205 255
171 205 255
171 205 255
170 204 255
170 204 255
169 203 253
68 82 103
12 15 20
13 16 20
13 16 21
13 16 21
14 17 22
13 16 21
13 16 21
13 16 21
13 16 20
12 15 20
12 15 20
13 16 20
12 15 20
12 15 19
12 15 20
12 15 19
12 15 20
13 16 21
13 16 21
12 15 19
12 15 20
13 16 21
12 15 19
11 14 18
12 15 19
12 14 19
12 15 19
12 15 20
13 16 20
12 15 19
11 13 17
13 16 20
11 14 18
12 15 20
12 15 19
12 15 20
14 17 22
13 16 21
12 14 18
11 14 18
13 16 20
11 14 18
12 15 20
12 15 19
14 17 22
12 16 20
12 15 20
13 16 21
13 16 21
13 16 21
13 16 20
14 17 21
12 15 20
12 15 20
12 15 20
11 14 18
14 17 22
12 14 19
14 17 21
13 16 21
13 16 21
13 16 21
13 16 21
12 15 19
13 16 21
13 16 21
13 16 20
12 15 19
13 16 21
13 16 21
12 15 19
12 15 19
12 15 19
12 15 20
12 15 20
13 16 21
12 15 20
13 16 20
13 16 20
14 17 22
13 16 21
12 15 20
12 15 19
13 16 21
13 16 20
13 16 20
13 16 20
13 16 21
13 16 21
12 15 20
14 17 22
14 17 22
14 17 22
12 15 19
14 17 22
13 17 22
74 90 112
169 203 253
170 204 255
170 204 255
171 205 255
171 205 255
171 205 255
171 205 255
171 205 255
171 205 255
171 205 255
171 205 255
171 205 255
171 205 255
171 205 255
171 205 255
171 205 255
171 205 255
171 205 255
172 205 255
172 205 255
172 205 255
172 205 255
172 205 255
172 205 255
172 205 255
172 205 255
172 205 255
172 206 255
172 206 255
172 206 255
172 206 255
173 206 255
173 206 255
173 206 255
173 206 255
173 206 255
173 206 255
173 206 255
173 206 255
173 206 255
173 206 255
173 206 255
173 206 255
173 206 255
173 206 255
174 206 255
174 206 255
174 206 255
174 206 255
174 206 255
174 207 255
174 207 255
174 207 255
174 207 255
174 207 255
174 207 255
174 207 255
174 207 255
174 207 255
175 207 255
175 207 255
175 207 255
175 207 255
175 207 255
175 207 255
175 207 255
175 207 255
175 207 255
175 207 255
175 207 255
175 207 255
175 207 255
175 207 255
175 207 255
176 208 255
176 208 255
176 208 255
176 208 255
176 208 255
176 208 255
176 208 255
176 208 255
176 208 255
176 208 255
176 208 255
176 208 255
176 208 255
176 208 255
176 208 255
177 208 255
177 208 255
177 208 255
177 208 255
177 208 255
177 208 255
177 208 255
177 208 255
177 208 255
177 208 255
177 208 255
177 208 255
177 209 255
177 209 255
177 209 255
177 209 255
177 209 255
178 209 255
178 209 255
178 209 255
178 209 255
178 209 255
178 209 255
178 209 255
178 209 255
178 209 255
178 209 255
178 209 255
178 209 255
178 209 255
178 209 255
178 209 255
178 209 255
178 209 255
178 209 255
178 209 255
179 209 255
179 209 255
179 209 255
179 209 255
179 209 255
179 209 255
179 209 255
179 210 255
179 210 255
179 210 255
179 210 255
179 210 255
179 210 255
179 210 255
179 210 255
179 210 255
179 210 255
179 210 255
179 210 255
179 210 255
179 210 255
180 210 255
180 210 255
180 210 255
180 210 255
180 210 255
180 210 255
180 210 255
180 210 255
180 210 255
180 210 255
180 210 255
180 210 255
180 210 255
180 210 255
180 210 255
180 210 255
179 210 255
179 210 255
179 210 255
179 210 255
179 210 255
179 210 255
179 210 255
179 210 255
179 210 255
179 210 255
179 210 255
179 210 255
179 210 255
179 210 255
179 209 255
179 209 255
179 209 255
179 209 255
179 209 255
179 209 255
178 209 255
178 209 255
178 209 255
178 209 255
178 209 255
178 209 255
178 209 255
178 209 255
178 209 255
178 209 255
178 209 255
178 209 255
178 209 255
178 209 255
178 209 255
178 209 255
178 209 255
178 209 255
178 209 255
177 209 255
177 209 255
177 209 255
177 209 255
177 209 255
177 209 255
177 208 255
177 208 255
177 208 255
177 208 255
177 208 255
177 208 255
177 208 255
177 208 255
177 208 255
177 208 255
177 208 255
176 208 255
176 208 255
176 208 255
176 208 255
176 208 255
176 208 255
176 208 255
176 208 255
176 208 255
176 208 255
176 208 255
176 208 255
176 208 255
176 208 255
176 208 255
175 207 255
175 207 255
175 207 255
175 207 255
175 207 255
175 207 255
175 207 255
175 207 255
175 207 255
175 207 255
175 207 255
175 207 255
175 207 255
175 207 255
175 207 255
174 207 255
174 207 255
174 207 255
174 207 255
174 207 255
174 207 255
174 207 255
174 207 255
174 207 255
174 206 255
174 206 255
174 206 255
174 206 255
174 206 255
173 206 255
173 206 255
173 206 255
173 206 255
173 206 255
173 206 255
173 206 255
173 206 255
173 206 255
173 206 255
173 206 255
173 206 255
173 206 255
173 206 255
172 206 255
172 206 255
172 206 255
172 206 255
172 206 255
172 205 255
172 205 255
172 205 255
172 205 255
172 205 255
172 205 255
172 205 255
172 205 255
172 205 255
172 205 255
171 205 255
171 205 255
171 205 255
171 205 255
171 205 255
171 205 255
171 205 255
171 205 255
171 205 255
171 205 255
78 94 118
13 17 22
12 15 20
12 15 19
12 16 21
13 16 21
13 16 21
13 16 20
13 16 20
13 16 20
13 16 21
13 17 21
12 16 20
13 16 20
13 16 21
13 16 20
14 17 22
14 17 22
12 15 20
13 16 20
13 16 21
13 16 20
13 16 21
12 15 19
12 15 20
12 15 20
12 15 19
12 15 19
12 15 19
13 16 21
13 16 20
13 16 20
13 16 20
12 15 19
12 15 19
13 16 21
12 15 20
12 14 19
11 14 18
12 14 19
12 15 19
12 15 19
12 15 20
13 16 21
12 15 19
13 16 20
12 15 19
12 16 20
13 16 20
13 16 21
12 15 19
14 17 22
12 15 20
13 16 21
13 16 20
12 15 20
12 16 20
13 16 20
12 15 20
12 15 19
13 17 21
13 16 20
12 15 20
13 17 22
12 15 20
13 16 20
13 16 20
14 17 22
13 16 20
11 14 19
12 15 20
14 17 21
13 16 21
14 17 22
13 16 20
13 15 20
12 15 19
13 16 21
13 16 20
12 15 20
13 16 21
11 14 18
12 15 20
13 16 21
12 15 19
12 15 20
13 16 20
12 15 20
13 16 21
12 15 20
12 15 20
14 17 22
12 15 20
13 16 21
13 16 21
13 16 21
12 15 19
13 16 21
13 17 21
87 105 132
171 205 255
171 205 255
171 205 255
171 205 255
171 205 255
171 205 255
171 205 255
171 205 255
171 205 255
171 205 255
172 205 255
172 205 255
172 205 255
172 205 255
172 205 255
172 205 255
172 205 255
172 205 255
172 205 255
172 205 255
172 206 255
172 206 255
172 206 255
172 206 255
172 206 255
173 206 255
173 206 255
173 206 255
173 206 255
173 206 255
173 206 255
173 206 255
173 206 255
173 206 255
173 206 255
173 206 255
173 206 255
173 206 255
173 206 255
174 206 255
174 206 255
174 206 255
174 206 255
174 207 255
174 207 255
174 207 255
174 207 255
174 207 255
174 207 255
174 207 255
174 207 255
174 207 255
174 207 255
175 207 255
175 207 255
175 207 255
175 207 255
175 207 255
175 207 255
175 207 255
175 207 255
175 207 255
175 207 255
175 207 255
175 207 255
175 207 255
175 207 255
176 208 255
176 208 255
176 208 255
176 208 255
176 208 255
176 208 255
176 208 255
176 208 255
176 208 255
176 208 255
176 208 255
176 208 255
176 208 255
176 208 255
176 208 255
176 208 255
177 208 255
177 208 255
177 208 255
177 208 255
177 208 255
177 208 255
177 208 255
177 208 255
177 208 255
177 208 255
177 208 255
177 209 255
177 209 255
177 209 255
177 209 255
177 209 255
177 209 255
178 209 255
178 209 255
178 209 255
178 209 255
178 209 255
178 209 255
178 209 255
178 209 255
178 209 255
178 209 255
178 209 255
178 209 255
178 209 255
178 209 255
178 209 255
178 209 255
178 209 255
178 209 255
179 209 255
179 209 255
179 209 255
179 209 255
179 209 255
179 209 255
179 209 255
179 210 255
179 210 255
179 210 255
179 210 255
179 210 255
179 210 255
179 210 255
179 210 255
179 210 255
179 210 255
179 210 255
179 210 255
179 210 255
179 210 255
180 210 255
180 210 255
180 210 255
180 210 255
180 210 255
180 210 255
180 210 255
180 210 255
180 210 255
180 210 255
180 210 255
180 210 255
180 210 255
180 210 255
180 210 255
180 210 255
180 210 255
180 210 255
180 210 255
180 210 255
180 210 255
180 210 255
180 210 255
180 210 255
180 210 255
180 210 255
180 210 255
180 210 255
179 210 255
179 210 255
179 210 255
179 210 255
179 210 255
179 210 255
179 210 255
179 210 255
179 210 255
179 210 255
179 210 255
179 210 255
179 210 255
179 210 255
179 209 255
179 209 255
179 209 255
179 209 255
179 209 255
179 209 255
178 209 255
178 209 255
178 209 255
178 209 255
178 209 255
178 209 255
178 209 255
178 209 255
178 209 255
178 209 255
178 209 255
178 209 255
178 209 255
178 209 255
178 209 255
178 209 255
178 209 255
178 209 255
178 209 255
177 209 255
177 209 255
177 209 255
177 209 255
177 209 255
177 209 255
177 208 255
177 208 255
177 208 255
177 208 255
177 208 255
177 208 255
177 208 255
177 208 255
177 208 255
177 208 255
177 208 255
176 208 255
176 208 255
176 208 255
176 208 255
176 208 255
176 208 255
176 208 255
176 208 255
176 208 255
176 208 255
176 208 255
176 208 255
176 208 255
176 208 255
176 208 255
175 207 255
175 207 255
175 207 255
175 207 255
175 207 255
175 207 255
175 207 255
175 207 255
175 207 255
175 207 255
175 207 255
175 207 255
175 207 255
175 207 255
175 207 255
174 207 255
174 207 255
174 207 255
174 207 255
174 207 255
174 207 255
174 207 255
174 207 255
174 207 255
174 206 255
174 206 255
174 206 255
174 206 255
174 206 255
173 206 255
173 206 255
173 206 255
173 206 255
173 206 255
173 206 255
173 206 255
173 206 255
173 206 255
173 206 255
173 206 255
173 206 255
173 206 255
173 206 255
172 206 255
172 206 255
172 206 255
172 206 255
172 206 255
172 205 255
172 205 255
172 205 255
172 205 255
172 205 255
172 205 255
172 205 255
172 205 255
172 205 255
172 205 255
171 205 255
171 205 255
171 205 255
111 133 166
13 16 21
14 17 22
13 16 20
13 17 21
12 16 20
12 15 20
11 14 19
11 14 18
13 16 20
13 16 20
12 15 20
14 17 22
12 15 20
13 16 21
12 15 20
12 15 20
12 15 19
11 14 19
13 16 21
13 16 20
13 16 20
13 16 21
11 13 17
11 14 18
12 14 19
13 16 20
12 15 19
11 14 18
12 15 19
12 15 20
12 15 20
13 17 22
12 15 19
12 15 19
12 15 20
13 17 22
11 14 18
13 16 20
13 16 20
12 15 20
13 17 21
12 15 19
12 15 20
12 15 20
12 15 20
12 15 20
13 16 21
13 17 22
12 15 20
13 16 20
13 16 20
13 16 21
13 16 20
13 16 20
13 16 20
12 15 20
14 17 22
13 16 21
13 16 21
12 14 18
13 17 21
12 15 19
13 16 21
12 16 20
12 15 19
12 15 20
13 16 20
13 16 20
11 14 18
13 16 20
12 15 19
12 15 20
13 16 21
12 15 19
13 16 21
12 15 20
13 16 21
12 15 20
13 16 20
12 16 20
12 15 20
12 15 20
12 15 20
13 16 20
13 16 21
13 16 21
12 16 20
13 16 21
12 15 20
13 16 20
11 14 19
12 15 20
13 16 20
14 17 22
12 15 19
13 16 21
12 15 19
12 15 20
12 15 20
13 16 20
108 129 161
171 205 255
171 205 255
172 205 255
172 205 255
172 205 255
172 205 255
172 205 255
172 205 255
172 205 255
172 205 255
172 205 255
172 205 255
172 205 255
172 206 255
172 206 255
172 206 255
172 206 255
172 206 255
173 206 255
173 206 255
173 206 255
173 206 255
173 206 255
173 206 255
173 206 255
173 206 255
173 206 255
173 206 255
173 206 255
173 206 255
173 206 255
173 206 255
174 206 255
174 206 255
174 206 255
174 206 255
174 206 255
174 207 255
174 207 255
174 207 255
174 207 255
174 207 255
174 207 255
174 207 255
174 207 255
174 207 255
175 207 255
175 207 255
175 207 255
175 207 255
175 207 255
175 207 255
175 207 255
175 207 255
175 207 255
175 207 255
175 207 255
175 207 255
175 207 255
175 207 255
175 207 255
176 208 255
176 208 255
176 208 255
176 208 255
176 208 255
176 208 255
176 208 255
176 208 255
176 208 255
176 208 255
176 208 255
176 208 255
176 208 255
176 208 255
176 208 255
176 208 255
177 208 255
177 208 255
177 208 255
177 208 255
177 208 255
177 208 255
177 208 255
177 208 255
177 208 255
177 208 255
177 209 255
177 209 255
177 209 255
177 209 255
177 209 255
177 209 255
178 209 255
178 209 255
178 209 255
178 209 255
178 209 255
178 209 255
178 209 255
178 209 255
178 209 255
178 209 255
178 209 255
178 209 255
178 209 255
178 209 255
178 209 255
178 209 255
178 209 255
178 209 255
179 209 255
179 209 255
179 209 255
179 209 255
179 209 255
179 209 255
179 209 255
179 210 255
179 210 255
179 210 255
179 210 255
179 210 255
179 210 255
179 210 255
179 210 255
179 210 255
179 210 255
179 210 255
179 210 255
179 210 255
179 210 255
180 210 255
180 210 255
180 210 255
180 210 255
180 210 255
180 210 255
180 210 255
180 210 255
180 210 255
180 210 255
180 210 255
180 210 255
180 210 255
180 210 255
180 210 255
180 210 255
180 210 255
180 210 255
180 210 255
180 210 255
180 210 255
180 210 255
180 210 255
180 210 255
180 210 255
180 210 255
180 210 255
180 210 255
180 210 255
180 210 255
180 210 255
180 210 255
180 210 255
180 210 255
180 210 255
180 210 255
180 210 255
180 210 255
180 210 255
180 210 255
179 210 255
179 210 255
179 210 255
179 210 255
179 210 255
179 210 255
179 210 255
179 210 255
179 210 255
179 210 255
179 210 255
179 210 255
179 210 255
179 210 255
179 209 255
179 209 255
179 209 255
179 209 255
179 209 255
179 209 255
178 209 255
178 209 255
178 209 255
178 209 255
178 209 255
178 209 255
178 209 255
178 209 255
178 209 255
178 209 255
178 209 255
178 209 255
178 209 255
178 209 255
178 209 255
178 209 255
178 209 255
178 209 255
177 209 255
177 209 255
177 209 255
177 209 255
177 209 255
177 209 255
177 208 255
177 208 255
177 208 255
177 208 255
177 208 255
177 208 255
177 208 255
177 208 255
177 208 255
177 208 255
177 208 255
176 208 255
176 208 255
176 208 255
176 208 255
176 208 255
176 208 255
176 208 255
176 208 255
176 208 255
176 208 255
176 208 255
176 208 255
176 208 255
176 208 255
176 208 255
175 207 255
175 207 255
175 207 255
175 207 255
175 207 255
175 207 255
175 207 255
175 207 255
175 207 255
175 207 255
175 207 255
175 207 255
175 207 255
175 207 255
175 207 255
174 207 255
174 207 255
174 207 255
174 207 255
174 207 255
174 207 255
174 207 255
174 207 255
174 207 255
174 207 255
174 206 255
174 206 255
174 206 255
174 206 255
174 206 255
173 206 255
173 206 255
173 206 255
173 206 255
173 206 255
173 206 255
173 206 255
173 206 255
173 206 255
173 206 255
173 206 255
173 206 255
173 206 255
173 206 255
172 206 255
172 206 255
172 206 255
172 206 255
172 206 255
172 205 255
172 205 255
172 205 255
172 205 255
172 205 255
172 205 255
137 164 204
21 26 33
13 16 21
14 17 22
13 16 21
12 15 20
13 17 22
13 16 21
13 16 20
13 16 20
12 14 19
13 16 21
13 16 21
12 15 20
13 16 21
13 16 21
13 16 21
12 16 20
10 13 17
11 13 17
12 15 20
13 16 21
12 15 20
13 16 20
12 15 20
12 15 19
12 15 20
12 15 20
13 16 20
12 15 20
14 17 22
13 16 21
12 15 19
12 15 20
14 17 21
12 15 20
13 16 20
12 15 20
11 14 17
11 14 18
13 16 20
13 16 20
12 15 19
11 14 18
12 15 19
12 15 19
12 15 19
12 15 19
12 15 19
12 15 19
11 14 18
12 15 19
11 14 18
13 16 20
11 14 18
12 15 19
12 15 20
12 15 19
12 15 19
14 17 21
12 15 20
13 15 20
12 16 20
12 15 19
12 15 19
12 15 20
12 16 20
13 16 21
13 16 20
11 14 18
12 16 20
12 15 19
12 15 19
12 15 20
12 15 19
13 16 20
13 16 21
12 15 20
13 16 20
12 15 20
12 15 19
12 15 19
12 15 20
12 15 20
13 16 20
12 15 20
13 16 20
13 16 20
12 15 20
13 16 21
13 16 21
13 17 22
13 16 21
13 17 21
13 16 20
13 16 21
13 16 21
13 16 21
13 16 21
13 17 21
13 16 20
13 17 22
19 24 31
126 150 187
172 205 255
172 205 255
172 205 255
172 205 255
172 205 255
172 206 255
172 206 255
172 206 255
172 206 255
172 206 255
172 206 255
173 206 255
173 206 255
173 206 255
173 206 255
173 206 255
173 206 255
173 206 255
173 206 255
173 206 255
173 206 255
173 206 255
173 206 255
173 206 255
173 206 255
174 206 255
174 206 255
174 206 255
174 206 255
174 206 255
174 207 255
174 207 255
174 207 255
174 207 255
174 207 255
174 207 255
174 207 255
174 207 255
174 207 255
174 207 255
175 207 255
175 207 255
175 207 255
175 207 255
175 207 255
175 207 255
175 207 255
175 207 255
175 207 255
175 207 255
175 207 255
175 207 255
175 207 255
175 207 255
175 207 255
176 208 255
176 208 255
176 208 255
176 208 255
176 208 255
176 208 255
176 208 255
176 208 255
176 208 255
176 208 255
176 208 255
176 208 255
176 208 255
176 208 255
176 208 255
177 208 255
177 208 255
177 208 255
177 208 255
177 208 255
177 208 255
177 208 255
177 208 255
177 208 255
177 208 255
177 208 255
177 209 255
177 209 255
177 209 255
177 209 255
177 209 255
178 209 255
178 209 255
178 209 255
178 209 255
178 209 255
178 209 255
178 209 255
178 209 255
178 209 255
178 209 255
178 209 255
178 209 255
178 209 255
178 209 255
178 209 255
178 209 255
178 209 255
178 209 255
178 209 255
179 209 255
179 209 255
179 209 255
179 209 255
179 209 255
179 209 255
179 210 255
179 210 255
179 210 255
179 210 255
179 210 255
179 210 255
179 210 255
179 210 255
179 210 255
179 210 255
179 210 255
179 210 255
179 210 255
179 210 255
180 210 255
180 210 255
180 210 255
180 210 255
180 210 255
180 210 255
180 210 255
180 210 255
180 210 255
180 210 255
180 210 255
180 210 255
180 210 255
180 210 255
180 210 255
180 210 255
180 210 255
180 210 255
180 210 255
180 210 255
180 210 255
180 210 255
180 210 255
181 211 255
181 211 255
181 211 255
181 211 255
181 211 255
181 211 255
181 211 255
180 210 255
180 210 255
180 210 255
180 210 255
180 210 255
180 210 255
180 210 255
180 210 255
180 210 255
180 210 255
180 210 255
180 210 255
180 210 255
180 210 255
180 210 255
180 210 255
180 210 255
180 210 255
180 210 255
180 210 255
180 210 255
180 210 255
180 210 255
179 210 255
179 210 255
179 210 255
179 210 255
179 210 255
179 210 255
179 210 255
179 210 255
179 210 255
179 210 255
179 210 255
179 210 255
179 210 255
179 209 255
179 209 255
179 209 255
179 209 255
179 209 255
179 209 255
178 209 255
178 209 255
178 209 255
178 209 255
178 209 255
178 209 255
178 209 255
178 209 255
178 209 255
178 209 255
178 209 255
178 209 255
178 209 255
178 209 255
178 209 255
178 209 255
178 209 255
178 209 255
178 209 255
177 209 255
177 209 255
177 209 255
177 209 255
177 209 255
177 208 255
177 208 255
177 208 255
177 208 255
177 208 255
177 208 255
177 208 255
177 208 255
177 208 255
177 208 255
177 208 255
176 208 255
176 208 255
176 208 255
176 208 255
176 208 255
176 208 255
176 208 255
176 208 255
176 208 255
176 208 255
176 208 255
176 208 255
176 208 255
176 208 255
176 208 255
175 207 255
175 207 255
175 207 255
175 207 255
175 207 255
175 207 255
175 207 255
175 207 255
175 207 255
175 207 255
175 207 255
175 207 255
175 207 255
175 207 255
175 207 255
174 207 255
174 207 255
174 207 255
174 207 255
174 207 255
174 207 255
174 207 255
174 207 255
174 207 255
174 207 255
174 206 255
174 206 255
174 206 255
174 206 255
174 206 255
173 206 255
173 206 255
173 206 255
173 206 255
173 206 255
173 206 255
173 206 255
173 206 255
173 206 255
173 206 255
173 206 255
173 206 255
173 206 255
173 206 255
173 206 255
173 206 255
172 206 255
172 206 255
161 192 239
24 30 38
12 15 19
12 15 20
12 15 19
13 16 20
12 15 20
13 17 22
13 16 20
12 16 20
13 16 21
12 16 20
13 17 22
11 14 19
12 15 20
13 16 20
13 16 21
13 16 20
12 15 20
11 14 17
13 16 20
12 15 20
12 15 20
13 16 21
12 15 20
12 15 19
13 16 21
13 17 21
12 16 20
12 15 19
13 16 21
12 14 18
12 15 19
12 16 20
12 15 20
12 15 19
12 14 18
12 15 20
13 16 20
12 15 19
14 17 22
12 15 20
12 15 19
12 15 19
11 14 18
12 15 19
13 15 20
12 15 19
12 15 20
12 14 19
12 14 19
12 14 19
12 14 18
12 15 19
13 16 20
12 15 19
13 16 21
13 16 21
12 15 19
12 15 19
12 15 20
12 15 20
11 13 17
13 16 20
12 15 20
12 15 19
13 16 20
11 14 18
11 14 18
12 15 20
13 16 21
11 13 17
13 16 20
12 15 19
13 16 21
13 16 21
12 15 20
11 13 17
13 16 21
12 15 19
12 15 19
11 14 19
13 16 21
11 14 18
11 14 19
12 15 20
12 15 19
13 16 21
12 15 19
13 16 20
12 14 19
12 15 19
13 17 22
13 15 20
14 17 21
13 16 20
12 15 19
13 16 20
13 16 20
12 15 20
12 15 20
13 16 21
13 16 20
12 15 20
33 40 50
160 191 237
172 206 255
172 206 255
173 206 255
173 206 255
173 206 255
173 206 255
173 206 255
173 206 255
173 206 255
173 206 255
173 206 255
173 206 255
173 206 255
173 206 255
173 206 255
173 206 255
173 206 255
173 206 255
174 206 255
174 206 255
174 206 255
174 206 255
174 206 255
174 207 255
174 207 255
174 207 255
174 207 255
174 207 255
174 207 255
174 207 255
174 207 255
174 207 255
174 207 255
175 207 255
175 207 255
175 207 255
175 207 255
175 207 255
175 207 255
175 207 255
175 207 255
175 207 255
175 207 255
175 207 255
175 207 255
175 207 255
175 207 255
175 207 255
176 208 255
176 208 255
176 208 255
176 208 255
176 208 255
176 208 255
176 208 255
176 208 255
176 208 255
176 208 255
176 208 255
176 208 255
176 208 255
176 208 255
176 208 255
177 208 255
177 208 255
177 208 255
177 208 255
177 208 255
177 208 255
177 208 255
177 208 255
177 208 255
177 208 255
177 208 255
177 209 255
177 209 255
177 209 255
177 209 255
177 209 255
177 209 255
178 209 255
178 209 255
178 209 255
178 209 255
178 209 255
178 209 255
178 209 255
178 209 255
178 209 255
178 209 255
178 209 255
178 209 255
178 209 255
178 209 255
178 209 255
178 209 255
178 209 255
178 209 255
179 209 255
179 209 255
179 209 255
179 209 255
179 209 255
179 209 255
179 210 255
179 210 255
179 210 255
179 210 255
179 210 255
179 210 255
179 210 255
179 210 255
179 210 255
179 210 255
179 210 255
179 210 255
179 210 255
180 210 255
180 210 255
180 210 255
180 210 255
180 210 255
180 210 255
180 210 255
180 210 255
180 210 255
180 210 255
180 210 255
180 210 255
180 210 255
180 210 255
180 210 255
180 210 255
180 210 255
180 210 255
180 210 255
180 210 255
180 210 255
180 210 255
180 210 255
181 211 255
181 211 255
181 211 255
181 211 255
181 211 255
181 211 255
181 211 255
181 211 255
181 211 255
181 211 255
181 211 255
181 211 255
181 211 255
181 211 255
181 211 255
181 211 255
181 211 255
181 211 255
181 211 255
181 211 255
180 210 255
180 210 255
180 210 255
180 210 255
180 210 255
180 210 255
180 210 255
180 210 255
180 210 255
180 210 255
180 210 255
180 210 255
180 210 255
180 210 255
180 210 255
180 210 255
180 210 255
180 210 255
180 210 255
180 210 255
180 210 255
180 210 255
180 210 255
179 210 255
179 210 255
179 210 255
179 210 255
179 210 255
179 210 255
179 210 255
179 210 255
179 210 255
179 210 255
179 210 255
179 210 255
179 210 255
179 209 255
179 209 255
179 209 255
179 209 255
179 209 255
179 209 255
178 209 255
178 209 255
178 209 255
178 209 255
178 209 255
178 209 255
178 209 255
178 209 255
178 209 255
178 209 255
178 209 255
178 209 255
178 209 255
178 209 255
178 209 255
178 209 255
178 209 255
178 209 255
177 209 255
177 209 255
177 209 255
177 209 255
177 209 255
177 209 255
177 208 255
177 208 255
177 208 255
177 208 255
177 208 255
177 208 255
177 208 255
177 208 255
177 208 255
177 208 255
177 208 255
176 208 255
176 208 255
176 208 255
176 208 255
176 208 255
176 208 255
176 208 255
176 208 255
176 208 255
176 208 255
176 208 255
176 208 255
176 208 255
176 208 255
176 208 255
175 207 255
175 207 255
175 207 255
175 207 255
175 207 255
175 207 255
175 207 255
175 207 255
175 207 255
175 207 255
175 207 255
175 207 255
175 207 255
175 207 255
175 207 255
174 207 255
174 207 255
174 207 255
174 207 255
174 207 255
174 207 255
174 207 255
174 207 255
174 207 255
174 207 255
174 207 255
174 206 255
174 206 255
174 206 255
174 206 255
174 206 255
173 206 255
173 206 255
173 206 255
173 206 255
173 206 255
173 206 255
173 206 255
173 206 255
173 206 255
173 206 255
173 206 255
70 84 104
13 17 22
12 15 20
12 15 20
11 14 18
12 15 19
13 16 20
12 16 20
14 17 22
13 16 21
12 15 20
11 14 18
13 16 20
13 16 20
13 16 20
12 15 20
13 16 20
11 14 18
12 15 20
12 15 19
13 16 21
11 14 19
12 15 19
12 15 20
13 16 21
12 16 20
12 15 19
13 16 20
12 15 19
13 16 20
12 15 20
12 15 20
13 16 20
12 15 20
12 15 20
11 14 18
11 13 17
13 16 20
13 16 21
11 14 18
12 15 19
12 14 19
11 14 18
13 16 21
11 14 18
12 15 20
12 14 18
12 15 19
12 14 19
12 15 19
11 14 18
11 14 18
10 12 16
12 15 20
12 14 19
13 17 21
13 16 21
12 15 19
12 16 20
12 15 20
12 15 19
12 15 20
11 14 18
13 16 20
11 14 18
11 14 18
11 14 18
12 15 19
12 15 19
12 15 19
11 14 18
13 16 21
12 15 19
12 14 19
12 15 19
12 15 19
12 15 20
12 14 18
12 15 20
12 15 20
12 15 20
12 15 20
12 15 20
12 15 20
12 15 19
13 16 20
12 15 20
12 15 19
12 15 20
12 15 20
12 15 19
11 14 18
11 14 18
12 14 19
12 15 19
13 16 20
13 16 21
12 15 20
14 17 22
13 16 20
14 17 22
13 17 22
12 15 19
12 15 20
11 15 19
48 58 72
173 206 255
173 206 255
173 206 255
173 206 255
173 206 255
173 206 255
173 206 255
173 206 255
173 206 255
173 206 255
173 206 255
173 206 255
174 206 255
174 206 255
174 206 255
174 206 255
174 206 255
174 207 255
174 207 255
174 207 255
174 207 255
174 207 255
174 207 255
174 207 255
174 207 255
174 207 255
174 207 255
175 207 255
175 207 255
175 207 255
175 207 255
175 207 255
175 207 255
175 207 255
175 207 255
175 207 255
175 207 255
175 207 255
175 207 255
175 207 255
175 207 255
175 207 255
176 208 255
176 208 255
176 208 255
176 208 255
176 208 255
176 208 255
176 208 255
176 208 255
176 208 255
176 208 255
176 208 255
176 208 255
176 208 255
176 208 255
176 208 255
176 208 255
177 208 255
177 208 255
177 208 255
177 208 255
177 208 255
177 208 255
177 208 255
177 208 255
177 208 255
177 208 255
177 209 255
177 209 255
177 209 255
177 209 255
177 209 255
177 209 255
178 209 255
178 209 255
178 209 255
178 209 255
178 209 255
178 209 255
178 209 255
178 209 255
178 209 255
178 209 255
178 209 255
178 209 255
178 209 255
178 209 255
178 209 255
178 209 255
178 209 255
178 209 255
179 209 255
179 209 255
179 209 255
179 209 255
179 209 255
179 209 255
179 210 255
179 210 255
179 210 255
179 210 255
179 210 255
179 210 255
179 210 255
179 210 255
179 210 255
179 210 255
179 210 255
179 210 255
179 210 255
180 210 255
180 210 255
180 210 255
180 210 255
180 210 255
180 210 255
180 210 255
180 210 255
180 210 255
180 210 255
180 210 255
180 210 255
180 210 255
180 210 255
180 210 255
180 210 255
180 210 255
180 210 255
180 210 255
180 210 255
180 210 255
180 210 255
180 210 255
181 211 255
181 211 255
181 211 255
181 211 255
181 211 255
181 211 255
181 211 255
181 211 255
181 211 255
181 211 255
181 211 255
181 211 255
181 211 255
181 211 255
181 211 255
181 211 255
181 211 255
181 211 255
181 211 255
181 211 255
181 211 255
181 211 255
181 211 255
181 211 255
181 211 255
181 211 255
181 211 255
181 211 255
181 211 255
181 211 255
181 211 255
181 211 255
181 211 255
180 210 255
180 210 255
180 210 255
180 210 255
180 210 255
180 210 255
180 210 255
180 210 255
180 210 255
180 210 255
180 210 255
180 210 255
180 210 255
180 210 255
180 210 255
180 210 255
180 210 255
180 210 255
180 210 255
180 210 255
180 210 255
180 210 255
179 210 255
179 210 255
179 210 255
179 210 255
179 210 255
179 210 255
179 210 255
179 210 255
179 210 255
179 210 255
179 210 255
179 210 255
179 210 255
179 209 255
179 209 255
179 209 255
179 209 255
179 209 255
179 209 255
178 209 255
178 209 255
178 209 255
178 209 255
178 209 255
178 209 255
178 209 255
178 209 255
178 209 255
178 209 255
178 209 255
178 209 255
178 209 255
178 209 255
178 209 255
178 209 255
178 209 255
178 209 255
177 209 255
177 209 255
177 209 255
177 209 255
177 209 255
177 209 255
177 208 255
177 208 255
177 208 255
177 208 255
177 208 255
177 208 255
177 208 255
177 208 255
177 208 255
177 208 255
176 208 255
176 208 255
176 208 255
176 208 255
176 208 255
176 208 255
176 208 255
176 208 255
176 208 255
176 208 255
176 208 255
176 208 255
176 208 255
176 208 255
176 208 255
176 208 255
175 207 255
175 207 255
175 207 255
175 207 255
175 207 255
175 207 255
175 207 255
175 207 255
175 207 255
175 207 255
175 207 255
175 207 255
175 207 255
175 207 255
175 207 255
175 207 255
174 207 255
174 207 255
174 207 255
174 207 255
174 207 255
174 207 255
174 207 255
174 207 255
174 207 255
174 207 255
174 206 255
174 206 255
174 206 255
174 206 255
174 206 255
174 206 255
173 206 255
173 206 255
173 206 255
114 136 169
13 16 21
13 16 21
13 16 21
12 15 20
12 15 19
12 15 20
13 16 20
12 15 19
12 16 20
12 15 20
14 17 21
13 16 20
13 16 21
12 15 19
14 17 21
13 16 20
13 16 21
11 14 19
13 17 21
12 15 19
13 16 20
11 14 18
11 14 18
12 15 19
13 16 20
12 14 19
13 16 21
12 15 19
12 15 19
11 14 18
12 15 20
12 15 19
11 14 19
12 15 19
12 15 20
11 13 17
12 15 20
12 15 19
13 16 20
13 16 21
12 15 20
14 17 22
12 15 20
12 15 20
13 16 20
13 16 20
12 15 20
12 14 19
11 14 18
13 16 20
13 16 21
12 15 19
11 14 17
12 15 19
13 16 20
12 15 19
10 13 16
12 15 19
12 15 19
11 14 18
12 15 20
12 15 19
13 16 20
12 15 19
12 15 19
10 13 16
12 14 19
12 15 19
13 16 21
12 15 20
12 15 19
11 14 18
12 15 19
12 14 19
12 15 19
12 15 20
13 15 20
11 14 18
11 14 19
12 16 20
12 15 20
12 15 19
12 15 19
12 15 19
12 15 19
12 15 20
13 16 20
11 14 18
13 17 22
12 15 20
12 15 19
12 15 19
12 15 19
13 17 21
12 15 20
11 14 18
12 15 20
13 16 21
11 14 17
13 16 20
13 16 20
12 15 20
12 15 20
12 15 20
13 16 21
13 16 20
109 130 161
173 206 255
173 206 255
173 206 255
174 206 255
174 206 255
174 206 255
174 206 255
174 206 255
174 206 255
174 207 255
174 207 255
174 207 255
174 207 255
174 207 255
174 207 255
174 207 255
174 207 255
174 207 255
174 207 255
175 207 255
175 207 255
175 207 255
175 207 255
175 207 255
175 207 255
175 207 255
175 207 255
175 207 255
175 207 255
175 207 255
175 207 255
175 207 255
175 207 255
175 207 255
175 207 255
176 208 255
176 208 255
176 208 255
176 208 255
176 208 255
176 208 255
176 208 255
176 208 255
176 208 255
176 208 255
176 208 255
176 208 255
176 208 255
176 208 255
176 208 255
177 208 255
177 208 255
177 208 255
177 208 255
177 208 255
177 208 255
177 208 255
177 208 255
177 208 255
177 208 255
177 208 255
177 209 255
177 209 255
177 209 255
177 209 255
177 209 255
177 209 255
178 209 255
178 209 255
178 209 255
178 209 255
178 209 255
178 209 255
178 209 255
178 209 255
178 209 255
178 209 255
178 209 255
178 209 255
178 209 255
178 209 255
178 209 255
178 209 255
178 209 255
178 209 255
179 209 255
179 209 255
179 209 255
179 209 255
179 209 255
179 209 255
179 210 255
179 210 255
179 210 255
179 210 255
179 210 255
179 210 255
179 210 255
179 210 255
179 210 255
179 210 255
179 210 255
179 210 255
179 210 255
180 210 255
180 210 255
180 210 255
180 210 255
180 210 255
180 210 255
180 210 255
180 210 255
180 210 255
180 210 255
180 210 255
180 210 255
180 210 255
180 210 255
180 210 255
180 210 255
180 210 255
180 210 255
180 210 255
180 210 255
180 210 255
180 210 255
181 211 255
181 211 255
181 211 255
181 211 255
181 211 255
181 211 255
181 211 255
181 211 255
181 211 255
181 211 255
181 211 255
181 211 255
181 211 255
181 211 255
181 211 255
181 211 255
181 211 255
181 211 255
181 211 255
181 211 255
182 211 255
182 211 255
181 211 255
181 211 255
181 211 255
181 211 255
181 211 255
181 211 255
181 211 255
181 211 255
181 211 255
181 211 255
181 211 255
181 211 255
181 211 255
181 211 255
181 211 255
181 211 255
181 211 255
181 211 255
181 211 255
181 211 255
181 211 255
181 211 255
181 211 255
181 211 255
181 211 255
180 210 255
180 210 255
180 210 255
180 210 255
180 210 255
180 210 255
180 210 255
180 210 255
180 210 255
180 210 255
180 210 255
180 210 255
180 210 255
180 210 255
180 210 255
180 210 255
180 210 255
180 210 255
180 210 255
180 210 255
180 210 255
180 210 255
179 210 255
179 210 255
179 210 255
179 210 255
179 210 255
179 210 255
179 210 255
179 210 255
179 210 255
179 210 255
179 210 255
179 210 255
179 210 255
179 209 255
179 209 255
179 209 255
179 209 255
179 209 255
179 209 255
178 209 255
178 209 255
178 209 255
178 209 255
178 209 255
178 209 255
178 209 255
178 209 255
178 209 255
178 209 255
178 209 255
178 209 255
178 209 255
178 209 255
178 209 255
178 209 255
178 209 255
177 209 255
177 209 255
177 209 255
177 209 255
177 209 255
177 209 255
177 208 255
177 208 255
177 208 255
177 208 255
177 208 255
177 208 255
177 208 255
177 208 255
177 208 255
177 208 255
177 208 255
176 208 255
176 208 255
176 208 255
176 208 255
176 208 255
176 208 255
176 208 255
176 208 255
176 208 255
176 208 255
176 208 255
176 208 255
176 208 255
176 208 255
176 208 255
176 208 255
175 207 255
175 207 255
175 207 255
175 207 255
175 207 255
175 207 255
175 207 255
175 207 255
175 207 255
175 207 255
175 207 255
175 207 255
175 207 255
175 207 255
175 207 255
175 207 255
174 207 255
174 207 255
174 207 255
174 207 255
174 207 255
174 207 255
174 207 255
174 207 255
174 207 255
174 207 255
174 207 255
154 184 227
24 29 37
12 15 19
13 16 20
11 14 19
12 15 20
12 15 19
12 15 20
13 16 20
12 15 20
13 16 21
12 15 20
14 17 21
12 15 20
13 16 20
11 14 19
12 15 19
11 14 19
13 15 20
11 14 18
13 16 20
12 15 19
12 15 19
12 15 20
12 15 20
13 16 20
12 15 19
11 14 18
12 15 19
13 17 21
11 13 17
13 16 21
12 15 20
12 15 19
11 14 18
12 15 19
13 16 20
12 14 18
11 14 18
12 15 19
11 14 18
11 14 18
12 14 19
12 15 19
13 16 20
13 16 20
13 16 20
13 16 20
14 17 21
12 15 19
12 15 19
12 15 20
12 15 19
12 15 19
12 16 20
12 15 20
11 14 18
12 15 19
13 16 20
12 15 19
12 16 20
11 14 18
12 14 19
12 14 18
12 14 19
12 15 20
12 15 19
12 15 19
13 16 20
12 14 19
12 15 19
11 14 18
13 16 21
12 15 19
12 16 20
13 16 20
13 15 20
12 15 19
12 15 19
11 14 18
12 14 18
12 15 19
13 16 20
12 15 19
11 14 18
12 15 19
12 15 20
12 15 19
12 14 19
14 17 22
12 15 20
13 16 20
13 16 21
11 14 18
13 16 21
11 14 18
12 15 19
11 14 18
11 13 17
12 15 19
12 15 19
11 14 18
11 14 19
13 16 20
12 15 20
12 15 19
13 16 21
12 15 19
23 28 35
161 192 237
174 207 255
174 207 255
174 207 255
174 207 255
174 207 255
174 207 255
174 207 255
174 207 255
174 207 255
174 207 255
174 207 255
175 207 255
175 207 255
175 207 255
175 207 255
175 207 255
175 207 255
175 207 255
175 207 255
175 207 255
175 207 255
175 207 255
175 207 255
175 207 255
175 207 255
175 207 255
175 207 255
176 208 255
176 208 255
176 208 255
176 208 255
176 208 255
176 208 255
176 208 255
176 208 255
176 208 255
176 208 255
176 208 255
176 208 255
176 208 255
176 208 255
176 208 255
176 208 255
177 208 255
177 208 255
177 208 255
177 208 255
177 208 255
177 208 255
177 208 255
177 208 255
177 208 255
177 208 255
177 208 255
177 209 255
177 209 255
177 209 255
177 209 255
177 209 255
178 209 255
178 209 255
178 209 255
178 209 255
178 209 255
178 209 255
178 209 255
178 209 255
178 209 255
178 209 255
178 209 255
178 209 255
178 209 255
178 209 255
178 209 255
178 209 255
178 209 255
178 209 255
179 209 255
179 209 255
179 209 255
179 209 255
179 209 255
179 209 255
179 210 255
179 210 255
179 210 255
179 210 255
179 210 255
179 210 255
179 210 255
179 210 255
179 210 255
179 210 255
179 210 255
179 210 255
179 210 255
180 210 255
180 210 255
180 210 255
180 210 255
180 210 255
180 210 255
180 210 255
180 210 255
180 210 255
180 210 255
180 210 255
180 210 255
180 210 255
180 210 255
180 210 255
180 210 255
180 210 255
180 210 255
180 210 255
180 210 255
180 210 255
180 210 255
181 211 255
181 211 255
181 211 255
181 211 255
181 211 255
181 211 255
181 211 255
181 211 255
181 211 255
181 211 255
181 211 255
181 211 255
181 211 255
181 211 255
181 211 255
181 211 255
181 211 255
181 211 255
181 211 255
181 211 255
181 211 255
181 211 255
181 211 255
181 211 255
181 211 255
182 211 255
182 211 255
182 211 255
182 211 255
182 211 255
182 211 255
182 211 255
182 211 255
182 211 255
182 211 255
182 211 255
181 211 255
181 211 255
181 211 255
181 211 255
181 211 255
181 211 255
181 211 255
181 211 255
181 211 255
181 211 255
181 211 255
181 211 255
181 211 255
181 211 255
181 211 255
181 211 255
181 211 255
181 211 255
181 211 255
181 211 255
181 211 255
181 211 255
181 211 255
181 211 255
181 211 255
180 210 255
180 210 255
180 210 255
180 210 255
180 210 255
180 210 255
180 210 255
180 210 255
180 210 255
180 210 255
180 210 255
180 210 255
180 210 255
180 210 255
180 210 255
180 210 255
180 210 255
180 210 255
180 210 255
180 210 255
180 210 255
179 210 255
179 210 255
179 210 255
179 210 255
179 210 255
179 210 255
179 210 255
179 210 255
179 210 255
179 210 255
179 210 255
179 210 255
179 210 255
179 209 255
179 209 255
179 209 255
179 209 255
179 209 255
179 209 255
179 209 255
178 209 255
178 209 255
178 209 255
178 209 255
178 209 255
178 209 255
178 209 255
178 209 255
178 209 255
178 209 255
178 209 255
178 209 255
178 209 255
178 209 255
178 209 255
178 209 255
178 209 255
177 209 255
177 209 255
177 209 255
177 209 255
177 209 255
177 208 255
177 208 255
177 208 255
177 208 255
177 208 255
177 208 255
177 208 255
177 208 255
177 208 255
177 208 255
177 208 255
176 208 255
176 208 255
176 208 255
176 208 255
176 208 255
176 208 255
176 208 255
176 208 255
176 208 255
176 208 255
176 208 255
176 208 255
176 208 255
176 208 255
176 208 255
176 208 255
175 207 255
175 207 255
175 207 255
175 207 255
175 207 255
175 207 255
175 207 255
175 207 255
175 207 255
175 207 255
175 207 255
175 207 255
175 207 255
175 207 255
175 207 255
175 207 255
175 207 255
174 207 255
174 207 255
174 207 255
174 207 255
42 50 63
12 15 20
12 15 19
13 17 22
13 16 20
12 15 19
14 17 22
12 15 20
12 15 19
13 16 21
12 15 19
13 15 20
13 16 20
12 15 19
12 15 19
12 15 19
13 15 20
13 16 20
12 14 19
12 14 18
13 16 21
12 14 19
12 14 19
12 16 20
12 15 19
11 14 19
11 13 17
12 15 19
12 15 19
12 15 19
12 15 18
12 15 20
12 15 19
12 14 18
13 16 20
12 15 19
13 16 20
13 16 20
12 15 20
12 15 20
11 14 18
11 14 18
13 16 20
12 14 19
9 11 15
12 15 19
13 16 20
13 16 21
11 14 17
13 16 21
13 16 20
12 15 19
13 16 20
11 14 18
13 15 20
13 16 20
11 14 18
12 15 19
10 12 16
12 15 20
13 16 20
13 16 20
12 15 20
12 15 19
14 17 22
12 15 19
12 15 20
11 14 18
12 15 19
11 14 18
13 15 20
13 16 20
11 14 18
11 14 18
12 14 18
13 16 20
11 14 19
13 15 20
12 14 19
12 15 19
12 15 19
12 15 19
12 15 19
12 14 19
11 14 18
12 15 20
11 14 18
12 16 20
11 14 19
11 14 18
12 14 18
12 15 19
12 15 19
12 15 19
12 15 19
11 14 18
12 15 20
12 15 20
13 16 21
11 14 19
12 15 20
13 16 21
12 15 19
12 15 19
12 15 19
13 16 21
12 15 20
12 15 20
12 14 18
50 60 75
174 207 255
174 207 255
174 207 255
174 207 255
175 207 255
175 207 255
175 207 255
175 207 255
175 207 255
175 207 255
175 207 255
175 207 255
175 207 255
175 207 255
175 207 255
175 207 255
175 207 255
175 207 255
175 207 255
175 207 255
175 207 255
176 208 255
176 208 255
176 208 255
176 208 255
176 208 255
176 208 255
176 208 255
176 208 255
176 208 255
176 208 255
176 208 255
176 208 255
176 208 255
176 208 255
176 208 255
176 208 255
177 208 255
177 208 255
177 208 255
177 208 255
177 208 255
177 208 255
177 208 255
177 208 255
177 208 255
177 208 255
177 208 255
177 209 255
177 209 255
177 209 255
177 209 255
177 209 255
178 209 255
178 209 255
178 209 255
178 209 255
178 209 255
178 209 255
178 209 255
178 209 255
178 209 255
178 209 255
178 209 255
178 209 255
178 209 255
178 209 255
178 209 255
178 209 255
178 209 255
178 209 255
179 209 255
179 209 255
179 209 255
179 209 255
179 209 255
179 209 255
179 210 255
179 210 255
179 210 255
179 210 255
179 210 255
179 210 255
179 210 255
179 210 255
179 210 255
179 210 255
179 210 255
179 210 255
180 210 255
180 210 255
180 210 255
180 210 255
180 210 255
180 210 255
180 210 255
180 210 255
180 210 255
180 210 255
180 210 255
180 210 255
180 210 255
180 210 255
180 210 255
180 210 255
180 210 255
180 210 255
180 210 255
180 210 255
180 210 255
180 210 255
181 211 255
181 211 255
181 211 255
181 211 255
181 211 255
181 211 255
181 211 255
181 211 255
181 211 255
181 211 255
181 211 255
181 211 255
181 211 255
181 211 255
181 211 255
181 211 255
181 211 255
181 211 255
181 211 255
181 211 255
181 211 255
181 211 255
181 211 255
181 211 255
181 211 255
182 211 255
182 211 255
182 211 255
182 211 255
182 211 255
182 211 255
182 211 255
182 211 255
182 211 255
182 211 255
182 211 255
182 211 255
182 211 255
182 211 255
182 211 255
182 211 255
182 211 255
182 211 255
182 211 255
182 211 255
182 211 255
182 211 255
182 211 255
182 211 255
182 211 255
182 211 255
181 211 255
181 211 255
181 211 255
181 211 255
181 211 255
181 211 255
181 211 255
181 211 255
181 211 255
181 211 255
181 211 255
181 211 255
181 211 255
181 211 255
181 211 255
181 211 255
181 211 255
181 211 255
181 211 255
181 211 255
181 211 255
181 211 255
181 211 255
181 211 255
180 210 255
180 210 255
180 210 255
180 210 255
180 210 255
180 210 255
180 210 255
180 210 255
180 210 255
180 210 255
180 210 255
180 210 255
180 210 255
180 210 255
180 210 255
180 210 255
180 210 255
180 210 255
180 210 255
180 210 255
180 210 255
179 210 255
179 210 255
179 210 255
179 210 255
179 210 255
179 210 255
179 210 255
179 210 255
179 210 255
179 210 255
179 210 255
179 210 255
179 210 255
179 209 255
179 209 255
179 209 255
179 209 255
179 209 255
179 209 255
178 209 255
178 209 255
178 209 255
178 209 255
178 209 255
178 209 255
178 209 255
178 209 255
178 209 255
178 209 255
178 209 255
178 209 255
178 209 255
178 209 255
178 209 255
178 209 255
178 209 255
177 209 255
177 209 255
177 209 255
177 209 255
177 209 255
177 209 255
177 208 255
177 208 255
177 208 255
177 208 255
177 208 255
177 208 255
177 208 255
177 208 255
177 208 255
177 208 255
177 208 255
176 208 255
176 208 255
176 208 255
176 208 255
176 208 255
176 208 255
176 208 255
176 208 255
176 208 255
176 208 255
176 208 255
176 208 255
176 208 255
176 208 255
176 208 255
176 208 255
175 207 255
175 207 255
175 207 255
175 207 255
175 207 255
175 207 255
175 207 255
175 207 255
175 207 255
175 207 255
175 207 255
175 207 255
175 207 255
118 140 173
11 14 19
13 16 21
11 14 18
12 15 20
13 16 21
11 14 19
13 16 20
13 16 20
12 15 19
10 13 17
12 15 19
12 15 19
12 15 19
13 16 20
12 15 19
12 15 19
11 13 16
12 15 19
12 15 19
11 14 19
11 14 19
12 14 18
10 12 16
12 15 19
12 15 19
12 15 19
13 16 20
13 15 20
12 15 19
12 15 19
13 15 20
13 16 20
13 16 21
11 13 17
11 14 17
13 16 20
12 15 19
12 15 19
13 16 21
12 14 19
12 15 19
11 13 17
12 15 19
11 14 18
11 14 18
12 14 19
13 16 20
12 15 19
12 15 20
11 14 18
12 15 20
11 14 19
10 13 17
11 14 18
11 14 18
12 14 18
13 16 20
11 14 19
11 14 18
10 13 16
12 15 19
11 14 18
10 13 17
12 14 19
11 14 18
11 14 18
12 15 19
11 14 18
12 15 20
12 15 19
13 16 20
12 15 20
11 14 18
12 15 19
13 16 21
11 14 18
11 14 17
12 15 19
11 14 18
13 16 20
12 15 20
12 14 18
12 15 20
12 15 19
12 15 20
12 15 19
12 15 19
11 14 18
12 15 19
12 15 20
12 15 19
13 16 21
12 15 20
12 15 19
12 15 20
12 15 20
12 15 20
12 15 19
12 15 19
12 15 20
11 14 18
12 15 19
13 16 21
12 15 19
13 16 21
12 15 20
13 16 20
12 15 19
12 15 20
12 14 18
116 138 171
175 207 255
175 207 255
175 207 255
175 207 255
175 207 255
175 207 255
175 207 255
175 207 255
175 207 255
175 207 255
175 207 255
175 207 255
176 208 255
176 208 255
176 208 255
176 208 255
176 208 255
176 208 255
176 208 255
176 208 255
176 208 255
176 208 255
176 208 255
176 208 255
176 208 255
176 208 255
176 208 255
176 208 255
176 208 255
177 208 255
177 208 255
177 208 255
177 208 255
177 208 255
177 208 255
177 208 255
177 208 255
177 208 255
177 208 255
177 208 255
177 209 255
177 209 255
177 209 255
177 209 255
177 209 255
177 209 255
178 209 255
178 209 255
178 209 255
178 209 255
178 209 255
178 209 255
178 209 255
178 209 255
178 209 255
178 209 255
178 209 255
178 209 255
178 209 255
178 209 255
178 209 255
178 209 255
178 209 255
179 209 255
179 209 255
179 209 255
179 209 255
179 209 255
179 209 255
179 210 255
179 210 255
179 210 255
179 210 255
179 210 255
179 210 255
179 210 255
179 210 255
179 210 255
179 210 255
179 210 255
179 210 255
179 210 255
180 210 255
180 210 255
180 210 255
180 210 255
180 210 255
180 210 255
180 210 255
180 210 255
180 210 255
180 210 255
180 210 255
180 210 255
180 210 255
180 210 255
180 210 255
180 210 255
180 210 255
180 210 255
180 210 255
180 210 255
180 210 255
181 211 255
181 211 255
181 211 255
181 211 255
181 211 255
181 211 255
181 211 255
181 211 255
181 211 255
181 211 255
181 211 255
181 211 255
181 211 255
181 211 255
181 211 255
181 211 255
181 211 255
181 211 255
181 211 255
181 211 255
181 211 255
181 211 255
181 211 255
181 211 255
182 211 255
182 211 255
182 211 255
182 211 255
182 211 255
182 211 255
182 211 255
182 211 255
182 211 255
182 211 255
182 211 255
182 211 255
182 211 255
182 211 255
182 211 255
182 211 255
182 211 255
182 212 255
182 212 255
182 212 255
182 212 255
182 212 255
182 212 255
182 211 255
182 211 255
182 211 255
182 211 255
182 211 255
182 211 255
182 211 255
182 211 255
182 211 255
182 211 255
182 211 255
182 211 255
182 211 255
182 211 255
182 211 255
182 211 255
182 211 255
182 211 255
181 211 255
181 211 255
181 211 255
181 211 255
181 211 255
181 211 255
181 211 255
181 211 255
181 211 255
181 211 255
181 211 255
181 211 255
181 211 255
181 211 255
181 211 255
181 211 255
181 211 255
181 211 255
181 211 255
181 211 255
181 211 255
181 211 255
181 211 255
181 211 255
180 210 255
180 210 255
180 210 255
180 210 255
180 210 255
180 210 255
180 210 255
180 210 255
180 210 255
180 210 255
180 210 255
180 210 255
180 210 255
180 210 255
180 210 255
180 210 255
180 210 255
180 210 255
180 210 255
180 210 255
180 210 255
179 210 255
179 210 255
179 210 255
179 210 255
179 210 255
179 210 255
179 210 255
179 210 255
179 210 255
179 210 255
179 210 255
179 210 255
179 209 255
179 209 255
179 209 255
179 209 255
179 209 255
179 209 255
179 209 255
178 209 255
178 209 255
178 209 255
178 209 255
178 209 255
178 209 255
178 209 255
178 209 255
178 209 255
178 209 255
178 209 255
178 209 255
178 209 255
178 209 255
178 209 255
178 209 255
178 209 255
177 209 255
177 209 255
177 209 255
177 209 255
177 209 255
177 209 255
177 208 255
177 208 255
177 208 255
177 208 255
177 208 255
177 208 255
177 208 255
177 208 255
177 208 255
177 208 255
177 208 255
176 208 255
176 208 255
176 208 255
176 208 255
176 208 255
176 208 255
176 208 255
176 208 255
176 208 255
176 208 255
176 208 255
176 208 255
176 208 255
176 208 255
176 208 255
176 208 255
176 208 255
175 207 255
175 207 255
175 207 255
175 207 255
170 202 248
37 44 55
11 14 18
13 16 20
13 16 20
12 15 19
12 15 20
11 14 18
11 14 18
11 14 18
12 14 19
11 14 18
12 15 20
12 15 19
11 14 18
13 16 20
12 15 19
12 15 19
12 14 18
12 15 20
12 15 19
11 14 18
11 14 18
11 14 18
13 16 20
12 15 20
11 14 18
13 16 21
11 14 18
13 16 20
12 14 18
12 14 18
11 14 18
12 15 19
12 15 20
11 14 17
12 14 18
12 15 19
12 15 20
11 14 18
11 14 18
11 14 18
13 16 20
13 16 20
10 13 17
11 14 18
12 14 19
12 15 20
12 15 19
11 14 18
10 13 16
11 14 18
11 14 18
12 15 19
13 16 20
12 15 19
12 15 19
13 16 20
12 15 19
12 14 18
11 14 18
12 15 19
10 13 17
11 14 18
12 15 19
12 15 19
11 14 18
12 15 19
12 15 19
12 15 19
11 14 18
11 14 18
12 15 20
12 15 19
12 14 18
10 13 16
11 14 18
11 14 18
12 15 19
12 15 19
13 16 21
11 14 17
12 14 18
12 15 19
10 13 17
11 13 17
12 14 18
12 15 20
12 15 19
12 15 19
12 15 19
11 14 17
12 14 19
11 14 18
12 15 20
12 15 19
12 15 20
11 13 17
13 16 20
13 16 20
12 15 20
10 12 16
12 15 19
12 15 20
12 15 19
12 15 19
13 16 20
13 16 21
13 16 20
11 14 18
11 14 19
13 16 21
27 33 41
164 194 239
175 207 255
175 207 255
175 207 255
176 208 255
176 208 255
176 208 255
176 208 255
176 208 255
176 208 255
176 208 255
176 208 255
176 208 255
176 208 255
176 208 255
176 208 255
176 208 255
176 208 255
176 208 255
176 208 255
176 208 255
176 208 255
177 208 255
177 208 255
177 208 255
177 208 255
177 208 255
177 208 255
177 208 255
177 208 255
177 208 255
177 208 255
177 208 255
177 209 255
177 209 255
177 209 255
177 209 255
177 209 255
177 209 255
178 209 255
178 209 255
178 209 255
178 209 255
178 209 255
178 209 255
178 209 255
178 209 255
178 209 255
178 209 255
178 209 255
178 209 255
178 209 255
178 209 255
178 209 255
178 209 255
178 209 255
179 209 255
179 209 255
179 209 255
179 209 255
179 209 255
179 209 255
179 209 255
179 210 255
179 210 255
179 210 255
179 210 255
179 210 255
179 210 255
179 210 255
179 210 255
179 210 255
179 210 255
179 210 255
179 210 255
180 210 255
180 210 255
180 210 255
180 210 255
180 210 255
180 210 255
180 210 255
180 210 255
180 210 255
180 210 255
180 210 255
180 210 255
180 210 255
180 210 255
180 210 255
180 210 255
180 210 255
180 210 255
180 210 255
180 210 255
180 210 255
181 211 255
181 211 255
181 211 255
181 211 255
181 211 255
181 211 255
181 211 255
181 211 255
181 211 255
181 211 255
181 211 255
181 211 255
181 211 255
181 211 255
181 211 255
181 211 255
181 211 255
181 211 255
181 211 255
181 211 255
181 211 255
181 211 255
181 211 255
182 211 255
182 211 255
182 211 255
182 211 255
182 211 255
182 211 255
182 211 255
182 211 255
182 211 255
182 211 255
182 211 255
182 211 255
182 211 255
182 211 255
182 211 255
182 211 255
182 211 255
182 211 255
182 212 255
182 212 255
182 212 255
182 212 255
182 212 255
182 212 255
182 212 255
183 212 255
183 212 255
183 212 255
183 212 255
183 212 255
182 212 255
182 212 255
182 212 255
182 212 255
182 212 255
182 212 255
182 212 255
182 212 255
182 212 255
182 211 255
182 211 255
182 211 255
182 211 255
182 211 255
182 211 255
182 211 255
182 211 255
182 211 255
182 211 255
182 211 255
182 211 255
182 211 255
182 211 255
182 211 255
182 211 255
182 211 255
181 211 255
181 211 255
181 211 255
181 211 255
181 211 255
181 211 255
181 211 255
181 211 255
181 211 255
181 211 255
181 211 255
181 211 255
181 211 255
181 211 255
181 211 255
181 211 255
181 211 255
181 211 255
181 211 255
181 211 255
181 211 255
181 211 255
181 211 255
181 211 255
180 210 255
180 210 255
180 210 255
180 210 255
180 210 255
180 210 255
180 210 255
180 210 255
180 210 255
180 210 255
180 210 255
180 210 255
180 210 255
180 210 255
180 210 255
180 210 255
180 210 255
180 210 255
180 210 255
180 210 255
180 210 255
179 210 255
179 210 255
179 210 255
179 210 255
179 210 255
179 210 255
179 210 255
179 210 255
179 210 255
179 210 255
179 210 255
179 210 255
179 209 255
179 209 255
179 209 255
179 209 255
179 209 255
179 209 255
178 209 255
178 209 255
178 209 255
178 209 255
178 209 255
178 209 255
178 209 255
178 209 255
178 209 255
178 209 255
178 209 255
178 209 255
178 209 255
178 209 255
178 209 255
178 209 255
178 209 255
178 209 255
177 209 255
177 209 255
177 209 255
177 209 255
177 209 255
177 209 255
177 208 255
177 208 255
177 208 255
177 208 255
177 208 255
177 208 255
177 208 255
177 208 255
177 208 255
177 208 255
177 208 255
177 208 255
176 208 255
176 208 255
176 208 255
176 208 255
176 208 255
176 208 255
176 208 255
176 208 255
176 208 255
176 208 255
176 208 255
176 208 255
176 208 255
96 114 140
12 15 20
12 15 20
13 16 21
12 15 19
12 15 19
11 14 18
12 15 19
12 14 18
12 15 20
12 15 19
12 14 19
12 15 19
12 15 20
13 16 20
11 14 18
12 14 19
11 14 19
12 14 19
12 14 18
12 15 20
12 14 19
12 15 19
13 16 21
13 16 21
12 14 19
12 14 19
11 14 18
13 16 20
13 16 20
11 14 17
12 14 18
12 15 19
11 14 18
13 16 20
12 14 18
13 16 20
12 15 19
12 14 19
11 14 18
12 15 19
12 15 19
12 14 18
12 15 19
12 14 18
12 14 19
11 14 18
12 15 19
11 14 18
10 12 16
12 15 19
12 14 19
12 15 20
11 14 17
12 15 19
12 15 19
12 14 19
11 14 18
10 12 16
12 15 19
12 15 19
12 14 19
11 13 17
11 14 18
12 15 19
12 15 19
11 14 17
10 13 17
11 13 17
12 15 19
12 15 19
12 15 19
12 15 19
12 14 18
11 14 18
12 15 19
12 14 19
11 14 18
12 14 18
12 15 20
11 14 18
12 15 19
12 15 20
13 16 20
12 14 18
12 15 19
12 15 19
13 16 21
12 15 19
12 15 19
11 14 18
12 15 19
13 16 21
11 14 18
12 15 19
12 15 19
12 15 19
12 14 19
12 14 19
13 16 21
11 14 18
12 14 19
12 15 20
12 15 19
11 14 18
12 15 20
13 16 21
11 14 18
12 15 19
12 15 19
12 15 19
13 16 20
13 16 20
82 98 121
176 208 255
176 208 255
176 208 255
176 208 255
176 208 255
176 208 255
176 208 255
176 208 255
176 208 255
176 208 255
176 208 255
176 208 255
176 208 255
177 208 255
177 208 255
177 208 255
177 208 255
177 208 255
177 208 255
177 208 255
177 208 255
177 208 255
177 208 255
177 208 255
177 208 255
177 209 255
177 209 255
177 209 255
177 209 255
177 209 255
177 209 255
178 209 255
178 209 255
178 209 255
178 209 255
178 209 255
178 209 255
178 209 255
178 209 255
178 209 255
178 209 255
178 209 255
178 209 255
178 209 255
178 209 255
178 209 255
178 209 255
178 209 255
178 209 255
179 209 255
179 209 255
179 209 255
179 209 255
179 209 255
179 209 255
179 210 255
179 210 255
179 210 255
179 210 255
179 210 255
179 210 255
179 210 255
179 210 255
179 210 255
179 210 255
179 210 255
179 210 255
180 210 255
180 210 255
180 210 255
180 210 255
180 210 255
180 210 255
180 210 255
180 210 255
180 210 255
180 210 255
180 210 255
180 210 255
180 210 255
180 210 255
180 210 255
180 210 255
180 210 255
180 210 255
180 210 255
180 210 255
180 210 255
181 211 255
181 211 255
181 211 255
181 211 255
181 211 255
181 211 255
181 211 255
181 211 255
181 211 255
181 211 255
181 211 255
181 211 255
181 211 255
181 211 255
181 211 255
181 211 255
181 211 255
181 211 255
181 211 255
181 211 255
181 211 255
181 211 255
181 211 255
182 211 255
182 211 255
182 211 255
182 211 255
182 211 255
182 211 255
182 211 255
182 211 255
182 211 255
182 211 255
182 211 255
182 211 255
182 211 255
182 211 255
182 211 255
182 211 255
182 211 255
182 212 255
182 212 255
182 212 255
182 212 255
182 212 255
182 212 255
182 212 255
182 212 255
182 212 255
182 212 255
183 212 255
183 212 255
183 212 255
183 212 255
183 212 255
183 212 255
183 212 255
183 212 255
183 212 255
183 212 255
183 212 255
183 212 255
183 212 255
183 212 255
183 212 255
183 212 255
183 212 255
183 212 255
182 212 255
182 212 255
182 212 255
182 212 255
182 212 255
182 212 255
182 212 255
182 212 255
182 212 255
182 211 255
182 211 255
182 211 255
182 211 255
182 211 255
182 211 255
182 211 255
182 211 255
182 211 255
182 211 255
182 211 255
182 211 255
182 211 255
182 211 255
182 211 255
182 211 255
182 211 255
181 211 255
181 211 255
181 211 255
181 211 255
181 211 255
181 211 255
181 211 255
181 211 255
181 211 255
181 211 255
181 211 255
181 211 255
181 211 255
181 211 255
181 211 255
181 211 255
181 211 255
181 211 255
181 211 255
181 211 255
181 211 255
181 211 255
181 211 255
180 210 255
180 210 255
180 210 255
180 210 255
180 210 255
180 210 255
180 210 255
180 210 255
180 210 255
180 210 255
180 210 255
180 210 255
180 210 255
180 210 255
180 210 255
180 210 255
180 210 255
180 210 255
180 210 255
180 210 255
180 210 255
179 210 255
179 210 255
179 210 255
179 210 255
179 210 255
179 210 255
179 210 255
179 210 255
179 210 255
179 210 255
179 210 255
179 210 255
179 210 255
179 209 255
179 209 255
179 209 255
179 209 255
179 209 255
178 209 255
178 209 255
178 209 255
178 209 255
178 209 255
178 209 255
178 209 255
178 209 255
178 209 255
178 209 255
178 209 255
178 209 255
178 209 255
178 209 255
178 209 255
178 209 255
178 209 255
178 209 255
178 209 255
177 209 255
177 209 255
177 209 255
177 209 255
177 209 255
177 208 255
177 208 255
177 208 255
177 208 255
177 208 255
177 208 255
177 208 255
177 208 255
177 208 255
177 208 255
177 208 255
177 208 255
177 208 255
176 208 255
176 208 255
176 208 255
176 208 255
155 183 225
20 24 31
12 15 19
13 16 21
13 16 20
10 12 16
11 14 18
12 14 18
11 14 19
13 17 21
13 15 19
12 15 19
11 14 18
13 15 20
11 14 19
11 14 18
11 14 18
11 14 18
10 13 16
12 14 18
11 14 19
11 14 18
11 14 17
13 16 21
12 15 19
12 15 20
10 12 16
12 15 20
12 15 19
11 14 18
11 14 18
11 14 18
11 14 18
13 15 19
12 14 18
11 13 17
12 14 18
12 15 19
12 14 18
12 15 19
11 14 18
12 14 18
11 14 18
11 14 18
12 14 19
12 15 19
12 15 20
12 15 20
12 14 19
11 14 18
12 14 18
12 15 19
12 15 20
12 14 19
12 14 18
13 16 20
11 14 18
13 16 20
12 15 19
11 13 17
12 15 19
12 14 18
11 14 18
12 15 19
11 13 17
12 15 19
12 15 19
12 15 20
11 14 18
12 15 20
11 14 18
12 15 19
12 14 18
11 14 18
11 14 18
12 14 19
12 15 19
12 14 18
11 14 18
12 15 20
11 14 18
12 15 19
12 15 19
11 14 19
11 13 17
11 14 18
11 14 18
13 16 20
13 16 20
12 14 19
12 15 18
12 15 19
12 15 19
12 15 20
12 15 19
13 16 21
12 15 19
11 14 18
12 15 19
12 15 19
11 14 17
11 14 18
12 15 20
10 13 17
12 15 20
13 16 21
11 14 18
12 15 19
12 15 19
13 15 20
11 14 18
12 15 19
11 13 17
14 17 22
19 23 29
157 185 227
176 208 255
176 208 255
176 208 255
176 208 255
177 208 255
177 208 255
177 208 255
177 208 255
177 208 255
177 208 255
177 208 255
177 208 255
177 208 255
177 208 255
177 208 255
177 208 255
177 209 255
177 209 255
177 209 255
177 209 255
177 209 255
177 209 255
178 209 255
178 209 255
178 209 255
178 209 255
178 209 255
178 209 255
178 209 255
178 209 255
178 209 255
178 209 255
178 209 255
178 209 255
178 209 255
178 209 255
178 209 255
178 209 255
178 209 255
178 209 255
179 209 255
179 209 255
179 209 255
179 209 255
179 209 255
179 209 255
179 210 255
179 210 255
179 210 255
179 210 255
179 210 255
179 210 255
179 210 255
179 210 255
179 210 255
179 210 255
179 210 255
179 210 255
179 210 255
180 210 255
180 210 255
180 210 255
180 210 255
180 210 255
180 210 255
180 210 255
180 210 255
180 210 255
180 210 255
180 210 255
180 210 255
180 210 255
180 210 255
180 210 255
180 210 255
180 210 255
180 210 255
180 210 255
180 210 255
181 211 255
181 211 255
181 211 255
181 211 255
181 211 255
181 211 255
181 211 255
181 211 255
181 211 255
181 211 255
181 211 255
181 211 255
181 211 255
181 211 255
181 211 255
181 211 255
181 211 255
181 211 255
181 211 255
181 211 255
181 211 255
181 211 255
181 211 255
181 211 255
182 211 255
182 211 255
182 211 255
182 211 255
182 211 255
182 211 255
182 211 255
182 211 255
182 211 255
182 211 255
182 211 255
182 211 255
182 211 255
182 211 255
182 211 255
182 211 255
182 211 255
182 212 255
182 212 255
182 212 255
182 212 255
182 212 255
182 212 255
182 212 255
182 212 255
182 212 255
183 212 255
183 212 255
183 212 255
183 212 255
183 212 255
183 212 255
183 212 255
183 212 255
183 212 255
183 212 255
183 212 255
183 212 255
183 212 255
183 212 255
183 212 255
183 212 255
183 212 255
183 212 255
183 212 255
183 212 255
183 212 255
183 212 255
183 212 255
183 212 255
183 212 255
183 212 255
183 212 255
183 212 255
183 212 255
183 212 255
183 212 255
183 212 255
183 212 255
183 212 255
182 212 255
182 212 255
182 212 255
182 212 255
182 212 255
182 212 255
182 212 255
182 212 255
182 212 255
182 211 255
182 211 255
182 211 255
182 211 255
182 211 255
182 211 255
182 211 255
182 211 255
182 211 255
182 211 255
182 211 255
182 211 255
182 211 255
182 211 255
182 211 255
182 211 255
182 211 255
181 211 255
181 211 255
181 211 255
181 211 255
181 211 255
181 211 255
181 211 255
181 211 255
181 211 255
181 211 255
181 211 255
181 211 255
181 211 255
181 211 255
181 211 255
181 211 255
181 211 255
181 211 255
181 211 255
181 211 255
181 211 255
181 211 255
181 211 255
180 210 255
180 210 255
180 210 255
180 210 255
180 210 255
180 210 255
180 210 255
180 210 255
180 210 255
180 210 255
180 210 255
180 210 255
180 210 255
180 210 255
180 210 255
180 210 255
180 210 255
180 210 255
180 210 255
180 210 255
179 210 255
179 210 255
179 210 255
179 210 255
179 210 255
179 210 255
179 210 255
179 210 255
179 210 255
179 210 255
179 210 255
179 210 255
179 210 255
179 209 255
179 209 255
179 209 255
179 209 255
179 209 255
179 209 255
178 209 255
178 209 255
178 209 255
178 209 255
178 209 255
178 209 255
178 209 255
178 209 255
178 209 255
178 209 255
178 209 255
178 209 255
178 209 255
178 209 255
178 209 255
178 209 255
178 209 255
178 209 255
178 209 255
177 209 255
177 209 255
177 209 255
177 209 255
177 209 255
177 209 255
177 208 255
177 208 255
177 208 255
177 208 255
177 208 255
177 208 255
177 208 255
177 208 255
79 94 115
12 15 19
11 14 18
12 15 19
11 14 18
12 15 19
12 15 19
11 14 18
13 16 21
11 14 18
12 15 19
13 16 20
13 16 20
12 14 19
12 15 19
11 14 18
13 15 20
12 15 20
12 14 18
10 13 17
12 15 19
11 14 18
12 15 19
11 14 18
12 14 18
11 14 18
12 15 19
12 15 19
11 14 17
11 14 18
12 15 19
11 14 18
11 14 18
11 14 17
11 13 17
12 15 19
11 14 18
11 14 17
11 13 17
12 14 18
12 15 19
11 14 18
12 15 19
12 14 19
13 16 20
11 13 17
12 15 19
11 13 17
11 14 18
12 15 20
10 13 17
13 15 20
12 14 18
11 13 17
10 13 17
12 15 20
11 14 18
13 15 20
11 13 17
11 13 17
12 15 19
11 13 17
11 14 17
11 14 18
11 14 18
12 15 20
13 16 20
11 13 17
12 15 19
12 15 19
11 13 17
11 13 17
12 15 19
13 16 20
11 13 17
10 13 16
11 14 18
12 15 19
14 17 21
11 14 18
13 16 20
12 14 19
12 15 18
11 13 17
11 14 18
12 15 19
11 14 18
11 14 18
13 16 20
12 15 19
12 14 18
12 15 19
12 15 19
12 15 19
12 15 19
12 15 19
11 13 17
12 15 20
12 15 19
10 13 17
12 15 19
11 14 18
12 14 19
11 14 18
11 14 18
11 13 17
13 16 20
13 15 20
12 15 19
11 14 18
11 14 18
11 14 18
12 15 19
11 13 17
12 15 20
87 103 128
177 208 255
177 208 255
177 208 255
177 208 255
177 208 255
177 208 255
177 208 255
177 208 255
177 209 255
177 209 255
177 209 255
177 209 255
177 209 255
177 209 255
178 209 255
178 209 255
178 209 255
178 209 255
178 209 255
178 209 255
178 209 255
178 209 255
178 209 255
178 209 255
178 209 255
178 209 255
178 209 255
178 209 255
178 209 255
178 209 255
178 209 255
178 209 255
178 209 255
179 209 255
179 209 255
179 209 255
179 209 255
179 209 255
179 209 255
179 210 255
179 210 255
179 210 255
179 210 255
179 210 255
179 210 255
179 210 255
179 210 255
179 210 255
179 210 255
179 210 255
179 210 255
180 210 255
180 210 255
180 210 255
180 210 255
180 210 255
180 210 255
180 210 255
180 210 255
180 210 255
180 210 255
180 210 255
180 210 255
180 210 255
180 210 255
180 210 255
180 210 255
180 210 255
180 210 255
180 210 255
180 210 255
180 210 255
181 211 255
181 211 255
181 211 255
181 211 255
181 211 255
181 211 255
181 211 255
181 211 255
181 211 255
181 211 255
181 211 255
181 211 255
181 211 255
181 211 255
181 211 255
181 211 255
181 211 255
181 211 255
181 211 255
181 211 255
181 211 255
181 211 255
182 211 255
182 211 255
182 211 255
182 211 255
182 211 255
182 211 255
182 211 255
182 211 255
182 211 255
182 211 255
182 211 255
182 211 255
182 211 255
182 211 255
182 211 255
182 211 255
182 211 255
182 211 255
182 212 255
182 212 255
182 212 255
182 212 255
182 212 255
182 212 255
182 212 255
182 212 255
182 212 255
183 212 255
183 212 255
183 212 255
183 212 255
183 212 255
183 212 255
183 212 255
183 212 255
183 212 255
183 212 255
183 212 255
183 212 255
183 212 255
183 212 255
183 212 255
183 212 255
183 212 255
183 212 255
183 212 255
183 212 255
183 212 255
183 212 255
183 212 255
183 212 255
183 212 255
183 212 255
183 212 255
183 212 255
183 212 255
183 212 255
183 212 255
183 212 255
183 212 255
183 212 255
183 212 255
183 212 255
183 212 255
183 212 255
183 212 255
183 212 255
183 212 255
183 212 255
183 212 255
183 212 255
183 212 255
183 212 255
183 212 255
183 212 255
183 212 255
183 212 255
183 212 255
182 212 255
182 212 255
182 212 255
182 212 255
182 212 255
182 212 255
182 212 255
182 212 255
182 212 255
182 211 255
182 211 255
182 211 255
182 211 255
182 211 255
182 211 255
182 211 255
182 211 255
182 211 255
182 211 255
182 211 255
182 211 255
182 211 255
182 211 255
182 211 255
182 211 255
182 211 255
181 211 255
181 211 255
181 211 255
181 211 255
181 211 255
181 211 255
181 211 255
181 211 255
181 211 255
181 211 255
181 211 255
181 211 255
181 211 255
181 211 255
181 211 255
181 211 255
181 211 255
181 211 255
181 211 255
181 211 255
181 211 255
180 210 255
180 210 255
180 210 255
180 210 255
180 210 255
180 210 255
180 210 255
180 210 255
180 210 255
180 210 255
180 210 255
180 210 255
180 210 255
180 210 255
180 210 255
180 210 255
180 210 255
180 210 255
180 210 255
180 210 255
180 210 255
179 210 255
179 210 255
179 210 255
179 210 255
179 210 255
179 210 255
179 210 255
179 210 255
179 210 255
179 210 255
179 210 255
179 210 255
179 210 255
179 209 255
179 209 255
179 209 255
179 209 255
179 209 255
179 209 255
178 209 255
178 209 255
178 209 255
178 209 255
178 209 255
178 209 255
178 209 255
178 209 255
178 209 255
178 209 255
178 209 255
178 209 255
178 209 255
178 209 255
178 209 255
178 209 255
178 209 255
178 209 255
178 209 255
178 209 255
177 209 255
177 209 255
177 209 255
177 209 255
153 180 221
12 14 19
11 14 18
13 16 21
11 14 18
12 14 19
12 15 19
12 14 18
12 14 18
12 15 20
12 15 20
11 14 18
11 14 18
10 12 15
12 15 20
11 14 18
11 14 18
11 13 17
12 14 18
11 13 17
12 15 19
12 15 19
11 14 18
11 13 17
11 14 18
11 14 18
13 16 20
11 13 17
11 14 18
11 14 18
10 13 16
11 14 17
11 14 18
11 14 18
11 14 18
12 14 18
12 14 18
11 14 18
11 14 18
12 14 18
11 14 18
11 14 17
12 14 19
11 14 17
11 13 17
11 14 18
11 13 17
11 14 17
12 15 20
11 14 18
12 15 19
12 15 19
12 15 19
11 14 18
12 15 19
10 13 17
12 15 19
11 14 18
12 14 18
11 14 18
11 14 18
12 14 18
11 14 18
11 13 17
11 14 19
11 13 17
11 13 17
10 13 17
12 15 19
11 13 17
12 15 19
11 14 18
11 14 17
11 14 18
11 13 17
11 14 19
12 14 18
12 14 19
12 15 19
11 14 17
11 14 18
12 14 18
11 14 17
13 16 20
11 14 18
11 14 18
13 16 20
12 15 20
12 15 19
13 16 20
12 14 19
11 14 18
13 16 20
11 14 18
11 13 17
11 13 17
13 16 21
12 15 19
12 15 19
12 15 20
11 13 17
11 13 17
12 15 19
11 14 18
12 14 18
12 14 19
12 14 18
12 15 19
11 14 18
12 15 19
12 15 19
12 15 19
10 13 17
12 14 19
12 15 19
12 15 18
14 18 23
156 183 225
177 209 255
177 209 255
177 209 255
177 209 255
177 209 255
178 209 255
178 209 255
178 209 255
178 209 255
178 209 255
178 209 255
178 209 255
178 209 255
178 209 255
178 209 255
178 209 255
178 209 255
178 209 255
178 209 255
178 209 255
178 209 255
178 209 255
178 209 255
178 209 255
179 209 255
179 209 255
179 209 255
179 209 255
179 209 255
179 209 255
179 210 255
179 210 255
179 210 255
179 210 255
179 210 255
179 210 255
179 210 255
179 210 255
179 210 255
179 210 255
179 210 255
179 210 255
179 210 255
179 210 255
180 210 255
180 210 255
180 210 255
180 210 255
180 210 255
180 210 255
180 210 255
180 210 255
180 210 255
180 210 255
180 210 255
180 210 255
180 210 255
180 210 255
180 210 255
180 210 255
180 210 255
180 210 255
180 210 255
181 211 255
181 211 255
181 211 255
181 211 255
181 211 255
181 211 255
181 211 255
181 211 255
181 211 255
181 211 255
181 211 255
181 211 255
181 211 255
181 211 255
181 211 255
181 211 255
181 211 255
181 211 255
181 211 255
181 211 255
181 211 255
181 211 255
181 211 255
182 211 255
182 211 255
182 211 255
182 211 255
182 211 255
182 211 255
182 211 255
182 211 255
182 211 255
182 211 255
182 211 255
182 211 255
182 211 255
182 211 255
182 211 255
182 211 255
182 211 255
182 212 255
182 212 255
182 212 255
182 212 255
182 212 255
182 212 255
182 212 255
182 212 255
183 212 255
183 212 255
183 212 255
183 212 255
183 212 255
183 212 255
183 212 255
183 212 255
183 212 255
183 212 255
183 212 255
183 212 255
183 212 255
183 212 255
183 212 255
183 212 255
183 212 255
183 212 255
183 212 255
183 212 255
183 212 255
183 212 255
183 212 255
183 212 255
183 212 255
183 212 255
183 212 255
183 212 255
183 212 255
183 212 255
184 212 255
184 212 255
184 212 255
184 212 255
184 212 255
184 212 255
184 212 255
184 212 255
183 212 255
183 212 255
183 212 255
183 212 255
183 212 255
183 212 255
183 212 255
183 212 255
183 212 255
183 212 255
183 212 255
183 212 255
183 212 255
183 212 255
183 212 255
183 212 255
183 212 255
183 212 255
183 212 255
183 212 255
183 212 255
183 212 255
183 212 255
183 212 255
183 212 255
183 212 255
183 212 255
183 212 255
183 212 255
183 212 255
182 212 255
182 212 255
182 212 255
182 212 255
182 212 255
182 212 255
182 212 255
182 212 255
182 212 255
182 211 255
182 211 255
182 211 255
182 211 255
182 211 255
182 211 255
182 211 255
182 211 255
182 211 255
182 211 255
182 211 255
182 211 255
182 211 255
182 211 255
182 211 255
182 211 255
181 211 255
181 211 255
181 211 255
181 211 255
181 211 255
181 211 255
181 211 255
181 211 255
181 211 255
181 211 255
181 211 255
181 211 255
181 211 255
181 211 255
181 211 255
181 211 255
181 211 255
181 211 255
181 211 255
181 211 255
181 211 255
181 211 255
181 211 255
180 210 255
180 210 255
180 210 255
180 210 255
180 210 255
180 210 255
180 210 255
180 210 255
180 210 255
180 210 255
180 210 255
180 210 255
180 210 255
180 210 255
180 210 255
180 210 255
180 210 255
180 210 255
180 210 255
180 210 255
179 210 255
179 210 255
179 210 255
179 210 255
179 210 255
179 210 255
179 210 255
179 210 255
179 210 255
179 210 255
179 210 255
179 210 255
179 210 255
179 209 255
179 209 255
179 209 255
179 209 255
179 209 255
179 209 255
178 209 255
178 209 255
178 209 255
178 209 255
178 209 255
178 209 255
178 209 255
178 209 255
178 209 255
178 209 255
178 209 255
178 209 255
178 209 255
178 209 255
178 209 255
178 209 255
71 84 103
13 16 20
11 14 18
12 14 18
12 15 19
12 15 20
11 14 18
12 15 20
12 14 19
13 16 20
12 15 20
12 14 18
11 14 18
12 15 19
11 14 18
12 15 19
11 14 18
13 15 20
12 15 20
11 14 18
11 14 17
12 15 20
11 14 18
12 15 19
11 14 18
11 14 18
12 15 19
11 14 18
12 15 19
10 13 17
12 15 20
10 13 17
11 14 18
12 15 19
12 15 19
12 15 19
11 14 18
11 13 17
11 14 17
12 15 19
12 15 20
11 13 17
12 15 19
11 13 17
12 15 20
12 14 18
11 14 18
12 15 19
10 12 16
11 13 17
10 13 17
11 14 18
11 14 18
12 15 19
10 12 15
12 14 18
11 14 18
11 14 19
11 14 18
11 13 17
12 15 19
12 15 19
11 14 17
11 14 17
12 14 18
12 15 19
10 13 17
13 16 21
12 14 18
11 13 17
12 15 19
12 15 19
11 14 18
11 13 17
10 13 16
11 14 17
11 14 18
12 14 18
11 13 17
11 14 18
11 13 17
12 15 19
11 14 18
11 14 18
12 15 20
11 14 18
12 15 19
10 12 16
12 14 19
11 14 18
11 13 17
12 15 19
12 14 18
12 14 18
12 14 18
12 15 20
11 14 18
12 14 19
11 13 17
12 15 19
10 13 17
10 13 16
13 16 20
11 13 17
12 14 19
11 14 18
11 14 18
12 15 19
11 14 18
12 15 19
11 14 18
11 14 18
12 15 19
12 15 19
12 15 19
12 15 19
12 15 20
87 103 127
178 209 255
178 209 255
178 209 255
178 209 255
178 209 255
178 209 255
178 209 255
178 209 255
178 209 255
178 209 255
178 209 255
178 209 255
178 209 255
178 209 255
178 209 255
178 209 255
179 209 255
179 209 255
179 209 255
179 209 255
179 209 255
179 209 255
179 210 255
179 210 255
179 210 255
179 210 255
179 210 255
179 210 255
179 210 255
179 210 255
179 210 255
179 210 255
179 210 255
179 210 255
179 210 255
180 210 255
180 210 255
180 210 255
180 210 255
180 210 255
180 210 255
180 210 255
180 210 255
180 210 255
180 210 255
180 210 255
180 210 255
180 210 255
180 210 255
180 210 255
180 210 255
180 210 255
180 210 255
180 210 255
180 210 255
180 210 255
181 211 255
181 211 255
181 211 255
181 211 255
181 211 255
181 211 255
181 211 255
181 211 255
181 211 255
181 211 255
181 211 255
181 211 255
181 211 255
181 211 255
181 211 255
181 211 255
181 211 255
181 211 255
181 211 255
181 211 255
181 211 255
181 211 255
182 211 255
182 211 255
182 211 255
182 211 255
182 211 255
182 211 255
182 211 255
182 211 255
182 211 255
182 211 255
182 211 255
182 211 255
182 211 255
182 211 255
182 211 255
182 211 255
182 212 255
182 212 255
182 212 255
182 212 255
182 212 255
182 212 255
182 212 255
182 212 255
182 212 255
183 212 255
183 212 255
183 212 255
183 212 255
183 212 255
183 212 255
183 212 255
183 212 255
183 212 255
183 212 255
183 212 255
183 212 255
183 212 255
183 212 255
183 212 255
183 212 255
183 212 255
183 212 255
183 212 255
183 212 255
183 212 255
183 212 255
183 212 255
183 212 255
183 212 255
183 212 255
183 212 255
183 212 255
183 212 255
184 212 255
184 212 255
184 212 255
184 212 255
184 212 255
184 212 255
184 212 255
184 212 255
184 212 255
184 213 255
184 213 255
184 213 255
184 213 255
184 213 255
184 213 255
184 212 255
184 212 255
184 212 255
184 212 255
184 212 255
184 212 255
184 212 255
184 212 255
184 212 255
184 212 255
184 212 255
184 212 255
183 212 255
183 212 255
183 212 255
183 212 255
183 212 255
183 212 255
183 212 255
183 212 255
183 212 255
183 212 255
183 212 255
183 212 255
183 212 255
183 212 255
183 212 255
183 212 255
183 212 255
183 212 255
183 212 255
183 212 255
183 212 255
183 212 255
183 212 255
183 212 255
183 212 255
183 212 255
183 212 255
183 212 255
183 212 255
182 212 255
182 212 255
182 212 255
182 212 255
182 212 255
182 212 255
182 212 255
182 212 255
182 211 255
182 211 255
182 211 255
182 211 255
182 211 255
182 211 255
182 211 255
182 211 255
182 211 255
182 211 255
182 211 255
182 211 255
182 211 255
182 211 255
182 211 255
182 211 255
182 211 255
181 211 255
181 211 255
181 211 255
181 211 255
181 211 255
181 211 255
181 211 255
181 211 255
181 211 255
181 211 255
181 211 255
181 211 255
181 211 255
181 211 255
181 211 255
181 211 255
181 211 255
181 211 255
181 211 255
181 211 255
181 211 255
181 211 255
180 210 255
180 210 255
180 210 255
180 210 255
180 210 255
180 210 255
180 210 255
180 210 255
180 210 255
180 210 255
180 210 255
180 210 255
180 210 255
180 210 255
180 210 255
180 210 255
180 210 255
180 210 255
180 210 255
180 210 255
180 210 255
179 210 255
179 210 255
179 210 255
179 210 255
179 210 255
179 210 255
179 210 255
179 210 255
179 210 255
179 210 255
179 210 255
179 210 255
179 210 255
179 209 255
179 209 255
179 209 255
179 209 255
179 209 255
179 209 255
179 209 255
178 209 255
178 209 255
178 209 255
178 209 255
178 209 255
165 193 236
16 19 24
12 15 19
12 15 20
11 14 18
12 15 19
11 13 17
12 15 19
12 14 18
10 12 16
12 15 19
11 14 18
12 14 19
12 14 18
11 14 18
13 15 20
11 13 17
12 14 18
10 13 16
11 13 17
11 14 18
12 14 19
11 13 17
11 14 17
11 14 18
11 14 18
11 14 17
11 14 17
11 14 18
12 15 18
12 14 18
12 15 19
11 13 17
10 12 15
10 13 17
10 13 16
12 14 19
11 13 17
12 15 19
12 15 19
13 15 20
12 15 19
12 15 20
11 14 18
11 14 18
12 15 19
10 12 15
12 15 20
10 12 16
11 14 18
11 13 17
12 15 19
11 14 18
11 14 18
11 14 18
12 15 19
12 14 18
12 14 18
12 15 19
12 14 19
10 13 17
11 13 17
11 13 17
12 15 19
11 14 18
11 14 18
12 14 18
12 14 18
13 15 19
11 13 17
11 14 17
11 14 18
12 15 19
11 14 18
12 15 19
11 14 18
11 14 18
11 14 18
11 14 18
11 14 18
13 16 20
11 13 17
12 14 18
11 14 18
12 15 19
11 14 18
10 12 15
11 13 17
9 12 15
11 14 18
13 16 20
11 14 18
12 15 19
12 15 19
10 13 17
11 14 18
12 15 19
11 14 17
11 14 17
12 14 18
11 14 18
12 15 19
12 15 19
13 16 20
11 14 18
12 14 19
10 13 17
10 12 16
11 14 17
12 14 18
12 15 19
12 15 19
12 15 19
11 14 18
11 13 17
12 15 19
12 15 19
12 15 19
20 24 30
159 186 228
178 209 255
178 209 255
178 209 255
178 209 255
178 209 255
178 209 255
179 209 255
179 209 255
179 209 255
179 209 255
179 209 255
179 209 255
179 210 255
179 210 255
179 210 255
179 210 255
179 210 255
179 210 255
179 210 255
179 210 255
179 210 255
179 210 255
179 210 255
179 210 255
179 210 255
179 210 255
180 210 255
180 210 255
180 210 255
180 210 255
180 210 255
180 210 255
180 210 255
180 210 255
180 210 255
180 210 255
180 210 255
180 210 255
180 210 255
180 210 255
180 210 255
180 210 255
180 210 255
180 210 255
180 210 255
180 210 255
181 211 255
181 211 255
181 211 255
181 211 255
181 211 255
181 211 255
181 211 255
181 211 255
181 211 255
181 211 255
181 211 255
181 211 255
181 211 255
181 211 255
181 211 255
181 211 255
181 211 255
181 211 255
181 211 255
181 211 255
181 211 255
181 211 255
182 211 255
182 211 255
182 211 255
182 211 255
182 211 255
182 211 255
182 211 255
182 211 255
182 211 255
182 211 255
182 211 255
182 211 255
182 211 255
182 211 255
182 211 255
182 211 255
182 212 255
182 212 255
182 212 255
182 212 255
182 212 255
182 212 255
182 212 255
182 212 255
182 212 255
182 212 255
183 212 255
183 212 255
183 212 255
183 212 255
183 212 255
183 212 255
183 212 255
183 212 255
183 212 255
183 212 255
183 212 255
183 212 255
183 212 255
183 212 255
183 212 255
183 212 255
183 212 255
183 212 255
183 212 255
183 212 255
183 212 255
183 212 255
183 212 255
183 212 255
183 212 255
183 212 255
183 212 255
183 212 255
183 212 255
184 212 255
184 212 255
184 212 255
184 212 255
184 212 255
184 212 255
184 212 255
184 212 255
184 212 255
184 212 255
184 213 255
184 213 255
184 213 255
184 213 255
184 213 255
184 213 255
184 213 255
184 213 255
184 213 255
184 213 255
184 213 255
184 213 255
184 213 255
184 213 255
184 213 255
184 213 255
184 213 255
184 213 255
184 213 255
184 213 255
184 213 255
184 213 255
184 213 255
184 212 255
184 212 255
184 212 255
184 212 255
184 212 255
184 212 255
184 212 255
184 212 255
184 212 255
184 212 255
184 212 255
183 212 255
183 212 255
183 212 255
183 212 255
183 212 255
183 212 255
183 212 255
183 212 255
183 212 255
183 212 255
183 212 255
183 212 255
183 212 255
183 212 255
183 212 255
183 212 255
183 212 255
183 212 255
183 212 255
183 212 255
183 212 255
183 212 255
183 212 255
183 212 255
183 212 255
183 212 255
183 212 255
183 212 255
182 212 255
182 212 255
182 212 255
182 212 255
182 212 255
182 212 255
182 212 255
182 212 255
182 212 255
182 211 255
182 211 255
182 211 255
182 211 255
182 211 255
182 211 255
182 211 255
182 211 255
182 211 255
182 211 255
182 211 255
182 211 255
182 211 255
182 211 255
182 211 255
182 211 255
181 211 255
181 211 255
181 211 255
181 211 255
181 211 255
181 211 255
181 211 255
181 211 255
181 211 255
181 211 255
181 211 255
181 211 255
181 211 255
181 211 255
181 211 255
181 211 255
181 211 255
181 211 255
181 211 255
181 211 255
181 211 255
181 211 255
180 210 255
180 210 255
180 210 255
180 210 255
180 210 255
180 210 255
180 210 255
180 210 255
180 210 255
180 210 255
180 210 255
180 210 255
180 210 255
180 210 255
180 210 255
180 210 255
180 210 255
180 210 255
180 210 255
180 210 255
180 210 255
180 210 255
179 210 255
179 210 255
179 210 255
179 210 255
179 210 255
179 210 255
179 210 255
179 210 255
179 210 255
179 210 255
179 210 255
179 210 255
179 210 255
179 210 255
179 209 255
179 209 255
102 120 146
12 14 18
12 15 19
11 14 18
11 13 17
12 15 19
12 15 19
11 13 17
11 14 18
11 14 18
12 14 19
12 14 18
11 14 18
11 14 18
11 14 17
12 15 19
13 16 20
12 15 19
11 14 18
11 13 17
12 15 19
9 12 15
12 15 19
11 14 18
11 13 17
11 14 18
11 14 17
11 14 18
12 15 19
12 14 19
11 14 17
10 13 16
12 15 20
12 14 18
11 14 18
11 14 17
11 13 17
12 14 18
11 13 17
11 13 16
11 14 17
11 14 18
12 14 18
12 15 19
11 14 17
12 15 19
12 15 19
11 14 18
12 15 19
12 15 19
11 13 17
12 15 19
12 15 19
11 14 18
11 13 17
11 13 17
12 15 19
11 14 17
11 14 17
10 13 17
13 15 19
11 13 17
11 14 18
11 14 18
11 13 17
11 14 18
12 15 19
11 13 17
11 14 18
10 12 15
11 13 17
12 14 18
12 15 19
11 14 18
11 13 17
11 14 18
11 13 17
11 14 18
10 12 16
10 13 16
12 15 19
11 14 18
12 14 18
12 15 19
12 14 18
14 17 21
12 14 18
11 14 18
12 15 19
12 14 18
12 14 18
12 15 19
13 15 20
10 13 17
11 14 18
11 14 18
11 14 18
11 14 18
10 12 16
12 15 19
10 13 17
10 13 16
12 15 19
12 14 19
11 14 18
11 14 18
10 13 16
12 15 19
13 16 20
12 15 20
11 14 18
12 15 19
13 16 20
12 15 19
11 14 18
11 13 17
12 14 18
13 16 20
12 15 20
93 109 133
179 209 255
179 209 255
179 209 255
179 210 255
179 210 255
179 210 255
179 210 255
179 210 255
179 210 255
179 210 255
179 210 255
179 210 255
179 210 255
179 210 255
179 210 255
179 210 255
179 210 255
180 210 255
180 210 255
180 210 255
180 210 255
180 210 255
180 210 255
180 210 255
180 210 255
180 210 255
180 210 255
180 210 255
180 210 255
180 210 255
180 210 255
180 210 255
180 210 255
180 210 255
180 210 255
180 210 255
180 210 255
180 210 255
181 211 255
181 211 255
181 211 255
181 211 255
181 211 255
181 211 255
181 211 255
181 211 255
181 211 255
181 211 255
181 211 255
181 211 255
181 211 255
181 211 255
181 211 255
181 211 255
181 211 255
181 211 255
181 211 255
181 211 255
181 211 255
181 211 255
182 211 255
182 211 255
182 211 255
182 211 255
182 211 255
182 211 255
182 211 255
182 211 255
182 211 255
182 211 255
182 211 255
182 211 255
182 211 255
182 211 255
182 211 255
182 211 255
182 212 255
182 212 255
182 212 255
182 212 255
182 212 255
182 212 255
182 212 255
182 212 255
183 212 255
183 212 255
183 212 255
183 212 255
183 212 255
183 212 255
183 212 255
183 212 255
183 212 255
183 212 255
183 212 255
183 212 255
183 212 255
183 212 255
183 212 255
183 212 255
183 212 255
183 212 255
183 212 255
183 212 255
183 212 255
183 212 255
183 212 255
183 212 255
183 212 255
183 212 255
183 212 255
183 212 255
183 212 255
184 212 255
184 212 255
184 212 255
184 212 255
184 212 255
184 212 255
184 212 255
184 212 255
184 212 255
184 212 255
184 212 255
184 213 255
184 213 255
184 213 255
184 213 255
184 213 255
184 213 255
184 213 255
184 213 255
184 213 255
184 213 255
184 213 255
184 213 255
184 213 255
184 213 255
184 213 255
184 213 255
185 213 255
185 213 255
184 213 255
184 213 255
184 213 255
184 213 255
184 213 255
184 213 255
184 213 255
184 213 255
184 213 255
184 213 255
184 213 255
184 213 255
184 213 255
184 213 255
184 213 255
184 213 255
184 213 255
184 213 255
184 213 255
184 213 255
184 213 255
184 213 255
184 213 255
184 213 255
184 212 255
184 212 255
184 212 255
184 212 255
184 212 255
184 212 255
184 212 255
184 212 255
184 212 255
184 212 255
183 212 255
183 212 255
183 212 255
183 212 255
183 212 255
183 212 255
183 212 255
183 212 255
183 212 255
183 212 255
183 212 255
183 212 255
183 212 255
183 212 255
183 212 255
183 212 255
183 212 255
183 212 255
183 212 255
183 212 255
183 212 255
183 212 255
183 212 255
183 212 255
183 212 255
183 212 255
183 212 255
183 212 255
183 212 255
182 212 255
182 212 255
182 212 255
182 212 255
182 212 255
182 212 255
182 212 255
182 212 255
182 211 255
182 211 255
182 211 255
182 211 255
182 211 255
182 211 255
182 211 255
182 211 255
182 211 255
182 211 255
182 211 255
182 211 255
182 211 255
182 211 255
182 211 255
182 211 255
181 211 255
181 211 255
181 211 255
181 211 255
181 211 255
181 211 255
181 211 255
181 211 255
181 211 255
181 211 255
181 211 255
181 211 255
181 211 255
181 211 255
181 211 255
181 211 255
181 211 255
181 211 255
181 211 255
181 211 255
181 211 255
181 211 255
180 210 255
180 210 255
180 210 255
180 210 255
180 210 255
180 210 255
180 210 255
180 210 255
180 210 255
180 210 255
180 210 255
180 210 255
180 210 255
180 210 255
180 210 255
180 210 255
180 210 255
180 210 255
180 210 255
180 210 255
180 210 255
180 210 255
179 210 255
179 210 255
179 210 255
179 210 255
179 210 255
179 210 255
176 206 251
19 22 28
12 14 19
12 15 19
11 13 17
12 15 19
11 14 18
12 15 19
10 13 16
12 15 19
12 15 19
11 14 18
11 14 18
12 15 20
10 13 16
10 12 16
12 15 19
11 13 17
11 14 18
10 13 16
12 15 19
12 14 18
11 14 17
11 14 18
11 14 18
10 12 16
12 15 19
11 14 18
12 14 19
12 14 18
10 13 16
10 13 17
11 14 17
11 13 17
11 14 17
9 12 15
12 15 19
11 13 17
11 13 17
11 13 17
12 15 19
11 14 18
11 13 17
11 13 17
10 13 16
10 13 16
11 13 17
12 15 19
12 15 19
11 13 17
12 15 19
10 12 16
12 14 18
11 14 17
11 13 17
12 15 18
12 15 19
12 15 20
11 14 18
11 13 17
10 13 17
11 14 18
11 14 18
11 13 17
11 14 18
10 13 17
12 15 19
12 15 19
12 15 19
12 15 19
11 13 17
11 13 17
10 12 16
12 15 19
10 13 16
12 15 18
11 14 18
12 15 19
11 13 17
11 14 18
12 15 19
11 14 17
11 14 18
11 13 17
11 14 18
11 14 18
9 11 14
11 14 18
11 14 17
11 13 17
11 14 18
10 13 17
12 14 18
12 15 19
12 15 19
12 14 18
12 15 19
13 16 20
11 13 17
11 14 18
12 15 20
11 13 17
11 14 18
12 15 20
11 14 18
12 14 18
12 15 20
11 14 18
12 15 19
11 13 17
11 13 17
11 14 18
12 15 19
11 13 17
11 14 18
12 14 19
12 15 20
11 14 19
12 14 19
12 14 18
30 36 45
174 204 248
179 210 255
179 210 255
179 210 255
179 210 255
179 210 255
179 210 255
180 210 255
180 210 255
180 210 255
180 210 255
180 210 255
180 210 255
180 210 255
180 210 255
180 210 255
180 210 255
180 210 255
180 210 255
180 210 255
180 210 255
180 210 255
180 210 255
180 210 255
180 210 255
180 210 255
180 210 255
180 210 255
180 210 255
181 211 255
181 211 255
181 211 255
181 211 255
181 211 255
181 211 255
181 211 255
181 211 255
181 211 255
181 211 255
181 211 255
181 211 255
181 211 255
181 211 255
181 211 255
181 211 255
181 211 255
181 211 255
181 211 255
181 211 255
181 211 255
181 211 255
182 211 255
182 211 255
182 211 255
182 211 255
182 211 255
182 211 255
182 211 255
182 211 255
182 211 255
182 211 255
182 211 255
182 211 255
182 211 255
182 211 255
182 211 255
182 211 255
182 212 255
182 212 255
182 212 255
182 212 255
182 212 255
182 212 255
182 212 255
182 212 255
183 212 255
183 212 255
183 212 255
183 212 255
183 212 255
183 212 255
183 212 255
183 212 255
183 212 255
183 212 255
183 212 255
183 212 255
183 212 255
183 212 255
183 212 255
183 212 255
183 212 255
183 212 255
183 212 255
183 212 255
183 212 255
183 212 255
183 212 255
183 212 255
183 212 255
183 212 255
183 212 255
183 212 255
183 212 255
184 212 255
184 212 255
184 212 255
184 212 255
184 212 255
184 212 255
184 212 255
184 212 255
184 212 255
184 212 255
184 213 255
184 213 255
184 213 255
184 213 255
184 213 255
184 213 255
184 213 255
184 213 255
184 213 255
184 213 255
184 213 255
184 213 255
184 213 255
184 213 255
184 213 255
184 213 255
184 213 255
184 213 255
184 213 255
184 213 255
184 213 255
184 213 255
184 213 255
185 213 255
185 213 255
185 213 255
185 213 255
185 213 255
185 213 255
185 213 255
185 213 255
185 213 255
185 213 255
185 213 255
185 213 255
185 213 255
185 213 255
185 213 255
185 213 255
184 213 255
184 213 255
184 213 255
184 213 255
184 213 255
184 213 255
184 213 255
184 213 255
184 213 255
184 213 255
184 213 255
184 213 255
184 213 255
184 213 255
184 213 255
184 213 255
184 213 255
184 213 255
184 213 255
184 213 255
184 213 255
184 213 255
184 213 255
184 212 255
184 212 255
184 212 255
184 212 255
184 212 255
184 212 255
184 212 255
184 212 255
184 212 255
184 212 255
183 212 255
183 212 255
183 212 255
183 212 255
183 212 255
183 212 255
183 212 255
183 212 255
183 212 255
183 212 255
183 212 255
183 212 255
183 212 255
183 212 255
183 212 255
183 212 255
183 212 255
183 212 255
183 212 255
183 212 255
183 212 255
183 212 255
183 212 255
183 212 255
183 212 255
183 212 255
183 212 255
183 212 255
182 212 255
182 212 255
182 212 255
182 212 255
182 212 255
182 212 255
182 212 255
182 212 255
182 212 255
182 211 255
182 211 255
182 211 255
182 211 255
182 211 255
182 211 255
182 211 255
182 211 255
182 211 255
182 211 255
182 211 255
182 211 255
182 211 255
182 211 255
182 211 255
181 211 255
181 211 255
181 211 255
181 211 255
181 211 255
181 211 255
181 211 255
181 211 255
181 211 255
181 211 255
181 211 255
181 211 255
181 211 255
181 211 255
181 211 255
181 211 255
181 211 255
181 211 255
181 211 255
181 211 255
181 211 255
181 211 255
181 211 255
180 210 255
180 210 255
180 210 255
180 210 255
180 210 255
180 210 255
180 210 255
180 210 255
180 210 255
180 210 255
180 210 255
180 210 255
180 210 255
180 210 255
180 210 255
180 210 255
180 210 255
180 210 255
115 134 164
12 15 20
11 14 17
13 16 21
12 15 20
11 13 17
11 13 17
12 15 19
13 16 20
11 14 17
11 13 17
11 14 18
12 15 19
11 14 18
11 13 17
11 13 17
11 13 17
11 14 18
13 16 20
11 13 17
11 14 17
12 14 18
11 14 18
12 15 19
12 15 19
12 15 19
11 14 18
11 14 18
10 13 17
9 12 15
11 13 17
13 16 20
11 14 18
11 14 18
11 14 18
12 15 19
10 13 17
12 15 19
12 15 19
11 14 18
11 14 18
11 13 17
10 13 16
11 13 17
12 15 19
12 15 19
11 13 17
11 14 18
10 12 16
11 14 17
10 13 17
10 13 17
11 13 17
12 14 18
11 14 18
11 14 17
12 15 19
12 14 18
12 14 18
11 14 18
12 15 18
11 14 17
11 14 18
12 14 19
12 14 18
11 14 17
10 12 16
11 13 16
13 16 21
10 13 17
12 14 18
11 14 18
10 13 16
12 15 19
11 13 17
12 15 19
9 11 15
11 13 17
12 14 19
12 14 18
12 15 19
11 14 18
10 12 16
11 14 18
10 13 17
10 13 16
11 13 17
11 14 19
13 16 20
11 14 18
12 14 18
11 13 17
12 15 19
12 14 18
12 14 18
11 14 18
12 15 19
12 14 18
11 14 18
12 14 18
12 15 20
12 15 20
11 14 18
11 14 18
10 13 17
11 14 18
11 14 18
11 14 17
11 14 18
11 14 18
13 16 20
12 15 19
12 15 19
12 15 19
12 14 18
11 13 17
13 16 20
12 15 20
10 12 16
12 14 18
12 14 18
117 137 167
180 210 255
180 210 255
180 210 255
180 210 255
180 210 255
180 210 255
180 210 255
180 210 255
180 210 255
180 210 255
180 210 255
180 210 255
180 210 255
180 210 255
180 210 255
180 210 255
180 210 255
180 210 255
181 211 255
181 211 255
181 211 255
181 211 255
181 211 255
181 211 255
181 211 255
181 211 255
181 211 255
181 211 255
181 211 255
181 211 255
181 211 255
181 211 255
181 211 255
181 211 255
181 211 255
181 211 255
181 211 255
181 211 255
181 211 255
181 211 255
181 211 255
182 211 255
182 211 255
182 211 255
182 211 255
182 211 255
182 211 255
182 211 255
182 211 255
182 211 255
182 211 255
182 211 255
182 211 255
182 211 255
182 211 255
182 211 255
182 211 255
182 212 255
182 212 255
182 212 255
182 212 255
182 212 255
182 212 255
182 212 255
182 212 255
183 212 255
183 212 255
183 212 255
183 212 255
183 212 255
183 212 255
183 212 255
183 212 255
183 212 255
183 212 255
183 212 255
183 212 255
183 212 255
183 212 255
183 212 255
183 212 255
183 212 255
183 212 255
183 212 255
183 212 255
183 212 255
183 212 255
183 212 255
183 212 255
183 212 255
183 212 255
183 212 255
183 212 255
184 212 255
184 212 255
184 212 255
184 212 255
184 212 255
184 212 255
184 212 255
184 212 255
184 212 255
184 212 255
184 213 255
184 213 255
184 213 255
184 213 255
184 213 255
184 213 255
184 213 255
184 213 255
184 213 255
184 213 255
184 213 255
184 213 255
184 213 255
184 213 255
184 213 255
184 213 255
184 213 255
184 213 255
184 213 255
184 213 255
184 213 255
184 213 255
184 213 255
185 213 255
185 213 255
185 213 255
185 213 255
185 213 255
185 213 255
185 213 255
185 213 255
185 213 255
185 213 255
185 213 255
185 213 255
185 213 255
185 213 255
185 213 255
185 213 255
185 213 255
185 213 255
185 213 255
185 213 255
185 213 255
185 213 255
185 213 255
185 213 255
185 213 255
185 213 255
185 213 255
185 213 255
185 213 255
185 213 255
185 213 255
185 213 255
185 213 255
185 213 255
185 213 255
185 213 255
185 213 255
184 213 255
184 213 255
184 213 255
184 213 255
184 213 255
184 213 255
184 213 255
184 213 255
184 213 255
184 213 255
184 213 255
184 213 255
184 213 255
184 213 255
184 213 255
184 213 255
184 213 255
184 213 255
184 213 255
184 213 255
184 213 255
184 213 255
184 212 255
184 212 255
184 212 255
184 212 255
184 212 255
184 212 255
184 212 255
184 212 255
184 212 255
184 212 255
183 212 255
183 212 255
183 212 255
183 212 255
183 212 255
183 212 255
183 212 255
183 212 255
183 212 255
183 212 255
183 212 255
183 212 255
183 212 255
183 212 255
183 212 255
183 212 255
183 212 255
183 212 255
183 212 255
183 212 255
183 212 255
183 212 255
183 212 255
183 212 255
183 212 255
183 212 255
183 212 255
183 212 255
182 212 255
182 212 255
182 212 255
182 212 255
182 212 255
182 212 255
182 212 255
182 212 255
182 211 255
182 211 255
182 211 255
182 211 255
182 211 255
182 211 255
182 211 255
182 211 255
182 211 255
182 211 255
182 211 255
182 211 255
182 211 255
182 211 255
182 211 255
182 211 255
181 211 255
181 211 255
181 211 255
181 211 255
181 211 255
181 211 255
181 211 255
181 211 255
181 211 255
181 211 255
181 211 255
181 211 255
181 211 255
181 211 255
181 211 255
181 211 255
181 211 255
181 211 255
181 211 255
181 211 255
181 211 255
181 211 255
181 211 255
180 210 255
180 210 255
180 210 255
180 210 255
180 210 255
180 210 255
180 210 255
180 210 255
60 70 86
11 14 18
13 16 21
11 13 17
12 14 18
11 13 17
11 14 18
12 15 20
11 14 18
12 14 18
11 13 17
11 13 17
11 13 17
10 13 17
12 15 19
12 15 19
12 15 19
12 14 18
11 14 18
11 14 17
12 14 19
12 15 19
12 15 19
11 14 18
11 13 17
12 14 18
12 14 19
11 14 18
11 14 18
12 15 20
11 14 18
11 14 18
11 14 18
11 14 18
12 15 19
10 13 17
10 13 17
10 12 16
10 13 16
11 13 17
12 15 19
11 14 18
10 13 17
10 13 16
11 13 17
11 14 18
11 13 17
11 13 17
11 13 17
11 14 18
11 14 18
12 15 19
11 13 17
11 14 17
11 13 17
10 13 16
11 14 17
10 13 16
13 16 20
12 14 18
10 13 16
12 14 18
12 15 19
12 15 19
12 15 19
13 16 20
12 14 18
11 14 18
10 13 16
12 15 19
11 13 17
10 12 16
10 13 16
11 13 17
12 14 18
10 13 17
11 13 17
12 15 20
10 12 16
11 14 18
9 12 15
11 13 17
11 13 17
12 15 19
10 12 16
13 16 20
12 15 20
10 13 16
11 14 18
12 15 19
11 13 17
12 14 18
11 13 17
11 14 18
12 14 18
11 14 18
11 13 17
10 12 16
10 13 16
12 14 18
12 15 19
11 13 17
12 15 19
11 14 17
12 14 18
12 15 19
12 14 18
10 13 16
10 12 16
10 13 17
11 13 17
12 14 18
11 14 17
12 14 19
11 13 17
11 14 18
10 12 16
11 14 17
11 13 17
10 13 17
13 15 20
43 51 63
180 210 255
180 210 255
180 210 255
180 210 255
180 210 255
180 210 255
180 210 255
180 210 255
181 211 255
181 211 255
181 211 255
181 211 255
181 211 255
181 211 255
181 211 255
181 211 255
181 211 255
181 211 255
181 211 255
181 211 255
181 211 255
181 211 255
181 211 255
181 211 255
181 211 255
181 211 255
181 211 255
181 211 255
181 211 255
181 211 255
181 211 255
182 211 255
182 211 255
182 211 255
182 211 255
182 211 255
182 211 255
182 211 255
182 211 255
182 211 255
182 211 255
182 211 255
182 211 255
182 211 255
182 211 255
182 211 255
182 211 255
182 212 255
182 212 255
182 212 255
182 212 255
182 212 255
182 212 255
182 212 255
182 212 255
183 212 255
183 212 255
183 212 255
183 212 255
183 212 255
183 212 255
183 212 255
183 212 255
183 212 255
183 212 255
183 212 255
183 212 255
183 212 255
183 212 255
183 212 255
183 212 255
183 212 255
183 212 255
183 212 255
183 212 255
183 212 255
183 212 255
183 212 255
183 212 255
183 212 255
183 212 255
183 212 255
183 212 255
184 212 255
184 212 255
184 212 255
184 212 255
184 212 255
184 212 255
184 212 255
184 212 255
184 212 255
184 212 255
184 213 255
184 213 255
184 213 255
184 213 255
184 213 255
184 213 255
184 213 255
184 213 255
184 213 255
184 213 255
184 213 255
184 213 255
184 213 255
184 213 255
184 213 255
184 213 255
184 213 255
184 213 255
184 213 255
184 213 255
184 213 255
184 213 255
185 213 255
185 213 255
185 213 255
185 213 255
185 213 255
185 213 255
185 213 255
185 213 255
185 213 255
185 213 255
185 213 255
185 213 255
185 213 255
185 213 255
185 213 255
185 213 255
185 213 255
185 213 255
185 213 255
185 213 255
185 213 255
185 213 255
185 213 255
185 213 255
185 213 255
185 213 255
185 213 255
185 213 255
185 213 255
185 213 255
185 213 255
185 213 255
185 213 255
185 213 255
185 213 255
185 213 255
185 213 255
185 213 255
185 213 255
185 213 255
185 213 255
185 213 255
185 213 255
185 213 255
185 213 255
185 213 255
185 213 255
185 213 255
185 213 255
185 213 255
185 213 255
185 213 255
185 213 255
185 213 255
185 213 255
185 213 255
185 213 255
185 213 255
185 213 255
184 213 255
184 213 255
184 213 255
184 213 255
184 213 255
184 213 255
184 213 255
184 213 255
184 213 255
184 213 255
184 213 255
184 213 255
184 213 255
184 213 255
184 213 255
184 213 255
184 213 255
184 213 255
184 213 255
184 213 255
184 213 255
184 212 255
184 212 255
184 212 255
184 212 255
184 212 255
184 212 255
184 212 255
184 212 255
184 212 255
184 212 255
184 212 255
183 212 255
183 212 255
183 212 255
183 212 255
183 212 255
183 212 255
183 212 255
183 212 255
183 212 255
183 212 255
183 212 255
183 212 255
183 212 255
183 212 255
183 212 255
183 212 255
183 212 255
183 212 255
183 212 255
183 212 255
183 212 255
183 212 255
183 212 255
183 212 255
183 212 255
183 212 255
183 212 255
182 212 255
182 212 255
182 212 255
182 212 255
182 212 255
182 212 255
182 212 255
182 212 255
182 211 255
182 211 255
182 211 255
182 211 255
182 211 255
182 211 255
182 211 255
182 211 255
182 211 255
182 211 255
182 211 255
182 211 255
182 211 255
182 211 255
182 211 255
182 211 255
181 211 255
181 211 255
181 211 255
181 211 255
181 211 255
181 211 255
181 211 255
181 211 255
181 211 255
181 211 255
181 211 255
181 211 255
181 211 255
181 211 255
181 211 255
181 211 255
181 211 255
181 211 255
181 211 255
181 211 255
164 191 232
14 17 22
11 13 17
11 14 17
12 14 18
10 13 17
11 13 17
11 14 18
10 13 16
12 15 20
10 13 17
10 13 17
12 15 19
11 14 17
12 15 19
11 14 18
12 15 19
11 14 18
12 14 18
10 12 16
10 13 17
11 13 17
10 13 16
12 15 19
12 14 18
11 14 18
10 13 16
11 14 18
11 14 18
11 14 18
12 14 18
11 14 18
11 13 17
10 12 16
11 13 17
10 13 16
10 13 17
11 14 18
12 15 19
11 14 17
12 15 19
10 12 16
12 14 18
12 15 18
11 14 17
11 14 18
12 15 19
11 13 17
10 13 16
11 14 18
11 14 18
10 13 16
11 13 17
10 12 16
11 14 18
11 13 17
11 13 17
12 14 18
12 15 20
11 13 17
11 14 18
11 14 18
11 14 18
11 13 17
11 14 18
11 13 17
10 13 16
11 13 17
11 13 17
12 15 19
10 13 16
11 14 18
10 13 17
11 14 18
11 14 18
11 13 17
10 13 16
12 15 19
11 13 17
11 14 18
11 13 16
12 15 19
9 11 15
11 13 17
12 14 18
11 14 18
11 14 17
10 13 16
11 13 17
11 14 18
12 14 19
11 13 17
10 12 16
10 13 16
11 13 17
11 14 18
11 14 18
11 14 18
12 14 18
11 13 17
11 13 18
11 14 17
13 16 20
10 13 17
10 13 16
11 13 17
11 13 17
11 13 17
12 15 19
12 14 19
11 14 18
11 14 18
12 15 19
12 14 18
11 13 17
10 13 17
12 14 18
11 14 18
12 14 18
11 14 18
11 14 18
12 15 19
16 19 24
167 195 237
181 211 255
181 211 255
181 211 255
181 211 255
181 211 255
181 211 255
181 211 255
181 211 255
181 211 255
181 211 255
181 211 255
181 211 255
181 211 255
181 211 255
181 211 255
181 211 255
181 211 255
181 211 255
181 211 255
182 211 255
182 211 255
182 211 255
182 211 255
182 211 255
182 211 255
182 211 255
182 211 255
182 211 255
182 211 255
182 211 255
182 211 255
182 211 255
182 211 255
182 211 255
182 211 255
182 212 255
182 211 255
182 212 255
182 212 255
182 212 255
182 212 255
182 212 255
182 212 255
182 212 255
182 212 255
183 212 255
183 212 255
183 212 255
183 212 255
183 212 255
183 212 255
183 212 255
183 212 255
183 212 255
183 212 255
183 212 255
183 212 255
183 212 255
183 212 255
183 212 255
183 212 255
183 212 255
183 212 255
183 212 255
183 212 255
183 212 255
183 212 255
183 212 255
183 212 255
183 212 255
183 212 255
183 212 255
184 212 255
184 212 255
184 212 255
184 212 255
184 212 255
184 212 255
184 212 255
184 212 255
184 212 255
184 212 255
184 213 255
184 213 255
184 213 255
184 213 255
184 213 255
184 213 255
184 213 255
184 213 255
184 213 255
184 213 255
184 213 255
184 213 255
184 213 255
184 213 255
184 213 255
184 213 255
184 213 255
184 213 255
184 213 255
184 213 255
184 213 255
185 213 255
185 213 255
185 213 255
185 213 255
185 213 255
185 213 255
185 213 255
185 213 255
185 213 255
185 213 255
185 213 255
185 213 255
185 213 255
185 213 255
185 213 255
185 213 255
185 213 255
185 213 255
185 213 255
185 213 255
185 213 255
185 213 255
185 213 255
185 213 255
185 213 255
185 213 255
185 213 255
185 213 255
185 213 255
185 213 255
185 213 255
185 213 255
185 213 255
185 213 255
185 213 255
186 214 255
186 214 255
186 214 255
186 214 255
186 214 255
186 214 255
186 214 255
185 213 255
185 213 255
185 213 255
185 213 255
185 213 255
185 213 255
185 213 255
185 213 255
185 213 255
185 213 255
185 213 255
185 213 255
185 213 255
185 213 255
185 213 255
185 213 255
185 213 255
185 213 255
185 213 255
185 213 255
185 213 255
185 213 255
185 213 255
185 213 255
185 213 255
185 213 255
185 213 255
185 213 255
185 213 255
185 213 255
185 213 255
185 213 255
185 213 255
185 213 255
185 213 255
185 213 255
185 213 255
185 213 255
184 213 255
184 213 255
184 213 255
184 213 255
184 213 255
184 213 255
184 213 255
184 213 255
184 213 255
184 213 255
184 213 255
184 213 255
184 213 255
184 213 255
184 213 255
184 213 255
184 213 255
184 213 255
184 213 255
184 213 255
184 213 255
184 213 255
184 213 255
184 212 255
184 212 255
184 212 255
184 212 255
184 212 255
184 212 255
184 212 255
184 212 255
184 212 255
183 212 255
183 212 255
183 212 255
183 212 255
183 212 255
183 212 255
183 212 255
183 212 255
183 212 255
183 212 255
183 212 255
183 212 255
183 212 255
183 212 255
183 212 255
183 212 255
183 212 255
183 212 255
183 212 255
183 212 255
183 212 255
183 212 255
183 212 255
183 212 255
183 212 255
183 212 255
183 212 255
182 212 255
182 212 255
182 212 255
182 212 255
182 212 255
182 212 255
182 212 255
182 212 255
182 212 255
182 211 255
182 211 255
182 211 255
182 211 255
182 211 255
182 211 255
182 211 255
182 211 255
182 211 255
182 211 255
182 211 255
182 211 255
182 211 255
182 211 255
182 211 255
182 211 255
182 211 255
181 211 255
181 211 255
181 211 255
181 211 255
181 211 255
181 211 255
181 211 255
181 211 255
107 125 152
11 14 18
11 14 18
11 14 17
12 15 19
10 13 16
10 13 17
12 15 19
12 15 19
9 11 14
11 13 17
12 15 19
11 14 18
12 14 18
12 15 19
12 15 19
11 14 18
11 14 18
12 15 19
11 14 18
10 13 16
11 13 17
11 13 17
10 13 16
11 14 18
10 13 16
10 13 17
11 13 17
12 15 19
11 14 18
11 14 17
11 14 18
11 14 18
11 13 17
11 14 17
12 14 18
13 16 20
11 14 18
11 13 17
12 15 19
11 14 18
11 14 17
11 13 17
10 12 16
11 14 18
11 14 17
11 14 18
12 14 18
10 13 17
12 15 19
11 14 18
11 14 18
11 14 18
11 13 17
10 13 16
11 13 17
11 13 17
12 14 18
12 15 19
11 13 17
12 15 19
10 12 16
10 13 16
12 15 19
10 13 17
10 13 17
11 13 17
10 13 17
12 15 19
11 13 17
12 14 19
10 13 16
12 14 18
11 14 17
11 14 18
13 16 20
11 14 18
12 14 18
10 12 16
11 13 17
11 13 17
10 12 16
10 13 17
12 15 19
11 13 17
11 14 19
12 14 18
10 12 16
12 15 20
11 14 18
10 13 16
11 14 18
11 13 17
11 14 18
11 14 17
12 15 19
11 13 17
12 14 18
11 13 17
12 15 19
10 12 15
11 13 17
11 14 18
10 13 17
10 12 16
10 13 17
11 14 18
11 13 17
11 14 18
10 13 16
10 12 16
10 12 16
11 14 18
10 12 16
11 14 18
11 14 17
12 15 19
11 14 19
11 14 18
12 14 18
11 14 18
11 14 18
12 15 19
104 121 147
181 211 255
181 211 255
181 211 255
181 211 255
181 211 255
181 211 255
181 211 255
181 211 255
182 211 255
182 211 255
182 211 255
182 211 255
182 211 255
182 211 255
182 211 255
182 211 255
182 211 255
182 211 255
182 211 255
182 211 255
182 211 255
182 211 255
182 211 255
182 211 255
182 211 255
182 211 255
182 212 255
182 212 255
182 212 255
182 212 255
182 212 255
182 212 255
182 212 255
182 212 255
183 212 255
183 212 255
183 212 255
183 212 255
183 212 255
183 212 255
183 212 255
183 212 255
183 212 255
183 212 255
183 212 255
183 212 255
183 212 255
183 212 255
183 212 255
183 212 255
183 212 255
183 212 255
183 212 255
183 212 255
183 212 255
183 212 255
183 212 255
183 212 255
183 212 255
183 212 255
184 212 255
184 212 255
184 212 255
184 212 255
184 212 255
184 212 255
184 212 255
184 212 255
184 212 255
184 212 255
184 212 255
184 213 255
184 213 255
184 213 255
184 213 255
184 213 255
184 213 255
184 213 255
184 213 255
184 213 255
184 213 255
184 213 255
184 213 255
184 213 255
184 213 255
184 213 255
184 213 255
184 213 255
184 213 255
184 213 255
184 213 255
184 213 255
185 213 255
185 213 255
185 213 255
185 213 255
185 213 255
185 213 255
185 213 255
185 213 255
185 213 255
185 213 255
185 213 255
185 213 255
185 213 255
185 213 255
185 213 255
185 213 255
185 213 255
185 213 255
185 213 255
185 213 255
185 213 255
185 213 255
185 213 255
185 213 255
185 213 255
185 213 255
185 213 255
185 213 255
185 213 255
185 213 255
185 213 255
185 213 255
185 213 255
185 213 255
185 213 255
185 213 255
185 213 255
185 213 255
185 213 255
186 214 255
186 214 255
186 214 255
186 214 255
186 214 255
186 214 255
186 214 255
186 214 255
186 214 255
186 214 255
186 214 255
186 214 255
186 214 255
186 214 255
186 214 255
186 214 255
186 214 255
186 214 255
186 214 255
186 214 255
186 214 255
186 214 255
186 214 255
186 214 255
186 214 255
186 214 255
186 214 255
185 213 255
185 213 255
185 213 255
185 213 255
185 213 255
185 213 255
185 213 255
185 213 255
185 213 255
185 213 255
185 213 255
185 213 255
185 213 255
185 213 255
185 213 255
185 213 255
185 213 255
185 213 255
185 213 255
185 213 255
185 213 255
185 213 255
185 213 255
185 213 255
185 213 255
185 213 255
185 213 255
185 213 255
185 213 255
185 213 255
185 213 255
185 213 255
185 213 255
185 213 255
185 213 255
185 213 255
185 213 255
184 213 255
184 213 255
184 213 255
184 213 255
184 213 255
184 213 255
184 213 255
184 213 255
184 213 255
184 213 255
184 213 255
184 213 255
184 213 255
184 213 255
184 213 255
184 213 255
184 213 255
184 213 255
184 213 255
184 213 255
184 213 255
184 213 255
184 212 255
184 212 255
184 212 255
184 212 255
184 212 255
184 212 255
184 212 255
184 212 255
184 212 255
183 212 255
183 212 255
183 212 255
183 212 255
183 212 255
183 212 255
183 212 255
183 212 255
183 212 255
183 212 255
183 212 255
183 212 255
183 212 255
183 212 255
183 212 255
183 212 255
183 212 255
183 212 255
183 212 255
183 212 255
183 212 255
183 212 255
183 212 255
183 212 255
183 212 255
183 212 255
183 212 255
182 212 255
182 212 255
182 212 255
182 212 255
182 212 255
182 212 255
182 212 255
182 212 255
182 212 255
182 212 255
182 211 255
182 211 255
182 211 255
182 211 255
182 211 255
182 211 255
182 211 255
182 211 255
182 211 255
182 211 255
182 211 255
182 211 255
182 211 255
42 50 61
11 14 18
11 14 18
12 15 19
11 14 18
11 14 18
10 12 16
11 13 17
12 15 19
10 12 16
11 14 17
10 13 16
10 13 17
11 14 18
12 14 18
11 14 17
10 12 16
9 12 15
12 15 19
12 15 19
11 14 18
10 13 17
12 15 19
12 14 18
11 14 17
11 14 17
10 12 15
10 13 16
10 12 16
12 15 19
12 14 18
10 12 16
11 13 17
10 13 16
10 13 16
11 14 18
12 15 19
9 12 15
11 14 18
12 15 19
11 14 18
11 14 18
11 14 17
11 14 17
11 14 18
10 13 17
11 14 18
10 13 16
11 14 18
10 12 15
11 14 18
11 13 17
11 13 17
11 13 17
12 15 19
10 13 16
13 15 20
11 14 17
10 13 16
11 14 17
12 15 19
12 15 19
11 13 17
11 13 17
10 12 15
12 15 19
11 14 18
11 14 18
11 13 17
10 12 15
12 15 19
11 14 17
11 13 17
12 15 19
11 14 18
10 13 16
11 13 17
11 13 17
12 15 19
12 15 19
10 12 16
10 12 16
11 13 17
12 14 18
11 13 17
11 14 18
10 12 16
11 13 17
11 14 18
11 14 18
11 13 17
11 14 18
11 13 17
11 13 17
11 13 17
9 11 14
10 12 16
12 15 19
12 15 19
10 12 16
11 14 18
12 14 18
11 14 18
10 13 17
11 14 18
11 14 18
12 14 18
12 14 19
12 15 19
12 15 19
12 15 19
11 13 17
11 13 17
11 14 17
11 14 18
11 14 18
11 14 18
10 13 16
11 13 17
11 13 17
10 13 17
11 13 17
12 14 18
54 64 78
182 211 255
182 211 255
182 211 255
182 211 255
182 211 255
182 211 255
182 211 255
182 211 255
182 211 255
182 211 255
182 211 255
182 211 255
182 211 255
182 211 255
182 212 255
182 212 255
182 212 255
182 212 255
182 212 255
182 212 255
182 212 255
182 212 255
182 212 255
183 212 255
183 212 255
183 212 255
183 212 255
183 212 255
183 212 255
183 212 255
183 212 255
183 212 255
183 212 255
183 212 255
183 212 255
183 212 255
183 212 255
183 212 255
183 212 255
183 212 255
183 212 255
183 212 255
183 212 255
183 212 255
183 212 255
183 212 255
183 212 255
183 212 255
183 212 255
183 212 255
184 212 255
184 212 255
184 212 255
184 212 255
184 212 255
184 212 255
184 212 255
184 212 255
184 212 255
184 212 255
184 213 255
184 213 255
184 213 255
184 213 255
184 213 255
184 213 255
184 213 255
184 213 255
184 213 255
184 213 255
184 213 255
184 213 255
184 213 255
184 213 255
184 213 255
184 213 255
184 213 255
184 213 255
184 213 255
184 213 255
184 213 255
185 213 255
185 213 255
185 213 255
185 213 255
185 213 255
185 213 255
185 213 255
185 213 255
185 213 255
185 213 255
185 213 255
185 213 255
185 213 255
185 213 255
185 213 255
185 213 255
185 213 255
185 213 255
185 213 255
185 213 255
185 213 255
185 213 255
185 213 255
185 213 255
185 213 255
185 213 255
185 213 255
185 213 255
185 213 255
185 213 255
185 213 255
185 213 255
185 213 255
185 213 255
185 213 255
185 213 255
185 213 255
186 214 255
186 214 255
186 214 255
186 214 255
186 214 255
186 214 255
186 214 255
186 214 255
186 214 255
186 214 255
186 214 255
186 214 255
186 214 255
186 214 255
186 214 255
186 214 255
186 214 255
186 214 255
186 214 255
186 214 255
186 214 255
186 214 255
186 214 255
186 214 255
186 214 255
186 214 255
186 214 255
186 214 255
186 214 255
186 214 255
186 214 255
186 214 255
186 214 255
186 214 255
186 214 255
186 214 255
186 214 255
186 214 255
186 214 255
186 214 255
186 214 255
186 214 255
186 214 255
186 214 255
186 214 255
186 214 255
186 214 255
186 214 255
186 214 255
186 214 255
186 214 255
186 214 255
186 214 255
185 213 255
185 213 255
185 213 255
185 213 255
185 213 255
185 213 255
185 213 255
185 213 255
185 213 255
185 213 255
185 213 255
185 213 255
185 213 255
185 213 255
185 213 255
185 213 255
185 213 255
185 213 255
185 213 255
185 213 255
185 213 255
185 213 255
185 213 255
185 213 255
185 213 255
185 213 255
185 213 255
185 213 255
185 213 255
185 213 255
185 213 255
185 213 255
185 213 255
185 213 255
185 213 255
185 213 255
184 213 255
184 213 255
184 213 255
184 213 255
184 213 255
184 213 255
184 213 255
184 213 255
184 213 255
184 213 255
184 213 255
184 213 255
184 213 255
184 213 255
184 213 255
184 213 255
184 213 255
184 213 255
184 213 255
184 213 255
184 213 255
184 212 255
184 212 255
184 212 255
184 212 255
184 212 255
184 212 255
184 212 255
184 212 255
184 212 255
183 212 255
183 212 255
183 212 255
183 212 255
183 212 255
183 212 255
183 212 255
183 212 255
183 212 255
183 212 255
183 212 255
183 212 255
183 212 255
183 212 255
183 212 255
183 212 255
183 212 255
183 212 255
183 212 255
183 212 255
183 212 255
183 212 255
183 212 255
183 212 255
183 212 255
183 212 255
183 212 255
183 212 255
183 212 255
182 212 255
182 212 255
182 212 255
182 212 255
182 212 255
182 212 255
182 212 255
182 212 255
182 212 255
160 186 225
11 14 18
11 14 18
10 13 17
12 14 18
10 12 16
11 14 18
12 15 19
10 13 17
11 14 18
11 14 17
12 14 18
12 15 19
11 13 17
11 14 18
13 16 20
11 14 18
11 13 17
11 14 18
11 14 18
12 14 18
10 13 17
11 14 18
11 14 17
10 13 16
11 13 17
10 13 17
10 13 17
10 13 16
11 13 17
10 13 16
13 16 21
11 13 17
12 14 18
10 12 15
12 15 19
11 13 17
11 14 17
11 14 17
11 13 17
11 14 18
10 12 15
11 14 17
11 13 17
11 14 18
11 14 18
10 12 16
11 13 17
10 12 16
11 13 17
11 14 18
12 14 19
10 13 17
10 12 15
12 15 19
10 12 16
12 15 20
11 13 17
10 12 15
11 14 17
11 13 17
10 13 16
11 13 17
10 12 15
11 14 17
11 13 17
12 15 19
11 14 17
11 14 17
11 13 17
10 12 16
11 13 17
11 13 17
11 14 17
11 13 17
11 14 18
11 14 18
11 13 17
11 14 17
11 13 17
12 14 18
10 12 15
12 14 18
11 14 18
11 14 18
10 12 15
11 13 17
11 13 17
10 12 16
11 14 18
11 14 18
11 13 16
12 14 18
11 14 18
10 13 16
11 13 17
10 12 15
11 13 17
11 13 17
10 12 16
11 14 18
10 13 16
12 15 19
11 13 17
10 12 15
10 13 16
11 14 17
11 14 18
10 12 16
11 14 17
12 15 19
11 14 17
11 13 17
11 13 17
9 12 15
11 14 18
11 14 17
10 13 17
12 14 18
11 14 17
12 14 18
11 13 17
12 14 18
11 14 18
12 14 19
165 192 232
182 212 255
182 212 255
182 212 255
182 212 255
182 212 255
182 212 255
182 212 255
182 212 255
182 212 255
182 212 255
183 212 255
183 212 255
183 212 255
183 212 255
183 212 255
183 212 255
183 212 255
183 212 255
183 212 255
183 212 255
183 212 255
183 212 255
183 212 255
183 212 255
183 212 255
183 212 255
183 212 255
183 212 255
183 212 255
183 212 255
183 212 255
183 212 255
183 212 255
183 212 255
183 212 255
183 212 255
183 212 255
184 212 255
184 212 255
184 212 255
184 212 255
184 212 255
184 212 255
184 212 255
184 212 255
184 212 255
184 212 255
184 213 255
184 213 255
184 213 255
184 213 255
184 213 255
184 213 255
184 213 255
184 213 255
184 213 255
184 213 255
184 213 255
184 213 255
184 213 255
184 213 255
184 213 255
184 213 255
184 213 255
184 213 255
184 213 255
184 213 255
184 213 255
185 213 255
185 213 255
185 213 255
185 213 255
185 213 255
185 213 255
185 213 255
185 213 255
185 213 255
185 213 255
185 213 255
185 213 255
185 213 255
185 213 255
185 213 255
185 213 255
185 213 255
185 213 255
185 213 255
185 213 255
185 213 255
185 213 255
185 213 255
185 213 255
185 213 255
185 213 255
185 213 255
185 213 255
185 213 255
185 213 255
185 213 255
185 213 255
185 213 255
185 213 255
185 213 255
185 213 255
185 213 255
186 214 255
186 214 255
186 214 255
186 214 255
186 214 255
186 214 255
186 214 255
186 214 255
186 214 255
186 214 255
186 214 255
186 214 255
186 214 255
186 214 255
186 214 255
186 214 255
186 214 255
186 214 255
186 214 255
186 214 255
186 214 255
186 214 255
186 214 255
186 214 255
186 214 255
186 214 255
186 214 255
186 214 255
186 214 255
186 214 255
186 214 255
186 214 255
186 214 255
186 214 255
186 214 255
186 214 255
186 214 255
186 214 255
186 214 255
186 214 255
186 214 255
186 214 255
186 214 255
186 214 255
186 214 255
186 214 255
186 214 255
186 214 255
186 214 255
186 214 255
186 214 255
186 214 255
186 214 255
186 214 255
186 214 255
186 214 255
186 214 255
186 214 255
186 214 255
186 214 255
186 214 255
186 214 255
186 214 255
186 214 255
186 214 255
186 214 255
186 214 255
186 214 255
186 214 255
186 214 255
186 214 255
186 214 255
186 214 255
186 214 255
186 214 255
186 214 255
186 214 255
186 214 255
185 213 255
185 213 255
185 213 255
185 213 255
185 213 255
185 213 255
185 213 255
185 213 255
185 213 255
185 213 255
185 213 255
185 213 255
185 213 255
185 213 255
185 213 255
185 213 255
185 213 255
185 213 255
185 213 255
185 213 255
185 213 255
185 213 255
185 213 255
185 213 255
185 213 255
185 213 255
185 213 255
185 213 255
185 213 255
185 213 255
185 213 255
185 213 255
185 213 255
185 213 255
185 213 255
184 213 255
184 213 255
184 213 255
184 213 255
184 213 255
184 213 255
184 213 255
184 213 255
184 213 255
184 213 255
184 213 255
184 213 255
184 213 255
184 213 255
184 213 255
184 213 255
184 213 255
184 213 255
184 213 255
184 213 255
184 213 255
184 212 255
184 212 255
184 212 255
184 212 255
184 212 255
184 212 255
184 212 255
184 212 255
184 212 255
184 212 255
183 212 255
183 212 255
183 212 255
183 212 255
183 212 255
183 212 255
183 212 255
183 212 255
183 212 255
183 212 255
183 212 255
183 212 255
183 212 255
183 212 255
183 212 255
183 212 255
183 212 255
183 212 255
183 212 255
183 212 255
183 212 255
183 212 255
183 212 255
183 212 255
183 212 255
102 119 144
10 13 17
11 13 17
11 13 16
11 13 17
11 13 17
12 15 19
11 13 17
11 13 17
10 13 16
11 14 18
11 13 17
11 14 18
11 13 17
11 14 17
12 15 19
11 13 17
11 13 17
11 14 17
10 12 15
11 13 17
11 13 17
10 12 16
12 15 19
11 13 17
11 13 17
11 13 17
12 14 19
12 15 18
11 14 18
11 13 17
10 13 16
11 13 17
12 15 19
10 13 16
11 13 16
11 14 18
9 12 15
11 13 17
11 14 17
11 13 17
12 14 18
11 13 17
11 14 18
11 14 18
11 14 18
9 12 15
11 14 18
11 13 17
11 13 17
12 14 18
11 13 17
9 11 14
9 11 15
10 12 15
11 13 17
11 13 17
12 15 19
11 13 17
12 14 18
10 12 15
10 12 16
11 13 17
12 14 18
10 13 16
11 14 18
12 14 18
11 14 18
11 13 17
10 12 15
10 13 16
12 14 18
12 14 18
9 12 15
11 14 18
10 13 17
11 14 17
11 13 17
10 12 16
10 13 17
12 14 18
9 12 15
12 14 18
12 15 19
9 12 15
10 13 17
12 14 18
11 14 18
11 13 17
10 12 15
12 14 18
10 12 15
12 14 18
10 12 15
10 13 17
10 13 17
10 12 16
11 14 18
11 14 18
11 14 18
12 14 18
11 13 17
10 12 16
10 13 16
11 13 17
11 14 18
12 14 18
12 15 19
12 15 20
11 14 18
10 12 15
11 13 17
11 14 18
11 14 18
10 12 16
12 14 18
10 12 16
11 14 18
11 13 17
12 14 18
10 13 16
12 15 19
12 14 18
11 14 18
12 15 19
118 138 166
183 212 255
183 212 255
183 212 255
183 212 255
183 212 255
183 212 255
183 212 255
183 212 255
183 212 255
183 212 255
183 212 255
183 212 255
183 212 255
183 212 255
183 212 255
183 212 255
183 212 255
183 212 255
183 212 255
183 212 255
183 212 255
183 212 255
183 212 255
183 212 255
183 212 255
184 212 255
184 212 255
184 212 255
184 212 255
184 212 255
184 212 255
184 212 255
184 212 255
184 212 255
184 212 255
184 213 255
184 213 255
184 213 255
184 213 255
184 213 255
184 213 255
184 213 255
184 213 255
184 213 255
184 213 255
184 213 255
184 213 255
184 213 255
184 213 255
184 213 255
184 213 255
184 213 255
184 213 255
184 213 255
184 213 255
184 213 255
185 213 255
185 213 255
185 213 255
185 213 255
185 213 255
185 213 255
185 213 255
185 213 255
185 213 255
185 213 255
185 213 255
185 213 255
185 213 255
185 213 255
185 213 255
185 213 255
185 213 255
185 213 255
185 213 255
185 213 255
185 213 255
185 213 255
185 213 255
185 213 255
185 213 255
185 213 255
185 213 255
185 213 255
185 213 255
185 213 255
185 213 255
185 213 255
185 213 255
185 213 255
185 213 255
185 213 255
186 214 255
186 214 255
186 214 255
186 214 255
186 214 255
186 214 255
186 214 255
186 214 255
186 214 255
186 214 255
186 214 255
186 214 255
186 214 255
186 214 255
186 214 255
186 214 255
186 214 255
186 214 255
186 214 255
186 214 255
186 214 255
186 214 255
186 214 255
186 214 255
186 214 255
186 214 255
186 214 255
186 214 255
186 214 255
186 214 255
186 214 255
186 214 255
186 214 255
186 214 255
186 214 255
186 214 255
186 214 255
186 214 255
186 214 255
186 214 255
186 214 255
186 214 255
186 214 255
186 214 255
186 214 255
187 214 255
187 214 255
187 214 255
187 214 255
187 214 255
187 214 255
187 214 255
187 214 255
187 214 255
187 214 255
187 214 255
187 214 255
187 214 255
187 214 255
186 214 255
186 214 255
186 214 255
186 214 255
186 214 255
186 214 255
186 214 255
186 214 255
186 214 255
186 214 255
186 214 255
186 214 255
186 214 255
186 214 255
186 214 255
186 214 255
186 214 255
186 214 255
186 214 255
186 214 255
186 214 255
186 214 255
186 214 255
186 214 255
186 214 255
186 214 255
186 214 255
186 214 255
186 214 255
186 214 255
186 214 255
186 214 255
186 214 255
186 214 255
186 214 255
186 214 255
186 214 255
186 214 255
186 214 255
186 214 255
186 214 255
186 214 255
186 214 255
186 214 255
186 214 255
185 213 255
185 213 255
185 213 255
185 213 255
185 213 255
185 213 255
185 213 255
185 213 255
185 213 255
185 213 255
185 213 255
185 213 255
185 213 255
185 213 255
185 213 255
185 213 255
185 213 255
185 213 255
185 213 255
185 213 255
185 213 255
185 213 255
185 213 255
185 213 255
185 213 255
185 213 255
185 213 255
185 213 255
185 213 255
185 213 255
185 213 255
185 213 255
185 213 255
185 213 255
185 213 255
184 213 255
184 213 255
184 213 255
184 213 255
184 213 255
184 213 255
184 213 255
184 213 255
184 213 255
184 213 255
184 213 255
184 213 255
184 213 255
184 213 255
184 213 255
184 213 255
184 213 255
184 213 255
184 213 255
184 213 255
184 213 255
184 213 255
184 212 255
184 212 255
184 212 255
184 212 255
184 212 255
184 212 255
184 212 255
184 212 255
184 212 255
184 212 255
183 212 255
183 212 255
183 212 255
183 212 255
183 212 255
183 212 255
183 212 255
183 212 255
183 212 255
183 212 255
183 212 255
57 67 81
12 15 19
11 14 18
10 12 16
11 14 18
12 14 18
10 12 15
10 12 15
10 12 15
11 14 18
11 14 17
9 11 15
10 13 17
12 14 19
12 14 18
10 12 16
10 12 16
11 13 17
11 13 17
12 15 19
12 14 18
11 13 17
12 15 19
11 13 17
11 13 17
11 14 18
11 14 17
11 13 17
12 15 19
11 14 17
11 13 17
11 13 17
11 14 18
10 13 16
11 14 17
11 14 18
10 12 15
11 14 17
11 13 17
11 14 17
12 14 18
12 15 19
10 12 16
10 12 15
11 13 17
11 13 17
10 13 16
11 13 17
10 12 16
10 12 16
10 12 15
12 14 18
11 13 17
10 13 17
10 12 16
10 12 15
11 14 17
10 13 16
10 13 16
12 15 18
10 12 16
11 14 18
11 13 17
11 13 17
10 12 16
11 14 18
11 14 17
11 13 17
10 13 16
10 12 16
10 12 16
10 12 16
11 13 17
12 15 19
11 14 18
11 13 17
10 12 16
10 12 16
10 13 16
9 11 15
12 14 18
10 13 16
11 13 17
11 14 17
9 11 14
11 13 17
10 13 17
10 12 16
10 12 16
11 13 17
12 14 18
13 16 20
11 13 17
10 13 17
10 13 16
11 13 17
10 13 17
12 15 19
11 13 17
9 12 15
10 13 17
11 13 17
10 13 16
10 13 16
11 13 17
11 13 17
10 12 16
10 13 17
11 14 18
10 12 16
12 14 18
10 13 16
10 12 16
11 14 18
11 14 17
10 12 16
11 13 17
11 13 17
11 14 18
11 13 17
10 12 16
11 13 17
10 13 16
11 14 18
13 16 20
56 65 79
183 212 255
183 212 255
183 212 255
183 212 255
183 212 255
183 212 255
183 212 255
183 212 255
183 212 255
183 212 255
183 212 255
184 212 255
184 212 255
184 212 255
184 212 255
184 212 255
184 212 255
184 212 255
184 212 255
184 212 255
184 212 255
184 212 255
184 213 255
184 213 255
184 213 255
184 213 255
184 213 255
184 213 255
184 213 255
184 213 255
184 213 255
184 213 255
184 213 255
184 213 255
184 213 255
184 213 255
184 213 255
184 213 255
184 213 255
184 213 255
184 213 255
184 213 255
185 213 255
185 213 255
185 213 255
185 213 255
185 213 255
185 213 255
185 213 255
185 213 255
185 213 255
185 213 255
185 213 255
185 213 255
185 213 255
185 213 255
185 213 255
185 213 255
185 213 255
185 213 255
185 213 255
185 213 255
185 213 255
185 213 255
185 213 255
185 213 255
185 213 255
185 213 255
185 213 255
185 213 255
185 213 255
185 213 255
185 213 255
185 213 255
185 213 255
185 213 255
185 213 255
185 213 255
186 214 255
186 214 255
186 214 255
186 214 255
186 214 255
186 214 255
186 214 255
186 214 255
186 214 255
186 214 255
186 214 255
186 214 255
186 214 255
186 214 255
186 214 255
186 214 255
186 214 255
186 214 255
186 214 255
186 214 255
186 214 255
186 214 255
186 214 255
186 214 255
186 214 255
186 214 255
186 214 255
186 214 255
186 214 255
186 214 255
186 214 255
186 214 255
186 214 255
186 214 255
186 214 255
186 214 255
186 214 255
186 214 255
186 214 255
186 214 255
186 214 255
186 214 255
186 214 255
186 214 255
187 214 255
187 214 255
187 214 255
187 214 255
187 214 255
187 214 255
187 214 255
187 214 255
187 214 255
187 214 255
187 214 255
187 214 255
187 214 255
187 214 255
187 214 255
187 214 255
187 214 255
187 214 255
187 214 255
187 214 255
187 214 255
187 214 255
187 214 255
187 214 255
187 214 255
187 214 255
187 214 255
187 214 255
187 214 255
187 214 255
187 214 255
187 214 255
187 214 255
187 214 255
187 214 255
187 214 255
187 214 255
187 214 255
187 214 255
187 214 255
187 214 255
187 214 255
187 214 255
187 214 255
187 214 255
186 214 255
186 214 255
186 214 255
186 214 255
186 214 255
186 214 255
186 214 255
186 214 255
186 214 255
186 214 255
186 214 255
186 214 255
186 214 255
186 214 255
186 214 255
186 214 255
186 214 255
186 214 255
186 214 255
186 214 255
186 214 255
186 214 255
186 214 255
186 214 255
186 214 255
186 214 255
186 214 255
186 214 255
186 214 255
186 214 255
186 214 255
186 214 255
186 214 255
186 214 255
186 214 255
186 214 255
186 214 255
186 214 255
186 214 255
186 214 255
186 214 255
186 214 255
186 214 255
185 213 255
185 213 255
185 213 255
185 213 255
185 213 255
185 213 255
185 213 255
185 213 255
185 213 255
185 213 255
185 213 255
185 213 255
185 213 255
185 213 255
185 213 255
185 213 255
185 213 255
185 213 255
185 213 255
185 213 255
185 213 255
185 213 255
185 213 255
185 213 255
185 213 255
185 213 255
185 213 255
185 213 255
185 213 255
185 213 255
185 213 255
185 213 255
185 213 255
185 213 255
185 213 255
184 213 255
184 213 255
184 213 255
184 213 255
184 213 255
184 213 255
184 213 255
184 213 255
184 213 255
184 213 255
184 213 255
184 213 255
184 213 255
184 213 255
184 213 255
184 213 255
184 213 255
184 213 255
184 213 255
184 213 255
184 213 255
184 213 255
184 212 255
184 212 255
184 212 255
184 212 255
184 212 255
184 212 255
180 208 251
29 34 41
11 13 17
11 14 18
11 14 18
10 13 16
11 14 17
11 14 17
10 13 17
10 12 16
11 13 17
10 13 17
12 14 19
12 15 19
11 14 18
11 14 17
10 13 16
10 13 16
11 13 17
11 14 17
10 13 17
12 14 18
11 13 17
10 12 16
10 12 16
10 12 15
12 15 19
10 13 17
10 12 16
12 14 18
13 15 20
11 14 17
10 12 16
12 15 19
11 14 18
11 14 18
11 13 17
9 12 15
11 14 18
11 13 17
10 12 16
11 14 18
12 15 19
11 14 18
11 13 17
12 14 18
10 13 17
11 13 17
11 14 17
12 14 18
10 12 15
12 14 18
11 13 17
9 12 15
11 13 17
10 12 16
10 13 16
11 13 17
10 12 15
10 12 16
11 14 17
11 13 17
11 13 17
11 13 17
11 13 17
11 13 17
11 13 17
12 15 19
10 13 16
12 14 18
11 14 18
10 13 16
11 13 17
11 13 17
10 13 16
11 14 18
10 12 16
11 14 18
13 16 20
10 12 16
11 14 18
11 13 17
11 13 17
13 15 20
10 13 16
10 13 16
9 12 15
11 13 17
11 13 16
10 13 16
11 13 17
11 14 17
11 14 17
11 13 17
10 12 15
11 14 17
12 15 19
11 13 17
10 12 16
10 12 16
11 14 18
11 13 17
11 14 18
11 13 17
10 13 17
11 13 17
11 13 17
11 14 17
11 13 16
11 14 17
10 12 15
11 14 18
11 14 18
10 13 16
11 14 17
11 14 18
11 14 17
11 14 18
11 14 17
10 12 15
10 13 16
11 14 17
12 15 19
11 14 17
10 13 16
10 13 16
18 22 27
182 210 253
184 212 255
184 212 255
184 212 255
184 212 255
184 212 255
184 212 255
184 213 255
184 213 255
184 213 255
184 213 255
184 213 255
184 213 255
184 213 255
184 213 255
184 213 255
184 213 255
184 213 255
184 213 255
184 213 255
184 213 255
184 213 255
184 213 255
184 213 255
184 213 255
184 213 255
184 213 255
184 213 255
184 213 255
185 213 255
185 213 255
185 213 255
185 213 255
185 213 255
185 213 255
185 213 255
185 213 255
185 213 255
185 213 255
185 213 255
185 213 255
185 213 255
185 213 255
185 213 255
185 213 255
185 213 255
185 213 255
185 213 255
185 213 255
185 213 255
185 213 255
185 213 255
185 213 255
185 213 255
185 213 255
185 213 255
185 213 255
185 213 255
185 213 255
185 213 255
185 213 255
185 213 255
185 213 255
185 213 255
185 213 255
186 214 255
186 214 255
186 214 255
186 214 255
186 214 255
186 214 255
186 214 255
186 214 255
186 214 255
186 214 255
186 214 255
186 214 255
186 214 255
186 214 255
186 214 255
186 214 255
186 214 255
186 214 255
186 214 255
186 214 255
186 214 255
186 214 255
186 214 255
186 214 255
186 214 255
186 214 255
186 214 255
186 214 255
186 214 255
186 214 255
186 214 255
186 214 255
186 214 255
186 214 255
186 214 255
186 214 255
186 214 255
186 214 255
186 214 255
186 214 255
186 214 255
186 214 255
187 214 255
187 214 255
187 214 255
187 214 255
187 214 255
187 214 255
187 214 255
187 214 255
187 214 255
187 214 255
187 214 255
187 214 255
187 214 255
187 214 255
187 214 255
187 214 255
187 214 255
187 214 255
187 214 255
187 214 255
187 214 255
187 214 255
187 214 255
187 214 255
187 214 255
187 214 255
187 214 255
187 214 255
187 214 255
187 214 255
187 215 255
187 215 255
187 215 255
187 215 255
187 215 255
187 215 255
187 215 255
187 215 255
187 214 255
187 215 255
187 214 255
187 214 255
187 214 255
187 214 255
187 214 255
187 214 255
187 214 255
187 214 255
187 214 255
187 214 255
187 214 255
187 214 255
187 214 255
187 214 255
187 214 255
187 214 255
187 214 255
187 214 255
187 214 255
187 214 255
187 214 255
187 214 255
187 214 255
187 214 255
187 214 255
187 214 255
187 214 255
187 214 255
187 214 255
187 214 255
187 214 255
187 214 255
187 214 255
187 214 255
187 214 255
186 214 255
186 214 255
186 214 255
186 214 255
186 214 255
186 214 255
186 214 255
186 214 255
186 214 255
186 214 255
186 214 255
186 214 255
186 214 255
186 214 255
186 214 255
186 214 255
186 214 255
186 214 255
186 214 255
186 214 255
186 214 255
186 214 255
186 214 255
186 214 255
186 214 255
186 214 255
186 214 255
186 214 255
186 214 255
186 214 255
186 214 255
186 214 255
186 214 255
186 214 255
186 214 255
186 214 255
186 214 255
186 214 255
186 214 255
186 214 255
186 214 255
186 214 255
185 213 255
185 213 255
185 213 255
185 213 255
185 213 255
185 213 255
185 213 255
185 213 255
185 213 255
185 213 255
185 213 255
185 213 255
185 213 255
185 213 255
185 213 255
185 213 255
185 213 255
185 213 255
185 213 255
185 213 255
185 213 255
185 213 255
185 213 255
185 213 255
185 213 255
185 213 255
185 213 255
185 213 255
185 213 255
185 213 255
185 213 255
185 213 255
185 213 255
185 213 255
185 213 255
185 213 255
184 213 255
184 213 255
184 213 255
184 213 255
184 213 255
184 213 255
184 213 255
184 213 255
184 213 255
184 213 255
184 213 255
184 213 255
184 213 255
146 168 202
11 13 16
11 13 17
12 14 18
12 15 19
11 13 16
11 13 17
11 14 18
11 13 17
11 13 17
10 12 15
10 13 17
10 12 15
10 12 15
11 13 17
11 13 17
11 14 18
10 12 16
11 14 17
11 13 17
11 13 17
11 14 17
10 13 16
11 14 17
10 13 17
9 12 15
9 12 15
11 13 17
12 14 18
11 13 17
11 13 17
12 14 18
11 13 17
11 14 17
11 13 17
11 13 17
11 14 17
11 13 17
10 13 16
10 12 15
10 13 17
10 12 16
10 13 17
10 13 17
10 12 16
9 12 15
10 13 17
11 13 17
11 13 17
8 10 13
11 14 17
11 13 17
11 14 18
10 13 16
10 12 15
11 13 17
10 13 16
12 14 18
11 14 17
11 13 17
10 13 16
10 13 17
11 14 17
9 11 14
9 12 15
10 12 16
10 13 17
12 14 18
11 13 17
11 13 17
10 12 15
11 13 17
10 12 16
11 13 17
10 12 15
10 12 16
10 13 17
10 12 15
12 14 18
11 14 18
12 15 19
11 14 18
11 14 17
10 12 15
10 13 17
10 12 16
11 13 17
9 12 15
11 13 16
10 12 16
11 13 17
10 12 16
10 12 16
9 11 14
11 13 17
11 14 18
10 13 16
10 12 15
10 12 16
11 13 17
10 12 16
10 13 16
10 13 16
10 13 16
9 11 15
11 13 17
11 14 18
10 12 15
11 13 17
11 14 18
10 12 15
11 13 17
10 13 16
12 15 20
10 12 16
11 14 17
11 13 17
11 13 17
12 15 19
11 14 17
11 14 17
11 13 17
10 13 16
10 13 16
11 14 18
11 14 17
11 14 18
157 181 217
184 213 255
184 213 255
184 213 255
184 213 255
184 213 255
184 213 255
184 213 255
184 213 255
184 213 255
184 213 255
184 213 255
184 213 255
184 213 255
185 213 255
185 213 255
185 213 255
185 213 255
185 213 255
185 213 255
185 213 255
185 213 255
185 213 255
185 213 255
185 213 255
185 213 255
185 213 255
185 213 255
185 213 255
185 213 255
185 213 255
185 213 255
185 213 255
185 213 255
185 213 255
185 213 255
185 213 255
185 213 255
185 213 255
185 213 255
185 213 255
185 213 255
185 213 255
185 213 255
185 213 255
185 213 255
185 213 255
185 213 255
185 213 255
186 214 255
186 214 255
186 214 255
186 214 255
186 214 255
186 214 255
186 214 255
186 214 255
186 214 255
186 214 255
186 214 255
186 214 255
186 214 255
186 214 255
186 214 255
186 214 255
186 214 255
186 214 255
186 214 255
186 214 255
186 214 255
186 214 255
186 214 255
186 214 255
186 214 255
186 214 255
186 214 255
186 214 255
186 214 255
186 214 255
186 214 255
186 214 255
186 214 255
186 214 255
186 214 255
186 214 255
186 214 255
186 214 255
186 214 255
186 214 255
186 214 255
186 214 255
186 214 255
187 214 255
187 214 255
187 214 255
187 214 255
187 214 255
187 214 255
187 214 255
187 214 255
187 214 255
187 214 255
187 214 255
187 214 255
187 214 255
187 214 255
187 214 255
187 214 255
187 214 255
187 214 255
187 214 255
187 214 255
187 214 255
187 214 255
187 214 255
187 214 255
187 214 255
187 214 255
187 214 255
187 214 255
187 214 255
187 214 255
187 214 255
187 214 255
187 214 255
187 214 255
187 214 255
187 215 255
187 215 255
187 215 255
187 215 255
187 215 255
187 215 255
187 215 255
187 215 255
187 215 255
187 215 255
188 215 255
188 215 255
188 215 255
188 215 255
188 215 255
188 215 255
188 215 255
187 215 255
187 215 255
187 215 255
187 215 255
187 215 255
187 215 255
187 215 255
187 215 255
187 215 255
187 215 255
187 215 255
187 215 255
187 215 255
187 215 255
187 215 255
187 215 255
187 215 255
187 215 255
187 215 255
187 215 255
187 214 255
187 214 255
187 214 255
187 214 255
187 214 255
187 214 255
187 214 255
187 214 255
187 214 255
187 214 255
187 214 255
187 214 255
187 214 255
187 214 255
187 214 255
187 214 255
187 214 255
187 214 255
187 214 255
187 214 255
187 214 255
187 214 255
187 214 255
187 214 255
187 214 255
187 214 255
187 214 255
187 214 255
187 214 255
187 214 255
187 214 255
187 214 255
187 214 255
187 214 255
186 214 255
186 214 255
186 214 255
186 214 255
186 214 255
186 214 255
186 214 255
186 214 255
186 214 255
186 214 255
186 214 255
186 214 255
186 214 255
186 214 255
186 214 255
186 214 255
186 214 255
186 214 255
186 214 255
186 214 255
186 214 255
186 214 255
186 214 255
186 214 255
186 214 255
186 214 255
186 214 255
186 214 255
186 214 255
186 214 255
186 214 255
186 214 255
186 214 255
186 214 255
186 214 255
186 214 255
186 214 255
186 214 255
186 214 255
186 214 255
186 214 255
185 213 255
185 213 255
185 213 255
185 213 255
185 213 255
185 213 255
185 213 255
185 213 255
185 213 255
185 213 255
185 213 255
185 213 255
185 213 255
185 213 255
185 213 255
185 213 255
185 213 255
185 213 255
185 213 255
185 213 255
185 213 255
185 213 255
185 213 255
185 213 255
185 213 255
185 213 255
185 213 255
185 213 255
185 213 255
185 213 255
185 213 255
185 213 255
185 213 255
185 213 255
112 130 156
10 13 17
11 14 17
10 12 15
11 14 18
10 12 15
11 14 18
10 12 16
11 14 17
10 13 17
10 12 16
10 13 17
11 14 17
11 14 17
11 14 17
11 14 18
10 12 15
10 12 16
10 12 15
11 13 17
11 14 18
11 13 17
11 13 17
12 14 18
10 13 17
10 13 16
11 14 17
10 12 15
10 13 17
9 12 15
9 12 15
11 14 17
10 12 16
11 13 17
10 12 15
10 12 15
9 11 14
11 13 17
11 13 16
10 12 15
10 13 16
10 13 17
12 15 19
10 12 15
9 11 15
11 14 18
11 13 17
10 13 16
10 12 15
10 13 16
10 12 15
11 13 17
12 15 18
11 13 17
10 12 15
11 13 17
9 12 15
11 13 17
10 12 16
11 13 17
10 12 16
10 12 16
10 13 17
10 13 16
10 13 17
10 13 17
12 15 19
10 12 15
11 13 17
11 13 17
12 15 18
11 14 17
11 14 17
10 13 16
11 14 18
11 14 18
10 12 16
10 12 16
12 14 18
10 13 16
10 12 15
10 12 16
11 13 17
10 12 15
11 13 17
11 14 18
11 13 17
10 12 16
10 13 16
11 14 17
11 14 18
11 14 18
12 14 18
10 13 16
10 13 17
11 13 17
10 12 16
11 13 17
11 14 17
10 12 16
10 12 15
10 12 16
10 13 16
10 13 16
10 12 15
10 12 16
10 13 16
11 13 17
11 14 18
10 12 16
11 13 17
11 13 17
10 13 16
10 12 15
11 14 18
10 12 15
11 13 17
10 12 16
12 14 18
12 14 18
10 12 15
11 14 18
12 14 18
11 13 17
11 13 17
10 12 16
11 14 17
111 129 155
185 213 255
185 213 255
185 213 255
185 213 255
185 213 255
185 213 255
185 213 255
185 213 255
185 213 255
185 213 255
185 213 255
185 213 255
185 213 255
185 213 255
185 213 255
185 213 255
185 213 255
185 213 255
185 213 255
185 213 255
185 213 255
185 213 255
185 213 255
185 213 255
185 213 255
185 213 255
185 213 255
185 213 255
185 213 255
185 213 255
185 213 255
185 213 255
185 213 255
186 214 255
186 214 255
186 214 255
186 214 255
186 214 255
186 214 255
186 214 255
186 214 255
186 214 255
186 214 255
186 214 255
186 214 255
186 214 255
186 214 255
186 214 255
186 214 255
186 214 255
186 214 255
186 214 255
186 214 255
186 214 255
186 214 255
186 214 255
186 214 255
186 214 255
186 214 255
186 214 255
186 214 255
186 214 255
186 214 255
186 214 255
186 214 255
186 214 255
186 214 255
186 214 255
186 214 255
186 214 255
186 214 255
186 214 255
186 214 255
186 214 255
187 214 255
187 214 255
187 214 255
187 214 255
187 214 255
187 214 255
187 214 255
187 214 255
187 214 255
187 214 255
187 214 255
187 214 255
187 214 255
187 214 255
187 214 255
187 214 255
187 214 255
187 214 255
187 214 255
187 214 255
187 214 255
187 214 255
187 214 255
187 214 255
187 214 255
187 214 255
187 214 255
187 214 255
187 214 255
187 214 255
187 214 255
187 214 255
187 214 255
187 214 255
187 214 255
187 215 255
187 215 255
187 215 255
187 215 255
187 215 255
187 215 255
187 215 255
187 215 255
187 215 255
187 215 255
187 215 255
187 215 255
187 215 255
187 215 255
187 215 255
187 215 255
187 215 255
187 215 255
187 215 255
187 215 255
188 215 255
188 215 255
188 215 255
188 215 255
188 215 255
188 215 255
188 215 255
188 215 255
188 215 255
188 215 255
188 215 255
188 215 255
188 215 255
188 215 255
188 215 255
188 215 255
188 215 255
188 215 255
188 215 255
188 215 255
188 215 255
188 215 255
188 215 255
188 215 255
188 215 255
188 215 255
188 215 255
188 215 255
188 215 255
188 215 255
188 215 255
188 215 255
188 215 255
187 215 255
187 215 255
187 215 255
187 215 255
187 215 255
187 215 255
187 215 255
187 215 255
187 215 255
187 215 255
187 215 255
187 215 255
187 215 255
187 215 255
187 215 255
187 215 255
187 215 255
187 215 255
187 215 255
187 214 255
187 214 255
187 214 255
187 214 255
187 214 255
187 214 255
187 214 255
187 214 255
187 214 255
187 214 255
187 214 255
187 214 255
187 214 255
187 214 255
187 214 255
187 214 255
187 214 255
187 214 255
187 214 255
187 214 255
187 214 255
187 214 255
187 214 255
187 214 255
187 214 255
187 214 255
187 214 255
187 214 255
187 214 255
187 214 255
187 214 255
187 214 255
186 214 255
186 214 255
186 214 255
186 214 255
186 214 255
186 214 255
186 214 255
186 214 255
186 214 255
186 214 255
186 214 255
186 214 255
186 214 255
186 214 255
186 214 255
186 214 255
186 214 255
186 214 255
186 214 255
186 214 255
186 214 255
186 214 255
186 214 255
186 214 255
186 214 255
186 214 255
186 214 255
186 214 255
186 214 255
186 214 255
186 214 255
186 214 255
186 214 255
186 214 255
186 214 255
186 214 255
186 214 255
186 214 255
186 214 255
186 214 255
186 214 255
186 214 255
186 214 255
186 214 255
185 213 255
185 213 255
185 213 255
185 213 255
185 213 255
185 213 255
185 213 255
185 213 255
185 213 255
185 213 255
185 213 255
185 213 255
185 213 255
185 213 255
185 213 255
62 72 87
11 14 18
10 12 16
10 13 17
10 12 15
10 12 16
10 12 16
11 14 18
10 13 16
10 12 16
11 14 19
11 14 18
11 13 17
11 13 16
10 12 16
10 12 16
10 12 16
10 12 16
11 13 17
12 15 19
11 14 17
10 13 16
11 13 17
10 13 17
10 12 16
12 15 19
11 13 16
10 12 16
11 14 18
10 12 16
10 12 15
11 13 17
10 13 16
11 13 17
11 14 18
10 12 15
10 12 15
10 12 15
10 12 15
11 14 17
10 13 16
10 12 16
10 13 17
10 12 16
11 13 17
9 11 15
11 14 17
10 12 16
12 15 19
11 14 18
11 13 17
11 14 17
11 13 17
10 12 16
10 12 16
11 14 17
11 13 17
11 14 17
10 12 16
11 14 18
10 13 16
10 13 16
10 12 16
10 13 17
10 13 16
10 12 15
11 14 17
11 13 17
9 12 15
12 15 19
9 11 14
10 13 16
11 13 17
10 12 15
10 12 16
11 14 17
10 12 16
12 14 18
10 12 15
11 13 17
9 12 15
11 14 18
11 13 17
11 13 17
10 13 17
10 12 15
10 13 16
10 13 16
10 13 17
12 14 18
11 13 17
10 12 15
10 13 16
10 13 17
9 11 15
10 12 16
10 13 16
10 12 16
11 13 17
10 13 16
11 13 17
11 14 18
10 12 16
10 13 16
10 12 16
11 13 17
11 13 17
10 13 16
10 13 16
10 12 16
10 12 16
11 14 17
10 12 15
11 14 17
10 13 16
10 12 16
11 14 18
10 12 16
10 12 15
11 13 17
10 12 15
10 13 17
11 13 17
12 15 19
10 13 16
10 12 15
10 13 16
79 91 110
185 213 255
185 213 255
185 213 255
185 213 255
185 213 255
185 213 255
185 213 255
185 213 255
185 213 255
185 213 255
185 213 255
185 213 255
185 213 255
185 213 255
185 213 255
185 213 255
186 214 255
186 214 255
186 214 255
186 214 255
186 214 255
186 214 255
186 214 255
186 214 255
186 214 255
186 214 255
186 214 255
186 214 255
186 214 255
186 214 255
186 214 255
186 214 255
186 214 255
186 214 255
186 214 255
186 214 255
186 214 255
186 214 255
186 214 255
186 214 255
186 214 255
186 214 255
186 214 255
186 214 255
186 214 255
186 214 255
186 214 255
186 214 255
186 214 255
186 214 255
186 214 255
186 214 255
186 214 255
186 214 255
186 214 255
186 214 255
186 214 255
186 214 255
187 214 255
187 214 255
187 214 255
187 214 255
187 214 255
187 214 255
187 214 255
187 214 255
187 214 255
187 214 255
187 214 255
187 214 255
187 214 255
187 214 255
187 214 255
187 214 255
187 214 255
187 214 255
187 214 255
187 214 255
187 214 255
187 214 255
187 214 255
187 214 255
187 214 255
187 214 255
187 214 255
187 214 255
187 214 255
187 214 255
187 214 255
187 214 255
187 214 255
187 215 255
187 215 255
187 215 255
187 215 255
187 215 255
187 215 255
187 215 255
187 215 255
187 215 255
187 215 255
187 215 255
187 215 255
187 215 255
187 215 255
187 215 255
187 215 255
187 215 255
187 215 255
187 215 255
188 215 255
188 215 255
188 215 255
188 215 255
188 215 255
188 215 255
188 215 255
188 215 255
188 215 255
188 215 255
188 215 255
188 215 255
188 215 255
188 215 255
188 215 255
188 215 255
188 215 255
188 215 255
188 215 255
188 215 255
188 215 255
188 215 255
188 215 255
188 215 255
188 215 255
188 215 255
188 215 255
188 215 255
188 215 255
188 215 255
188 215 255
188 215 255
188 215 255
188 215 255
188 215 255
188 215 255
188 215 255
188 215 255
188 215 255
188 215 255
188 215 255
188 215 255
188 215 255
188 215 255
188 215 255
188 215 255
188 215 255
188 215 255
188 215 255
188 215 255
188 215 255
188 215 255
188 215 255
188 215 255
188 215 255
188 215 255
188 215 255
188 215 255
188 215 255
188 215 255
188 215 255
188 215 255
188 215 255
188 215 255
188 215 255
188 215 255
188 215 255
188 215 255
188 215 255
188 215 255
188 215 255
187 215 255
187 215 255
187 215 255
187 215 255
187 215 255
187 215 255
187 215 255
187 215 255
187 215 255
187 215 255
187 215 255
187 215 255
187 215 255
187 215 255
187 215 255
187 215 255
187 215 255
187 215 255
187 214 255
187 214 255
187 214 255
187 214 255
187 214 255
187 214 255
187 214 255
187 214 255
187 214 255
187 214 255
187 214 255
187 214 255
187 214 255
187 214 255
187 214 255
187 214 255
187 214 255
187 214 255
187 214 255
187 214 255
187 214 255
187 214 255
187 214 255
187 214 255
187 214 255
187 214 255
187 214 255
187 214 255
187 214 255
187 214 255
187 214 255
187 214 255
187 214 255
187 214 255
186 214 255
186 214 255
186 214 255
186 214 255
186 214 255
186 214 255
186 214 255
186 214 255
186 214 255
186 214 255
186 214 255
186 214 255
186 214 255
186 214 255
186 214 255
186 214 255
186 214 255
186 214 255
186 214 255
186 214 255
186 214 255
186 214 255
186 214 255
186 214 255
186 214 255
186 214 255
186 214 255
186 214 255
186 214 255
186 214 255
186 214 255
186 214 255
186 214 255
186 214 255
186 214 255
186 214 255
186 214 255
186 214 255
186 214 255
31 37 45
10 13 16
10 12 16
10 12 16
10 13 16
10 13 16
10 12 15
10 13 16
10 12 16
11 13 17
11 14 18
10 12 16
11 13 17
11 13 17
10 12 15
11 13 16
11 13 17
9 11 15
12 14 18
11 13 17
10 12 16
11 14 17
10 13 16
10 13 16
10 13 16
11 14 17
10 13 16
9 11 14
10 12 16
11 13 17
10 13 16
10 12 16
11 13 17
11 14 18
10 12 16
10 13 16
10 12 16
10 12 15
10 12 15
11 13 17
11 14 18
12 15 19
9 11 14
10 12 16
10 12 15
10 12 16
10 12 16
10 13 16
11 14 17
10 13 16
10 12 16
9 12 15
10 12 16
11 13 17
10 13 16
10 12 15
11 14 17
9 12 15
11 14 17
10 13 17
9 11 14
10 12 15
10 13 16
11 14 17
11 14 18
10 13 16
9 11 15
10 12 16
9 12 15
10 12 16
11 13 17
10 12 16
10 12 16
11 13 17
11 13 17
9 11 15
12 14 18
11 14 18
10 12 16
10 13 16
11 14 18
11 14 17
11 13 17
11 14 18
9 11 15
10 12 15
10 12 16
10 13 16
11 13 17
10 12 15
10 12 16
11 13 17
11 13 17
10 12 16
8 10 13
11 13 17
11 14 18
10 12 16
12 14 18
10 13 17
10 12 15
11 13 17
11 14 17
11 13 17
10 13 17
10 12 16
10 12 16
13 16 20
10 13 16
12 14 18
11 14 18
11 14 18
10 13 16
11 14 18
11 13 17
10 13 16
11 13 17
10 13 16
11 14 17
11 13 17
10 13 16
10 13 16
11 14 17
10 13 16
12 14 18
12 15 19
11 13 17
35 41 50
186 214 255
186 214 255
186 214 255
186 214 255
186 214 255
186 214 255
186 214 255
186 214 255
186 214 255
186 214 255
186 214 255
186 214 255
186 214 255
186 214 255
186 214 255
186 214 255
186 214 255
186 214 255
186 214 255
186 214 255
186 214 255
186 214 255
186 214 255
186 214 255
186 214 255
186 214 255
186 214 255
186 214 255
186 214 255
186 214 255
186 214 255
186 214 255
186 214 255
186 214 255
186 214 255
186 214 255
186 214 255
186 214 255
186 214 255
186 214 255
187 214 255
187 214 255
187 214 255
187 214 255
187 214 255
187 214 255
187 214 255
187 214 255
187 214 255
187 214 255
187 214 255
187 214 255
187 214 255
187 214 255
187 214 255
187 214 255
187 214 255
187 214 255
187 214 255
187 214 255
187 214 255
187 214 255
187 214 255
187 214 255
187 214 255
187 214 255
187 214 255
187 214 255
187 214 255
187 214 255
187 214 255
187 214 255
187 215 255
187 215 255
187 215 255
187 215 255
187 215 255
187 215 255
187 215 255
187 215 255
187 215 255
187 215 255
187 215 255
187 215 255
187 215 255
187 215 255
187 215 255
187 215 255
187 215 255
187 215 255
187 215 255
187 215 255
188 215 255
188 215 255
188 215 255
188 215 255
188 215 255
188 215 255
188 215 255
188 215 255
188 215 255
188 215 255
188 215 255
188 215 255
188 215 255
188 215 255
188 215 255
188 215 255
188 215 255
188 215 255
188 215 255
188 215 255
188 215 255
188 215 255
188 215 255
188 215 255
188 215 255
188 215 255
188 215 255
188 215 255
188 215 255
188 215 255
188 215 255
188 215 255
188 215 255
188 215 255
188 215 255
188 215 255
188 215 255
188 215 255
188 215 255
188 215 255
188 215 255
188 215 255
188 215 255
188 215 255
188 215 255
188 215 255
188 215 255
188 215 255
188 215 255
188 215 255
188 215 255
188 215 255
188 215 255
188 215 255
188 215 255
188 215 255
188 215 255
188 215 255
188 215 255
188 215 255
188 215 255
188 215 255
188 215 255
188 215 255
188 215 255
188 215 255
188 215 255
188 215 255
188 215 255
188 215 255
188 215 255
188 215 255
188 215 255
188 215 255
188 215 255
188 215 255
188 215 255
188 215 255
188 215 255
188 215 255
188 215 255
188 215 255
188 215 255
188 215 255
188 215 255
188 215 255
188 215 255
188 215 255
188 215 255
188 215 255
188 215 255
188 215 255
188 215 255
188 215 255
188 215 255
188 215 255
188 215 255
188 215 255
188 215 255
188 215 255
188 215 255
188 215 255
188 215 255
188 215 255
188 215 255
188 215 255
188 215 255
188 215 255
187 215 255
187 215 255
187 215 255
187 215 255
187 215 255
187 215 255
187 215 255
187 215 255
187 215 255
187 215 255
187 215 255
187 215 255
187 215 255
187 215 255
187 215 255
187 215 255
187 215 255
187 215 255
187 215 255
187 214 255
187 214 255
187 214 255
187 214 255
187 214 255
187 214 255
187 214 255
187 214 255
187 214 255
187 214 255
187 214 255
187 214 255
187 214 255
187 214 255
187 214 255
187 214 255
187 214 255
187 214 255
187 214 255
187 214 255
187 214 255
187 214 255
187 214 255
187 214 255
187 214 255
187 214 255
187 214 255
187 214 255
187 214 255
187 214 255
187 214 255
187 214 255
187 214 255
186 214 255
186 214 255
186 214 255
186 214 255
186 214 255
186 214 255
186 214 255
186 214 255
186 214 255
186 214 255
186 214 255
186 214 255
186 214 255
186 214 255
186 214 255
186 214 255
186 214 255
186 214 255
186 214 255
184 212 253
10 12 16
11 14 18
11 14 18
11 14 18
10 12 16
11 13 17
11 14 17
10 12 16
11 13 17
11 13 17
10 13 16
9 12 15
10 12 16
11 14 18
10 12 15
10 12 16
11 14 17
11 13 17
9 11 14
11 14 18
11 13 17
9 11 14
9 11 14
11 13 16
10 12 15
11 14 18
10 12 15
11 13 17
10 12 16
11 14 17
11 13 17
11 13 17
10 13 16
9 11 14
10 12 15
10 12 16
11 13 17
10 12 16
9 11 14
10 13 16
11 13 17
10 13 16
12 14 18
9 12 15
10 13 17
9 11 15
10 13 16
10 12 16
10 12 16
11 13 17
11 13 17
11 13 17
11 14 18
10 12 15
11 13 17
10 12 16
11 13 17
11 13 17
10 12 15
12 14 18
10 13 16
11 13 17
9 11 15
10 13 16
10 12 15
11 13 17
11 13 17
10 12 16
9 12 15
10 12 16
11 14 17
10 12 16
11 14 18
12 14 18
10 13 16
10 12 15
12 14 18
11 13 17
10 13 16
9 10 13
10 12 16
11 13 17
11 13 16
11 13 17
10 13 16
11 13 17
10 12 16
10 12 15
9 11 14
10 13 16
11 13 17
10 13 16
11 14 17
11 14 17
11 13 17
12 14 18
10 12 16
11 13 17
11 14 18
11 14 18
11 14 17
11 13 17
10 12 15
10 12 16
12 14 18
10 12 16
9 12 15
11 14 17
10 13 16
11 14 18
10 13 16
10 13 16
10 12 15
10 13 16
12 14 18
10 12 15
12 14 19
11 13 17
11 13 17
9 11 14
10 13 16
10 13 16
12 15 19
11 13 17
10 12 15
10 13 16
11 14 18
11 13 17
179 206 246
186 214 255
186 214 255
186 214 255
186 214 255
186 214 255
186 214 255
186 214 255
186 214 255
186 214 255
186 214 255
186 214 255
186 214 255
186 214 255
186 214 255
186 214 255
186 214 255
186 214 255
186 214 255
186 214 255
187 214 255
187 214 255
187 214 255
187 214 255
187 214 255
187 214 255
187 214 255
187 214 255
187 214 255
187 214 255
187 214 255
187 214 255
187 214 255
187 214 255
187 214 255
187 214 255
187 214 255
187 214 255
187 214 255
187 214 255
187 214 255
187 214 255
187 214 255
187 214 255
187 214 255
187 214 255
187 214 255
187 214 255
187 214 255
187 214 255
187 214 255
187 214 255
187 214 255
187 215 255
187 215 255
187 215 255
187 215 255
187 215 255
187 215 255
187 215 255
187 215 255
187 215 255
187 215 255
187 215 255
187 215 255
187 215 255
187 215 255
187 215 255
187 215 255
187 215 255
187 215 255
188 215 255
188 215 255
188 215 255
188 215 255
188 215 255
188 215 255
188 215 255
188 215 255
188 215 255
188 215 255
188 215 255
188 215 255
188 215 255
188 215 255
188 215 255
188 215 255
188 215 255
188 215 255
188 215 255
188 215 255
188 215 255
188 215 255
188 215 255
188 215 255
188 215 255
188 215 255
188 215 255
188 215 255
188 215 255
188 215 255
188 215 255
188 215 255
188 215 255
188 215 255
188 215 255
188 215 255
188 215 255
188 215 255
188 215 255
188 215 255
188 215 255
188 215 255
188 215 255
188 215 255
188 215 255
188 215 255
188 215 255
188 215 255
188 215 255
188 215 255
188 215 255
188 215 255
188 215 255
188 215 255
188 215 255
188 215 255
188 215 255
188 215 255
188 215 255
188 215 255
188 215 255
188 215 255
188 215 255
188 215 255
188 215 255
189 215 255
189 215 255
189 215 255
189 215 255
189 215 255
189 215 255
189 215 255
189 215 255
189 215 255
189 215 255
189 215 255
189 215 255
189 215 255
189 215 255
189 215 255
189 215 255
189 215 255
189 215 255
188 215 255
189 215 255
188 215 255
188 215 255
188 215 255
188 215 255
188 215 255
188 215 255
188 215 255
188 215 255
188 215 255
188 215 255
188 215 255
188 215 255
188 215 255
188 215 255
188 215 255
188 215 255
188 215 255
188 215 255
188 215 255
188 215 255
188 215 255
188 215 255
188 215 255
188 215 255
188 215 255
188 215 255
188 215 255
188 215 255
188 215 255
188 215 255
188 215 255
188 215 255
188 215 255
188 215 255
188 215 255
188 215 255
188 215 255
188 215 255
188 215 255
188 215 255
188 215 255
188 215 255
188 215 255
188 215 255
188 215 255
188 215 255
188 215 255
188 215 255
188 215 255
188 215 255
188 215 255
188 215 255
188 215 255
188 215 255
188 215 255
188 215 255
188 215 255
188 215 255
188 215 255
188 215 255
188 215 255
188 215 255
188 215 255
188 215 255
188 215 255
188 215 255
187 215 255
188 215 255
187 215 255
187 215 255
187 215 255
187 215 255
187 215 255
187 215 255
187 215 255
187 215 255
187 215 255
187 215 255
187 215 255
187 215 255
187 215 255
187 215 255
187 215 255
187 215 255
187 215 255
187 215 255
187 214 255
187 214 255
187 214 255
187 214 255
187 214 255
187 214 255
187 214 255
187 214 255
187 214 255
187 214 255
187 214 255
187 214 255
187 214 255
187 214 255
187 214 255
187 214 255
187 214 255
187 214 255
187 214 255
187 214 255
187 214 255
187 214 255
187 214 255
187 214 255
187 214 255
187 214 255
187 214 255
187 214 255
187 214 255
148 170 203
11 14 18
12 14 17
10 12 15
10 13 16
10 12 16
11 13 16
10 12 15
9 11 14
10 12 15
10 13 17
11 14 18
10 12 16
11 14 18
10 13 16
11 14 18
11 13 16
10 12 16
11 13 17
12 15 19
10 13 16
11 13 17
9 12 15
10 13 16
10 12 16
11 13 17
10 12 15
12 14 18
9 12 15
11 14 17
11 14 18
10 12 16
12 15 18
10 12 15
11 14 18
10 12 16
11 13 17
9 11 14
11 14 17
12 14 18
11 14 17
12 15 19
10 12 16
8 11 14
9 11 14
11 13 17
11 13 17
9 11 14
11 14 18
11 13 17
11 13 17
10 12 15
9 11 14
10 12 15
9 12 15
10 13 16
10 13 16
11 13 17
10 13 16
10 13 16
9 11 14
10 12 16
10 13 16
10 13 17
9 11 14
10 13 16
9 11 15
10 12 15
10 12 16
11 13 17
11 13 17
11 13 17
9 11 15
10 12 15
11 13 16
10 12 16
10 12 15
10 12 16
10 12 16
10 13 16
12 15 19
11 13 17
10 12 16
11 13 17
11 13 17
10 12 16
10 12 15
11 13 17
11 13 17
10 12 16
10 12 16
9 11 15
10 12 16
10 12 15
10 12 16
10 12 16
10 13 16
10 13 16
10 13 16
9 12 15
11 13 17
11 13 17
10 12 16
10 13 16
11 14 17
9 12 15
11 13 16
11 14 17
10 12 15
12 15 19
11 13 17
9 11 14
10 12 16
12 15 19
11 14 18
9 11 14
11 13 17
9 11 15
11 13 17
11 13 17
11 14 18
9 11 15
10 12 16
10 13 17
10 13 17
12 15 19
12 14 18
10 12 15
9 11 14
167 192 229
187 214 255
187 214 255
187 214 255
187 214 255
187 214 255
187 214 255
187 214 255
187 214 255
187 214 255
187 214 255
187 214 255
187 214 255
187 214 255
187 214 255
187 214 255
187 214 255
187 214 255
187 214 255
187 214 255
187 214 255
187 214 255
187 214 255
187 214 255
187 214 255
187 214 255
187 214 255
187 214 255
187 214 255
187 214 255
187 214 255
187 215 255
187 215 255
187 215 255
187 215 255
187 215 255
187 215 255
187 215 255
187 215 255
187 215 255
187 215 255
187 215 255
187 215 255
187 215 255
187 215 255
187 215 255
187 215 255
187 215 255
188 215 255
188 215 255
188 215 255
188 215 255
188 215 255
188 215 255
188 215 255
188 215 255
188 215 255
188 215 255
188 215 255
188 215 255
188 215 255
188 215 255
188 215 255
188 215 255
188 215 255
188 215 255
188 215 255
188 215 255
188 215 255
188 215 255
188 215 255
188 215 255
188 215 255
188 215 255
188 215 255
188 215 255
188 215 255
188 215 255
188 215 255
188 215 255
188 215 255
188 215 255
188 215 255
188 215 255
188 215 255
188 215 255
188 215 255
188 215 255
188 215 255
188 215 255
188 215 255
188 215 255
188 215 255
188 215 255
188 215 255
188 215 255
188 215 255
188 215 255
188 215 255
188 215 255
188 215 255
188 215 255
188 215 255
188 215 255
188 215 255
188 215 255
188 215 255
188 215 255
188 215 255
188 215 255
188 215 255
188 215 255
188 215 255
188 215 255
188 215 255
188 215 255
188 215 255
188 215 255
189 215 255
189 215 255
189 215 255
189 215 255
189 215 255
189 215 255
189 215 255
189 215 255
189 215 255
189 215 255
189 215 255
189 215 255
189 215 255
189 215 255
189 215 255
189 215 255
189 215 255
189 215 255
189 216 255
189 216 255
189 216 255
189 216 255
189 216 255
189 216 255
189 216 255
189 216 255
189 216 255
189 216 255
189 216 255
189 216 255
189 216 255
189 216 255
189 216 255
189 216 255
189 216 255
189 215 255
189 215 255
189 215 255
189 215 255
189 215 255
189 215 255
189 215 255
189 215 255
189 215 255
189 215 255
189 215 255
189 215 255
189 215 255
189 215 255
189 215 255
189 215 255
189 215 255
189 215 255
189 215 255
189 215 255
189 215 255
189 215 255
189 215 255
189 215 255
189 215 255
189 215 255
189 215 255
188 215 255
188 215 255
188 215 255
188 215 255
188 215 255
188 215 255
188 215 255
188 215 255
188 215 255
188 215 255
188 215 255
188 215 255
188 215 255
188 215 255
188 215 255
188 215 255
188 215 255
188 215 255
188 215 255
188 215 255
188 215 255
188 215 255
188 215 255
188 215 255
188 215 255
188 215 255
188 215 255
188 215 255
188 215 255
188 215 255
188 215 255
188 215 255
188 215 255
188 215 255
188 215 255
188 215 255
188 215 255
188 215 255
188 215 255
188 215 255
188 215 255
188 215 255
188 215 255
188 215 255
188 215 255
188 215 255
188 215 255
188 215 255
188 215 255
188 215 255
188 215 255
188 215 255
188 215 255
188 215 255
188 215 255
188 215 255
188 215 255
188 215 255
188 215 255
188 215 255
188 215 255
188 215 255
188 215 255
188 215 255
188 215 255
188 215 255
187 215 255
187 215 255
187 215 255
187 215 255
187 215 255
187 215 255
187 215 255
187 215 255
187 215 255
187 215 255
187 215 255
187 215 255
187 215 255
187 215 255
187 215 255
187 215 255
187 215 255
187 215 255
187 215 255
187 214 255
187 215 255
187 214 255
187 214 255
187 214 255
187 214 255
136 156 186
10 13 17
10 12 15
10 12 16
9 12 15
11 13 17
11 13 17
11 13 17
11 13 17
11 14 17
10 12 16
10 12 16
9 12 15
10 13 16
10 12 16
10 12 16
11 13 16
10 12 16
11 14 17
10 13 16
11 13 16
11 13 17
10 13 16
11 13 17
10 12 15
9 11 14
10 12 16
10 12 15
11 13 17
11 13 17
10 12 16
10 13 16
11 13 16
12 14 18
10 12 15
10 12 15
10 12 16
10 12 16
10 12 16
10 13 17
10 13 16
9 12 15
12 14 18
9 11 14
12 14 18
9 11 14
10 12 16
10 12 15
11 13 17
10 13 16
11 14 17
10 13 16
10 13 16
11 13 17
10 12 16
10 12 15
10 12 16
10 13 17
10 12 15
11 13 17
9 12 15
11 13 17
9 11 15
10 12 16
12 14 18
10 12 15
11 13 17
9 11 14
11 14 17
10 12 15
10 12 15
10 13 16
10 12 16
10 12 15
10 12 16
10 12 15
10 12 16
10 13 16
10 13 16
10 12 16
9 11 14
10 12 15
10 13 16
10 12 16
11 13 16
10 13 16
10 12 16
10 12 16
11 13 16
10 12 15
11 13 17
10 12 15
10 12 16
10 12 15
11 13 16
10 13 16
11 13 17
11 13 17
11 13 17
9 11 14
10 13 16
10 12 16
10 12 15
10 12 15
11 13 17
11 13 17
10 13 16
12 14 18
10 12 16
9 11 14
11 13 17
8 10 13
10 12 16
11 13 17
10 12 16
10 12 15
10 12 15
10 13 16
11 13 17
10 12 15
10 12 15
10 13 16
9 11 14
10 12 15
9 11 15
11 14 17
11 13 17
11 13 17
12 14 18
117 134 160
187 214 255
187 214 255
187 214 255
187 214 255
187 214 255
187 215 255
187 215 255
187 215 255
187 215 255
187 215 255
187 215 255
187 215 255
187 215 255
187 215 255
187 215 255
187 215 255
187 215 255
187 215 255
187 215 255
187 215 255
187 215 255
187 215 255
187 215 255
187 215 255
188 215 255
188 215 255
188 215 255
188 215 255
188 215 255
188 215 255
188 215 255
188 215 255
188 215 255
188 215 255
188 215 255
188 215 255
188 215 255
188 215 255
188 215 255
188 215 255
188 215 255
188 215 255
188 215 255
188 215 255
188 215 255
188 215 255
188 215 255
188 215 255
188 215 255
188 215 255
188 215 255
188 215 255
188 215 255
188 215 255
188 215 255
188 215 255
188 215 255
188 215 255
188 215 255
188 215 255
188 215 255
188 215 255
188 215 255
188 215 255
188 215 255
188 215 255
188 215 255
188 215 255
188 215 255
188 215 255
188 215 255
188 215 255
188 215 255
188 215 255
188 215 255
188 215 255
188 215 255
188 215 255
188 215 255
188 215 255
188 215 255
188 215 255
188 215 255
188 215 255
188 215 255
188 215 255
188 215 255
188 215 255
188 215 255
188 215 255
189 215 255
189 215 255
189 215 255
189 215 255
189 215 255
189 215 255
189 215 255
189 215 255
189 215 255
189 215 255
189 215 255
189 215 255
189 215 255
189 215 255
189 215 255
189 215 255
189 215 255
189 215 255
189 215 255
189 215 255
189 215 255
189 215 255
189 215 255
189 215 255
189 215 255
189 215 255
189 215 255
189 215 255
189 215 255
189 216 255
189 216 255
189 216 255
189 216 255
189 216 255
189 216 255
189 216 255
189 216 255
189 216 255
189 216 255
189 216 255
189 216 255
189 216 255
189 216 255
189 216 255
189 216 255
189 216 255
189 216 255
189 216 255
189 216 255
189 216 255
189 216 255
189 216 255
189 216 255
189 216 255
189 216 255
189 216 255
189 216 255
189 216 255
189 216 255
189 216 255
189 216 255
189 216 255
189 216 255
189 216 255
189 216 255
189 216 255
189 216 255
189 216 255
189 216 255
189 216 255
189 216 255
189 216 255
189 216 255
189 216 255
189 216 255
189 216 255
189 216 255
189 216 255
189 216 255
189 216 255
189 216 255
189 216 255
189 216 255
189 216 255
189 216 255
189 216 255
189 216 255
189 216 255
189 216 255
189 216 255
189 215 255
189 215 255
189 215 255
189 215 255
189 215 255
189 215 255
189 215 255
189 215 255
189 215 255
189 215 255
189 215 255
189 215 255
189 215 255
189 215 255
189 215 255
189 215 255
189 215 255
189 215 255
189 215 255
189 215 255
189 215 255
189 215 255
189 215 255
189 215 255
189 215 255
189 215 255
189 215 255
188 215 255
188 215 255
188 215 255
188 215 255
188 215 255
188 215 255
188 215 255
188 215 255
188 215 255
188 215 255
188 215 255
188 215 255
188 215 255
188 215 255
188 215 255
188 215 255
188 215 255
188 215 255
188 215 255
188 215 255
188 215 255
188 215 255
188 215 255
188 215 255
188 215 255
188 215 255
188 215 255
188 215 255
188 215 255
188 215 255
188 215 255
188 215 255
188 215 255
188 215 255
188 215 255
188 215 255
188 215 255
188 215 255
188 215 255
188 215 255
188 215 255
188 215 255
188 215 255
188 215 255
188 215 255
188 215 255
188 215 255
188 215 255
188 215 255
188 215 255
188 215 255
188 215 255
188 215 255
188 215 255
188 215 255
188 215 255
188 215 255
188 215 255
188 215 255
188 215 255
188 215 255
188 215 255
188 215 255
88 101 120
11 14 17
10 12 16
11 14 17
10 12 16
9 11 14
10 12 16
9 12 15
10 12 16
10 12 16
9 11 15
10 13 16
10 12 16
11 14 18
9 11 14
9 11 14
11 13 17
10 13 16
10 12 15
9 11 14
10 12 15
10 12 16
10 12 16
10 13 16
9 11 14
11 14 17
10 13 16
10 12 16
10 12 15
9 11 14
9 11 14
10 13 16
10 13 16
10 12 16
10 12 15
11 13 17
12 14 18
10 12 16
11 13 17
10 12 16
10 12 15
9 12 15
12 14 18
10 12 16
11 13 17
10 12 16
9 11 14
10 12 15
8 10 13
10 12 16
11 14 17
11 13 17
11 14 17
11 13 17
10 12 16
9 11 15
10 13 16
12 14 18
11 13 16
12 14 18
10 13 17
9 12 15
11 13 17
10 12 15
10 13 17
9 12 15
9 11 15
11 14 17
10 12 16
9 11 14
10 13 16
10 12 15
10 12 15
10 12 16
8 10 13
10 13 16
10 12 16
10 12 16
9 11 14
9 11 15
10 13 16
11 14 17
9 11 14
10 13 16
10 12 15
10 13 17
10 12 16
10 12 16
11 13 16
9 12 15
11 13 17
11 13 17
11 13 17
8 10 13
11 13 17
10 13 16
10 13 16
10 12 16
11 13 17
11 13 17
11 13 17
11 13 17
10 12 15
11 13 17
10 12 16
8 10 13
10 12 16
9 12 15
11 13 17
12 14 18
10 12 16
11 14 17
11 13 17
10 12 16
10 13 16
8 10 13
10 13 17
10 12 15
10 12 16
11 14 18
10 13 16
9 11 15
11 14 17
11 13 17
11 13 17
11 13 16
9 12 15
11 14 17
11 14 18
106 122 146
188 215 255
188 215 255
188 215 255
188 215 255
188 215 255
188 215 255
188 215 255
188 215 255
188 215 255
188 215 255
188 215 255
188 215 255
188 215 255
188 215 255
188 215 255
188 215 255
188 215 255
188 215 255
188 215 255
188 215 255
188 215 255
188 215 255
188 215 255
188 215 255
188 215 255
188 215 255
188 215 255
188 215 255
188 215 255
188 215 255
188 215 255
188 215 255
188 215 255
188 215 255
188 215 255
188 215 255
188 215 255
188 215 255
188 215 255
188 215 255
188 215 255
188 215 255
188 215 255
188 215 255
188 215 255
188 215 255
188 215 255
188 215 255
188 215 255
188 215 255
188 215 255
188 215 255
188 215 255
188 215 255
188 215 255
188 215 255
188 215 255
188 215 255
188 215 255
188 215 255
188 215 255
188 215 255
188 215 255
188 215 255
189 215 255
189 215 255
189 215 255
189 215 255
189 215 255
189 215 255
189 215 255
189 215 255
189 215 255
189 215 255
189 215 255
189 215 255
189 215 255
189 215 255
189 215 255
189 215 255
189 215 255
189 215 255
189 215 255
189 215 255
189 215 255
189 215 255
189 215 255
189 215 255
189 215 255
189 215 255
189 216 255
189 216 255
189 216 255
189 216 255
189 216 255
189 216 255
189 216 255
189 216 255
189 216 255
189 216 255
189 216 255
189 216 255
189 216 255
189 216 255
189 216 255
189 216 255
189 216 255
189 216 255
189 216 255
189 216 255
189 216 255
189 216 255
189 216 255
189 216 255
189 216 255
189 216 255
189 216 255
189 216 255
189 216 255
189 216 255
189 216 255
189 216 255
189 216 255
189 216 255
189 216 255
189 216 255
189 216 255
189 216 255
189 216 255
189 216 255
189 216 255
189 216 255
189 216 255
189 216 255
189 216 255
190 216 255
190 216 255
190 216 255
190 216 255
190 216 255
189 216 255
189 216 255
189 216 255
189 216 255
189 216 255
189 216 255
189 216 255
189 216 255
189 216 255
189 216 255
189 216 255
189 216 255
189 216 255
189 216 255
189 216 255
189 216 255
189 216 255
189 216 255
189 216 255
189 216 255
189 216 255
189 216 255
189 216 255
189 216 255
189 216 255
189 216 255
189 216 255
189 216 255
189 216 255
189 216 255
189 216 255
189 216 255
189 216 255
189 216 255
189 216 255
189 216 255
189 216 255
189 216 255
189 216 255
189 216 255
189 216 255
189 216 255
189 216 255
189 216 255
189 216 255
189 216 255
189 216 255
189 216 255
189 216 255
189 216 255
189 216 255
189 216 255
189 216 255
189 216 255
189 216 255
189 216 255
189 216 255
189 216 255
189 216 255
189 216 255
189 216 255
189 216 255
189 216 255
189 216 255
189 216 255
189 216 255
189 216 255
189 216 255
189 216 255
189 216 255
189 216 255
189 216 255
189 215 255
189 215 255
189 215 255
189 215 255
189 215 255
189 215 255
189 215 255
189 215 255
189 215 255
189 215 255
189 215 255
189 215 255
189 215 255
189 215 255
189 215 255
189 215 255
189 215 255
189 215 255
189 215 255
189 215 255
189 215 255
189 215 255
189 215 255
189 215 255
188 215 255
188 215 255
188 215 255
188 215 255
188 215 255
188 215 255
188 215 255
188 215 255
188 215 255
188 215 255
188 215 255
188 215 255
188 215 255
188 215 255
188 215 255
188 215 255
188 215 255
188 215 255
188 215 255
188 215 255
188 215 255
188 215 255
188 215 255
188 215 255
188 215 255
188 215 255
188 215 255
188 215 255
188 215 255
188 215 255
188 215 255
188 215 255
188 215 255
188 215 255
96 111 132
10 12 15
10 12 16
11 14 18
11 13 17
9 11 14
11 13 17
10 12 15
10 12 16
10 12 16
9 12 15
10 12 16
10 13 17
11 13 17
10 13 17
10 13 16
10 12 15
10 12 16
10 13 16
9 11 14
10 13 17
10 12 16
11 14 18
10 12 16
10 12 16
9 12 15
11 14 18
11 13 17
11 14 17
11 13 17
9 12 15
11 14 17
11 13 17
9 11 14
10 12 15
12 14 18
12 15 19
10 12 16
9 12 15
11 13 17
12 14 18
9 11 15
12 14 18
11 14 17
9 12 15
11 13 17
10 13 16
10 12 16
11 13 16
10 13 16
12 15 19
9 11 14
10 12 16
11 13 17
10 13 16
10 12 15
11 13 17
10 13 16
10 12 16
10 12 15
11 14 17
9 11 14
11 13 17
10 13 16
8 10 14
10 12 16
10 12 16
10 12 16
10 13 17
10 13 17
10 13 16
11 14 17
11 13 17
9 11 15
10 12 15
10 12 16
11 13 17
10 13 16
11 13 17
11 13 17
9 11 15
10 12 16
10 12 15
10 12 15
10 12 15
9 11 14
11 13 17
11 13 17
9 12 15
9 11 14
9 11 14
10 12 15
9 11 14
9 11 14
10 12 16
11 14 17
10 12 16
11 13 17
10 13 16
11 13 17
10 13 16
9 12 15
10 12 15
9 11 14
10 12 15
11 13 17
9 12 15
10 13 17
9 11 14
8 11 14
10 13 16
10 12 15
10 12 16
9 11 14
10 12 16
11 13 17
10 12 15
10 12 16
10 13 16
10 12 16
10 12 15
10 12 16
9 12 15
12 14 18
10 12 15
10 13 16
11 13 17
12 15 19
9 11 15
100 115 137
188 215 255
188 215 255
188 215 255
188 215 255
188 215 255
188 215 255
188 215 255
188 215 255
188 215 255
188 215 255
188 215 255
188 215 255
188 215 255
188 215 255
188 215 255
188 215 255
188 215 255
188 215 255
188 215 255
188 215 255
188 215 255
188 215 255
188 215 255
188 215 255
188 215 255
188 215 255
188 215 255
188 215 255
188 215 255
188 215 255
188 215 255
188 215 255
189 215 255
189 215 255
189 215 255
189 215 255
189 215 255
189 215 255
189 215 255
189 215 255
189 215 255
189 215 255
189 215 255
189 215 255
189 215 255
189 215 255
189 215 255
189 215 255
189 215 255
189 215 255
189 215 255
189 215 255
189 215 255
189 215 255
189 215 255
189 215 255
189 215 255
189 215 255
189 215 255
189 216 255
189 215 255
189 216 255
189 216 255
189 216 255
189 216 255
189 216 255
189 216 255
189 216 255
189 216 255
189 216 255
189 216 255
189 216 255
189 216 255
189 216 255
189 216 255
189 216 255
189 216 255
189 216 255
189 216 255
189 216 255
189 216 255
189 216 255
189 216 255
189 216 255
189 216 255
189 216 255
189 216 255
189 216 255
189 216 255
189 216 255
189 216 255
189 216 255
189 216 255
189 216 255
189 216 255
189 216 255
189 216 255
189 216 255
189 216 255
189 216 255
189 216 255
189 216 255
189 216 255
189 216 255
189 216 255
189 216 255
189 216 255
189 216 255
189 216 255
189 216 255
189 216 255
189 216 255
189 216 255
189 216 255
189 216 255
189 216 255
189 216 255
189 216 255
189 216 255
189 216 255
189 216 255
189 216 255
189 216 255
189 216 255
189 216 255
189 216 255
189 216 255
189 216 255
189 216 255
190 216 255
190 216 255
190 216 255
190 216 255
190 216 255
190 216 255
190 216 255
190 216 255
190 216 255
190 216 255
190 216 255
190 216 255
190 216 255
190 216 255
190 216 255
190 216 255
190 216 255
190 216 255
190 216 255
190 216 255
190 216 255
190 216 255
190 216 255
190 216 255
190 216 255
190 216 255
190 216 255
190 216 255
190 216 255
190 216 255
190 216 255
190 216 255
190 216 255
190 216 255
190 216 255
190 216 255
190 216 255
190 216 255
190 216 255
190 216 255
190 216 255
190 216 255
190 216 255
190 216 255
190 216 255
190 216 255
190 216 255
190 216 255
190 216 255
190 216 255
190 216 255
189 216 255
189 216 255
189 216 255
189 216 255
189 216 255
189 216 255
189 216 255
189 216 255
189 216 255
189 216 255
189 216 255
189 216 255
189 216 255
189 216 255
189 216 255
189 216 255
189 216 255
189 216 255
189 216 255
189 216 255
189 216 255
189 216 255
189 216 255
189 216 255
189 216 255
189 216 255
189 216 255
189 216 255
189 216 255
189 216 255
189 216 255
189 216 255
189 216 255
189 216 255
189 216 255
189 216 255
189 216 255
189 216 255
189 216 255
189 216 255
189 216 255
189 216 255
189 216 255
189 216 255
189 216 255
189 216 255
189 216 255
189 216 255
189 216 255
189 216 255
189 216 255
189 216 255
189 216 255
189 216 255
189 216 255
189 216 255
189 216 255
189 216 255
189 216 255
189 216 255
189 216 255
189 216 255
189 216 255
189 216 255
189 216 255
189 215 255
189 215 255
189 215 255
189 215 255
189 215 255
189 215 255
189 215 255
189 215 255
189 215 255
189 215 255
189 215 255
189 215 255
189 215 255
189 215 255
189 215 255
189 215 255
189 215 255
189 215 255
189 215 255
189 215 255
189 215 255
189 215 255
189 215 255
189 215 255
189 215 255
90 104 124
9 11 14
10 12 15
10 12 15
10 13 16
11 14 18
11 13 17
10 13 16
11 13 17
11 13 17
10 12 16
10 12 15
9 11 14
10 13 16
11 13 17
11 13 17
10 12 15
10 12 15
11 14 17
10 13 16
10 12 16
10 13 16
10 12 16
9 12 15
11 14 17
9 11 14
12 14 18
10 12 16
10 12 15
9 12 15
10 12 16
10 12 15
10 12 15
10 12 15
10 12 15
11 13 16
10 12 16
10 12 15
11 13 17
11 13 17
11 13 17
9 11 14
11 13 16
9 12 15
10 13 17
9 11 14
11 14 18
10 13 16
10 12 15
10 12 16
11 14 17
10 13 16
12 14 18
10 12 15
9 11 14
11 13 16
9 11 14
11 13 17
11 13 17
9 12 15
10 12 16
11 13 17
10 12 16
10 13 16
9 11 15
10 12 16
11 14 17
10 12 15
9 12 15
10 12 15
11 13 17
11 13 17
10 12 16
11 13 17
10 12 16
11 13 17
11 14 17
9 11 15
10 12 15
10 13 16
9 11 14
11 13 17
8 10 13
11 13 17
11 14 18
9 11 15
11 13 17
10 12 15
10 12 16
11 13 17
10 13 16
10 13 16
9 11 14
9 12 15
10 12 15
11 13 17
10 12 15
12 14 18
8 10 13
11 13 17
10 12 15
10 13 16
9 11 14
11 13 17
10 12 15
11 13 17
10 12 15
10 12 15
10 13 16
11 13 17
11 14 17
9 11 14
10 13 17
10 12 15
9 11 15
10 12 16
11 14 17
11 14 17
11 13 17
10 12 16
10 13 16
10 12 16
10 12 15
10 13 16
11 13 16
10 13 16
11 13 16
11 13 17
11 14 17
64 73 88
189 215 255
189 215 255
189 215 255
189 215 255
189 215 255
189 215 255
189 215 255
189 215 255
189 215 255
189 215 255
189 215 255
189 215 255
189 215 255
189 215 255
189 215 255
189 215 255
189 215 255
189 215 255
189 215 255
189 215 255
189 215 255
189 215 255
189 215 255
189 215 255
189 215 255
189 215 255
189 216 255
189 216 255
189 216 255
189 216 255
189 216 255
189 216 255
189 216 255
189 216 255
189 216 255
189 216 255
189 216 255
189 216 255
189 216 255
189 216 255
189 216 255
189 216 255
189 216 255
189 216 255
189 216 255
189 216 255
189 216 255
189 216 255
189 216 255
189 216 255
189 216 255
189 216 255
189 216 255
189 216 255
189 216 255
189 216 255
189 216 255
189 216 255
189 216 255
189 216 255
189 216 255
189 216 255
189 216 255
189 216 255
189 216 255
189 216 255
189 216 255
189 216 255
189 216 255
189 216 255
189 216 255
189 216 255
189 216 255
189 216 255
189 216 255
189 216 255
189 216 255
189 216 255
189 216 255
189 216 255
189 216 255
189 216 255
189 216 255
189 216 255
189 216 255
189 216 255
189 216 255
189 216 255
189 216 255
189 216 255
189 216 255
190 216 255
190 216 255
190 216 255
190 216 255
190 216 255
190 216 255
190 216 255
190 216 255
190 216 255
190 216 255
190 216 255
190 216 255
190 216 255
190 216 255
190 216 255
190 216 255
190 216 255
190 216 255
190 216 255
190 216 255
190 216 255
190 216 255
190 216 255
190 216 255
190 216 255
190 216 255
190 216 255
190 216 255
190 216 255
190 216 255
190 216 255
190 216 255
190 216 255
190 216 255
190 216 255
190 216 255
190 216 255
190 216 255
190 216 255
190 216 255
190 216 255
190 216 255
190 216 255
190 216 255
190 216 255
190 216 255
190 216 255
190 216 255
190 216 255
190 216 255
190 216 255
190 216 255
190 216 255
190 216 255
190 216 255
190 216 255
190 216 255
190 216 255
190 216 255
190 216 255
190 216 255
190 216 255
190 216 255
190 216 255
190 216 255
190 216 255
190 216 255
190 216 255
190 216 255
190 216 255
190 216 255
190 216 255
190 216 255
190 216 255
190 216 255
190 216 255
190 216 255
190 216 255
190 216 255
190 216 255
190 216 255
190 216 255
190 216 255
190 216 255
190 216 255
190 216 255
190 216 255
190 216 255
190 216 255
190 216 255
190 216 255
190 216 255
190 216 255
190 216 255
190 216 255
190 216 255
190 216 255
190 216 255
190 216 255
190 216 255
190 216 255
190 216 255
190 216 255
190 216 255
190 216 255
190 216 255
190 216 255
190 216 255
190 216 255
190 216 255
190 216 255
190 216 255
190 216 255
190 216 255
190 216 255
190 216 255
190 216 255
190 216 255
190 216 255
190 216 255
190 216 255
190 216 255
190 216 255
190 216 255
190 216 255
190 216 255
190 216 255
190 216 255
190 216 255
190 216 255
189 216 255
190 216 255
189 216 255
189 216 255
189 216 255
189 216 255
189 216 255
189 216 255
189 216 255
189 216 255
189 216 255
189 216 255
189 216 255
189 216 255
189 216 255
189 216 255
189 216 255
189 216 255
189 216 255
189 216 255
189 216 255
189 216 255
189 216 255
189 216 255
189 216 255
189 216 255
189 216 255
189 216 255
189 216 255
189 216 255
189 216 255
189 216 255
189 216 255
189 216 255
189 216 255
189 216 255
189 216 255
189 216 255
189 216 255
189 216 255
189 216 255
189 216 255
189 216 255
189 216 255
189 216 255
189 216 255
189 216 255
189 216 255
189 216 255
50 58 69
10 13 16
10 12 16
8 10 13
10 12 16
10 12 15
8 10 13
10 12 15
11 13 17
11 13 17
10 13 16
10 12 16
11 13 17
10 12 16
10 13 16
10 13 16
11 13 17
11 13 16
10 12 15
12 14 17
8 10 13
9 11 15
10 13 16
10 13 16
10 13 17
9 11 14
11 14 18
10 12 15
10 12 15
9 11 15
9 10 13
10 12 15
11 13 17
10 12 16
10 12 16
10 12 16
10 12 16
9 12 15
10 13 16
11 13 17
11 13 16
10 12 15
10 12 16
10 12 15
9 11 14
11 14 18
10 12 15
9 11 14
10 13 16
10 12 16
11 14 17
9 11 15
11 13 17
10 12 15
10 12 15
10 12 15
10 12 16
8 10 13
9 11 14
10 12 15
9 11 14
10 12 15
10 12 15
9 11 14
11 13 17
10 13 16
10 12 15
9 11 13
10 12 15
10 12 16
9 11 15
8 11 14
9 12 15
10 12 16
11 13 17
9 11 14
12 14 18
10 12 15
10 12 15
9 11 14
10 12 15
11 13 17
11 13 16
10 13 16
9 12 15
10 12 16
10 12 15
11 14 18
11 14 17
11 14 17
11 13 16
9 11 14
10 13 16
11 13 17
11 13 17
10 12 15
11 13 17
9 11 15
9 12 15
10 13 16
11 13 17
10 12 16
10 12 15
11 14 18
9 11 13
9 11 14
10 12 16
10 12 16
11 13 16
11 14 17
10 12 15
10 12 16
10 12 16
10 13 16
9 11 14
9 11 14
10 12 16
10 12 16
9 11 14
10 12 16
10 12 15
11 13 17
10 13 16
10 12 16
9 11 15
9 11 14
10 12 15
11 14 17
11 14 18
63 73 87
189 216 255
189 216 255
189 216 255
189 216 255
189 216 255
189 216 255
189 216 255
189 216 255
189 216 255
189 216 255
189 216 255
189 216 255
189 216 255
189 216 255
189 216 255
189 216 255
189 216 255
189 216 255
189 216 255
189 216 255
189 216 255
189 216 255
189 216 255
189 216 255
189 216 255
189 216 255
189 216 255
189 216 255
189 216 255
189 216 255
189 216 255
189 216 255
189 216 255
189 216 255
189 216 255
189 216 255
189 216 255
189 216 255
189 216 255
189 216 255
189 216 255
189 216 255
189 216 255
189 216 255
189 216 255
189 216 255
189 216 255
190 216 255
190 216 255
189 216 255
190 216 255
190 216 255
190 216 255
190 216 255
190 216 255
190 216 255
190 216 255
190 216 255
190 216 255
190 216 255
190 216 255
190 216 255
190 216 255
190 216 255
190 216 255
190 216 255
190 216 255
190 216 255
190 216 255
190 216 255
190 216 255
190 216 255
190 216 255
190 216 255
190 216 255
190 216 255
190 216 255
190 216 255
190 216 255
190 216 255
190 216 255
190 216 255
190 216 255
190 216 255
190 216 255
190 216 255
190 216 255
190 216 255
190 216 255
190 216 255
190 216 255
190 216 255
190 216 255
190 216 255
190 216 255
190 216 255
190 216 255
190 216 255
190 216 255
190 216 255
190 216 255
190 216 255
190 216 255
190 216 255
190 216 255
190 216 255
190 216 255
190 216 255
190 216 255
190 216 255
190 216 255
190 216 255
190 216 255
190 216 255
190 216 255
190 216 255
190 216 255
190 216 255
190 216 255
190 216 255
190 216 255
190 216 255
190 216 255
190 216 255
190 216 255
190 216 255
190 216 255
190 216 255
190 216 255
190 216 255
190 216 255
190 216 255
190 216 255
190 216 255
190 216 255
190 216 255
190 216 255
190 216 255
190 216 255
190 216 255
190 216 255
190 216 255
190 216 255
190 216 255
190 216 255
190 216 255
190 216 255
190 216 255
190 216 255
190 216 255
190 216 255
190 216 255
190 216 255
190 216 255
190 216 255
190 216 255
190 216 255
190 216 255
190 216 255
190 216 255
190 216 255
190 216 255
190 216 255
190 216 255
190 216 255
190 216 255
190 216 255
190 216 255
190 216 255
190 216 255
190 216 255
190 216 255
190 216 255
190 216 255
190 216 255
190 216 255
190 216 255
190 216 255
190 216 255
190 216 255
190 216 255
190 216 255
190 216 255
190 216 255
190 216 255
190 216 255
190 216 255
190 216 255
190 216 255
190 216 255
190 216 255
190 216 255
190 216 255
190 216 255
190 216 255
190 216 255
190 216 255
190 216 255
190 216 255
190 216 255
190 216 255
190 216 255
190 216 255
190 216 255
190 216 255
190 216 255
190 216 255
190 216 255
190 216 255
190 216 255
190 216 255
190 216 255
190 216 255
190 216 255
190 216 255
190 216 255
190 216 255
190 216 255
190 216 255
190 216 255
190 216 255
190 216 255
190 216 255
190 216 255
190 216 255
190 216 255
190 216 255
190 216 255
190 216 255
190 216 255
190 216 255
190 216 255
190 216 255
190 216 255
190 216 255
190 216 255
190 216 255
190 216 255
190 216 255
190 216 255
190 216 255
190 216 255
190 216 255
190 216 255
190 216 255
190 216 255
190 216 255
190 216 255
190 216 255
190 216 255
190 216 255
190 216 255
190 216 255
190 216 255
190 216 255
190 216 255
190 216 255
190 216 255
190 216 255
190 216 255
190 216 255
190 216 255
190 216 255
190 216 255
190 216 255
190 216 255
190 216 255
190 216 255
190 216 255
190 216 255
41 47 57
10 12 15
9 12 15
10 13 16
9 11 14
9 11 14
9 11 14
10 12 15
9 11 15
10 12 16
9 11 14
9 11 14
11 14 17
11 13 17
10 13 16
10 12 15
10 12 15
9 11 14
10 12 15
11 13 17
9 12 15
9 11 14
10 12 15
10 12 15
10 13 16
9 11 14
11 13 17
10 12 16
10 13 16
10 12 16
9 11 14
11 14 18
10 12 16
11 14 17
9 11 14
9 11 15
11 13 17
11 13 17
11 14 17
9 12 15
10 13 16
10 12 16
10 13 17
10 13 17
9 12 15
10 12 15
11 13 17
9 11 14
10 12 15
11 13 17
9 11 14
10 12 16
11 14 17
9 12 15
9 11 14
10 12 15
10 12 16
10 12 16
8 10 13
10 12 16
9 12 15
8 10 13
10 12 15
9 12 15
11 13 17
11 14 18
10 12 16
11 13 17
10 12 15
10 12 15
12 14 19
9 11 14
10 13 16
10 12 15
11 13 17
10 12 15
10 12 16
8 10 13
8 10 12
10 12 15
9 11 15
9 11 14
12 14 17
11 14 17
9 12 15
8 10 13
9 12 15
10 12 15
11 13 17
11 13 17
10 12 15
10 13 17
10 12 15
9 11 14
9 12 15
9 11 14
10 13 16
9 11 14
9 12 15
9 11 15
11 13 17
11 13 17
9 11 14
9 12 15
10 12 15
10 12 16
10 12 15
10 12 15
10 12 15
10 12 16
10 13 16
9 12 15
10 12 15
10 12 15
10 12 15
9 11 14
9 11 14
10 12 16
9 10 13
11 13 16
9 11 15
10 12 15
10 13 16
10 13 16
10 12 15
10 12 15
9 12 15
10 13 16
9 11 14
53 61 73
190 216 255
190 216 255
190 216 255
190 216 255
190 216 255
190 216 255
190 216 255
190 216 255
190 216 255
190 216 255
190 216 255
190 216 255
190 216 255
190 216 255
190 216 255
190 216 255
190 216 255
190 216 255
190 216 255
190 216 255
190 216 255
190 216 255
190 216 255
190 216 255
190 216 255
190 216 255
190 216 255
190 216 255
190 216 255
190 216 255
190 216 255
190 216 255
190 216 255
190 216 255
190 216 255
190 216 255
190 216 255
190 216 255
190 216 255
190 216 255
190 216 255
190 216 255
190 216 255
190 216 255
190 216 255
190 216 255
190 216 255
190 216 255
190 216 255
190 216 255
190 216 255
190 216 255
190 216 255
190 216 255
190 216 255
190 216 255
190 216 255
190 216 255
190 216 255
190 216 255
190 216 255
190 216 255
190 216 255
190 216 255
190 216 255
190 216 255
190 216 255
190 216 255
190 216 255
190 216 255
190 216 255
190 216 255
190 216 255
190 216 255
190 216 255
190 216 255
190 216 255
190 216 255
190 216 255
190 216 255
190 216 255
190 216 255
190 216 255
190 216 255
190 216 255
190 216 255
190 216 255
190 216 255
190 216 255
190 216 255
190 216 255
190 216 255
190 216 255
190 216 255
190 216 255
190 216 255
190 216 255
190 216 255
190 216 255
190 216 255
190 216 255
190 216 255
190 216 255
190 216 255
190 216 255
190 216 255
190 216 255
190 216 255
190 216 255
190 216 255
190 216 255
190 216 255
190 216 255
190 216 255
190 216 255
190 216 255
190 216 255
190 216 255
190 216 255
190 216 255
190 216 255
190 216 255
190 216 255
190 216 255
190 216 255
190 216 255
190 216 255
190 216 255
190 216 255
190 216 255
190 216 255
190 216 255
190 216 255
190 216 255
190 216 255
191 217 255
191 217 255
191 217 255
191 217 255
191 217 255
191 217 255
191 217 255
191 217 255
191 217 255
191 217 255
191 217 255
191 217 255
191 217 255
191 217 255
191 217 255
191 217 255
191 217 255
191 217 255
191 217 255
191 217 255
191 217 255
191 217 255
191 217 255
191 217 255
191 217 255
191 217 255
191 217 255
191 217 255
191 217 255
191 217 255
191 217 255
191 217 255
191 217 255
191 217 255
191 217 255
191 217 255
191 217 255
191 217 255
191 217 255
191 217 255
191 217 255
191 217 255
190 216 255
190 216 255
191 217 255
190 216 255
190 216 255
190 216 255
190 216 255
190 216 255
190 216 255
190 216 255
190 216 255
190 216 255
190 216 255
190 216 255
190 216 255
190 216 255
190 216 255
190 216 255
190 216 255
190 216 255
190 216 255
190 216 255
190 216 255
190 216 255
190 216 255
190 216 255
190 216 255
190 216 255
190 216 255
190 216 255
190 216 255
190 216 255
190 216 255
190 216 255
190 216 255
190 216 255
190 216 255
190 216 255
190 216 255
190 216 255
190 216 255
190 216 255
190 216 255
190 216 255
190 216 255
190 216 255
190 216 255
190 216 255
190 216 255
190 216 255
190 216 255
190 216 255
190 216 255
190 216 255
190 216 255
190 216 255
190 216 255
190 216 255
190 216 255
190 216 255
190 216 255
190 216 255
190 216 255
190 216 255
190 216 255
190 216 255
190 216 255
190 216 255
190 216 255
190 216 255
190 216 255
190 216 255
190 216 255
190 216 255
190 216 255
190 216 255
190 216 255
190 216 255
190 216 255
190 216 255
190 216 255
190 216 255
190 216 255
190 216 255
190 216 255
190 216 255
190 216 255
190 216 255
190 216 255
190 216 255
190 216 255
190 216 255
190 216 255
38 44 53
10 12 15
8 10 14
9 11 15
10 12 16
10 12 15
11 13 16
9 11 14
9 11 15
10 13 16
10 12 15
10 13 16
11 14 17
10 12 15
10 12 15
11 14 17
10 12 16
9 11 14
10 12 15
10 12 15
10 12 16
10 13 16
11 14 17
11 13 17
10 12 16
10 13 16
10 12 16
10 12 15
10 12 16
9 11 14
10 12 16
10 12 16
10 13 16
9 11 14
10 12 15
9 11 14
11 14 17
11 13 16
9 11 14
11 14 17
11 13 17
9 11 15
10 13 16
10 13 16
10 12 15
9 11 15
10 12 16
9 11 14
10 12 15
9 11 15
9 11 14
10 12 16
10 13 16
9 11 14
8 10 13
10 12 15
10 12 16
11 14 17
10 12 15
10 12 15
10 12 15
9 11 15
11 14 17
10 12 16
10 13 16
9 11 14
9 11 14
10 12 15
10 12 15
9 12 15
10 13 16
9 11 15
10 12 15
9 11 15
8 10 12
10 13 16
10 12 15
9 11 15
10 13 16
11 13 17
11 13 16
11 13 17
8 10 13
9 11 15
9 11 14
9 11 14
10 12 15
10 12 15
11 13 17
10 13 16
10 12 16
10 13 16
9 11 14
11 13 17
9 12 15
11 13 17
11 13 17
9 11 15
11 13 16
10 12 15
9 12 15
10 12 16
10 12 15
9 11 14
10 12 15
11 14 17
10 12 16
11 13 16
9 11 15
11 13 16
9 11 14
11 13 17
10 12 16
10 12 15
9 11 14
12 15 19
11 14 17
12 14 18
10 12 15
10 12 15
10 13 16
9 11 15
9 12 15
9 12 15
10 12 15
10 12 16
11 13 17
10 12 15
9 12 15
28 32 39
190 216 255
190 216 255
190 216 255
190 216 255
190 216 255
190 216 255
190 216 255
190 216 255
190 216 255
190 216 255
190 216 255
190 216 255
190 216 255
190 216 255
190 216 255
190 216 255
190 216 255
190 216 255
190 216 255
190 216 255
190 216 255
190 216 255
190 216 255
190 216 255
190 216 255
190 216 255
190 216 255
190 216 255
190 216 255
190 216 255
190 216 255
190 216 255
190 216 255
190 216 255
190 216 255
190 216 255
190 216 255
190 216 255
190 216 255
190 216 255
190 216 255
190 216 255
190 216 255
190 216 255
190 216 255
190 216 255
190 216 255
190 216 255
190 216 255
190 216 255
190 216 255
190 216 255
190 216 255
190 216 255
190 216 255
190 216 255
190 216 255
190 216 255
190 216 255
190 216 255
190 216 255
190 216 255
190 216 255
190 216 255
190 216 255
190 216 255
190 216 255
190 216 255
190 216 255
190 216 255
190 216 255
190 216 255
190 216 255
190 216 255
190 216 255
190 216 255
190 216 255
190 216 255
190 216 255
190 216 255
190 216 255
190 216 255
190 216 255
190 216 255
190 216 255
190 216 255
190 216 255
190 216 255
191 217 255
191 217 255
191 217 255
191 217 255
191 217 255
191 217 255
191 217 255
191 217 255
191 217 255
191 217 255
191 217 255
191 217 255
191 217 255
191 217 255
191 217 255
191 217 255
191 217 255
191 217 255
191 217 255
191 217 255
191 217 255
191 217 255
191 217 255
191 217 255
191 217 255
191 217 255
191 217 255
191 217 255
191 217 255
191 217 255
191 217 255
191 217 255
191 217 255
191 217 255
191 217 255
191 217 255
191 217 255
191 217 255
191 217 255
191 217 255
191 217 255
191 217 255
191 217 255
191 217 255
191 217 255
191 217 255
191 217 255
191 217 255
191 217 255
191 217 255
191 217 255
191 217 255
191 217 255
191 217 255
191 217 255
191 217 255
191 217 255
191 217 255
191 217 255
191 217 255
191 217 255
191 217 255
191 217 255
191 217 255
191 217 255
191 217 255
191 217 255
191 217 255
191 217 255
191 217 255
191 217 255
191 217 255
191 217 255
191 217 255
191 217 255
191 217 255
191 217 255
191 217 255
191 217 255
191 217 255
191 217 255
191 217 255
191 217 255
191 217 255
191 217 255
191 217 255
191 217 255
191 217 255
191 217 255
191 217 255
191 217 255
191 217 255
191 217 255
191 217 255
191 217 255
191 217 255
191 217 255
191 217 255
191 217 255
191 217 255
191 217 255
191 217 255
191 217 255
191 217 255
191 217 255
191 217 255
191 217 255
191 217 255
191 217 255
191 217 255
191 217 255
191 217 255
191 217 255
191 217 255
191 217 255
191 217 255
191 217 255
191 217 255
191 217 255
191 217 255
191 217 255
191 217 255
191 217 255
191 217 255
191 217 255
191 217 255
191 217 255
191 217 255
191 217 255
191 217 255
191 217 255
191 217 255
191 217 255
191 217 255
191 217 255
191 217 255
191 217 255
191 217 255
191 217 255
191 217 255
191 217 255
191 217 255
191 217 255
191 217 255
191 217 255
191 217 255
191 217 255
191 217 255
191 217 255
191 217 255
191 217 255
191 217 255
191 217 255
191 217 255
191 217 255
191 217 255
191 217 255
191 217 255
191 217 255
191 217 255
191 217 255
191 217 255
191 217 255
191 217 255
191 217 255
191 217 255
191 217 255
191 217 255
191 217 255
191 217 255
191 217 255
191 217 255
191 217 255
191 217 255
191 217 255
191 217 255
191 217 255
191 217 255
191 217 255
191 217 255
191 217 255
191 217 255
22 25 31
10 12 16
9 11 14
10 12 15
11 13 16
11 14 17
10 12 15
10 12 16
9 12 15
9 11 14
10 12 16
9 12 15
10 12 15
10 12 16
11 14 17
10 13 16
10 12 16
11 13 17
10 13 16
10 12 16
9 11 14
9 11 14
9 12 15
10 12 15
10 12 16
10 12 16
9 11 14
10 12 16
9 11 14
8 10 13
10 12 15
11 13 17
11 13 17
10 13 16
9 11 14
10 12 16
9 11 14
9 12 15
9 11 14
11 13 17
11 13 17
9 12 15
8 10 13
10 12 15
11 13 17
10 12 15
9 11 14
10 12 15
9 11 14
10 12 16
10 12 16
10 12 15
12 14 18
8 10 13
10 12 16
10 12 15
11 13 17
10 12 15
9 11 14
9 11 14
9 11 15
9 11 14
9 12 15
11 13 17
11 14 17
10 13 16
10 12 16
11 14 18
9 11 15
10 12 16
11 14 18
9 12 15
10 12 16
9 11 15
10 12 16
9 11 14
9 12 15
9 11 14
10 12 16
9 11 14
9 12 15
10 12 15
10 13 16
11 13 17
9 11 14
9 11 14
10 13 17
11 13 17
10 13 16
9 11 14
10 12 15
10 12 15
12 15 19
11 14 17
10 12 16
10 12 15
10 12 15
10 13 16
9 11 14
10 13 16
10 12 15
8 10 12
10 12 16
10 12 15
10 12 16
10 12 15
10 12 16
9 11 14
11 14 17
9 11 14
10 12 15
10 12 15
10 12 15
9 11 15
10 12 15
11 13 17
8 10 14
10 12 16
9 12 15
11 13 16
9 11 14
10 12 15
10 12 16
10 12 15
10 12 15
9 11 14
10 13 16
10 12 15
10 12 15
17 20 24
191 217 255
191 217 255
191 217 255
191 217 255
191 217 255
191 217 255
191 217 255
191 217 255
191 217 255
191 217 255
191 217 255
191 217 255
191 217 255
191 217 255
191 217 255
191 217 255
191 217 255
191 217 255
191 217 255
191 217 255
191 217 255
191 217 255
191 217 255
191 217 255
191 217 255
191 217 255
191 217 255
191 217 255
191 217 255
191 217 255
191 217 255
191 217 255
191 217 255
191 217 255
191 217 255
191 217 255
191 217 255
191 217 255
191 217 255
191 217 255
191 217 255
191 217 255
191 217 255
191 217 255
191 217 255
191 217 255
191 217 255
191 217 255
191 217 255
191 217 255
191 217 255
191 217 255
191 217 255
191 217 255
191 217 255
191 217 255
191 217 255
191 217 255
191 217 255
191 217 255
191 217 255
191 217 255
191 217 255
191 217 255
191 217 255
191 217 255
191 217 255
191 217 255
191 217 255
191 217 255
191 217 255
191 217 255
191 217 255
191 217 255
191 217 255
191 217 255
191 217 255
191 217 255
191 217 255
191 217 255
191 217 255
191 217 255
191 217 255
191 217 255
191 217 255
191 217 255
191 217 255
191 217 255
191 217 255
191 217 255
191 217 255
191 217 255
191 217 255
191 217 255
191 217 255
191 217 255
191 217 255
191 217 255
191 217 255
191 217 255
191 217 255
191 217 255
191 217 255
191 217 255
191 217 255
191 217 255
191 217 255
191 217 255
191 217 255
191 217 255
191 217 255
191 217 255
191 217 255
191 217 255
191 217 255
191 217 255
191 217 255
191 217 255
191 217 255
191 217 255
191 217 255
191 217 255
191 217 255
191 217 255
191 217 255
191 217 255
191 217 255
191 217 255
191 217 255
191 217 255
191 217 255
191 217 255
191 217 255
191 217 255
191 217 255
191 217 255
191 217 255
191 217 255
191 217 255
191 217 255
191 217 255
191 217 255
191 217 255
191 217 255
191 217 255
191 217 255
191 217 255
191 217 255
191 217 255
191 217 255
191 217 255
191 217 255
191 217 255
191 217 255
191 217 255
191 217 255
191 217 255
191 217 255
191 217 255
191 217 255
191 217 255
191 217 255
191 217 255
191 217 255
191 217 255
191 217 255
191 217 255
191 217 255
191 217 255
191 217 255
191 217 255
191 217 255
191 217 255
191 217 255
191 217 255
191 217 255
191 217 255
191 217 255
191 217 255
191 217 255
191 217 255
191 217 255
191 217 255
191 217 255
191 217 255
191 217 255
191 217 255
191 217 255
191 217 255
191 217 255
191 217 255
191 217 255
191 217 255
191 217 255
191 217 255
191 217 255
191 217 255
191 217 255
191 217 255
191 217 255
191 217 255
191 217 255
191 217 255
191 217 255
191 217 255
191 217 255
191 217 255
191 217 255
191 217 255
191 217 255
191 217 255
191 217 255
191 217 255
191 217 255
191 217 255
191 217 255
191 217 255
191 217 255
191 217 255
191 217 255
191 217 255
191 217 255
191 217 255
191 217 255
191 217 255
191 217 255
191 217 255
191 217 255
191 217 255
191 217 255
191 217 255
191 217 255
191 217 255
191 217 255
191 217 255
191 217 255
191 217 255
191 217 255
191 217 255
191 217 255
191 217 255
191 217 255
191 217 255
191 217 255
191 217 255
191 217 255
191 217 255
191 217 255
191 217 255
191 217 255
191 217 255
191 217 255
191 217 255
191 217 255
191 217 255
191 217 255
191 217 255
191 217 255
191 217 255
191 217 255
191 217 255
191 217 255
191 217 255
191 217 255
191 217 255
191 217 255
191 217 255
191 217 255
191 217 255
191 217 255
19 23 28
9 11 14
9 11 14
10 12 16
11 14 17
10 13 16
11 13 17
10 13 16
9 11 14
9 11 15
9 11 14
9 11 14
10 13 16
10 12 15
9 11 14
10 12 15
9 12 15
10 12 16
9 10 13
10 12 15
9 11 14
10 12 15
9 11 14
11 13 17
10 12 15
10 12 15
9 11 15
10 12 15
10 12 16
9 11 14
11 13 17
10 13 16
10 13 16
9 11 14
11 14 18
11 13 17
10 12 16
9 11 14
9 11 14
10 13 16
9 11 14
10 12 15
9 11 15
9 11 15
11 13 17
12 14 18
10 12 16
10 12 15
10 13 16
11 13 17
10 12 15
9 11 15
10 13 16
9 11 14
9 11 14
11 13 17
10 13 16
9 11 14
9 11 14
10 12 15
9 11 15
10 13 16
10 13 16
10 12 15
9 11 14
10 12 15
9 11 14
10 12 16
12 14 18
10 12 16
11 13 17
11 13 17
9 12 15
10 12 15
10 13 16
8 10 13
8 10 13
10 12 15
8 10 13
10 12 15
9 11 14
10 13 17
10 12 15
9 11 14
10 12 15
11 13 16
10 12 15
9 11 14
9 12 15
10 12 16
9 11 14
10 13 16
11 14 17
10 12 15
9 11 14
10 12 16
9 11 15
10 13 16
10 12 16
10 12 14
10 12 15
10 12 15
10 12 16
10 13 16
9 11 15
8 10 13
11 14 17
10 12 15
11 14 18
9 11 15
9 11 14
10 12 16
9 11 14
10 12 15
9 11 15
10 12 15
10 13 16
8 10 13
10 12 16
10 12 16
9 11 14
11 14 17
10 12 16
9 12 15
9 12 15
9 11 14
11 13 17
10 12 16
10 12 16
23 27 32
191 217 255
191 217 255
191 217 255
191 217 255
191 217 255
191 217 255
191 217 255
191 217 255
191 217 255
191 217 255
191 217 255
191 217 255
191 217 255
191 217 255
191 217 255
191 217 255
191 217 255
191 217 255
191 217 255
191 217 255
191 217 255
191 217 255
191 217 255
191 217 255
191 217 255
191 217 255
191 217 255
191 217 255
191 217 255
191 217 255
191 217 255
191 217 255
191 217 255
191 217 255
191 217 255
191 217 255
191 217 255
191 217 255
191 217 255
191 217 255
191 217 255
191 217 255
191 217 255
191 217 255
191 217 255
191 217 255
191 217 255
191 217 255
191 217 255
191 217 255
191 217 255
191 217 255
191 217 255
191 217 255
191 217 255
191 217 255
191 217 255
191 217 255
191 217 255
191 217 255
191 217 255
191 217 255
191 217 255
191 217 255
191 217 255
191 217 255
191 217 255
191 217 255
191 217 255
191 217 255
191 217 255
191 217 255
191 217 255
191 217 255
191 217 255
191 217 255
191 217 255
191 217 255
191 217 255
191 217 255
191 217 255
191 217 255
191 217 255
191 217 255
191 217 255
191 217 255
191 217 255
191 217 255
191 217 255
191 217 255
191 217 255
191 217 255
191 217 255
191 217 255
191 217 255
191 217 255
191 217 255
191 217 255
191 217 255
191 217 255
191 217 255
191 217 255
191 217 255
191 217 255
191 217 255
191 217 255
191 217 255
191 217 255
191 217 255
191 217 255
191 217 255
191 217 255
191 217 255
191 217 255
191 217 255
191 217 255
191 217 255
191 217 255
191 217 255
191 217 255
191 217 255
191 217 255
191 217 255
191 217 255
191 217 255
191 217 255
191 217 255
191 217 255
191 217 255
191 217 255
191 217 255
191 217 255
191 217 255
191 217 255
191 217 255
191 217 255
191 217 255
192 217 255
191 217 255
191 217 255
191 217 255
192 217 255
192 217 255
191 217 255
191 217 255
191 217 255
192 217 255
192 217 255
192 217 255
191 217 255
191 217 255
191 217 255
191 217 255
192 217 255
191 217 255
191 217 255
191 217 255
192 217 255
191 217 255
192 217 255
192 217 255
191 217 255
192 217 255
191 217 255
192 217 255
192 217 255
192 217 255
191 217 255
192 217 255
192 217 255
191 217 255
192 217 255
192 217 255
191 217 255
191 217 255
191 217 255
192 217 255
192 217 255
192 217 255
191 217 255
192 217 255
191 217 255
192 217 255
192 217 255
192 217 255
191 217 255
191 217 255
192 217 255
192 217 255
192 217 255
192 217 255
191 217 255
192 217 255
191 217 255
191 217 255
191 217 255
192 217 255
191 217 255
191 217 255
192 217 255
192 217 255
192 217 255
192 217 255
191 217 255
191 217 255
192 217 255
191 217 255
192 217 255
191 217 255
191 217 255
191 217 255
192 217 255
191 217 255
192 217 255
191 217 255
191 217 255
191 217 255
191 217 255
192 217 255
192 217 255
192 217 255
192 217 255
191 217 255
192 217 255
191 217 255
192 217 255
191 217 255
192 217 255
192 217 255
192 217 255
192 217 255
191 217 255
191 217 255
192 217 255
191 217 255
191 217 255
191 217 255
191 217 255
192 217 255
192 217 255
191 217 255
191 217 255
191 217 255
191 217 255
191 217 255
192 217 255
191 217 255
192 217 255
192 217 255
191 217 255
192 217 255
192 217 255
191 217 255
192 217 255
192 217 255
192 217 255
191 217 255
191 217 255
191 217 255
192 217 255
192 217 255
192 217 255
192 217 255
191 217 255
192 217 255
192 217 255
191 217 255
191 217 255
192 217 255
191 217 255
17 20 25
9 12 15
9 11 14
11 13 17
10 12 15
10 12 15
11 13 17
9 12 15
9 12 15
10 13 16
10 12 16
9 12 15
9 11 14
9 11 14
10 13 16
11 13 17
10 13 16
8 10 13
9 11 14
11 13 17
10 12 16
9 11 13
11 13 16
9 11 14
10 12 16
9 12 15
9 11 14
10 12 15
9 12 15
9 11 14
10 12 16
10 12 15
10 12 15
9 11 14
11 14 17
9 11 14
8 10 13
10 12 16
10 12 15
11 13 16
10 12 15
10 13 16
10 12 15
10 12 14
10 12 16
9 11 13
8 9 12
9 11 14
10 12 15
9 11 14
11 13 17
9 11 14
10 12 15
8 10 13
10 12 15
8 10 13
10 13 16
11 13 16
10 12 15
9 11 15
8 10 13
9 11 14
9 11 15
10 13 16
10 12 16
9 12 15
9 12 15
10 12 15
9 11 14
10 12 15
9 11 14
9 11 13
9 11 15
10 12 15
10 12 15
9 11 14
10 13 16
10 12 15
11 13 16
10 12 16
11 13 17
10 12 15
10 12 15
8 10 13
10 12 15
10 12 16
10 12 15
9 11 15
10 12 15
8 9 12
10 12 15
9 11 14
9 11 14
9 11 15
9 11 14
8 10 13
11 13 17
10 12 15
10 12 15
9 11 14
9 11 14
10 12 15
10 13 16
11 13 17
9 11 14
8 9 12
10 12 16
9 10 13
9 11 14
11 13 17
11 13 16
10 13 16
11 13 17
9 11 14
12 14 18
9 12 15
8 10 13
8 10 13
9 11 15
9 11 15
10 12 15
10 13 16
9 12 15
9 11 13
9 11 14
10 13 16
10 12 15
10 12 15
10 12 16
20 24 29
192 217 255
192 217 255
191 217 255
192 217 255
191 217 255
191 217 255
192 217 255
191 217 255
192 217 255
191 217 255
192 217 255
191 217 255
192 217 255
192 217 255
192 217 255
192 217 255
192 217 255
191 217 255
192 217 255
192 217 255
192 217 255
192 217 255
192 217 255
192 217 255
192 217 255
192 217 255
191 217 255
191 217 255
192 217 255
192 217 255
191 217 255
191 217 255
191 217 255
191 217 255
191 217 255
191 217 255
191 217 255
191 217 255
192 217 255
191 217 255
191 217 255
192 217 255
192 217 255
192 217 255
192 217 255
192 217 255
191 217 255
191 217 255
191 217 255
191 217 255
191 217 255
192 217 255
191 217 255
192 217 255
191 217 255
192 217 255
192 217 255
191 217 255
192 217 255
192 217 255
192 217 255
192 217 255
191 217 255
191 217 255
191 217 255
192 217 255
191 217 255
192 217 255
191 217 255
191 217 255
192 217 255
192 217 255
191 217 255
191 217 255
192 217 255
191 217 255
192 217 255
192 217 255
192 217 255
191 217 255
192 217 255
192 217 255
192 217 255
192 217 255
192 217 255
191 217 255
192 217 255
192 217 255
192 217 255
191 217 255
192 217 255
192 217 255
192 217 255
191 217 255
191 217 255
192 217 255
191 217 255
191 217 255
192 217 255
192 217 255
191 217 255
191 217 255
192 217 255
192 217 255
192 217 255
192 217 255
192 217 255
192 217 255
191 217 255
191 217 255
192 217 255
192 217 255
192 217 255
191 217 255
192 217 255
192 217 255
192 217 255
192 217 255
191 217 255
192 217 255
192 217 255
191 217 255
192 217 255
191 217 255
192 217 255
192 217 255
192 217 255
192 217 255
191 217 255
191 217 255
192 217 255
192 217 255
192 217 255
191 217 255
191 217 255
192 217 255
192 217 255
192 217 255
192 217 255
192 217 255
192 217 255
192 217 255
192 217 255
192 217 255
192 217 255
192 217 255
192 217 255
192 217 255
192 217 255
192 217 255
192 217 255
192 217 255
192 217 255
192 217 255
192 217 255
192 217 255
192 217 255
192 217 255
192 217 255
192 217 255
192 217 255
192 217 255
192 217 255
192 217 255
192 217 255
192 217 255
192 217 255
192 217 255
192 217 255
192 217 255
192 217 255
192 217 255
192 217 255
192 217 255
192 217 255
192 217 255
192 217 255
192 217 255
192 217 255
192 217 255
192 217 255
192 217 255
192 217 255
192 217 255
192 217 255
192 217 255
192 217 255
192 217 255
192 217 255
192 217 255
192 217 255
192 217 255
192 217 255
192 217 255
192 217 255
192 217 255
192 217 255
192 217 255
192 217 255
192 217 255
192 217 255
192 217 255
192 217 255
192 217 255
192 217 255
192 217 255
192 217 255
192 217 255
192 217 255
192 217 255
192 217 255
192 217 255
192 217 255
192 217 255
192 217 255
192 217 255
192 217 255
192 217 255
192 217 255
192 217 255
192 217 255
192 217 255
192 217 255
192 217 255
192 217 255
192 217 255
192 217 255
192 217 255
192 217 255
192 217 255
192 217 255
192 217 255
192 217 255
192 217 255
192 217 255
192 217 255
192 217 255
192 217 255
192 217 255
192 217 255
192 217 255
192 217 255
192 217 255
192 217 255
192 217 255
192 217 255
192 217 255
192 217 255
192 217 255
192 217 255
192 217 255
192 217 255
192 217 255
192 217 255
192 217 255
192 217 255
192 217 255
192 217 255
192 217 255
192 217 255
192 217 255
192 217 255
192 217 255
192 217 255
192 217 255
192 217 255
192 217 255
192 217 255
192 217 255
192 217 255
18 21 25
9 11 15
9 11 14
10 12 15
9 11 14
10 13 16
9 11 14
8 10 13
8 10 13
9 11 15
9 12 15
10 12 16
9 11 14
9 12 15
10 12 15
9 12 15
9 12 15
10 12 15
9 11 14
10 12 14
10 13 16
8 10 13
11 14 17
9 11 14
10 12 15
9 11 15
10 12 15
10 12 15
9 11 14
9 11 14
10 12 15
10 13 16
11 13 17
10 12 15
11 13 17
9 11 13
10 12 16
10 12 16
9 11 14
9 11 14
10 12 15
8 10 13
9 11 14
11 13 17
11 13 17
10 12 16
9 12 15
9 11 14
10 12 15
10 12 15
9 12 15
11 13 16
10 12 16
9 11 14
10 12 15
9 11 15
9 11 14
10 13 16
9 11 14
10 12 15
10 12 15
10 12 15
8 10 13
10 12 16
10 12 15
9 11 14
9 11 14
10 12 15
9 11 14
10 12 15
10 12 15
8 10 12
11 13 17
10 12 16
9 11 14
10 12 15
10 12 15
11 13 16
8 10 12
8 9 12
9 12 15
10 12 15
11 13 16
10 13 16
11 13 17
9 11 14
10 12 16
8 10 13
10 12 15
8 10 13
10 12 15
10 13 16
8 10 13
10 13 16
9 10 13
10 12 16
8 10 13
11 13 16
10 12 16
9 11 15
9 10 13
10 12 15
10 12 15
9 11 14
10 13 17
11 14 17
11 13 16
9 11 14
9 11 14
10 13 16
10 12 15
9 11 14
9 11 14
11 13 17
9 12 15
10 12 15
10 12 16
10 12 15
10 12 15
10 12 15
9 11 14
9 11 14
10 12 15
9 12 15
9 11 14
10 12 15
10 12 15
11 14 17
8 10 12
26 30 36
192 217 255
192 217 255
192 217 255
192 217 255
192 217 255
192 217 255
192 217 255
192 217 255
192 217 255
192 217 255
192 217 255
192 217 255
192 217 255
192 217 255
192 217 255
192 217 255
192 217 255
192 217 255
192 217 255
192 217 255
192 217 255
192 217 255
192 217 255
192 217 255
192 217 255
192 217 255
192 217 255
192 217 255
192 217 255
192 217 255
192 217 255
192 217 255
192 217 255
192 217 255
192 217 255
192 217 255
192 217 255
192 217 255
192 217 255
192 217 255
192 217 255
192 217 255
192 217 255
192 217 255
192 217 255
192 217 255
192 217 255
192 217 255
192 217 255
192 217 255
192 217 255
192 217 255
192 217 255
192 217 255
192 217 255
192 217 255
192 217 255
192 217 255
192 217 255
192 217 255
192 217 255
192 217 255
192 217 255
192 217 255
192 217 255
192 217 255
192 217 255
192 217 255
192 217 255
192 217 255
192 217 255
192 217 255
192 217 255
192 217 255
192 217 255
192 217 255
192 217 255
192 217 255
192 217 255
192 217 255
192 217 255
192 217 255
192 217 255
192 217 255
192 217 255
192 217 255
192 217 255
192 217 255
192 217 255
192 217 255
192 217 255
192 217 255
192 217 255
192 217 255
192 217 255
192 217 255
192 217 255
192 217 255
192 217 255
192 217 255
192 217 255
192 217 255
192 217 255
192 217 255
192 217 255
192 217 255
192 217 255
192 217 255
192 217 255
192 217 255
192 217 255
192 217 255
192 217 255
192 217 255
192 217 255
192 217 255
192 217 255
192 217 255
192 217 255
192 217 255
192 217 255
192 217 255
192 217 255
192 217 255
192 217 255
192 217 255
192 217 255
192 217 255
192 217 255
192 217 255
192 217 255
192 217 255
192 217 255
192 217 255
192 217 255
192 217 255
192 217 255
192 217 255
192 217 255
192 217 255
192 217 255
192 217 255
192 217 255
192 217 255
192 217 255
192 217 255
192 217 255
192 217 255
192 217 255
192 217 255
192 217 255
192 217 255
192 217 255
192 217 255
192 217 255
192 217 255
192 217 255
192 217 255
192 217 255
192 217 255
192 217 255
192 217 255
192 217 255
192 217 255
192 217 255
192 217 255
192 217 255
192 217 255
192 217 255
192 217 255
192 217 255
192 217 255
192 217 255
192 218 255
192 217 255
192 217 255
192 217 255
192 218 255
192 217 255
192 218 255
192 217 255
192 218 255
192 218 255
192 218 255
192 218 255
192 218 255
192 218 255
192 218 255
192 218 255
192 218 255
192 218 255
192 218 255
192 218 255
192 218 255
192 218 255
192 218 255
192 218 255
192 218 255
192 218 255
192 218 255
192 218 255
192 218 255
192 218 255
192 218 255
192 218 255
192 218 255
192 218 255
192 218 255
192 218 255
192 218 255
192 218 255
192 218 255
192 218 255
192 218 255
192 218 255
192 218 255
192 218 255
192 218 255
192 218 255
192 218 255
192 218 255
192 218 255
192 218 255
192 218 255
192 218 255
192 218 255
192 218 255
192 218 255
192 218 255
192 218 255
192 218 255
192 218 255
192 218 255
192 218 255
192 218 255
192 218 255
192 218 255
192 218 255
192 218 255
192 218 255
192 218 255
192 218 255
192 218 255
192 218 255
192 218 255
192 218 255
192 218 255
192 218 255
192 218 255
192 218 255
192 218 255
192 218 255
192 218 255
192 218 255
192 218 255
192 218 255
192 218 255
192 218 255
192 218 255
192 218 255
192 218 255
192 218 255
192 218 255
192 218 255
192 218 255
192 218 255
192 218 255
192 218 255
192 218 255
192 218 255
19 23 28
8 10 13
8 10 13
11 14 17
10 13 16
9 11 15
10 13 16
11 13 17
10 12 16
9 11 14
9 11 14
10 12 15
9 11 14
9 11 14
9 11 14
11 14 17
11 13 17
10 12 15
10 12 16
10 12 15
11 13 17
9 12 15
11 13 16
9 11 14
9 11 14
9 11 14
10 12 16
10 12 15
9 10 13
8 10 13
10 12 15
10 12 15
10 12 16
10 12 15
11 13 16
10 12 16
9 11 14
9 11 15
8 10 13
10 12 15
10 13 17
8 10 12
10 13 16
10 12 15
11 13 17
10 12 15
10 12 15
9 11 15
9 11 15
10 12 15
10 13 16
9 12 15
10 13 16
10 12 15
9 11 14
9 11 14
10 12 16
8 10 13
9 11 14
10 12 15
10 12 15
9 11 14
9 11 14
10 13 16
9 11 15
9 11 14
11 13 17
8 10 13
9 11 13
9 11 14
9 11 14
8 10 13
10 12 15
10 12 15
11 13 16
10 12 16
10 12 15
10 13 16
9 11 14
9 11 14
10 12 15
8 10 13
8 9 12
10 12 15
9 11 14
10 13 16
11 14 17
9 12 15
10 12 16
10 12 16
10 13 16
10 12 15
10 12 15
9 11 14
9 11 14
10 12 16
10 12 15
9 11 14
9 11 14
11 13 16
9 11 15
9 11 14
10 12 16
9 11 14
10 12 14
8 10 13
10 12 16
9 11 14
10 12 16
10 12 15
10 12 16
10 13 16
10 12 15
10 12 15
10 12 15
10 12 16
9 11 14
8 10 13
10 12 15
10 13 16
10 12 15
10 13 16
8 10 12
10 12 15
10 12 15
10 12 15
7 9 11
10 12 16
9 11 15
18 21 26
192 218 255
192 218 255
193 218 255
192 218 255
192 218 255
192 218 255
192 218 255
192 218 255
192 218 255
192 218 255
192 218 255
192 218 255
192 218 255
192 218 255
192 218 255
192 218 255
192 218 255
192 218 255
192 218 255
192 218 255
192 218 255
192 218 255
192 218 255
192 218 255
192 218 255
192 218 255
192 218 255
192 218 255
192 218 255
192 218 255
192 218 255
192 218 255
192 218 255
192 218 255
192 218 255
192 218 255
192 218 255
192 218 255
192 218 255
192 218 255
192 218 255
192 218 255
192 218 255
192 218 255
192 218 255
192 218 255
192 218 255
192 218 255
192 218 255
192 218 255
192 218 255
192 218 255
192 218 255
192 218 255
192 218 255
192 218 255
192 218 255
192 218 255
192 218 255
192 218 255
192 218 255
192 218 255
192 218 255
192 218 255
192 218 255
192 218 255
192 218 255
192 218 255
192 218 255
192 218 255
192 218 255
192 218 255
192 218 255
192 218 255
192 218 255
192 218 255
192 218 255
192 218 255
192 218 255
192 218 255
192 218 255
192 218 255
192 218 255
192 218 255
192 218 255
192 218 255
192 218 255
192 218 255
192 218 255
192 217 255
192 217 255
192 218 255
192 217 255
192 217 255
192 217 255
192 217 255
192 217 255
192 217 255
192 217 255
192 217 255
192 217 255
192 217 255
192 217 255
192 217 255
192 217 255
192 217 255
192 217 255
192 217 255
192 217 255
192 217 255
192 217 255
192 217 255
192 217 255
192 217 255
192 217 255
192 217 255
192 217 255
192 217 255
192 217 255
192 217 255
192 217 255
192 217 255
192 217 255
192 217 255
192 217 255
192 217 255
192 217 255
192 217 255
192 217 255
192 217 255
192 217 255
192 217 255
192 217 255
192 217 255
192 217 255
192 218 255
192 218 255
192 218 255
192 218 255
192 218 255
192 218 255
192 218 255
192 218 255
192 218 255
192 218 255
192 218 255
192 218 255
192 218 255
192 218 255
192 218 255
192 218 255
192 218 255
192 218 255
192 218 255
192 218 255
192 218 255
192 218 255
192 218 255
192 218 255
192 218 255
192 218 255
192 218 255
192 218 255
192 218 255
192 218 255
192 218 255
192 218 255
192 218 255
192 218 255
192 218 255
192 218 255
192 218 255
192 218 255
192 218 255
192 218 255
192 218 255
192 218 255
192 218 255
192 218 255
192 218 255
192 218 255
192 218 255
193 218 255
193 218 255
193 218 255
193 218 255
193 218 255
193 218 255
193 218 255
193 218 255
193 218 255
193 218 255
193 218 255
193 218 255
193 218 255
193 218 255
193 218 255
193 218 255
193 218 255
193 218 255
193 218 255
193 218 255
193 218 255
193 218 255
193 218 255
193 218 255
193 218 255
193 218 255
193 218 255
193 218 255
193 218 255
193 218 255
193 218 255
193 218 255
193 218 255
193 218 255
193 218 255
193 218 255
193 218 255
193 218 255
193 218 255
193 218 255
193 218 255
193 218 255
193 218 255
193 218 255
193 218 255
193 218 255
193 218 255
193 218 255
193 218 255
193 218 255
193 218 255
193 218 255
193 218 255
193 218 255
193 218 255
193 218 255
193 218 255
193 218 255
193 218 255
193 218 255
193 218 255
193 218 255
193 218 255
193 218 255
193 218 255
193 218 255
193 218 255
193 218 255
193 218 255
193 218 255
193 218 255
193 218 255
193 218 255
193 218 255
193 218 255
193 218 255
193 218 255
193 218 255
193 218 255
193 218 255
193 218 255
193 218 255
193 218 255
193 218 255
193 218 255
193 218 255
193 218 255
193 218 255
33 38 46
9 11 14
11 13 17
11 13 17
8 10 12
9 11 14
11 13 16
9 11 14
10 13 16
11 13 16
9 10 13
10 12 15
10 12 15
9 11 15
9 11 14
9 11 14
10 12 15
9 11 15
9 12 15
9 11 14
8 10 12
9 11 14
10 12 15
8 10 13
10 12 15
10 13 16
8 10 13
10 12 16
8 10 13
9 10 13
9 11 14
9 12 15
9 11 15
10 12 15
10 12 15
11 13 16
8 10 13
9 11 14
10 12 16
9 12 15
10 12 15
9 11 14
10 12 16
9 11 14
10 12 15
9 11 14
9 11 14
9 11 14
10 12 15
10 12 15
10 12 16
9 11 14
11 13 16
10 12 16
9 11 14
9 11 14
10 12 15
10 12 15
10 12 15
10 12 15
10 12 16
9 12 15
9 11 14
10 12 16
10 13 17
9 11 14
9 11 14
11 13 17
10 12 16
9 11 14
10 13 16
9 11 14
9 11 14
9 12 15
10 12 16
9 11 13
10 12 15
11 13 17
9 11 14
9 11 14
10 12 15
9 11 13
9 11 15
8 10 13
10 12 15
10 13 16
9 11 14
9 11 14
9 11 14
10 12 15
9 11 14
9 12 15
10 12 15
9 11 14
9 11 14
10 12 15
9 11 14
10 12 16
10 12 16
9 11 14
10 12 15
9 11 14
10 12 15
9 11 15
9 11 14
9 12 15
9 10 13
9 11 14
10 12 15
10 12 15
10 12 15
8 10 13
10 12 16
10 12 15
10 12 15
10 13 16
9 11 14
10 12 15
10 12 15
10 12 15
9 11 14
8 10 13
10 13 16
10 12 15
9 11 14
9 11 14
9 11 14
10 12 16
9 11 14
35 40 47
193 218 255
193 218 255
193 218 255
193 218 255
193 218 255
193 218 255
193 218 255
193 218 255
193 218 255
193 218 255
193 218 255
193 218 255
193 218 255
193 218 255
193 218 255
193 218 255
193 218 255
193 218 255
193 218 255
193 218 255
193 218 255
193 218 255
193 218 255
193 218 255
193 218 255
193 218 255
193 218 255
193 218 255
193 218 255
193 218 255
193 218 255
193 218 255
193 218 255
193 218 255
193 218 255
193 218 255
193 218 255
193 218 255
193 218 255
193 218 255
193 218 255
193 218 255
193 218 255
193 218 255
193 218 255
193 218 255
193 218 255
193 218 255
193 218 255
193 218 255
193 218 255
193 218 255
193 218 255
193 218 255
193 218 255
193 218 255
193 218 255
193 218 255
193 218 255
193 218 255
193 218 255
193 218 255
193 218 255
193 218 255
193 218 255
193 218 255
193 218 255
193 218 255
193 218 255
193 218 255
193 218 255
193 218 255
193 218 255
193 218 255
193 218 255
193 218 255
193 218 255
193 218 255
193 218 255
193 218 255
193 218 255
193 218 255
193 218 255
193 218 255
193 218 255
193 218 255
192 218 255
193 218 255
193 218 255
193 218 255
193 218 255
192 218 255
192 218 255
192 218 255
193 218 255
192 218 255
192 218 255
192 218 255
192 218 255
192 218 255
192 218 255
192 218 255
192 218 255
192 218 255
192 218 255
192 218 255
192 218 255
192 218 255
192 218 255
192 218 255
192 218 255
192 218 255
192 218 255
192 218 255
192 218 255
192 218 255
192 218 255
192 218 255
192 218 255
192 218 255
192 218 255
192 218 255
192 218 255
192 218 255
192 218 255
192 218 255
192 218 255
192 218 255
192 218 255
192 218 255
192 218 255
192 218 255
192 218 255
192 218 255
192 218 255
193 218 255
193 218 255
193 218 255
193 218 255
193 218 255
193 218 255
193 218 255
193 218 255
193 218 255
193 218 255
193 218 255
193 218 255
193 218 255
193 218 255
193 218 255
193 218 255
193 218 255
193 218 255
193 218 255
193 218 255
193 218 255
193 218 255
193 218 255
193 218 255
193 218 255
193 218 255
193 218 255
193 218 255
193 218 255
193 218 255
193 218 255
193 218 255
193 218 255
193 218 255
193 218 255
193 218 255
193 218 255
193 218 255
193 218 255
193 218 255
193 218 255
193 218 255
193 218 255
193 218 255
193 218 255
193 218 255
193 218 255
193 218 255
193 218 255
193 218 255
193 218 255
193 218 255
193 218 255
193 218 255
193 218 255
193 218 255
193 218 255
193 218 255
193 218 255
193 218 255
193 218 255
193 218 255
193 218 255
193 218 255
193 218 255
193 218 255
193 218 255
193 218 255
193 218 255
193 218 255
193 218 255
193 218 255
193 218 255
193 218 255
193 218 255
193 218 255
193 218 255
193 218 255
193 218 255
193 218 255
193 218 255
193 218 255
193 218 255
193 218 255
193 218 255
193 218 255
193 218 255
193 218 255
193 218 255
193 218 255
193 218 255
193 218 255
193 218 255
193 218 255
193 218 255
193 218 255
193 218 255
193 218 255
193 218 255
193 218 255
193 218 255
193 218 255
193 218 255
193 218 255
193 218 255
193 218 255
193 218 255
193 218 255
193 218 255
193 218 255
193 218 255
193 218 255
193 218 255
193 218 255
193 218 255
193 218 255
193 218 255
193 218 255
193 218 255
193 218 255
193 218 255
193 218 255
193 218 255
193 218 255
193 218 255
193 218 255
193 218 255
193 218 255
193 218 255
193 218 255
193 218 255
193 218 255
193 218 255
193 218 255
193 218 255
45 51 61
9 11 14
9 11 14
9 11 14
9 11 14
9 11 14
8 10 13
9 11 14
10 12 15
9 11 14
9 11 13
9 11 14
11 14 17
9 11 15
9 11 13
11 13 16
9 11 14
10 12 15
9 11 14
9 11 14
9 11 14
10 12 15
10 12 16
9 11 15
10 12 15
10 12 16
11 13 16
10 12 15
10 12 16
10 13 16
9 10 13
11 13 17
10 12 15
10 13 16
9 11 14
10 12 16
10 12 16
9 11 14
10 12 15
10 12 15
9 11 14
10 13 16
10 12 15
10 13 16
9 11 14
10 12 16
9 11 15
10 13 16
11 13 16
11 13 17
10 13 16
9 11 14
10 12 15
8 10 13
9 11 14
10 12 16
10 12 15
10 12 15
10 12 15
9 11 13
9 11 14
11 13 16
8 10 13
8 10 13
10 12 15
10 12 16
10 13 16
9 11 14
9 11 14
8 10 13
10 12 15
9 11 14
10 12 15
9 11 14
10 12 16
9 11 14
10 12 15
10 13 16
10 13 16
10 12 15
11 13 17
9 11 15
10 12 16
9 11 14
10 12 15
11 13 16
9 11 14
9 12 15
11 13 16
10 12 16
10 12 16
9 11 14
9 11 14
10 13 17
11 13 16
8 10 12
8 10 13
10 12 15
9 11 14
10 12 15
10 13 16
9 11 14
9 11 14
9 11 14
9 11 14
9 11 14
9 11 13
8 10 13
9 11 14
8 10 13
8 10 12
10 12 15
9 12 15
11 13 17
9 12 15
9 10 13
8 10 13
9 11 14
10 12 16
10 12 15
11 13 17
10 12 15
9 10 13
10 12 15
10 12 15
10 12 16
9 11 14
8 10 13
10 12 15
41 47 56
193 218 255
193 218 255
193 218 255
193 218 255
193 218 255
193 218 255
193 218 255
193 218 255
193 218 255
193 218 255
193 218 255
193 218 255
193 218 255
193 218 255
193 218 255
193 218 255
193 218 255
193 218 255
193 218 255
193 218 255
193 218 255
193 218 255
193 218 255
193 218 255
193 218 255
193 218 255
193 218 255
193 218 255
193 218 255
193 218 255
193 218 255
193 218 255
193 218 255
193 218 255
193 218 255
193 218 255
193 218 255
193 218 255
193 218 255
193 218 255
193 218 255
193 218 255
193 218 255
193 218 255
193 218 255
193 218 255
193 218 255
193 218 255
193 218 255
193 218 255
193 218 255
193 218 255
193 218 255
193 218 255
193 218 255
193 218 255
193 218 255
193 218 255
193 218 255
193 218 255
193 218 255
193 218 255
193 218 255
193 218 255
193 218 255
193 218 255
193 218 255
193 218 255
193 218 255
193 218 255
193 218 255
193 218 255
193 218 255
193 218 255
193 218 255
193 218 255
193 218 255
193 218 255
193 218 255
193 218 255
193 218 255
193 218 255
193 218 255
193 218 255
193 218 255
193 218 255
193 218 255
193 218 255
193 218 255
193 218 255
193 218 255
193 218 255
193 218 255
193 218 255
193 218 255
193 218 255
193 218 255
193 218 255
193 218 255
193 218 255
193 218 255
193 218 255
193 218 255
193 218 255
193 218 255
193 218 255
193 218 255
193 218 255
193 218 255
193 218 255
193 218 255
193 218 255
193 218 255
193 218 255
193 218 255
193 218 255
193 218 255
193 218 255
193 218 255
193 218 255
193 218 255
193 218 255
193 218 255
193 218 255
193 218 255
193 218 255
193 218 255
193 218 255
193 218 255
193 218 255
193 218 255
193 218 255
193 218 255
193 218 255
193 218 255
193 218 255
193 218 255
193 218 255
193 218 255
193 218 255
193 218 255
193 218 255
193 218 255
193 218 255
193 218 255
193 218 255
193 218 255
193 218 255
193 218 255
193 218 255
193 218 255
193 218 255
193 218 255
193 218 255
193 218 255
193 218 255
193 218 255
193 218 255
193 218 255
193 218 255
193 218 255
193 218 255
193 218 255
193 218 255
193 218 255
193 218 255
193 218 255
193 218 255
193 218 255
193 218 255
193 218 255
193 218 255
193 218 255
193 218 255
193 218 255
193 218 255
193 218 255
193 218 255
193 218 255
193 218 255
193 218 255
193 218 255
193 218 255
193 218 255
193 218 255
193 218 255
193 218 255
193 218 255
193 218 255
193 218 255
193 218 255
193 218 255
193 218 255
193 218 255
193 218 255
193 218 255
193 218 255
193 218 255
193 218 255
193 218 255
193 218 255
193 218 255
193 218 255
193 218 255
193 218 255
193 218 255
193 218 255
193 218 255
193 218 255
193 218 255
193 218 255
193 218 255
193 218 255
193 218 255
193 218 255
193 218 255
193 218 255
193 218 255
193 218 255
193 218 255
194 218 255
194 218 255
194 218 255
194 218 255
194 218 255
194 218 255
194 218 255
194 218 255
194 218 255
194 218 255
194 218 255
194 218 255
194 218 255
194 218 255
194 218 255
194 218 255
194 218 255
194 218 255
194 218 255
194 218 255
194 218 255
194 218 255
194 218 255
194 218 255
194 218 255
194 218 255
194 218 255
194 218 255
194 218 255
194 218 255
194 218 255
194 218 255
194 218 255
194 218 255
194 218 255
194 218 255
194 219 255
194 219 255
194 219 255
194 219 255
194 219 255
194 219 255
194 219 255
194 219 255
194 219 255
194 219 255
194 219 255
194 219 255
194 219 255
194 219 255
46 52 61
9 11 14
9 11 14
10 12 16
8 10 13
9 11 14
10 12 16
9 11 14
10 12 16
10 12 15
10 12 16
9 11 14
10 12 15
10 12 15
9 12 15
8 10 13
9 11 14
9 12 15
9 11 15
10 12 15
9 11 14
10 12 15
10 12 15
9 11 14
10 12 16
9 11 13
9 11 14
9 11 14
10 12 15
10 13 17
10 12 16
8 10 13
9 11 14
10 12 15
8 10 13
8 10 13
9 12 15
8 10 13
9 11 14
10 12 15
10 12 15
9 11 14
10 13 16
10 12 15
9 12 15
9 11 14
9 11 14
10 13 16
10 12 15
8 10 13
8 10 13
10 12 15
9 12 15
11 13 17
9 11 14
10 12 16
9 11 14
8 9 12
9 12 15
10 12 15
9 11 15
8 10 13
9 12 15
10 12 16
10 12 15
9 11 14
7 9 12
10 13 16
9 11 14
8 10 13
9 11 14
10 12 15
9 11 14
9 11 14
8 10 13
9 11 14
10 12 16
8 10 13
9 11 14
9 11 14
10 12 15
9 11 15
8 9 12
9 11 15
8 10 13
10 12 15
10 12 16
9 11 14
10 12 15
9 12 15
10 12 15
9 11 14
9 11 13
9 11 14
10 12 15
8 10 13
8 11 14
10 12 15
10 12 15
9 11 14
10 13 16
10 12 15
10 12 15
9 11 14
7 9 12
9 11 14
9 11 13
11 13 17
9 11 14
9 11 14
9 11 14
9 11 14
10 12 15
8 10 13
10 12 16
11 13 16
10 13 16
9 11 14
9 11 13
9 11 14
10 12 15
9 11 14
9 11 14
10 12 15
11 13 17
10 12 15
9 12 15
10 12 15
9 11 14
50 57 67
194 219 255
194 219 255
194 219 255
194 219 255
194 219 255
194 219 255
194 219 255
194 219 255
194 219 255
194 219 255
194 219 255
194 219 255
194 218 255
194 219 255
194 218 255
194 218 255
194 218 255
194 218 255
194 218 255
194 218 255
194 218 255
194 218 255
194 218 255
194 218 255
194 218 255
194 218 255
194 218 255
194 218 255
194 218 255
194 218 255
194 218 255
194 218 255
194 218 255
194 218 255
194 218 255
194 218 255
194 218 255
194 218 255
194 218 255
194 218 255
194 218 255
194 218 255
194 218 255
194 218 255
194 218 255
193 218 255
194 218 255
194 218 255
193 218 255
194 218 255
193 218 255
193 218 255
193 218 255
193 218 255
193 218 255
193 218 255
193 218 255
193 218 255
193 218 255
193 218 255
193 218 255
193 218 255
193 218 255
193 218 255
193 218 255
193 218 255
193 218 255
193 218 255
193 218 255
193 218 255
193 218 255
193 218 255
193 218 255
193 218 255
193 218 255
193 218 255
193 218 255
193 218 255
193 218 255
193 218 255
193 218 255
193 218 255
193 218 255
193 218 255
193 218 255
193 218 255
193 218 255
193 218 255
193 218 255
193 218 255
193 218 255
193 218 255
193 218 255
193 218 255
193 218 255
193 218 255
193 218 255
193 218 255
193 218 255
193 218 255
193 218 255
193 218 255
193 218 255
193 218 255
193 218 255
193 218 255
193 218 255
193 218 255
193 218 255
193 218 255
193 218 255
193 218 255
193 218 255
193 218 255
193 218 255
193 218 255
193 218 255
193 218 255
193 218 255
193 218 255
193 218 255
193 218 255
193 218 255
193 218 255
193 218 255
193 218 255
193 218 255
193 218 255
193 218 255
193 218 255
193 218 255
193 218 255
193 218 255
193 218 255
193 218 255
193 218 255
193 218 255
193 218 255
193 218 255
193 218 255
193 218 255
193 218 255
193 218 255
193 218 255
193 218 255
193 218 255
193 218 255
193 218 255
193 218 255
193 218 255
193 218 255
193 218 255
193 218 255
193 218 255
193 218 255
193 218 255
193 218 255
193 218 255
193 218 255
193 218 255
193 218 255
193 218 255
193 218 255
193 218 255
193 218 255
193 218 255
193 218 255
193 218 255
193 218 255
193 218 255
193 218 255
193 218 255
193 218 255
193 218 255
193 218 255
193 218 255
193 218 255
193 218 255
193 218 255
193 218 255
194 218 255
194 218 255
194 218 255
194 218 255
194 218 255
194 218 255
194 218 255
194 218 255
194 218 255
194 218 255
194 218 255
194 218 255
194 218 255
194 218 255
194 218 255
194 218 255
194 218 255
194 218 255
194 218 255
194 218 255
194 218 255
194 218 255
194 218 255
194 218 255
194 218 255
194 218 255
194 218 255
194 218 255
194 218 255
194 218 255
194 218 255
194 218 255
194 218 255
194 218 255
194 218 255
194 219 255
194 219 255
194 219 255
194 219 255
194 219 255
194 219 255
194 219 255
194 219 255
194 219 255
194 219 255
194 219 255
194 219 255
194 219 255
194 219 255
194 219 255
194 219 255
194 219 255
194 219 255
194 219 255
194 219 255
194 219 255
194 219 255
194 219 255
194 219 255
194 219 255
194 219 255
194 219 255
194 219 255
194 219 255
194 219 255
194 219 255
194 219 255
194 219 255
194 219 255
194 219 255
194 219 255
194 219 255
194 219 255
194 219 255
194 219 255
194 219 255
194 219 255
194 219 255
194 219 255
194 219 255
194 219 255
194 219 255
194 219 255
194 219 255
194 219 255
194 219 255
194 219 255
194 219 255
194 219 255
194 219 255
74 84 99
8 10 13
9 11 14
9 11 15
9 11 14
8 10 13
9 11 14
8 9 12
9 11 14
9 11 14
10 13 16
8 10 13
10 12 15
9 11 14
9 10 13
8 9 12
9 11 14
9 11 14
9 12 15
9 11 14
10 12 15
9 11 14
10 12 15
9 11 14
9 10 13
8 10 13
8 10 13
9 12 15
10 13 16
9 12 15
9 11 14
8 10 12
9 11 15
11 13 17
9 10 13
10 12 15
10 12 15
9 11 14
10 12 15
10 12 16
10 12 15
10 12 15
11 13 16
9 11 14
10 13 16
10 12 15
9 11 13
11 13 17
8 10 13
8 9 12
8 10 13
8 10 13
9 11 14
10 12 16
8 10 13
8 10 13
8 10 13
10 12 16
10 13 16
9 11 14
9 11 15
9 11 14
10 12 15
10 13 16
9 11 14
9 11 14
10 12 16
9 11 14
9 12 15
12 14 17
9 11 14
10 12 15
8 10 13
9 12 15
9 11 14
10 12 15
9 11 14
9 11 14
10 12 15
10 12 15
9 10 13
8 10 13
10 12 15
9 11 14
8 10 14
9 11 14
9 12 15
9 11 14
10 13 16
10 12 15
9 11 15
11 13 17
8 10 13
9 11 15
10 12 15
11 13 16
10 12 15
9 11 14
9 11 14
9 11 14
9 11 14
10 12 15
9 10 13
9 11 14
10 13 16
9 11 14
10 12 15
8 9 12
9 12 15
10 12 15
10 12 15
10 13 16
10 12 15
10 12 16
9 11 14
9 11 14
9 11 14
9 11 15
10 12 16
8 10 13
9 11 14
11 13 16
10 12 16
10 12 15
9 11 14
8 10 13
10 12 15
9 11 14
10 12 15
60 69 81
194 219 255
194 219 255
194 219 255
194 219 255
194 219 255
194 219 255
194 219 255
194 219 255
194 219 255
194 219 255
194 219 255
194 219 255
194 219 255
194 219 255
194 219 255
194 219 255
194 219 255
194 219 255
194 219 255
194 219 255
194 219 255
194 219 255
194 219 255
194 219 255
194 219 255
194 219 255
194 219 255
194 219 255
194 219 255
194 219 255
194 219 255
194 219 255
194 219 255
194 219 255
194 219 255
194 219 255
194 219 255
194 219 255
194 219 255
194 219 255
194 219 255
194 219 255
194 219 255
194 219 255
194 219 255
194 219 255
194 219 255
194 219 255
194 219 255
194 219 255
194 219 255
194 219 255
194 219 255
194 219 255
194 219 255
194 218 255
194 218 255
194 218 255
194 218 255
194 218 255
194 218 255
194 218 255
194 218 255
194 218 255
194 218 255
194 218 255
194 218 255
194 218 255
194 218 255
194 218 255
194 218 255
194 218 255
194 218 255
194 218 255
194 218 255
194 218 255
194 218 255
194 218 255
194 218 255
194 218 255
194 218 255
194 218 255
194 218 255
194 218 255
194 218 255
194 218 255
194 218 255
194 218 255
193 218 255
194 218 255
193 218 255
193 218 255
193 218 255
193 218 255
193 218 255
193 218 255
193 218 255
193 218 255
193 218 255
193 218 255
193 218 255
193 218 255
193 218 255
193 218 255
193 218 255
193 218 255
193 218 255
193 218 255
193 218 255
193 218 255
193 218 255
193 218 255
193 218 255
193 218 255
193 218 255
193 218 255
193 218 255
193 218 255
193 218 255
193 218 255
193 218 255
193 218 255
193 218 255
193 218 255
193 218 255
193 218 255
193 218 255
193 218 255
193 218 255
193 218 255
193 218 255
193 218 255
193 218 255
193 218 255
193 218 255
193 218 255
193 218 255
193 218 255
193 218 255
193 218 255
193 218 255
193 218 255
194 218 255
194 218 255
194 218 255
194 218 255
194 218 255
194 218 255
194 218 255
194 218 255
194 218 255
194 218 255
194 218 255
194 218 255
194 218 255
194 218 255
194 218 255
194 218 255
194 218 255
194 218 255
194 218 255
194 218 255
194 218 255
194 218 255
194 218 255
194 218 255
194 218 255
194 218 255
194 218 255
194 218 255
194 218 255
194 218 255
194 218 255
194 218 255
194 218 255
194 218 255
194 218 255
194 218 255
194 218 255
194 218 255
194 218 255
194 219 255
194 219 255
194 219 255
194 219 255
194 219 255
194 219 255
194 219 255
194 219 255
194 219 255
194 219 255
194 219 255
194 219 255
194 219 255
194 219 255
194 219 255
194 219 255
194 219 255
194 219 255
194 219 255
194 219 255
194 219 255
194 219 255
194 219 255
194 219 255
194 219 255
194 219 255
194 219 255
194 219 255
194 219 255
194 219 255
194 219 255
194 219 255
194 219 255
194 219 255
194 219 255
194 219 255
194 219 255
194 219 255
194 219 255
194 219 255
194 219 255
194 219 255
194 219 255
194 219 255
194 219 255
194 219 255
194 219 255
194 219 255
194 219 255
194 219 255
194 219 255
194 219 255
194 219 255
194 219 255
194 219 255
194 219 255
195 219 255
194 219 255
195 219 255
195 219 255
195 219 255
195 219 255
195 219 255
195 219 255
195 219 255
195 219 255
195 219 255
195 219 255
195 219 255
195 219 255
195 219 255
195 219 255
195 219 255
195 219 255
195 219 255
195 219 255
195 219 255
195 219 255
195 219 255
195 219 255
195 219 255
195 219 255
195 219 255
195 219 255
195 219 255
195 219 255
195 219 255
195 219 255
195 219 255
84 95 111
8 10 12
8 10 12
8 10 13
9 12 15
9 11 14
11 13 16
10 12 15
9 11 14
8 10 13
9 11 14
10 13 16
11 13 17
8 10 13
9 11 14
8 10 13
10 12 15
9 11 14
8 10 13
9 11 14
9 10 13
10 12 16
9 11 14
8 9 12
8 10 13
11 13 17
9 11 14
9 12 15
9 12 15
9 11 14
10 12 15
10 12 15
8 10 13
10 12 15
10 13 16
10 13 16
11 13 17
10 12 15
10 12 15
9 11 14
8 10 13
10 12 16
7 9 12
8 10 13
11 13 16
9 11 14
8 9 12
10 12 15
11 13 16
9 11 13
9 11 13
10 12 15
10 13 16
9 12 15
10 12 16
10 12 15
8 10 12
10 13 16
9 11 14
10 12 15
8 10 13
9 11 14
9 11 14
10 12 15
10 12 15
8 10 13
8 10 13
8 10 13
9 11 15
7 9 11
8 10 13
9 11 15
9 11 14
10 12 15
7 8 11
10 12 15
8 10 13
10 12 15
10 12 15
11 13 17
9 11 14
8 10 13
8 9 12
9 11 14
10 12 16
9 11 14
8 10 13
8 10 13
10 12 15
9 11 14
9 11 14
9 11 14
8 10 13
9 11 15
9 11 14
9 11 15
8 10 13
11 13 17
8 10 12
10 12 16
9 11 14
10 13 16
9 11 14
10 12 15
9 11 14
11 13 16
9 11 13
9 11 14
9 12 15
10 11 14
9 11 14
9 11 14
10 12 16
9 11 14
8 10 12
7 9 12
8 10 13
9 11 14
8 9 12
10 12 15
9 12 15
9 11 13
10 13 16
8 10 12
9 11 14
8 10 13
9 11 14
10 12 15
8 10 13
81 92 108
195 219 255
195 219 255
195 219 255
195 219 255
195 219 255
195 219 255
195 219 255
195 219 255
195 219 255
195 219 255
195 219 255
195 219 255
195 219 255
195 219 255
195 219 255
195 219 255
195 219 255
195 219 255
195 219 255
195 219 255
195 219 255
195 219 255
195 219 255
195 219 255
195 219 255
195 219 255
195 219 255
195 219 255
195 219 255
195 219 255
195 219 255
195 219 255
195 219 255
194 219 255
194 219 255
194 219 255
194 219 255
194 219 255
194 219 255
194 219 255
194 219 255
194 219 255
194 219 255
194 219 255
194 219 255
194 219 255
194 219 255
194 219 255
194 219 255
194 219 255
194 219 255
194 219 255
194 219 255
194 219 255
194 219 255
194 219 255
194 219 255
194 219 255
194 219 255
194 219 255
194 219 255
194 219 255
194 219 255
194 219 255
194 219 255
194 219 255
194 219 255
194 219 255
194 219 255
194 219 255
194 219 255
194 219 255
194 219 255
194 219 255
194 219 255
194 219 255
194 219 255
194 219 255
194 219 255
194 219 255
194 219 255
194 219 255
194 219 255
194 219 255
194 219 255
194 219 255
194 219 255
194 219 255
194 219 255
194 219 255
194 218 255
194 218 255
194 218 255
194 218 255
194 218 255
194 218 255
194 218 255
194 218 255
194 218 255
194 218 255
194 218 255
194 218 255
194 218 255
194 218 255
194 218 255
194 218 255
194 218 255
194 218 255
194 218 255
194 218 255
194 218 255
194 218 255
194 218 255
194 218 255
194 218 255
194 218 255
194 218 255
194 218 255
194 218 255
194 218 255
194 218 255
194 218 255
194 218 255
194 218 255
194 218 255
194 218 255
194 218 255
193 218 255
194 218 255
193 218 255
193 218 255
193 218 255
193 218 255
193 218 255
193 218 255
194 218 255
194 218 255
194 218 255
194 218 255
194 218 255
194 218 255
194 218 255
194 218 255
194 218 255
194 218 255
194 218 255
194 218 255
194 219 255
194 219 255
194 219 255
194 219 255
194 219 255
194 219 255
194 219 255
194 219 255
194 219 255
194 219 255
194 219 255
194 219 255
194 219 255
194 219 255
194 219 255
194 219 255
194 219 255
194 219 255
194 219 255
194 219 255
194 219 255
194 219 255
194 219 255
194 219 255
194 219 255
194 219 255
194 219 255
194 219 255
194 219 255
194 219 255
194 219 255
194 219 255
194 219 255
194 219 255
194 219 255
194 219 255
194 219 255
194 219 255
194 219 255
194 219 255
194 219 255
194 219 255
194 219 255
194 219 255
194 219 255
194 219 255
194 219 255
194 219 255
194 219 255
194 219 255
194 219 255
194 219 255
194 219 255
194 219 255
194 219 255
194 219 255
194 219 255
194 219 255
194 219 255
194 219 255
195 219 255
195 219 255
195 219 255
195 219 255
195 219 255
195 219 255
195 219 255
195 219 255
195 219 255
195 219 255
195 219 255
195 219 255
195 219 255
195 219 255
195 219 255
195 219 255
195 219 255
195 219 255
195 219 255
195 219 255
195 219 255
195 219 255
195 219 255
195 219 255
195 219 255
195 219 255
195 219 255
195 219 255
195 219 255
195 219 255
195 219 255
195 219 255
195 219 255
195 219 255
195 219 255
195 219 255
195 219 255
195 219 255
195 219 255
195 219 255
195 219 255
195 219 255
195 219 255
195 219 255
195 219 255
195 219 255
195 219 255
195 219 255
195 219 255
195 219 255
195 219 255
195 219 255
195 219 255
195 219 255
195 219 255
195 219 255
195 219 255
195 219 255
195 219 255
195 219 255
195 219 255
195 219 255
195 219 255
92 104 122
10 12 15
9 11 14
8 10 13
8 10 13
7 9 12
9 11 14
9 11 14
9 11 14
8 10 13
8 9 12
9 11 14
9 11 14
7 8 11
9 11 14
9 11 14
9 11 13
8 10 12
9 11 14
9 11 14
9 12 15
9 12 15
9 11 14
9 11 14
7 9 11
9 11 14
8 10 12
8 10 13
10 12 16
9 11 14
9 11 13
9 11 15
8 10 13
9 11 14
9 11 13
9 11 14
10 12 15
9 11 14
9 11 14
9 11 14
9 11 14
9 11 14
9 11 15
9 11 14
8 10 13
9 10 13
8 10 13
11 13 16
9 11 14
8 10 13
10 12 16
10 13 16
8 10 13
9 11 14
8 10 12
10 12 15
10 12 15
10 13 16
9 11 14
10 12 16
8 10 12
10 12 16
9 11 13
9 11 14
8 10 13
11 14 17
9 11 14
8 10 13
10 13 16
8 10 13
9 11 14
9 11 14
7 9 12
9 11 14
9 11 14
9 11 13
9 11 14
6 8 10
10 12 15
10 12 15
9 11 14
8 10 13
11 13 16
7 9 12
9 11 14
10 12 15
9 11 14
9 11 14
9 11 13
10 12 15
8 10 13
8 10 13
9 11 14
10 13 16
8 10 13
10 12 16
9 12 15
10 12 15
10 13 16
10 12 15
9 11 14
10 12 15
9 11 14
9 11 13
9 11 14
9 11 14
9 10 13
8 10 13
8 10 13
9 11 14
9 11 13
11 13 17
10 12 16
11 13 16
10 12 16
9 11 13
10 12 15
9 11 14
10 12 15
10 13 16
10 13 16
9 11 14
9 11 14
9 11 13
9 11 14
9 11 14
10 12 15
9 11 14
8 10 12
102 115 134
195 219 255
195 219 255
195 219 255
195 219 255
195 219 255
195 219 255
195 219 255
195 219 255
195 219 255
195 219 255
195 219 255
195 219 255
195 219 255
195 219 255
195 219 255
195 219 255
195 219 255
195 219 255
195 219 255
195 219 255
195 219 255
195 219 255
195 219 255
195 219 255
195 219 255
195 219 255
195 219 255
195 219 255
195 219 255
195 219 255
195 219 255
195 219 255
195 219 255
195 219 255
195 219 255
195 219 255
195 219 255
195 219 255
195 219 255
195 219 255
195 219 255
195 219 255
195 219 255
195 219 255
195 219 255
195 219 255
195 219 255
195 219 255
195 219 255
195 219 255
195 219 255
195 219 255
195 219 255
195 219 255
195 219 255
195 219 255
195 219 255
195 219 255
195 219 255
195 219 255
195 219 255
195 219 255
195 219 255
194 219 255
194 219 255
194 219 255
194 219 255
194 219 255
194 219 255
194 219 255
194 219 255
194 219 255
194 219 255
194 219 255
194 219 255
194 219 255
194 219 255
194 219 255
194 219 255
194 219 255
194 219 255
194 219 255
194 219 255
194 219 255
194 219 255
194 219 255
194 219 255
194 219 255
194 219 255
194 219 255
194 219 255
194 219 255
194 219 255
194 219 255
194 219 255
194 219 255
194 219 255
194 219 255
194 219 255
194 219 255
194 219 255
194 219 255
194 219 255
194 219 255
194 219 255
194 219 255
194 219 255
194 219 255
194 219 255
194 219 255
194 219 255
194 219 255
194 219 255
194 219 255
194 219 255
194 219 255
194 219 255
194 219 255
194 219 255
194 219 255
194 219 255
194 219 255
194 219 255
194 218 255
194 218 255
194 218 255
194 218 255
194 218 255
194 218 255
194 218 255
194 218 255
194 218 255
194 218 255
194 218 255
194 218 255
194 219 255
194 219 255
194 219 255
194 219 255
194 219 255
194 219 255
194 219 255
194 219 255
194 219 255
194 219 255
194 219 255
194 219 255
194 219 255
194 219 255
194 219 255
194 219 255
194 219 255
194 219 255
194 219 255
194 219 255
194 219 255
194 219 255
194 219 255
194 219 255
194 219 255
194 219 255
194 219 255
194 219 255
194 219 255
194 219 255
194 219 255
194 219 255
194 219 255
194 219 255
194 219 255
194 219 255
194 219 255
194 219 255
194 219 255
194 219 255
194 219 255
194 219 255
194 219 255
194 219 255
194 219 255
195 219 255
195 219 255
195 219 255
195 219 255
195 219 255
195 219 255
195 219 255
195 219 255
195 219 255
195 219 255
195 219 255
195 219 255
195 219 255
195 219 255
195 219 255
195 219 255
195 219 255
195 219 255
195 219 255
195 219 255
195 219 255
195 219 255
195 219 255
195 219 255
195 219 255
195 219 255
195 219 255
195 219 255
195 219 255
195 219 255
195 219 255
195 219 255
195 219 255
195 219 255
195 219 255
195 219 255
195 219 255
195 219 255
195 219 255
195 219 255
195 219 255
195 219 255
195 219 255
195 219 255
195 219 255
195 219 255
195 219 255
195 219 255
195 219 255
195 219 255
195 219 255
195 219 255
195 219 255
195 219 255
195 219 255
195 219 255
195 219 255
195 219 255
195 219 255
195 219 255
195 219 255
195 219 255
195 219 255
195 219 255
195 219 255
195 219 255
196 220 255
196 220 255
196 220 255
196 220 255
196 220 255
196 220 255
196 220 255
196 220 255
196 220 255
196 220 255
196 220 255
196 220 255
196 220 255
196 220 255
196 220 255
196 220 255
196 220 255
196 220 255
196 220 255
196 220 255
196 220 255
196 220 255
196 220 255
196 220 255
134 150 175
8 10 12
10 12 15
10 11 14
9 11 14
8 10 13
9 11 14
8 9 12
8 10 13
8 10 13
8 10 12
8 10 13
10 12 16
9 11 14
10 12 15
10 12 16
11 13 16
11 13 17
8 10 13
8 10 13
9 11 13
9 11 14
9 10 13
9 11 14
10 12 15
9 11 14
10 12 15
9 11 14
9 12 15
10 12 15
8 10 13
9 11 14
9 10 13
8 10 13
9 11 14
10 12 16
9 11 14
7 9 12
9 11 14
10 12 15
9 12 15
9 12 15
9 11 14
10 12 15
10 12 16
9 10 13
9 11 14
10 12 15
9 11 14
9 11 14
10 12 15
10 12 16
10 12 15
7 8 10
9 11 14
8 10 13
9 11 14
10 13 16
9 12 15
9 11 14
9 11 14
9 11 15
9 11 14
10 12 16
8 10 13
11 13 17
10 12 15
10 12 15
10 12 16
10 12 15
10 12 16
10 12 15
9 11 14
9 11 13
10 12 15
10 12 15
9 11 15
9 11 14
9 11 14
9 11 14
7 9 11
9 11 14
9 10 13
9 11 13
9 11 14
9 11 13
8 10 13
9 11 14
9 11 14
9 11 14
8 10 13
10 13 16
8 10 13
10 13 16
8 10 13
9 11 14
10 12 15
8 10 13
9 11 14
8 10 12
10 12 15
9 11 14
9 11 15
10 12 15
10 13 16
9 11 14
10 12 15
9 11 14
8 10 12
9 11 14
9 11 14
8 10 13
9 11 13
8 10 13
8 9 12
9 11 14
9 11 14
10 13 16
8 10 13
8 9 12
9 11 13
9 10 13
11 13 16
7 9 11
8 10 13
10 13 16
9 12 15
10 12 16
9 11 14
136 152 177
196 220 255
196 220 255
196 220 255
196 220 255
196 220 255
196 220 255
196 220 255
196 220 255
196 220 255
196 220 255
196 220 255
196 220 255
196 220 255
196 220 255
196 220 255
196 220 255
196 220 255
196 220 255
196 220 255
196 220 255
196 220 255
196 220 255
196 220 255
195 219 255
195 219 255
195 219 255
195 219 255
195 219 255
195 219 255
195 219 255
195 219 255
195 219 255
195 219 255
195 219 255
195 219 255
195 219 255
195 219 255
195 219 255
195 219 255
195 219 255
195 219 255
195 219 255
195 219 255
195 219 255
195 219 255
195 219 255
195 219 255
195 219 255
195 219 255
195 219 255
195 219 255
195 219 255
195 219 255
195 219 255
195 219 255
195 219 255
195 219 255
195 219 255
195 219 255
195 219 255
195 219 255
195 219 255
195 219 255
195 219 255
195 219 255
195 219 255
195 219 255
195 219 255
195 219 255
195 219 255
195 219 255
195 219 255
195 219 255
195 219 255
195 219 255
195 219 255
195 219 255
195 219 255
195 219 255
195 219 255
195 219 255
195 219 255
195 219 255
195 219 255
195 219 255
195 219 255
195 219 255
195 219 255
195 219 255
195 219 255
194 219 255
194 219 255
194 219 255
194 219 255
194 219 255
194 219 255
194 219 255
194 219 255
194 219 255
194 219 255
194 219 255
194 219 255
194 219 255
194 219 255
194 219 255
194 219 255
194 219 255
194 219 255
194 219 255
194 219 255
194 219 255
194 219 255
194 219 255
194 219 255
194 219 255
194 219 255
194 219 255
194 219 255
194 219 255
194 219 255
194 219 255
194 219 255
194 219 255
194 219 255
194 219 255
194 219 255
194 219 255
194 219 255
194 219 255
194 219 255
194 219 255
194 219 255
194 219 255
194 219 255
194 219 255
194 219 255
194 219 255
194 219 255
194 219 255
194 219 255
194 219 255
194 219 255
194 219 255
194 219 255
194 219 255
194 219 255
194 219 255
194 219 255
194 219 255
194 219 255
194 219 255
194 219 255
194 219 255
194 219 255
195 219 255
195 219 255
195 219 255
195 219 255
195 219 255
195 219 255
195 219 255
195 219 255
195 219 255
195 219 255
195 219 255
195 219 255
195 219 255
195 219 255
195 219 255
195 219 255
195 219 255
195 219 255
195 219 255
195 219 255
195 219 255
195 219 255
195 219 255
195 219 255
195 219 255
195 219 255
195 219 255
195 219 255
195 219 255
195 219 255
195 219 255
195 219 255
195 219 255
195 219 255
195 219 255
195 219 255
195 219 255
195 219 255
195 219 255
195 219 255
195 219 255
195 219 255
195 219 255
195 219 255
195 219 255
195 219 255
195 219 255
195 219 255
195 219 255
195 219 255
195 219 255
195 219 255
195 219 255
195 219 255
195 219 255
195 219 255
195 219 255
195 219 255
195 219 255
195 219 255
195 219 255
195 219 255
195 219 255
195 219 255
195 219 255
195 219 255
195 219 255
195 219 255
196 220 255
196 220 255
196 220 255
196 220 255
196 220 255
196 220 255
196 220 255
196 220 255
196 220 255
196 220 255
196 220 255
196 220 255
196 220 255
196 220 255
196 220 255
196 220 255
196 220 255
196 220 255
196 220 255
196 220 255
196 220 255
196 220 255
196 220 255
196 220 255
196 220 255
196 220 255
196 220 255
196 220 255
196 220 255
196 220 255
196 220 255
196 220 255
196 220 255
196 220 255
196 220 255
196 220 255
196 220 255
196 220 255
196 220 255
196 220 255
196 220 255
196 220 255
196 220 255
196 220 255
196 220 255
196 220 255
196 220 255
196 220 255
170 191 222
9 10 13
8 10 13
9 11 14
8 10 13
7 9 12
10 13 16
9 11 14
10 12 15
9 11 14
9 11 14
9 11 14
8 10 12
10 12 15
9 11 13
8 10 12
9 11 15
9 11 14
10 12 15
9 12 15
9 11 14
10 12 15
9 11 13
10 12 15
11 13 17
7 8 11
9 11 15
8 10 13
10 12 16
10 12 15
8 10 13
9 11 14
8 10 13
8 10 13
10 12 16
8 10 13
9 11 14
9 10 13
9 11 14
9 11 14
8 10 12
9 11 14
10 12 15
8 9 12
8 10 13
8 10 13
8 10 12
9 11 14
9 11 13
8 10 13
9 11 14
8 9 12
8 10 13
8 10 13
9 11 14
9 10 13
9 11 14
10 12 16
10 12 15
7 9 11
9 11 14
8 10 12
10 12 16
9 11 14
9 11 14
8 10 13
9 11 14
9 11 14
9 11 14
9 11 14
8 10 13
10 12 15
8 10 13
8 10 13
9 11 14
8 9 12
9 10 13
10 13 16
9 11 14
8 10 12
9 11 13
8 10 12
10 12 15
9 11 14
8 10 13
9 10 13
10 11 14
9 11 14
9 11 14
9 11 15
8 10 12
8 10 13
10 12 16
9 11 14
8 9 12
10 12 15
8 10 12
8 10 13
9 11 14
10 12 15
9 11 14
10 12 15
10 12 15
9 10 13
8 10 13
10 12 16
9 11 14
9 10 13
9 11 14
11 13 17
9 11 14
9 11 14
9 11 14
9 11 14
9 11 14
10 12 15
9 11 14
9 11 14
9 11 15
9 11 14
9 11 14
8 10 13
9 11 14
7 9 11
8 10 13
7 9 11
9 11 13
10 12 16
9 11 14
171 191 222
196 220 255
196 220 255
196 220 255
196 220 255
196 220 255
196 220 255
196 220 255
196 220 255
196 220 255
196 220 255
196 220 255
196 220 255
196 220 255
196 220 255
196 220 255
196 220 255
196 220 255
196 220 255
196 220 255
196 220 255
196 220 255
196 220 255
196 220 255
196 220 255
196 220 255
196 220 255
196 220 255
196 220 255
196 220 255
196 220 255
196 220 255
196 220 255
196 220 255
196 220 255
196 220 255
196 220 255
196 220 255
196 220 255
196 220 255
196 220 255
196 220 255
196 220 255
196 220 255
196 220 255
196 220 255
196 220 255
196 220 255
195 219 255
195 219 255
195 219 255
195 219 255
195 219 255
195 219 255
195 219 255
195 219 255
195 219 255
195 219 255
195 219 255
195 219 255
195 219 255
195 219 255
195 219 255
195 219 255
195 219 255
195 219 255
195 219 255
195 219 255
195 219 255
195 219 255
195 219 255
195 219 255
195 219 255
195 219 255
195 219 255
195 219 255
195 219 255
195 219 255
195 219 255
195 219 255
195 219 255
195 219 255
195 219 255
195 219 255
195 219 255
195 219 255
195 219 255
195 219 255
195 219 255
195 219 255
195 219 255
195 219 255
195 219 255
195 219 255
195 219 255
195 219 255
195 219 255
195 219 255
195 219 255
195 219 255
195 219 255
195 219 255
195 219 255
195 219 255
195 219 255
195 219 255
195 219 255
195 219 255
195 219 255
195 219 255
195 219 255
195 219 255
195 219 255
195 219 255
195 219 255
195 219 255
194 219 255
194 219 255
194 219 255
194 219 255
194 219 255
194 219 255
194 219 255
194 219 255
194 219 255
194 219 255
194 219 255
194 219 255
194 219 255
194 219 255
194 219 255
194 219 255
194 219 255
194 219 255
194 219 255
194 219 255
195 219 255
195 219 255
195 219 255
195 219 255
195 219 255
195 219 255
195 219 255
195 219 255
195 219 255
195 219 255
195 219 255
195 219 255
195 219 255
195 219 255
195 219 255
195 219 255
195 219 255
195 219 255
195 219 255
195 219 255
195 219 255
195 219 255
195 219 255
195 219 255
195 219 255
195 219 255
195 219 255
195 219 255
195 219 255
195 219 255
195 219 255
195 219 255
195 219 255
195 219 255
195 219 255
195 219 255
195 219 255
195 219 255
195 219 255
195 219 255
195 219 255
195 219 255
195 219 255
195 219 255
195 219 255
195 219 255
195 219 255
195 219 255
195 219 255
195 219 255
195 219 255
195 219 255
195 219 255
195 219 255
195 219 255
195 219 255
195 219 255
195 219 255
195 219 255
195 219 255
195 219 255
195 219 255
195 219 255
195 219 255
195 219 255
196 220 255
196 220 255
196 220 255
196 220 255
196 220 255
196 220 255
196 220 255
196 220 255
196 220 255
196 220 255
196 220 255
196 220 255
196 220 255
196 220 255
196 220 255
196 220 255
196 220 255
196 220 255
196 220 255
196 220 255
196 220 255
196 220 255
196 220 255
196 220 255
196 220 255
196 220 255
196 220 255
196 220 255
196 220 255
196 220 255
196 220 255
196 220 255
196 220 255
196 220 255
196 220 255
196 220 255
196 220 255
196 220 255
196 220 255
196 220 255
196 220 255
196 220 255
196 220 255
196 220 255
196 220 255
196 220 255
196 220 255
196 220 255
196 220 255
196 220 255
196 220 255
197 220 255
197 220 255
197 220 255
197 220 255
197 220 255
197 220 255
197 220 255
197 220 255
197 220 255
197 220 255
197 220 255
197 220 255
197 220 255
197 220 255
197 220 255
197 220 255
197 220 255
197 220 255
197 220 255
191 214 248
16 19 23
9 11 13
9 12 15
9 10 13
9 11 15
8 10 13
9 12 15
7 9 12
8 10 13
9 10 13
7 9 11
8 10 13
9 11 14
10 12 16
9 11 14
10 12 15
9 11 13
10 12 15
10 12 15
9 11 14
10 12 15
8 10 13
8 10 13
10 12 15
9 10 13
8 10 13
11 14 17
9 10 13
9 11 14
9 11 14
10 12 16
7 9 12
10 12 15
8 10 12
11 13 16
7 9 11
8 9 12
9 11 13
8 9 12
10 12 16
8 10 13
7 9 12
9 11 13
8 10 13
9 11 14
9 11 14
9 11 14
9 11 13
10 12 16
8 10 13
8 10 13
7 9 12
10 12 15
8 10 13
10 12 15
10 12 16
7 9 11
9 11 13
8 10 13
9 11 14
9 11 14
10 12 15
8 10 12
9 11 14
9 10 13
9 11 14
8 10 13
10 12 15
8 10 13
8 10 13
8 10 13
9 11 15
9 11 14
7 9 11
8 10 13
9 11 13
9 11 14
9 11 14
8 9 12
8 9 12
9 10 13
8 10 12
8 10 12
9 11 14
8 10 12
7 9 11
9 10 13
9 11 13
9 11 14
8 10 13
8 10 13
9 11 14
8 10 13
9 11 13
8 10 12
8 10 13
9 11 14
7 9 11
9 11 14
9 11 14
10 12 15
9 11 14
9 11 14
8 10 13
9 11 13
9 11 14
8 10 13
9 10 13
9 10 13
9 10 13
9 11 14
10 12 16
8 10 13
8 10 13
9 11 13
9 11 13
8 9 12
8 10 13
9 11 14
9 11 14
9 11 14
9 11 14
9 11 14
8 9 12
9 11 14
8 10 13
8 10 12
11 14 17
191 214 248
197 220 255
197 220 255
197 220 255
197 220 255
197 220 255
197 220 255
197 220 255
197 220 255
197 220 255
197 220 255
197 220 255
197 220 255
197 220 255
197 220 255
197 220 255
197 220 255
197 220 255
197 220 255
197 220 255
197 220 255
196 220 255
196 220 255
196 220 255
196 220 255
196 220 255
196 220 255
196 220 255
196 220 255
196 220 255
196 220 255
196 220 255
196 220 255
196 220 255
196 220 255
196 220 255
196 220 255
196 220 255
196 220 255
196 220 255
196 220 255
196 220 255
196 220 255
196 220 255
196 220 255
196 220 255
196 220 255
196 220 255
196 220 255
196 220 255
196 220 255
196 220 255
196 220 255
196 220 255
196 220 255
196 220 255
196 220 255
196 220 255
196 220 255
196 220 255
196 220 255
196 220 255
196 220 255
196 220 255
196 220 255
196 220 255
196 220 255
196 220 255
196 220 255
196 220 255
196 220 255
195 219 255
195 219 255
195 219 255
195 219 255
195 219 255
195 219 255
195 219 255
195 219 255
195 219 255
195 219 255
195 219 255
195 219 255
195 219 255
195 219 255
195 219 255
195 219 255
195 219 255
195 219 255
195 219 255
195 219 255
195 219 255
195 219 255
195 219 255
195 219 255
195 219 255
195 219 255
195 219 255
195 219 255
195 219 255
195 219 255
195 219 255
195 219 255
195 219 255
195 219 255
195 219 255
195 219 255
195 219 255
195 219 255
195 219 255
195 219 255
195 219 255
195 219 255
195 219 255
195 219 255
195 219 255
195 219 255
195 219 255
195 219 255
195 219 255
195 219 255
195 219 255
195 219 255
195 219 255
195 219 255
195 219 255
195 219 255
195 219 255
195 219 255
195 219 255
195 219 255
195 219 255
195 219 255
195 219 255
195 219 255
195 219 255
195 219 255
195 219 255
195 219 255
195 219 255
195 219 255
195 219 255
195 219 255
195 219 255
195 219 255
195 219 255
195 219 255
195 219 255
195 219 255
195 219 255
195 219 255
195 219 255
195 219 255
195 219 255
195 219 255
195 219 255
195 219 255
195 219 255
195 219 255
195 219 255
195 219 255
195 219 255
195 219 255
195 219 255
195 219 255
195 219 255
195 219 255
195 219 255
195 219 255
195 219 255
195 219 255
195 219 255
195 219 255
195 219 255
195 219 255
195 219 255
195 219 255
195 219 255
195 219 255
195 219 255
195 219 255
196 220 255
196 220 255
196 220 255
196 220 255
196 220 255
196 220 255
196 220 255
196 220 255
196 220 255
196 220 255
196 220 255
196 220 255
196 220 255
196 220 255
196 220 255
196 220 255
196 220 255
196 220 255
196 220 255
196 220 255
196 220 255
196 220 255
196 220 255
196 220 255
196 220 255
196 220 255
196 220 255
196 220 255
196 220 255
196 220 255
196 220 255
196 220 255
196 220 255
196 220 255
196 220 255
196 220 255
196 220 255
196 220 255
196 220 255
196 220 255
196 220 255
196 220 255
196 220 255
196 220 255
196 220 255
196 220 255
196 220 255
196 220 255
196 220 255
196 220 255
197 220 255
196 220 255
197 220 255
197 220 255
197 220 255
197 220 255
197 220 255
197 220 255
197 220 255
197 220 255
197 220 255
197 220 255
197 220 255
197 220 255
197 220 255
197 220 255
197 220 255
197 220 255
197 220 255
197 220 255
197 220 255
197 220 255
197 220 255
197 220 255
197 220 255
197 220 255
197 220 255
197 220 255
197 220 255
197 220 255
190 212 246
179 200 232
162 182 212
161 180 209
141 158 184
131 148 173
130 146 170
124 140 163
102 116 136
106 120 140
84 95 113
22 26 31
8 10 13
11 13 16
8 10 12
7 9 11
8 10 13
9 11 14
8 10 13
8 10 12
9 11 14
10 12 15
9 11 14
9 11 14
8 9 12
8 10 13
9 11 14
9 11 14
9 11 14
9 11 13
10 12 15
9 11 14
8 9 12
8 10 13
8 10 13
8 10 13
8 10 13
9 10 13
10 12 15
9 11 14
7 8 11
9 11 14
10 12 15
9 11 14
9 12 15
10 12 15
8 10 13
10 12 15
9 11 14
10 12 15
9 11 14
9 11 14
9 11 14
10 12 15
10 12 15
9 10 13
10 12 16
9 11 14
8 10 12
9 10 13
10 12 14
9 11 14
8 10 12
9 11 14
10 12 15
8 10 12
8 9 12
9 11 14
9 11 15
8 10 13
10 12 15
8 10 13
10 12 15
10 12 15
9 11 14
10 12 16
8 10 13
8 10 13
7 9 11
10 12 15
8 10 12
9 11 14
8 10 13
8 9 12
8 10 12
8 10 13
8 10 13
10 13 16
8 10 13
9 10 13
9 11 14
9 11 14
10 12 16
8 10 13
10 12 16
9 11 13
10 12 15
9 11 13
8 10 13
9 11 14
9 11 14
10 12 15
9 11 14
9 12 15
11 13 16
9 11 14
8 10 13
9 11 14
9 11 14
9 11 14
9 12 15
7 9 11
9 11 14
8 10 13
9 11 14
10 12 15
9 11 14
9 11 14
9 10 13
9 11 14
9 10 13
9 11 14
10 12 16
8 10 13
7 9 11
8 10 13
8 10 13
10 12 16
11 13 16
10 12 15
9 10 13
8 10 12
9 11 14
9 10 13
10 12 16
9 10 13
9 12 15
8 10 13
11 13 17
106 120 140
100 114 133
99 112 131
117 132 154
122 138 161
146 164 191
152 170 198
157 176 205
173 194 226
181 202 235
192 214 249
197 220 255
197 220 255
197 220 255
197 220 255
197 220 255
197 220 255
197 220 255
197 220 255
197 220 255
197 220 255
197 220 255
197 220 255
197 220 255
197 220 255
197 220 255
197 220 255
197 220 255
197 220 255
197 220 255
197 220 255
197 220 255
197 220 255
197 220 255
197 220 255
197 220 255
197 220 255
197 220 255
197 220 255
197 220 255
196 220 255
196 220 255
196 220 255
196 220 255
196 220 255
196 220 255
196 220 255
196 220 255
196 220 255
196 220 255
196 220 255
196 220 255
196 220 255
196 220 255
196 220 255
196 220 255
196 220 255
196 220 255
196 220 255
196 220 255
196 220 255
196 220 255
196 220 255
196 220 255
196 220 255
196 220 255
196 220 255
196 220 255
196 220 255
196 220 255
196 220 255
196 220 255
196 220 255
196 220 255
196 220 255
196 220 255
196 220 255
196 220 255
196 220 255
196 220 255
196 220 255
196 220 255
196 220 255
196 220 255
196 220 255
196 220 255
196 220 255
196 220 255
196 220 255
196 220 255
196 220 255
196 220 255
195 219 255
195 219 255
195 219 255
195 219 255
195 219 255
195 219 255
195 219 255
195 219 255
195 219 255
195 219 255
195 219 255
195 219 255
195 219 255
195 219 255
195 219 255
195 219 255
195 219 255
195 219 255
195 219 255
195 219 255
195 219 255
195 219 255
195 219 255
195 219 255
195 219 255
195 219 255
195 219 255
195 219 255
195 219 255
195 219 255
195 219 255
195 219 255
195 219 255
195 219 255
195 219 255
195 219 255
195 219 255
195 219 255
195 219 255
195 219 255
195 219 255
195 219 255
195 219 255
195 219 255
195 219 255
195 219 255
195 219 255
195 219 255
195 219 255
195 219 255
195 219 255
195 219 255
195 219 255
195 219 255
195 219 255
195 219 255
195 219 255
195 219 255
195 219 255
195 219 255
195 219 255
195 219 255
195 219 255
195 219 255
195 219 255
195 219 255
195 219 255
195 219 255
195 219 255
195 219 255
196 220 255
196 220 255
196 220 255
196 220 255
196 220 255
196 220 255
196 220 255
196 220 255
196 220 255
196 220 255
196 220 255
196 220 255
196 220 255
196 220 255
196 220 255
196 220 255
196 220 255
196 220 255
196 220 255
196 220 255
196 220 255
196 220 255
196 220 255
196 220 255
196 220 255
196 220 255
196 220 255
196 220 255
196 220 255
196 220 255
196 220 255
196 220 255
196 220 255
196 220 255
196 220 255
196 220 255
196 220 255
196 220 255
196 220 255
196 220 255
196 220 255
196 220 255
196 220 255
196 220 255
196 220 255
196 220 255
196 220 255
196 220 255
196 220 255
196 220 255
196 220 255
196 220 255
197 220 255
197 220 255
197 220 255
197 220 255
197 220 255
197 220 255
197 220 255
197 220 255
197 220 255
197 220 255
197 220 255
197 220 255
197 220 255
197 220 255
197 220 255
197 220 255
197 220 255
197 220 255
197 220 255
197 220 255
197 220 255
197 220 255
197 220 255
197 220 255
197 220 255
197 220 255
197 220 255
197 220 255
197 221 255
195 218 253
192 214 249
184 206 239
157 176 205
159 178 207
151 170 198
151 170 198
124 140 163
91 103 122
102 116 136
97 110 129
89 101 120
60 69 83
49 57 69
51 59 71
29 35 44
32 39 48
14 19 25
14 19 25
14 19 25
14 19 25
14 19 25
14 19 25
14 19 25
15 19 25
14 19 25
14 19 25
15 19 25
15 19 25
11 13 17
8 9 12
10 12 15
10 12 15
9 11 14
9 11 13
9 12 15
8 10 12
8 10 13
10 12 16
8 9 12
8 10 13
10 12 15
9 11 14
9 11 14
10 12 16
9 10 13
9 10 13
10 13 16
9 11 14
8 9 12
8 10 12
8 11 14
8 10 13
9 11 14
8 10 14
8 10 13
10 12 15
10 12 15
9 11 14
8 10 12
9 10 13
9 11 13
9 11 14
9 11 14
9 11 14
9 11 14
10 12 15
9 11 14
8 10 13
8 10 13
9 10 13
10 12 16
9 11 14
8 10 13
8 10 13
8 10 13
10 12 15
10 12 15
9 11 14
9 11 14
8 10 12
9 10 13
10 12 15
10 12 15
9 11 14
9 11 14
9 11 13
8 10 12
9 12 15
10 12 16
8 9 12
8 10 13
8 10 12
7 9 12
9 10 13
8 10 13
9 11 14
9 11 14
7 9 11
9 11 14
9 11 14
9 11 14
10 12 15
9 11 14
10 12 15
10 12 15
8 10 12
8 10 13
8 10 13
9 10 13
8 10 13
9 11 14
8 10 12
8 10 12
9 11 14
8 10 13
8 10 13
8 10 13
9 11 14
9 11 13
9 11 14
10 12 16
9 11 14
8 10 12
8 10 13
7 9 11
9 11 14
9 11 14
9 11 14
8 9 12
8 10 13
10 12 15
8 10 12
9 10 13
8 10 13
9 11 14
8 10 13
9 11 14
9 11 14
9 11 13
9 10 13
10 12 15
8 10 13
7 9 12
9 12 15
8 9 12
7 9 12
8 10 12
8 10 13
8 9 12
8 10 13
8 10 13
7 9 12
9 11 14
9 11 14
7 9 11
10 12 16
14 19 25
14 18 25
14 19 25
14 19 25
14 19 25
15 19 25
15 19 25
15 19 25
15 19 25
14 19 25
15 19 25
14 19 25
31 37 46
44 51 62
37 43 53
65 75 90
69 79 94
76 87 103
100 114 133
104 118 138
108 122 143
131 148 173
133 150 175
150 168 196
155 174 203
175 196 228
172 192 223
192 214 249
197 220 255
197 220 255
197 220 255
197 220 255
197 220 255
197 220 255
197 220 255
197 220 255
197 220 255
197 220 255
197 220 255
197 220 255
197 220 255
197 220 255
197 220 255
197 220 255
197 220 255
197 220 255
197 220 255
197 220 255
197 220 255
197 220 255
197 220 255
197 220 255
197 220 255
197 220 255
197 220 255
197 220 255
197 220 255
197 220 255
196 220 255
196 220 255
196 220 255
196 220 255
196 220 255
196 220 255
196 220 255
196 220 255
196 220 255
196 220 255
196 220 255
196 220 255
196 220 255
196 220 255
196 220 255
196 220 255
196 220 255
196 220 255
196 220 255
196 220 255
196 220 255
196 220 255
196 220 255
196 220 255
196 220 255
196 220 255
196 220 255
196 220 255
196 220 255
196 220 255
196 220 255
196 220 255
196 220 255
196 220 255
196 220 255
196 220 255
196 220 255
196 220 255
196 220 255
196 220 255
196 220 255
196 220 255
196 220 255
196 220 255
196 220 255
196 220 255
196 220 255
196 220 255
196 220 255
196 220 255
196 220 255
196 220 255
196 220 255
195 219 255
195 219 255
195 219 255
195 219 255
195 219 255
195 219 255
195 219 255
195 219 255
195 219 255
195 219 255
195 219 255
195 219 255
195 219 255
195 219 255
195 219 255
195 219 255
195 219 255
195 219 255
195 219 255
195 219 255
195 219 255
195 219 255
195 219 255
195 219 255
195 219 255
195 219 255
195 219 255
195 219 255
195 219 255
195 219 255
195 219 255
195 219 255
196 220 255
196 220 255
196 220 255
196 220 255
196 220 255
196 220 255
196 220 255
196 220 255
196 220 255
196 220 255
196 220 255
196 220 255
196 220 255
196 220 255
196 220 255
196 220 255
196 220 255
196 220 255
196 220 255
196 220 255
196 220 255
196 220 255
196 220 255
196 220 255
196 220 255
196 220 255
196 220 255
196 220 255
196 220 255
196 220 255
196 220 255
196 220 255
196 220 255
196 220 255
196 220 255
196 220 255
196 220 255
196 220 255
196 220 255
196 220 255
196 220 255
196 220 255
196 220 255
196 220 255
196 220 255
196 220 255
196 220 255
196 220 255
196 220 255
196 220 255
196 220 255
196 220 255
196 220 255
196 220 255
197 220 255
197 220 255
197 220 255
197 220 255
197 220 255
197 220 255
197 220 255
197 220 255
197 220 255
197 220 255
197 220 255
197 220 255
197 220 255
197 220 255
197 220 255
197 220 255
197 220 255
197 220 255
197 220 255
197 220 255
197 220 255
197 220 255
197 220 255
197 220 255
197 220 255
197 220 255
197 220 255
197 220 255
197 220 255
197 220 255
197 221 255
197 221 255
194 217 251
170 190 221
168 188 219
162 182 212
153 172 200
124 140 163
120 136 159
95 108 126
80 91 108
60 69 83
64 73 87
49 57 69
40 47 57
24 29 37
18 23 30
14 19 25
15 19 25
14 19 25
14 18 25
14 19 25
15 19 25
14 19 25
14 19 25
14 19 25
15 19 25
14 19 25
14 19 25
14 19 25
14 19 25
14 19 25
15 19 25
14 19 25
14 19 25
14 19 25
15 19 25
15 19 25
15 19 25
14 19 25
14 19 25
15 19 25
15 19 25
15 19 25
14 18 25
12 15 20
8 10 13
8 10 13
9 11 14
8 10 13
8 10 12
9 11 14
9 11 14
7 9 11
7 9 12
9 11 14
8 9 12
9 11 14
9 11 14
9 11 14
8 10 13
9 11 14
8 10 13
8 9 12
10 12 15
8 10 13
8 10 13
8 10 13
7 9 11
9 11 14
8 10 12
10 12 15
8 9 12
8 10 13
9 11 14
8 10 13
9 11 14
9 11 14
9 11 14
11 13 16
10 12 15
8 10 13
7 9 11
9 11 14
8 10 12
9 11 14
9 10 13
9 11 14
8 10 12
9 11 13
8 10 13
8 10 12
9 11 14
9 11 14
8 10 12
10 12 15
7 8 10
10 12 16
9 12 15
9 11 14
9 11 14
9 11 14
8 9 12
10 12 15
9 10 13
8 10 13
10 13 16
10 13 16
8 10 13
10 12 15
9 11 14
9 11 14
10 12 16
9 10 13
9 11 14
10 12 15
9 11 14
7 9 12
10 12 15
10 12 15
9 11 14
9 11 14
10 12 15
9 11 14
10 12 15
8 10 13
8 9 12
10 12 15
8 10 13
9 11 14
9 11 14
8 10 12
9 11 14
8 9 12
9 11 13
8 9 12
8 10 13
9 11 13
8 10 13
8 10 13
10 12 15
8 10 13
8 10 13
9 11 14
9 11 13
10 12 15
8 10 13
8 10 13
8 10 13
9 11 14
7 9 12
9 11 13
9 12 15
9 11 14
10 12 16
9 11 14
9 11 14
9 11 13
9 11 13
8 9 12
9 11 13
8 10 13
8 10 12
9 11 14
9 11 14
7 9 11
9 10 13
9 11 13
9 11 13
9 11 14
8 10 13
9 11 14
12 15 20
14 19 25
14 19 25
15 19 25
14 19 25
14 19 25
15 19 25
14 19 25
14 19 25
14 19 25
15 19 25
15 19 25
15 19 25
15 19 25
14 18 25
14 19 25
15 19 25
15 19 25
15 19 25
14 19 25
14 19 25
14 19 25
14 19 25
15 19 25
14 19 25
15 19 25
14 19 25
15 19 25
15 19 25
20 25 32
25 31 39
45 53 64
57 65 78
64 73 87
75 85 101
99 112 131
111 126 147
121 136 159
121 136 159
155 174 203
161 180 209
161 180 209
172 192 223
186 208 242
197 221 255
197 221 255
197 221 255
197 221 255
197 220 255
197 220 255
197 220 255
197 220 255
197 220 255
197 220 255
197 220 255
197 220 255
197 220 255
197 220 255
197 220 255
197 220 255
197 220 255
197 220 255
197 220 255
197 220 255
197 220 255
197 220 255
197 220 255
197 220 255
197 220 255
197 220 255
197 220 255
197 220 255
197 220 255
197 220 255
197 220 255
196 220 255
197 220 255
196 220 255
196 220 255
196 220 255
196 220 255
196 220 255
196 220 255
196 220 255
196 220 255
196 220 255
196 220 255
196 220 255
196 220 255
196 220 255
196 220 255
196 220 255
196 220 255
196 220 255
196 220 255
196 220 255
196 220 255
196 220 255
196 220 255
196 220 255
196 220 255
196 220 255
196 220 255
196 220 255
196 220 255
196 220 255
196 220 255
196 220 255
196 220 255
196 220 255
196 220 255
196 220 255
196 220 255
196 220 255
196 220 255
196 220 255
196 220 255
196 220 255
196 220 255
196 220 255
196 220 255
196 220 255
196 220 255
196 220 255
196 220 255
196 220 255
196 220 255
196 220 255
196 220 255
196 220 255
196 220 255
195 219 255
195 219 255
195 219 255
195 219 255
195 219 255
195 219 255
196 220 255
196 220 255
196 220 255
196 220 255
196 220 255
196 220 255
196 220 255
196 220 255
196 220 255
196 220 255
196 220 255
196 220 255
196 220 255
196 220 255
196 220 255
196 220 255
196 220 255
196 220 255
196 220 255
196 220 255
196 220 255
196 220 255
196 220 255
196 220 255
196 220 255
196 220 255
196 220 255
196 220 255
196 220 255
196 220 255
196 220 255
196 220 255
196 220 255
196 220 255
196 220 255
196 220 255
196 220 255
196 220 255
196 220 255
196 220 255
196 220 255
196 220 255
196 220 255
196 220 255
196 220 255
197 220 255
197 220 255
197 220 255
197 220 255
197 220 255
197 220 255
197 220 255
197 220 255
197 220 255
197 220 255
197 220 255
197 220 255
197 220 255
197 220 255
197 220 255
197 220 255
197 220 255
197 220 255
197 220 255
197 220 255
197 220 255
197 220 255
197 220 255
197 220 255
197 220 255
197 220 255
197 220 255
197 220 255
197 220 255
197 221 255
197 221 255
197 221 255
197 221 255
197 221 255
192 215 249
173 194 226
161 180 209
161 180 209
148 166 193
132 148 173
111 126 147
97 110 129
90 102 120
73 83 99
58 67 80
50 57 69
29 35 44
22 27 34
15 19 25
14 19 25
14 19 25
15 19 25
15 19 25
14 19 25
15 19 25
14 19 25
14 19 25
14 19 25
14 19 25
15 19 25
15 19 25
14 19 25
15 19 25
14 19 25
14 19 25
15 19 25
15 19 25
14 19 25
14 19 25
14 19 25
15 19 25
14 19 25
15 19 25
14 19 25
15 19 25
15 19 25
15 19 25
14 19 25
15 19 25
14 19 25
14 19 25
14 19 25
14 19 25
15 19 25
14 19 25
15 19 25
14 19 25
15 19 25
14 19 25
14 19 25
14 19 25
13 17 23
8 10 13
10 12 15
9 11 14
7 8 11
8 10 12
8 10 13
9 11 14
8 9 12
10 12 15
8 10 12
9 11 13
8 10 13
9 10 13
8 10 12
9 11 14
8 10 13
8 10 12
7 9 11
9 11 14
9 11 14
8 9 12
9 11 13
9 11 14
8 9 12
8 10 12
7 8 11
7 9 12
9 11 14
8 10 13
7 9 12
8 10 13
8 9 12
8 10 13
10 12 15
7 9 11
8 10 13
9 12 15
8 9 12
8 10 13
9 11 14
9 10 13
9 10 13
8 10 13
8 10 13
6 8 10
8 10 12
10 12 15
7 8 11
10 12 15
9 11 13
7 9 11
10 12 15
9 11 14
9 11 14
9 11 13
8 10 13
8 10 13
9 11 14
9 10 13
10 12 16
7 9 12
8 10 13
8 10 12
9 11 13
8 10 12
9 11 15
10 12 15
10 12 15
9 11 14
10 12 15
9 10 13
8 10 13
9 11 14
9 11 14
9 10 13
8 10 13
9 10 13
9 11 14
9 10 13
9 11 14
9 11 14
9 11 14
8 10 13
8 10 13
8 9 12
8 10 13
8 10 13
9 11 14
9 11 14
7 9 11
9 11 14
8 10 13
9 11 14
8 10 13
9 10 13
8 9 12
9 11 14
9 10 13
9 11 14
9 10 13
9 12 15
8 10 13
9 11 14
9 11 14
8 10 12
8 10 12
9 10 13
9 11 14
7 9 12
9 11 14
8 10 12
7 9 11
10 12 16
8 10 12
9 11 14
10 12 15
8 10 13
8 9 12
8 10 13
8 9 12
8 10 13
8 10 13
9 10 13
9 11 14
9 12 15
9 11 14
13 17 23
14 19 25
15 19 25
14 19 25
14 19 25
14 19 25
15 19 25
15 19 25
14 19 25
14 19 25
15 19 25
14 19 25
15 19 25
14 19 25
14 19 25
14 19 25
14 19 25
14 19 25
14 19 25
14 18 25
14 19 25
15 19 25
14 19 25
15 19 25
15 19 25
15 19 25
14 19 25
14 19 25
14 19 25
14 18 25
14 19 25
14 19 25
14 19 25
15 19 25
14 19 25
15 19 25
15 19 25
14 19 25
14 19 25
14 19 25
14 19 25
14 18 25
15 19 25
15 19 25
20 25 32
27 33 41
51 59 71
57 65 78
73 83 99
73 83 99
87 99 117
106 120 140
110 124 145
144 162 189
155 174 203
146 164 191
174 194 226
188 211 244
197 221 255
197 221 255
197 221 255
197 221 255
197 220 255
197 220 255
197 220 255
197 220 255
197 220 255
197 220 255
197 220 255
197 220 255
197 220 255
197 220 255
197 220 255
197 220 255
197 220 255
197 220 255
197 220 255
197 220 255
197 220 255
197 220 255
197 220 255
197 220 255
197 220 255
197 220 255
197 220 255
197 220 255
197 220 255
197 220 255
197 220 255
197 220 255
197 220 255
197 220 255
196 220 255
196 220 255
196 220 255
196 220 255
196 220 255
196 220 255
196 220 255
196 220 255
196 220 255
196 220 255
196 220 255
196 220 255
196 220 255
196 220 255
196 220 255
196 220 255
196 220 255
196 220 255
196 220 255
196 220 255
196 220 255
196 220 255
196 220 255
196 220 255
196 220 255
196 220 255
196 220 255
196 220 255
196 220 255
196 220 255
196 220 255
196 220 255
196 220 255
196 220 255
196 220 255
196 220 255
196 220 255
196 220 255
196 220 255
196 220 255
196 220 255
196 220 255
196 220 255
196 220 255
196 220 255
196 220 255
196 220 255
196 220 255
196 220 255
196 220 255
196 220 255
196 220 255
196 220 255
196 220 255
196 220 255
196 220 255
196 220 255
196 220 255
196 220 255
196 220 255
196 220 255
196 220 255
196 220 255
196 220 255
196 220 255
196 220 255
196 220 255
196 220 255
196 220 255
196 220 255
196 220 255
196 220 255
196 220 255
196 220 255
196 220 255
197 220 255
197 220 255
197 220 255
197 220 255
197 220 255
197 220 255
197 220 255
197 220 255
197 220 255
197 220 255
197 220 255
197 220 255
197 220 255
197 220 255
197 220 255
197 220 255
197 220 255
197 220 255
197 220 255
197 220 255
197 220 255
197 220 255
197 220 255
197 220 255
197 220 255
197 220 255
197 220 255
197 220 255
197 220 255
197 220 255
197 221 255
197 221 255
197 221 255
197 221 255
197 221 255
197 221 255
190 213 246
159 178 207
166 186 216
141 158 184
139 156 182
102 116 136
100 114 133
82 93 110
82 93 110
71 81 97
51 59 71
40 47 57
18 23 30
15 19 25
15 19 25
14 18 25
15 19 25
14 19 25
14 19 25
14 19 25
14 19 25
15 19 25
15 19 25
14 19 25
15 19 25
14 19 25
15 19 25
14 19 25
15 19 25
14 19 25
14 19 25
14 18 25
15 19 25
14 19 25
14 19 25
14 19 25
14 19 25
14 19 25
15 19 25
15 19 25
14 19 25
15 19 25
14 19 25
14 19 25
14 19 25
15 19 25
15 19 25
14 19 25
14 19 25
14 19 25
14 19 25
14 19 25
14 19 25
14 19 25
14 19 25
14 19 25
15 19 25
14 19 25
15 19 25
14 19 25
14 18 25
14 19 25
14 19 25
15 19 25
15 19 25
15 19 25
14 19 25
15 19 25
14 19 25
14 19 25
14 19 25
8 9 12
9 11 14
10 12 15
10 12 15
10 12 15
9 11 14
8 9 12
8 10 13
9 10 13
8 10 13
9 11 14
9 11 14
8 9 12
10 12 15
8 10 13
8 9 12
7 9 12
9 10 13
9 10 13
8 10 12
9 11 14
8 9 12
8 10 13
9 10 13
9 11 13
8 10 13
7 8 11
9 11 14
9 10 13
8 10 12
9 11 14
7 9 11
8 10 13
9 11 14
8 9 12
9 11 14
8 10 13
8 9 12
7 9 12
9 11 14
8 10 13
8 10 13
9 11 14
8 10 13
10 12 16
8 10 13
9 11 14
9 12 15
8 10 13
8 10 13
8 10 13
8 10 13
8 10 12
9 11 14
8 10 13
9 11 14
8 9 12
9 10 13
9 11 14
10 12 15
10 12 15
7 9 12
9 10 13
8 10 13
9 11 14
9 11 14
9 10 13
7 9 11
7 8 11
8 10 12
8 10 13
8 10 12
8 9 12
9 12 15
8 10 13
9 11 14
9 10 13
8 10 12
8 10 12
7 9 11
8 10 12
8 10 13
9 10 13
9 11 14
9 11 14
8 10 12
6 7 9
8 9 12
10 11 14
8 10 13
10 12 15
8 10 13
9 11 14
7 9 12
8 9 12
9 12 15
8 10 13
9 11 14
8 10 13
8 10 13
10 12 15
9 11 13
9 10 13
8 10 13
7 9 12
8 9 12
9 11 14
8 10 13
10 12 15
9 11 13
9 11 14
8 10 13
8 10 13
9 11 14
8 10 13
8 10 12
9 11 14
7 9 12
8 10 13
9 11 13
7 9 11
8 10 13
7 9 11
9 10 13
8 10 12
6 8 10
14 19 25
14 19 25
15 19 25
14 19 25
14 19 25
15 19 25
14 19 25
14 19 25
15 19 25
15 19 25
15 19 25
14 19 25
14 19 25
14 19 25
15 19 25
14 19 25
15 19 25
14 19 25
14 19 25
14 19 25
14 19 25
14 19 25
15 19 25
14 19 25
14 19 25
14 19 25
15 19 25
15 19 25
14 19 25
14 19 25
14 19 25
14 18 24
14 19 25
14 19 25
14 19 25
15 19 25
14 19 25
14 19 25
14 19 25
14 19 25
14 19 25
14 19 25
15 19 25
14 19 25
14 19 25
15 19 25
14 19 25
14 19 25
14 19 25
15 19 25
14 19 25
14 19 25
14 19 25
14 19 25
14 19 25
14 19 25
14 19 25
15 19 25
17 21 27
40 47 57
51 59 71
55 63 76
79 89 106
88 100 117
117 132 154
113 128 150
141 158 184
143 160 186
153 172 200
172 192 223
190 213 246
195 219 253
197 221 255
197 221 255
197 221 255
197 221 255
197 221 255
197 220 255
197 220 255
197 220 255
197 220 255
197 220 255
197 220 255
197 220 255
197 220 255
197 220 255
197 220 255
197 220 255
197 220 255
197 220 255
197 220 255
197 220 255
197 220 255
197 220 255
197 220 255
197 220 255
197 220 255
197 220 255
197 220 255
197 220 255
197 220 255
197 220 255
197 220 255
197 220 255
197 220 255
197 220 255
197 220 255
197 220 255
196 220 255
196 220 255
196 220 255
196 220 255
196 220 255
196 220 255
196 220 255
196 220 255
196 220 255
196 220 255
196 220 255
196 220 255
196 220 255
196 220 255
196 220 255
196 220 255
196 220 255
196 220 255
196 220 255
196 220 255
196 220 255
196 220 255
196 220 255
196 220 255
196 220 255
196 220 255
196 220 255
196 220 255
196 220 255
196 220 255
196 220 255
196 220 255
196 220 255
196 220 255
196 220 255
196 220 255
196 220 255
196 220 255
196 220 255
196 220 255
196 220 255
196 220 255
196 220 255
196 220 255
197 220 255
197 220 255
197 220 255
197 220 255
197 220 255
197 220 255
197 220 255
197 220 255
197 220 255
197 220 255
197 220 255
197 220 255
197 220 255
197 220 255
197 220 255
197 220 255
197 220 255
197 220 255
197 220 255
197 220 255
197 220 255
197 220 255
197 220 255
197 220 255
197 220 255
197 220 255
197 220 255
197 220 255
197 220 255
197 220 255
197 220 255
197 221 255
197 221 255
197 221 255
197 221 255
197 221 255
197 221 255
197 221 255
190 213 246
181 202 235
166 186 216
133 150 175
128 144 168
111 126 147
106 120 140
82 93 110
88 100 117
58 67 80
42 49 60
31 37 46
20 25 32
14 19 25
15 19 25
15 19 25
15 19 25
15 19 25
14 19 25
15 19 25
15 19 25
15 19 25
14 19 25
14 19 25
15 19 25
15 19 25
14 19 25
14 19 25
15 19 25
14 19 25
14 19 25
15 19 25
14 19 25
14 18 25
14 19 25
14 19 25
15 19 25
14 19 25
14 19 25
14 19 25
14 19 25
14 19 25
15 19 25
15 19 25
14 19 25
15 19 25
15 19 25
15 19 25
15 19 25
14 19 25
14 19 25
14 19 25
14 19 25
15 19 25
14 19 25
14 19 25
14 19 25
14 19 25
15 19 25
15 19 25
14 19 25
14 19 25
14 19 25
14 19 25
15 19 25
14 19 25
15 19 25
15 19 25
14 19 25
14 19 25
14 19 25
14 19 25
15 19 25
15 19 25
14 19 25
14 19 25
14 19 25
14 19 25
14 19 25
14 19 25
14 19 25
15 19 25
14 19 25
14 19 25
9 11 15
7 8 10
8 10 12
8 10 13
9 11 15
8 10 13
7 8 11
9 10 13
10 12 15
9 11 14
7 9 12
8 10 13
9 11 14
7 9 12
8 10 12
9 11 14
7 9 11
8 10 13
9 11 14
9 11 13
9 12 15
8 10 12
8 10 13
9 11 13
8 10 13
10 11 14
9 12 15
9 11 14
9 11 14
9 10 13
8 10 12
9 11 14
9 10 13
9 10 13
7 9 11
8 10 13
8 10 13
10 12 15
9 11 14
9 11 14
9 11 14
9 11 14
8 10 13
8 9 12
10 12 15
11 13 16
7 9 12
9 11 13
7 9 11
7 8 10
7 9 11
7 9 11
9 11 14
9 10 13
8 9 12
7 9 12
8 10 13
9 11 15
9 11 13
9 11 14
9 11 14
8 10 13
8 10 13
9 11 14
9 11 14
9 11 15
9 10 13
9 11 13
8 10 13
9 11 14
9 11 15
9 10 13
8 10 13
7 9 11
8 9 11
7 9 11
7 9 11
8 10 12
8 10 13
7 9 11
8 10 12
8 10 13
8 10 13
10 12 15
10 12 15
9 11 14
9 11 14
8 10 13
9 11 15
9 10 13
9 11 15
9 11 14
8 9 12
9 11 14
9 11 14
7 9 11
9 11 14
10 12 15
8 10 12
8 10 13
7 9 12
8 10 12
9 11 14
9 10 13
8 10 13
9 11 14
7 9 11
8 10 13
9 11 14
7 9 11
8 10 13
9 11 14
6 8 10
8 10 13
8 10 13
7 9 11
9 11 14
8 10 13
8 10 13
6 8 10
9 11 14
8 10 13
8 9 12
7 9 11
8 9 12
11 14 18
14 19 25
14 18 25
15 19 25
14 18 25
15 19 25
15 19 25
15 19 25
14 19 25
14 19 25
14 19 25
15 19 25
14 19 25
14 19 25
14 19 25
14 19 25
15 19 25
15 19 25
14 19 25
14 19 25
15 19 25
14 19 25
14 19 25
15 19 25
15 19 25
14 19 25
14 19 25
14 19 25
14 19 25
14 19 25
14 19 25
15 19 25
14 19 25
14 19 25
14 19 25
15 19 25
14 19 25
14 19 25
15 19 25
15 19 25
15 19 25
14 19 25
14 19 25
15 19 25
14 19 25
14 19 25
14 19 25
14 19 25
15 19 25
14 19 25
14 19 25
14 19 25
14 19 25
14 19 25
14 19 25
15 19 25
14 19 25
14 19 25
15 19 25
14 19 25
14 19 25
15 19 25
15 19 25
15 19 25
14 19 25
14 19 25
14 19 25
14 19 25
15 19 25
14 19 25
14 19 25
14 19 25
18 23 30
38 45 55
47 55 67
64 73 87
84 96 113
90 102 120
101 114 133
124 140 163
144 162 189
152 170 198
159 178 207
163 182 212
190 213 246
197 221 255
197 221 255
197 221 255
197 221 255
197 221 255
197 221 255
197 221 255
197 221 255
197 220 255
197 220 255
197 220 255
197 220 255
197 220 255
197 220 255
197 220 255
197 220 255
197 220 255
197 220 255
197 220 255
197 220 255
197 220 255
197 220 255
197 220 255
197 220 255
197 220 255
197 220 255
197 220 255
197 220 255
197 220 255
197 220 255
197 220 255
197 220 255
197 220 255
197 220 255
197 220 255
197 220 255
197 220 255
197 220 255
196 220 255
196 220 255
196 220 255
196 220 255
196 220 255
196 220 255
196 220 255
196 220 255
196 220 255
196 220 255
196 220 255
196 220 255
196 220 255
196 220 255
196 220 255
197 220 255
197 220 255
197 220 255
197 220 255
197 220 255
197 220 255
197 220 255
197 220 255
197 220 255
197 220 255
197 220 255
197 220 255
197 220 255
197 220 255
197 220 255
197 220 255
197 220 255
197 220 255
197 220 255
197 220 255
197 220 255
197 220 255
197 220 255
197 220 255
197 220 255
197 220 255
197 220 255
197 220 255
197 220 255
197 220 255
197 220 255
197 220 255
197 221 255
197 221 255
197 221 255
197 221 255
197 221 255
197 221 255
197 221 255
197 221 255
197 221 255
188 211 244
177 198 230
146 164 191
141 158 184
112 126 147
95 108 126
86 97 115
79 89 106
49 57 69
37 43 53
35 41 50
24 29 37
15 19 25
14 19 25
15 19 25
15 19 25
15 19 25
14 19 25
14 19 25
14 19 25
15 19 25
14 19 25
15 19 25
14 19 25
14 19 25
14 19 25
15 19 25
15 19 25
15 19 25
14 19 25
15 19 25
15 19 25
15 19 25
14 19 25
14 19 25
14 19 25
15 19 25
14 19 25
15 19 25
14 19 25
14 19 25
15 19 25
14 19 25
15 19 25
14 19 25
15 19 25
14 19 25
14 19 25
14 19 25
15 19 25
14 19 25
14 19 25
15 19 25
14 19 25
14 19 25
14 19 25
14 19 25
14 19 25
15 19 25
14 18 25
14 19 25
14 19 25
15 19 25
14 19 25
14 19 25
14 19 25
14 19 25
14 19 25
14 19 25
14 19 25
14 19 25
15 19 25
14 19 25
15 19 25
15 19 25
14 19 25
15 19 25
14 19 25
15 19 25
14 19 25
14 19 25
14 19 25
14 19 25
14 19 25
14 19 25
14 19 25
14 18 25
14 19 25
14 19 25
14 19 25
15 19 25
14 19 25
15 19 25
14 19 25
14 19 25
14 18 25
12 16 21
8 10 13
7 9 12
8 10 12
9 10 13
8 10 13
7 9 11
6 7 10
9 11 14
9 10 13
9 11 14
8 10 13
7 9 11
7 9 11
8 10 13
8 10 12
8 9 12
8 10 12
8 9 12
9 10 13
8 10 12
10 12 15
9 11 13
9 12 15
8 10 13
9 11 14
9 11 14
8 10 13
8 10 13
7 9 11
9 10 13
8 10 13
8 10 12
7 9 11
9 11 14
8 10 13
8 9 12
8 10 12
8 10 13
7 9 11
11 13 16
9 10 13
8 10 12
9 11 13
7 9 11
10 12 15
9 11 14
9 11 13
7 9 11
8 9 12
8 10 13
9 11 14
7 9 11
7 9 11
8 10 12
8 9 12
9 11 14
8 10 13
7 8 11
8 10 13
9 11 14
9 11 14
9 11 13
9 11 14
8 10 13
8 10 13
9 11 14
7 9 11
8 10 13
8 10 13
8 9 12
9 10 13
9 11 14
9 11 14
9 11 14
9 11 14
9 11 14
10 12 15
9 11 14
9 10 13
9 11 14
8 10 13
9 11 14
8 10 13
6 8 10
8 10 12
7 9 11
7 9 12
9 11 14
7 9 12
10 12 15
10 12 15
8 10 13
8 9 12
8 10 12
9 11 14
7 9 11
8 9 12
8 10 12
8 10 12
9 10 13
8 10 13
8 10 12
9 10 13
8 10 13
8 10 12
7 9 11
10 12 16
9 10 13
7 9 11
7 9 11
8 10 13
8 10 13
8 9 12
8 10 13
8 9 12
8 10 12
6 7 9
9 11 13
8 10 12
8 9 12
9 11 13
8 10 13
8 10 13
9 11 13
12 15 20
14 19 25
14 18 25
14 19 25
14 19 25
14 19 25
14 19 25
15 19 25
14 18 25
14 19 25
14 19 25
14 19 25
14 19 25
14 18 25
14 19 25
14 18 25
14 19 25
14 19 25
15 19 25
15 19 25
14 19 25
15 19 25
15 19 25
14 19 25
14 19 25
14 19 25
14 19 25
14 18 25
15 19 25
15 19 25
14 19 25
15 19 25
14 19 25
15 19 25
15 19 25
14 18 25
14 19 25
14 19 25
14 19 25
14 19 25
14 19 25
15 19 25
14 19 25
14 19 25
14 19 25
14 18 25
14 19 25
14 19 25
14 19 25
14 19 25
14 19 25
15 19 25
14 19 25
14 19 25
14 19 25
15 19 25
15 19 25
14 19 25
15 19 25
14 19 25
14 19 25
14 19 25
14 19 25
15 19 25
14 19 25
15 19 25
15 19 25
14 19 25
14 19 25
14 19 25
14 19 25
14 19 25
15 19 25
14 19 25
14 19 25
14 19 25
14 19 25
14 19 25
15 19 25
15 19 25
15 19 25
14 19 25
15 19 25
14 18 25
14 19 25
18 23 30
34 41 50
45 53 64
66 75 90
69 79 94
110 124 145
104 118 138
111 126 147
157 176 205
172 192 223
164 184 214
186 209 242
197 221 255
197 221 255
197 221 255
197 221 255
197 221 255
197 221 255
197 221 255
197 221 255
197 221 255
197 221 255
197 220 255
197 220 255
197 220 255
197 220 255
197 220 255
197 220 255
197 220 255
197 220 255
197 220 255
197 220 255
197 220 255
197 220 255
197 220 255
197 220 255
197 220 255
197 220 255
197 220 255
197 220 255
197 220 255
197 220 255
197 220 255
197 220 255
197 220 255
197 220 255
197 220 255
197 220 255
197 220 255
197 220 255
197 220 255
197 220 255
197 220 255
197 220 255
197 220 255
197 220 255
197 220 255
197 220 255
197 220 255
197 220 255
197 220 255
197 220 255
197 220 255
197 220 255
197 220 255
197 220 255
197 220 255
197 220 255
197 220 255
197 220 255
197 220 255
197 221 255
197 221 255
197 221 255
197 221 255
197 221 255
197 221 255
197 221 255
197 221 255
197 221 255
197 221 255
196 219 253
186 209 242
177 198 230
148 166 193
139 156 182
126 142 166
100 114 133
100 114 133
68 77 92
61 69 83
44 51 62
25 31 39
20 25 32
14 19 25
14 19 25
15 19 25
15 19 25
14 19 25
14 19 25
15 19 25
14 19 25
15 19 25
14 19 25
14 18 25
15 19 25
14 19 25
14 19 25
15 19 25
14 19 25
14 19 25
14 19 25
15 19 25
14 18 25
14 19 25
15 19 25
14 19 25
14 18 25
14 19 25
14 19 25
14 19 25
15 19 25
15 19 25
14 18 25
14 19 25
14 19 25
15 19 25
14 19 25
14 19 25
14 19 25
14 18 25
14 19 25
14 19 25
14 19 25
15 19 25
14 18 25
15 19 25
14 19 25
15 19 25
14 19 25
15 19 25
14 19 25
14 19 25
14 19 25
15 19 25
14 19 25
14 19 25
15 19 25
14 19 25
15 19 25
14 19 25
14 19 25
14 19 25
15 19 25
14 19 25
14 18 25
14 19 25
14 19 25
14 19 25
14 19 25
14 19 25
15 19 25
14 19 25
15 19 25
14 19 25
15 19 25
15 19 25
14 18 25
14 18 25
15 19 25
14 19 25
14 19 25
14 19 25
15 19 25
15 19 25
15 19 25
14 19 25
14 18 25
15 19 25
14 19 25
14 19 25
14 19 25
14 19 25
14 18 25
15 19 25
14 19 25
14 19 25
14 19 25
15 19 25
14 18 25
14 17 23
7 9 11
8 10 13
8 10 12
7 9 12
7 9 11
8 9 12
7 9 11
8 9 12
9 11 14
8 10 12
8 10 13
7 9 11
8 10 12
9 11 13
9 11 14
7 9 11
9 11 14
8 10 13
8 10 12
9 11 14
9 11 14
9 11 14
8 10 12
8 10 13
9 11 14
8 10 12
8 10 13
9 11 14
9 11 13
8 10 12
9 11 14
9 10 13
8 10 13
10 12 15
9 11 14
7 8 10
7 9 12
9 11 14
9 11 14
8 10 12
8 10 13
10 12 15
9 11 14
8 10 12
8 9 12
7 9 11
7 9 11
9 11 13
7 9 11
9 11 15
8 10 12
9 11 13
9 11 13
8 10 13
10 12 15
8 10 12
8 10 12
8 10 13
8 9 12
9 11 13
9 10 13
9 10 13
9 11 14
8 10 13
8 10 13
8 10 12
8 10 12
8 10 13
9 11 15
9 10 13
9 11 14
9 10 13
9 11 13
8 10 13
10 12 16
9 11 14
10 12 15
9 11 13
9 10 13
9 11 14
7 9 12
8 9 12
8 10 13
9 11 15
9 11 13
9 11 14
7 9 11
10 12 14
8 10 12
8 10 13
8 9 12
9 11 13
9 11 14
8 9 12
8 10 13
7 8 10
9 11 14
9 10 13
7 9 11
8 10 13
7 9 11
7 9 12
7 9 12
7 9 11
7 9 11
7 8 10
9 12 15
8 10 13
9 11 14
9 11 13
7 8 10
7 9 11
8 9 12
8 10 12
8 10 13
8 10 13
10 11 14
8 10 12
8 9 12
7 8 11
7 8 11
9 11 13
7 9 12
9 10 13
14 18 24
14 19 25
15 19 25
14 18 25
15 19 25
14 19 25
15 19 25
14 18 25
14 19 25
14 19 25
14 19 25
14 19 25
14 18 25
14 18 25
14 19 25
14 19 25
14 18 25
14 19 25
14 18 25
14 18 25
14 19 25
14 19 25
14 18 25
14 19 25
14 19 25
14 19 25
14 19 25
14 18 25
14 19 25
14 19 25
15 19 25
14 19 25
15 19 25
14 19 25
14 19 25
14 18 25
14 19 25
14 19 25
14 19 25
14 19 25
14 19 25
14 19 25
14 19 25
15 19 25
14 19 25
15 19 25
14 19 25
14 19 25
14 19 25
15 19 25
15 19 25
14 19 25
14 19 25
14 19 25
15 19 25
14 19 25
14 19 25
15 19 25
14 19 25
14 19 25
15 19 25
14 19 25
15 19 25
15 19 25
14 19 25
14 19 25
15 19 25
14 19 25
14 19 25
14 18 25
14 19 25
14 19 25
15 19 25
15 19 25
14 19 25
14 19 25
14 19 25
15 19 25
14 19 25
14 19 25
15 19 25
14 19 25
14 19 25
15 19 25
14 19 25
15 19 25
14 19 25
14 19 25
14 19 25
14 19 25
15 19 25
14 19 25
15 19 25
14 19 25
15 19 25
14 19 25
14 19 25
15 19 25
33 39 48
53 61 73
66 75 90
91 104 122
97 110 129
93 106 124
113 128 150
157 176 205
157 176 205
179 200 232
183 204 237
196 219 253
197 221 255
197 221 255
197 221 255
197 221 255
197 221 255
197 221 255
197 221 255
197 221 255
197 221 255
197 221 255
197 220 255
197 220 255
197 220 255
197 220 255
197 220 255
197 220 255
197 220 255
197 220 255
197 220 255
197 220 255
197 220 255
197 220 255
197 220 255
197 220 255
197 220 255
197 220 255
197 220 255
197 220 255
197 220 255
197 220 255
197 220 255
197 220 255
197 220 255
197 221 255
197 221 255
197 221 255
197 221 255
197 221 255
197 221 255
197 221 255
197 221 255
197 221 255
197 221 255
197 221 255
197 221 255
186 209 242
168 188 219
159 178 207
141 158 184
123 138 161
101 114 133
112 126 147
86 98 115
62 71 85
40 47 57
35 41 50
18 23 30
14 19 25
14 19 25
15 19 25
14 19 25
14 19 25
14 19 25
15 19 25
14 19 25
14 19 25
14 19 25
14 19 25
15 19 25
14 19 25
14 18 25
14 19 25
14 19 25
14 19 25
15 19 25
14 19 25
14 19 25
14 19 25
15 19 25
14 19 25
14 19 25
15 19 25
14 19 25
14 19 25
14 19 25
15 19 25
14 19 25
14 19 25
14 19 25
14 19 25
15 19 25
15 19 25
14 19 25
14 19 25
14 19 25
14 18 25
15 19 25
14 19 25
14 19 25
15 19 25
15 19 25
15 19 25
14 19 25
14 19 25
14 19 25
14 18 25
14 19 25
14 19 25
14 19 25
14 19 25
14 19 25
14 19 25
14 19 25
15 19 25
14 19 25
14 19 25
14 19 25
14 18 25
14 19 25
14 18 25
14 19 25
14 19 25
14 19 25
15 19 25
14 19 25
14 18 25
14 19 25
14 19 25
14 18 25
14 19 25
14 18 25
14 19 25
14 18 25
14 19 25
15 19 25
14 19 25
14 19 25
14 19 25
14 19 25
14 19 25
14 19 25
14 19 25
14 19 25
14 19 25
14 19 25
14 19 25
15 19 25
14 18 25
14 18 25
15 19 25
15 19 25
15 19 25
15 19 25
14 19 25
14 19 25
15 19 25
15 19 25
15 19 25
14 19 25
14 19 25
14 18 25
14 19 25
14 19 25
15 19 25
14 18 25
14 19 25
9 12 15
9 11 14
7 8 11
8 10 12
8 9 12
9 11 13
7 9 11
8 9 12
8 10 12
8 9 12
7 9 11
7 8 10
8 10 13
8 10 12
8 10 13
8 9 12
8 10 12
8 10 13
8 10 12
8 9 12
10 12 15
9 11 14
8 10 13
8 10 13
9 11 14
9 11 13
7 9 11
7 8 10
8 9 12
7 9 12
8 9 12
8 10 13
8 10 13
8 10 13
9 11 14
10 12 15
9 11 14
9 11 13
9 11 13
8 10 13
8 10 12
7 9 11
10 12 15
9 10 13
9 10 13
9 10 13
9 10 13
8 9 12
9 11 13
9 11 14
8 10 13
7 9 11
7 9 12
8 10 13
8 10 12
8 9 11
9 11 14
8 10 12
8 10 13
9 11 14
8 10 13
7 9 11
9 11 13
9 11 14
7 9 11
9 11 14
8 10 13
9 11 14
8 9 12
10 12 15
8 10 13
9 11 14
8 10 12
9 11 14
9 10 13
8 10 13
8 9 12
7 9 11
8 9 12
9 11 15
8 9 12
8 9 12
8 9 12
9 11 14
9 10 13
8 9 12
9 11 14
9 11 14
7 9 11
9 11 14
7 8 11
8 9 12
8 10 13
8 10 13
7 9 11
8 9 12
9 11 14
6 8 10
7 9 11
8 9 12
10 12 15
8 10 13
8 10 13
8 10 12
7 9 12
9 11 14
8 9 12
8 10 13
8 10 13
9 11 14
8 10 13
8 9 12
8 10 13
8 10 12
8 10 12
8 9 12
8 10 13
9 11 13
8 10 12
8 9 12
10 12 15
8 10 12
7 9 11
8 10 13
14 19 25
14 18 25
15 19 25
14 19 25
14 19 25
14 19 25
14 19 25
15 19 25
14 19 25
14 18 25
14 18 25
14 19 25
14 19 25
14 19 25
14 18 25
14 18 25
14 19 25
14 19 25
15 19 25
14 19 25
14 19 25
14 19 25
14 19 25
14 19 25
14 19 25
15 19 25
15 19 25
14 19 25
14 19 25
14 19 25
14 19 25
15 19 25
14 19 25
14 19 25
14 19 25
14 19 25
14 19 25
14 19 25
14 18 25
15 19 25
14 19 25
14 19 25
14 19 25
14 19 25
15 19 25
15 19 25
14 19 25
14 19 25
15 19 25
14 19 25
14 19 25
15 19 25
14 18 25
14 19 25
14 19 25
14 19 25
15 19 25
14 19 25
15 19 25
14 19 25
15 19 25
15 19 25
14 18 25
14 19 25
14 19 25
15 19 25
14 19 25
14 19 25
14 19 25
14 19 25
14 19 25
14 19 25
14 19 25
14 19 25
14 19 25
14 19 25
14 19 25
14 19 25
14 19 25
14 19 25
14 19 25
14 19 25
15 19 25
14 19 25
14 18 25
15 19 25
15 19 25
14 19 25
15 19 25
14 18 25
14 19 25
15 19 25
15 19 25
14 19 25
15 19 25
14 19 25
15 19 25
15 19 25
15 19 25
14 19 25
14 19 25
14 19 25
15 19 25
14 19 25
14 19 25
14 19 25
14 19 25
14 19 25
14 19 25
20 25 32
35 41 50
51 59 71
68 77 92
77 87 103
97 110 129
108 122 143
119 134 156
142 160 186
157 176 205
168 188 219
185 207 239
197 221 255
197 221 255
197 221 255
197 221 255
197 221 255
197 221 255
197 221 255
197 221 255
197 221 255
197 221 255
197 221 255
197 221 255
197 220 255
197 220 255
197 220 255
197 220 255
197 220 255
197 221 255
197 221 255
197 221 255
197 221 255
197 221 255
194 217 251
181 202 235
157 176 205
145 162 189
141 158 184
112 126 147
111 126 147
106 120 140
68 77 92
49 57 69
34 41 50
22 27 34
14 19 25
15 19 25
14 19 25
14 19 25
15 19 25
15 19 25
14 19 25
14 19 25
14 19 25
14 19 25
14 19 25
14 19 25
15 19 25
15 19 25
15 19 25
14 19 25
15 19 25
14 19 25
14 19 25
14 19 25
14 19 25
14 19 25
15 19 25
14 19 25
15 19 25
14 19 25
15 19 25
14 19 25
14 19 25
15 19 25
14 19 25
14 19 25
14 19 25
15 19 25
14 19 25
15 19 25
14 19 25
14 19 25
14 19 25
14 19 25
14 19 25
14 19 25
15 19 25
15 19 25
15 19 25
14 19 25
14 19 25
14 19 25
14 19 25
14 19 25
15 19 25
14 19 25
14 19 25
14 19 25
14 19 25
14 19 25
15 19 25
15 19 25
14 19 25
14 19 25
14 19 25
14 19 25
14 19 25
14 18 25
15 19 25
15 19 25
14 19 25
15 19 25
14 19 25
15 19 25
14 19 25
14 19 25
15 19 25
14 19 25
14 19 25
14 19 25
14 19 25
15 19 25
15 19 25
14 19 25
14 19 25
15 19 25
14 19 25
15 19 25
15 19 25
14 19 25
14 19 25
14 19 25
14 19 25
14 19 25
14 19 25
14 19 25
15 19 25
14 19 25
14 19 25
14 19 25
15 19 25
14 19 25
15 19 25
14 19 25
14 19 25
14 19 25
14 19 25
14 19 25
14 18 25
14 18 25
14 19 25
14 19 25
14 18 25
14 19 25
15 19 25
15 19 25
15 19 25
14 18 24
15 19 25
14 18 25
14 19 25
14 19 25
14 19 25
14 18 25
15 19 25
11 14 19
6 7 9
9 11 14
8 10 13
8 10 12
7 8 10
7 9 11
9 11 14
9 11 14
7 8 11
9 11 13
7 9 12
9 11 13
8 10 13
8 10 13
7 8 11
8 10 13
8 9 12
8 10 13
8 10 13
8 10 12
8 10 13
7 8 11
9 11 14
8 10 13
9 11 13
7 9 11
8 10 13
7 9 11
9 11 14
8 9 12
8 10 12
8 9 11
8 10 13
8 10 13
8 10 12
7 9 12
8 10 12
8 10 12
8 10 12
9 11 14
8 10 12
8 9 12
9 11 14
8 9 12
9 10 13
9 11 13
8 10 13
8 10 13
8 10 12
7 9 11
10 12 15
8 10 13
7 9 11
8 10 12
8 10 13
8 9 12
9 11 13
9 11 14
7 9 11
10 12 15
9 11 14
8 10 13
7 9 11
7 9 12
7 9 11
8 10 13
8 10 13
7 9 11
9 11 14
8 10 12
8 9 12
9 11 14
7 9 12
8 10 12
8 9 12
9 11 14
7 9 11
8 10 13
8 10 13
9 10 13
8 10 12
9 10 13
7 8 11
7 9 11
8 10 12
8 9 12
8 9 12
7 9 11
8 10 13
8 10 13
8 10 13
9 11 14
7 9 11
8 10 13
8 10 12
9 11 14
8 10 12
8 9 12
7 8 11
8 10 12
8 10 13
8 9 12
8 9 12
9 11 13
8 10 13
8 10 12
8 10 13
9 10 13
9 11 14
7 9 11
8 10 13
8 10 13
9 11 14
8 10 13
9 10 13
8 10 13
8 10 13
7 9 11
8 9 12
7 8 10
9 10 13
8 10 12
12 15 20
14 18 25
14 19 25
14 19 25
14 19 25
14 19 25
14 19 25
14 18 25
14 19 25
14 19 25
15 19 25
15 19 25
15 19 25
14 18 25
14 19 25
14 18 25
14 19 25
14 19 25
14 18 24
14 19 25
15 19 25
15 19 25
14 19 25
14 19 25
14 19 25
14 19 25
14 19 25
14 19 25
14 19 25
14 19 25
15 19 25
14 18 24
14 19 25
15 19 25
14 19 25
14 18 25
14 19 25
14 19 25
14 19 25
14 19 25
15 19 25
14 19 25
14 19 25
14 19 25
14 19 25
14 19 25
15 19 25
14 19 25
14 19 25
14 19 25
14 19 25
14 19 25
15 19 25
15 19 25
14 19 25
15 19 25
14 19 25
14 19 25
14 19 25
14 19 25
15 19 25
14 18 25
14 19 25
15 19 25
15 19 25
14 19 25
14 19 25
14 19 25
15 19 25
14 19 25
14 19 25
14 19 25
14 18 25
15 19 25
14 19 25
15 19 25
14 18 25
15 19 25
14 19 25
14 19 25
14 19 25
15 19 25
15 19 25
14 19 25
14 19 25
15 19 25
14 19 25
14 19 25
14 19 25
14 19 25
14 19 25
14 19 25
15 19 25
14 19 25
15 19 25
15 19 25
14 19 25
14 19 25
14 19 25
14 19 25
14 19 25
15 19 25
14 19 25
14 19 25
14 19 25
14 19 25
15 19 25
14 19 25
14 19 25
14 19 25
14 19 25
15 19 25
14 19 25
14 19 25
14 19 25
15 19 25
15 19 25
14 19 25
15 19 25
14 19 25
15 19 25
14 19 25
20 25 32
47 55 67
47 55 67
73 83 99
84 96 113
97 110 129
113 128 150
132 148 173
144 162 189
165 184 214
183 205 237
194 217 251
197 221 255
197 221 255
197 221 255
197 221 255
197 221 255
80 92 108
75 85 101
60 69 83
46 53 64
27 33 41
16 21 27
14 19 25
14 19 25
14 19 25
14 19 25
14 19 25
14 19 25
14 19 25
14 19 25
15 19 25
14 19 25
14 19 25
15 19 25
14 19 25
14 19 25
14 19 25
14 19 25
14 19 25
14 19 25
14 19 25
14 19 25
15 19 25
14 19 25
15 19 25
15 19 25
15 19 25
14 19 25
14 19 25
14 19 25
15 19 25
14 19 25
14 19 25
14 18 25
14 19 25
14 19 25
14 19 25
15 19 25
14 19 25
14 19 25
14 18 25
14 19 25
14 19 25
14 19 25
15 19 25
14 19 25
14 18 25
15 19 25
14 19 25
14 19 25
14 19 25
15 19 25
14 19 25
14 19 25
14 19 25
14 19 25
14 18 25
15 19 25
15 19 25
15 19 25
14 19 25
14 19 25
15 19 25
14 19 25
15 19 25
15 19 25
14 19 25
15 19 25
14 19 25
14 19 25
14 19 25
15 19 25
14 19 25
15 19 25
15 19 25
14 19 25
14 19 25
15 19 25
14 18 25
14 19 25
14 19 25
14 19 25
15 19 25
15 19 25
14 19 25
14 18 25
15 19 25
14 18 25
14 18 25
15 19 25
15 19 25
15 19 25
14 18 25
15 19 25
14 19 25
15 19 25
14 19 25
14 18 25
14 19 25
14 19 25
15 19 25
15 19 25
14 19 25
14 18 25
14 19 25
14 18 25
15 19 25
15 19 25
14 19 25
14 18 25
14 19 25
14 18 25
15 19 25
14 19 25
14 18 25
14 19 25
14 19 25
15 19 25
14 18 25
14 19 25
14 19 25
14 19 25
14 19 25
14 19 25
14 19 25
14 18 25
14 19 25
14 19 25
14 19 25
14 18 24
14 18 25
14 19 25
14 19 25
14 19 25
14 18 24
8 10 13
7 9 11
8 9 12
9 11 14
8 10 12
6 7 10
7 8 10
8 10 13
8 10 12
9 11 14
7 8 10
9 11 13
8 10 13
7 8 10
7 9 12
8 10 12
10 11 14
8 10 12
8 10 13
9 10 13
9 10 13
10 12 15
7 9 11
7 8 11
8 10 13
7 9 11
9 11 14
7 9 11
8 10 13
6 8 10
7 9 11
8 10 13
9 11 14
8 10 13
10 12 15
8 9 12
8 9 12
8 10 13
7 9 11
9 11 13
9 10 13
7 9 12
7 9 11
8 10 12
8 10 13
7 8 11
7 9 11
8 9 12
8 10 12
8 10 13
8 10 12
8 10 12
8 10 13
7 9 11
8 10 12
8 10 12
9 11 14
8 10 12
7 8 11
7 9 11
9 11 14
8 10 12
7 9 12
9 11 14
8 10 12
8 10 12
8 9 12
8 9 12
8 10 12
8 10 13
8 10 12
7 9 11
8 10 13
8 9 12
8 10 13
8 10 12
8 9 12
9 10 13
7 9 12
8 9 12
9 11 14
7 9 11
7 9 11
9 10 13
9 11 13
8 10 12
9 11 14
7 8 11
9 11 14
7 9 11
9 11 14
9 11 14
8 9 12
8 10 12
8 10 12
9 10 13
7 8 10
8 10 12
8 10 13
8 10 12
7 8 11
9 11 13
9 11 14
8 10 13
8 9 12
8 10 12
9 11 14
8 9 12
8 10 13
7 9 11
7 9 11
9 11 14
6 8 10
8 9 12
9 10 13
10 12 16
7 9 11
7 8 10
8 10 13
8 10 13
6 8 10
8 10 12
14 18 24
14 19 25
14 19 25
14 18 25
14 18 24
14 18 25
14 19 25
14 18 25
14 19 25
14 18 25
15 19 25
14 18 25
14 18 25
14 19 25
14 19 25
14 18 24
14 18 25
14 18 25
15 19 25
14 19 25
14 19 25
14 18 25
14 19 25
14 19 25
14 19 25
14 18 25
15 19 25
14 18 25
14 19 25
14 19 25
14 18 25
14 19 25
14 18 25
15 19 25
15 19 25
14 19 25
14 19 25
14 19 25
14 19 25
14 19 25
15 19 25
14 18 25
14 19 25
14 19 25
14 19 25
15 19 25
15 19 25
14 19 25
14 19 25
14 18 25
14 19 25
14 19 25
15 19 25
14 18 25
14 19 25
14 18 25
15 19 25
14 19 25
14 18 25
14 19 25
14 19 25
15 19 25
14 19 25
14 19 25
14 19 25
15 19 25
14 19 25
15 19 25
15 19 25
14 19 25
14 19 25
14 19 25
14 19 25
15 19 25
15 19 25
14 19 25
14 19 25
14 19 25
14 19 25
14 19 25
15 19 25
15 19 25
14 19 25
15 19 25
14 19 25
15 19 25
14 19 25
14 18 25
14 19 25
15 19 25
14 19 25
14 18 25
14 19 25
14 19 25
14 19 25
14 19 25
14 19 25
15 19 25
14 19 25
14 19 25
14 19 25
14 19 25
14 19 25
15 19 25
15 19 25
14 19 25
14 19 25
14 19 25
15 19 25
14 18 25
14 19 25
14 19 25
14 19 25
15 19 25
14 19 25
14 19 25
14 19 25
14 19 25
14 19 25
15 19 25
14 19 25
15 19 25
14 19 25
14 19 25
14 19 25
15 19 25
14 19 25
15 19 25
14 19 25
14 19 25
14 19 25
15 19 25
14 19 25
15 19 25
22 27 34
49 57 69
69 79 94
77 87 103
77 88 103
14 19 25
15 19 25
14 19 25
15 19 25
15 19 25
15 19 25
14 19 25
14 19 25
14 19 25
14 19 25
15 19 25
14 19 25
15 19 25
15 19 25
14 19 25
14 19 25
14 19 25
15 19 25
14 19 25
14 19 25
15 19 25
14 19 25
14 19 25
14 19 25
14 19 25
14 19 25
14 19 25
14 18 25
15 19 25
14 19 25
14 19 25
14 19 25
14 18 25
14 19 25
15 19 25
14 19 25
14 19 25
14 19 25
14 19 25
15 19 25
14 19 25
15 19 25
14 19 25
14 19 25
14 19 25
14 19 25
14 19 25
15 19 25
14 19 25
15 19 25
14 19 25
14 18 25
14 19 25
14 19 25
14 19 25
14 19 25
15 19 25
14 19 25
14 18 25
14 19 25
14 19 25
15 19 25
14 19 25
14 19 25
14 18 25
14 19 25
15 19 25
14 18 25
14 19 25
15 19 25
14 19 25
14 19 25
15 19 25
14 19 25
14 19 25
14 19 25
14 19 25
14 19 25
14 18 25
14 19 25
14 19 25
14 19 25
15 19 25
14 19 25
14 19 25
14 19 25
14 19 25
14 19 25
14 19 25
14 19 25
14 19 25
14 18 25
15 19 25
14 18 25
14 19 25
14 19 25
15 19 25
14 19 25
14 18 25
15 19 25
14 19 25
14 19 25
14 18 25
14 19 25
14 19 25
14 19 25
14 19 25
14 19 25
15 19 25
14 18 25
14 19 25
14 18 25
14 19 25
14 18 25
14 19 25
14 19 25
14 19 25
14 19 25
14 19 25
14 18 25
14 18 25
14 19 25
14 18 24
15 19 25
14 19 25
14 19 25
14 19 25
14 18 25
14 18 25
14 18 25
14 19 25
14 18 25
15 19 25
14 18 25
15 19 25
14 18 25
14 19 25
14 18 24
15 19 25
8 10 13
7 9 11
7 9 11
6 7 9
8 9 12
7 8 11
6 8 10
8 10 13
7 8 10
8 9 12
8 10 13
8 10 13
8 10 13
8 10 13
7 9 12
8 9 12
7 9 11
8 9 12
8 9 12
8 9 12
7 9 12
8 10 13
6 8 10
9 10 13
7 9 11
9 11 14
7 9 11
8 9 12
7 9 11
9 10 13
8 10 12
8 9 12
8 9 12
8 10 12
7 8 11
8 9 12
9 11 14
8 10 13
9 11 13
9 11 14
8 10 13
8 10 13
8 10 12
7 8 11
8 10 13
9 12 15
8 10 13
8 10 13
7 9 11
7 8 11
9 11 13
7 9 11
8 10 12
10 12 15
8 10 13
7 9 12
8 10 13
9 11 14
9 11 14
8 10 13
10 12 15
8 10 12
8 10 13
8 9 12
8 10 12
9 11 14
9 10 13
8 9 12
9 11 14
9 10 13
7 9 11
7 8 11
7 9 11
8 10 12
8 9 12
9 10 13
7 8 11
8 10 12
8 9 12
8 9 12
8 10 13
8 10 12
8 9 12
8 9 12
9 11 14
9 11 14
8 10 13
8 10 12
9 10 13
9 11 13
8 9 12
8 10 13
7 9 11
8 9 12
8 9 12
8 10 13
8 9 12
8 9 12
8 10 12
7 9 11
8 10 12
8 10 12
8 10 12
10 12 15
7 8 11
9 11 14
7 9 11
8 10 13
8 10 13
8 9 12
9 11 14
7 8 10
8 10 12
7 9 12
7 8 11
7 9 11
8 10 12
7 9 11
9 11 13
7 9 12
7 8 10
9 11 14
14 19 25
14 19 25
14 18 24
14 19 25
14 19 25
14 18 25
14 18 25
14 18 25
14 19 25
14 18 24
14 19 25
14 18 25
14 19 25
14 18 24
14 19 25
14 19 25
14 19 25
14 18 25
15 19 25
14 18 25
14 19 25
15 19 25
14 18 24
14 19 25
14 18 25
14 18 25
14 19 25
14 18 25
14 19 25
14 18 25
14 19 25
14 19 25
14 18 24
14 19 25
15 19 25
14 19 25
15 19 25
14 19 25
14 19 25
15 19 25
14 18 25
14 19 25
14 19 25
14 19 25
15 19 25
14 19 25
14 19 25
14 19 25
14 18 25
15 19 25
15 19 25
14 18 25
14 19 25
14 19 25
14 19 25
14 19 25
15 19 25
14 19 25
14 19 25
14 19 25
15 19 25
14 19 25
14 19 25
14 19 25
14 18 25
14 19 25
14 19 25
15 19 25
14 19 25
15 19 25
14 19 25
15 19 25
14 19 25
14 18 25
14 19 25
14 19 25
14 19 25
15 19 25
14 19 25
14 19 25
14 19 25
14 19 25
14 19 25
14 19 25
14 19 25
14 19 25
14 19 25
14 19 25
14 19 25
14 19 25
14 19 25
14 19 25
14 19 25
14 19 25
14 19 25
15 19 25
14 19 25
14 19 25
15 19 25
14 19 25
15 19 25
14 18 25
14 18 25
15 19 25
14 19 25
14 19 25
14 19 25
15 19 25
15 19 25
15 19 25
14 19 25
14 19 25
15 19 25
14 19 25
14 19 25
15 19 25
14 19 25
14 19 25
14 19 25
14 19 25
14 19 25
14 19 25
14 19 25
14 18 25
14 19 25
14 19 25
14 19 25
14 19 25
15 19 25
14 19 25
14 19 25
14 19 25
14 19 25
15 19 25
14 19 25
14 19 25
14 19 25
14 19 25
15 19 25
14 19 25
15 19 25
15 19 25
14 19 25
14 19 25
15 19 25
14 19 25
14 19 25
15 19 25
14 19 25
14 19 25
15 19 25
14 19 25
14 19 25
15 19 25
14 19 25
14 19 25
14 19 25
14 19 25
14 19 25
14 19 25
14 19 25
14 19 25
14 19 25
14 19 25
14 19 25
14 19 25
14 19 25
14 19 25
14 19 25
14 19 25
14 18 25
15 19 25
14 19 25
14 19 25
14 19 25
14 19 25
15 19 25
14 19 25
14 19 25
14 19 25
14 19 25
14 19 25
15 19 25
15 19 25
14 19 25
14 19 25
14 19 25
15 19 25
14 19 25
14 19 25
15 19 25
14 19 25
14 18 25
15 19 25
14 19 25
14 19 25
15 19 25
14 19 25
14 19 25
14 19 25
14 19 25
14 18 25
14 19 25
14 19 25
15 19 25
14 19 25
14 19 25
15 19 25
14 19 25
15 19 25
14 19 25
15 19 25
14 19 25
14 19 25
14 18 25
15 19 25
15 19 25
14 19 25
14 19 25
14 19 25
14 19 25
14 18 25
14 19 25
14 19 25
15 19 25
14 18 25
15 19 25
14 18 25
14 19 25
14 19 25
15 19 25
14 19 25
14 19 25
15 19 25
15 19 25
14 19 25
14 19 25
14 18 25
14 19 25
14 19 25
14 19 25
14 18 25
14 19 25
14 19 25
14 19 25
14 19 25
15 19 25
14 19 25
14 19 25
15 19 25
14 19 25
14 18 25
14 19 25
14 18 25
14 19 25
14 18 25
14 19 25
14 19 25
14 19 25
14 18 25
14 18 25
14 19 25
14 18 25
14 19 25
14 18 25
15 19 25
14 19 25
14 18 25
14 18 25
14 19 25
15 19 25
14 18 24
14 18 25
14 18 25
14 18 25
14 18 25
14 18 25
14 18 25
12 16 21
8 9 12
9 11 13
8 10 13
8 9 12
8 10 12
8 10 13
7 8 11
8 10 12
8 9 12
7 8 10
7 8 11
7 8 10
9 11 14
7 9 11
7 9 11
9 10 13
9 11 13
7 8 10
7 9 11
8 9 11
7 8 10
8 10 12
8 10 13
7 8 10
9 11 14
9 11 13
7 9 11
7 8 11
8 10 12
8 9 12
8 10 13
7 9 11
7 8 11
8 9 12
7 9 11
7 9 12
9 11 13
8 10 12
8 10 12
8 9 12
9 11 14
8 9 12
7 8 11
8 9 12
8 10 13
8 10 13
8 10 12
7 9 11
9 11 13
9 11 14
7 9 11
8 10 13
9 11 14
7 9 12
7 8 10
7 9 11
8 10 13
9 10 13
7 8 11
8 10 12
8 10 13
7 9 11
7 9 11
8 10 12
7 8 10
8 10 13
7 9 11
8 10 13
9 11 13
7 8 11
7 8 11
9 10 13
7 9 11
8 10 13
7 8 11
9 11 13
7 9 11
8 10 13
8 9 12
9 11 13
7 9 11
8 10 13
7 9 11
6 7 9
8 9 12
8 10 12
7 8 11
8 10 13
7 9 11
8 10 13
7 9 11
9 10 13
8 9 12
7 9 12
8 10 12
8 9 12
7 8 11
9 11 13
8 10 13
7 9 12
9 11 13
8 10 12
6 8 10
9 10 13
8 10 12
9 11 13
9 10 13
8 10 13
7 9 11
8 10 13
9 10 13
8 10 13
7 9 12
9 11 13
7 9 11
7 9 11
8 9 12
7 8 11
8 10 12
6 8 10
11 14 19
14 19 25
14 18 25
14 18 25
15 19 25
14 18 24
14 19 25
14 19 25
14 19 25
14 18 25
14 18 25
14 19 25
14 19 25
14 18 25
14 18 25
15 19 25
14 19 25
14 18 25
14 19 25
15 19 25
14 19 25
15 19 25
14 18 25
15 19 25
14 19 25
14 19 25
14 18 25
14 18 25
14 18 25
14 18 25
14 19 25
15 19 25
14 19 25
14 18 25
14 18 25
15 19 25
14 19 25
14 19 25
14 19 25
15 19 25
14 19 25
14 18 25
14 19 25
14 19 25
14 18 25
14 19 25
15 19 25
15 19 25
14 19 25
15 19 25
14 18 25
14 19 25
14 19 25
14 19 25
14 19 25
14 19 25
14 19 25
14 19 25
15 19 25
14 19 25
15 19 25
14 19 25
14 19 25
14 19 25
15 19 25
14 19 25
14 19 25
14 19 25
15 19 25
15 19 25
14 18 25
15 19 25
14 19 25
14 18 25
14 19 25
15 19 25
14 18 25
14 19 25
15 19 25
14 19 25
14 19 25
14 18 25
15 19 25
14 19 25
14 19 25
15 19 25
14 19 25
14 19 25
14 18 25
14 18 25
15 19 25
14 19 25
14 19 25
14 19 25
14 19 25
14 19 25
14 19 25
14 19 25
14 19 25
14 19 25
14 18 25
14 18 25
15 19 25
14 19 25
14 19 25
14 19 25
15 19 25
14 19 25
14 19 25
15 19 25
15 19 25
14 19 25
15 19 25
15 19 25
14 19 25
15 19 25
14 19 25
14 19 25
14 19 25
14 19 25
15 19 25
14 19 25
15 19 25
14 19 25
14 19 25
14 19 25
15 19 25
14 19 25
15 19 25
14 19 25
14 19 25
15 19 25
15 19 25
14 19 25
14 19 25
14 19 25
14 19 25
15 19 25
15 19 25
14 19 25
15 19 25
14 19 25
15 19 25
14 19 25
14 19 25
15 19 25
14 19 25
14 18 25
14 19 25
14 19 25
14 19 25
14 18 25
15 19 25
15 19 25
14 18 25
14 19 25
15 19 25
15 19 25
15 19 25
15 19 25
15 19 25
15 19 25
15 19 25
15 19 25
15 19 25
14 19 25
14 19 25
15 19 25
14 19 25
14 18 25
14 19 25
15 19 25
14 19 25
14 19 25
14 19 25
14 19 25
14 18 24
14 18 25
14 19 25
15 19 25
15 19 25
14 19 25
14 19 25
14 18 25
14 19 25
14 18 25
15 19 25
15 19 25
15 19 25
14 19 25
15 19 25
14 19 25
15 19 25
15 19 25
14 19 25
14 19 25
15 19 25
14 19 25
14 19 25
15 19 25
14 18 25
14 19 25
14 18 25
14 19 25
14 19 25
14 18 25
15 19 25
15 19 25
14 19 25
14 19 25
14 19 25
14 18 25
14 18 25
14 19 25
15 19 25
14 19 25
14 19 25
14 18 25
14 19 25
14 19 25
14 19 25
14 19 25
14 18 25
14 19 25
14 19 25
14 18 25
14 19 25
14 19 25
14 19 25
14 19 25
14 19 25
15 19 25
14 19 25
14 19 25
14 19 25
14 19 25
14 18 25
15 19 25
14 19 25
15 19 25
14 18 25
14 19 25
15 19 25
14 19 25
14 19 25
14 19 25
14 19 25
14 19 25
14 18 24
14 19 25
14 18 25
14 19 25
14 19 25
14 19 25
14 19 25
14 18 25
15 19 25
15 19 25
14 19 25
14 18 25
14 19 25
14 18 25
15 19 25
14 18 25
14 18 25
14 18 25
15 19 25
14 18 25
14 18 25
14 18 25
14 18 25
14 18 25
14 19 25
14 18 24
14 18 25
14 19 25
14 18 25
14 18 25
14 18 25
14 18 25
7 8 11
8 9 11
9 10 13
8 9 12
8 10 12
7 9 11
7 9 11
7 8 11
7 8 10
8 9 12
8 10 13
8 10 12
5 7 8
10 12 15
7 9 11
7 9 11
9 10 13
8 10 12
7 8 10
8 10 12
8 10 12
8 9 12
8 9 12
7 8 11
9 11 14
8 10 13
8 10 13
7 9 11
8 10 12
8 10 12
7 8 11
7 9 11
7 9 11
8 9 12
6 7 9
7 8 11
8 10 12
7 8 10
10 12 15
8 9 12
8 9 12
7 8 11
8 10 12
8 9 12
9 12 15
8 10 12
7 9 12
7 9 11
7 9 11
9 11 14
7 9 11
8 10 12
7 9 11
8 10 13
9 11 14
7 8 11
8 9 11
8 10 12
8 9 12
8 9 12
9 10 13
8 10 12
9 11 14
8 9 12
8 10 12
8 10 12
7 9 12
8 10 12
9 11 14
8 10 12
9 11 13
7 9 11
8 10 13
9 10 13
8 9 11
8 10 12
8 10 12
8 10 13
7 8 10
8 9 12
8 10 13
9 11 13
8 9 12
7 9 12
7 8 11
8 10 13
7 9 12
7 9 11
8 9 12
8 9 12
6 7 9
7 9 12
10 12 15
8 10 12
9 10 13
8 10 12
8 10 12
7 8 11
7 8 10
8 10 13
7 9 11
8 10 12
7 8 11
8 10 13
9 10 13
7 8 10
7 8 11
7 9 11
7 8 10
9 11 13
7 9 11
9 10 13
7 8 11
7 9 11
7 9 11
7 9 11
6 8 10
8 10 13
8 10 13
7 8 11
13 18 24
14 19 25
14 18 24
14 18 24
14 18 25
14 19 25
14 18 24
14 18 25
14 18 24
14 18 25
14 19 25
14 18 24
14 19 25
14 19 25
14 18 25
14 19 25
14 18 25
14 18 25
14 19 25
14 18 25
14 19 25
14 18 25
14 18 24
14 18 25
14 18 25
14 18 25
14 19 25
14 18 25
14 18 25
14 19 25
14 18 25
14 19 25
14 18 24
14 19 25
14 18 25
14 18 25
14 19 25
14 19 25
15 19 25
15 19 25
14 18 25
14 18 25
14 18 24
14 19 25
14 19 25
15 19 25
14 19 25
14 19 25
14 19 25
14 19 25
14 19 25
14 19 25
14 19 25
15 19 25
14 18 25
14 19 25
14 19 25
15 19 25
14 19 25
14 19 25
15 19 25
14 18 25
14 18 25
14 19 25
14 19 25
14 18 25
14 18 25
14 18 25
14 18 25
14 19 25
14 19 25
14 19 25
14 19 25
15 19 25
15 19 25
14 19 25
14 19 25
14 19 25
14 18 25
14 19 25
15 19 25
15 19 25
14 19 25
15 19 25
14 19 25
14 19 25
14 18 25
14 19 25
15 19 25
14 19 25
14 19 25
15 19 25
15 19 25
15 19 25
14 19 25
14 19 25
14 19 25
14 19 25
14 19 25
14 19 25
14 19 25
14 19 25
14 19 25
14 19 25
14 19 25
14 19 25
14 19 25
14 19 25
14 19 25
14 19 25
15 19 25
14 19 25
14 19 25
14 19 25
14 19 25
14 19 25
14 19 25
14 19 25
14 19 25
14 19 25
14 19 25
15 19 25
15 19 25
14 19 25
15 19 25
14 19 25
15 19 25
15 19 25
14 19 25
14 19 25
14 19 25
14 19 25
14 19 25
15 19 25
14 19 25
15 19 25
14 19 25
14 19 25
15 19 25
14 19 25
15 19 25
14 19 25
15 19 25
14 19 25
14 19 25
15 19 25
14 19 25
15 19 25
15 19 25
14 19 25
14 19 25
14 19 25
14 19 25
14 19 25
14 19 25
14 19 25
14 19 25
15 19 25
15 19 25
14 19 25
15 19 25
14 18 25
15 19 25
14 19 25
14 19 25
14 19 25
15 19 25
14 19 25
14 19 25
14 19 25
14 19 25
14 18 25
14 19 25
14 19 25
15 19 25
14 19 25
14 19 25
14 18 25
15 19 25
15 19 25
15 19 25
14 19 25
14 19 25
14 19 25
14 19 25
14 19 25
15 19 25
14 19 25
15 19 25
15 19 25
14 19 25
14 19 25
14 18 25
15 19 25
14 18 25
14 19 25
15 19 25
14 19 25
14 19 25
14 18 25
14 18 25
14 19 25
14 19 25
14 19 25
14 19 25
15 19 25
14 19 25
14 18 25
14 19 25
14 18 25
14 19 25
14 19 25
14 19 25
14 19 25
14 19 25
15 19 25
14 19 25
14 19 25
14 19 25
14 19 25
14 19 25
14 19 25
14 19 25
15 19 25
14 19 25
14 19 25
14 19 25
14 18 25
14 19 25
14 18 25
14 18 25
14 19 25
14 19 25
15 19 25
14 19 25
14 18 25
14 18 25
14 19 25
15 19 25
15 19 25
14 19 25
14 19 25
14 19 25
14 19 25
14 18 25
14 18 25
14 19 25
14 19 25
14 19 25
14 18 25
14 19 25
14 18 25
14 19 25
15 19 25
15 19 25
14 19 25
14 19 25
15 19 25
15 19 25
14 18 25
15 19 25
14 19 25
14 19 25
14 19 25
14 19 25
14 19 25
14 18 25
14 18 25
14 18 24
14 18 24
14 19 25
14 18 25
14 18 25
14 18 25
14 19 25
14 19 25
15 19 25
15 19 25
14 19 25
14 19 25
10 13 17
5 6 8
7 8 11
8 9 12
6 8 10
5 7 9
7 8 11
8 9 12
9 11 13
6 8 10
8 10 13
9 10 13
7 9 11
8 9 12
7 9 11
8 10 13
9 11 14
8 9 12
9 11 15
8 9 12
9 10 13
9 10 13
7 9 12
9 10 13
9 10 13
8 9 12
9 11 14
7 8 11
9 11 14
9 11 13
8 10 13
9 10 13
7 9 12
8 9 12
9 11 14
7 8 11
8 10 13
9 11 13
8 9 12
8 9 12
7 9 11
11 13 16
7 9 11
8 10 12
8 10 13
8 10 12
8 10 12
9 11 13
7 8 10
7 8 11
9 10 13
8 9 12
8 9 12
9 10 13
9 11 14
8 10 12
9 11 13
8 9 12
8 9 12
9 10 13
8 10 13
8 10 12
7 8 10
9 10 13
7 9 11
9 11 14
7 9 11
8 9 12
7 9 11
8 10 12
8 10 13
8 10 13
8 9 12
9 11 13
8 10 12
8 9 12
8 10 12
7 9 11
8 10 13
7 8 10
7 9 11
7 8 11
7 9 11
7 8 10
9 10 13
7 9 12
7 9 11
9 11 14
8 9 12
8 10 13
8 10 13
7 9 11
8 10 12
9 10 13
8 10 13
9 10 13
8 10 12
8 9 12
8 10 12
8 9 12
6 8 10
8 9 12
8 10 12
8 10 13
7 8 10
7 8 11
8 10 13
6 8 10
7 8 10
7 9 11
7 9 11
8 10 12
7 8 11
7 9 11
8 9 12
6 8 10
7 8 10
7 9 11
6 7 9
11 14 19
14 18 24
14 18 25
14 18 24
14 19 25
14 18 24
14 18 25
14 18 25
14 19 25
15 19 25
14 18 25
14 19 25
14 18 25
14 18 24
14 18 25
14 19 25
14 18 25
14 18 24
14 18 25
14 18 25
14 19 25
14 18 24
14 18 24
15 19 25
15 19 25
14 18 24
15 19 25
14 19 25
14 19 25
14 19 25
14 18 25
14 19 25
14 19 25
14 18 24
14 19 25
14 18 25
14 19 25
14 19 25
14 18 25
15 19 25
14 18 25
15 19 25
14 19 25
15 19 25
15 19 25
15 19 25
14 18 25
14 19 25
14 18 25
14 19 25
14 18 25
14 18 25
14 19 25
15 19 25
15 19 25
14 18 25
14 19 25
15 19 25
14 19 25
15 19 25
14 19 25
15 19 25
15 19 25
14 19 25
14 18 25
14 19 25
14 18 25
14 19 25
15 19 25
14 18 25
15 19 25
14 19 25
14 18 25
15 19 25
15 19 25
15 19 25
14 18 24
14 19 25
14 19 25
15 19 25
15 19 25
14 19 25
14 18 25
14 19 25
14 19 25
14 19 25
14 19 25
14 19 25
15 19 25
14 19 25
14 19 25
14 18 25
15 19 25
15 19 25
14 19 25
14 18 25
15 19 25
14 19 25
14 18 25
14 19 25
14 19 25
14 19 25
14 18 24
14 19 25
14 19 25
14 19 25
14 19 25
14 19 25
14 19 25
14 19 25
14 19 25
14 19 25
14 19 25
14 19 25
14 19 25
14 18 25
14 19 25
14 19 25
14 19 25
15 19 25
14 19 25
15 19 25
14 19 25
15 19 25
15 19 25
15 19 25
14 19 25
14 19 25
14 19 25
15 19 25
14 19 25
14 19 25
14 19 25
14 19 25
15 19 25
14 19 25
15 19 25
14 19 25
15 19 25
14 19 25
14 19 25
14 19 25
14 19 25
14 19 25
14 19 25
15 19 25
15 19 25
14 19 25
14 19 25
14 19 25
14 19 25
14 19 25
14 19 25
15 19 25
15 19 25
15 19 25
14 18 25
14 19 25
14 19 25
14 19 25
14 19 25
14 19 25
14 18 25
14 19 25
15 19 25
14 19 25
15 19 25
15 19 25
15 19 25
15 19 25
14 19 25
14 19 25
14 19 25
14 19 25
15 19 25
14 19 25
14 19 25
14 19 25
14 19 25
14 19 25
14 19 25
15 19 25
14 19 25
14 19 25
14 19 25
14 18 25
15 19 25
14 19 25
14 19 25
14 19 25
14 19 25
14 18 25
15 19 25
14 19 25
15 19 25
14 19 25
14 19 25
14 19 25
14 18 25
14 18 25
14 19 25
14 19 25
14 19 25
14 18 25
14 19 25
14 19 25
15 19 25
14 18 25
14 19 25
14 18 25
14 19 25
15 19 25
14 19 25
14 19 25
14 19 25
15 19 25
15 19 25
15 19 25
15 19 25
14 19 25
14 19 25
15 19 25
14 19 25
14 19 25
14 19 25
14 19 25
15 19 25
14 18 25
14 19 25
14 19 25
14 19 25
14 18 25
14 19 25
14 18 25
14 19 25
14 19 25
14 18 25
15 19 25
14 19 25
14 18 24
14 18 25
14 19 25
14 19 25
14 19 25
14 19 25
14 19 25
14 19 25
14 18 25
14 19 25
14 19 25
14 19 25
14 19 25
14 18 25
14 18 24
14 19 25
14 18 24
14 18 25
14 18 24
14 18 25
14 18 25
14 18 25
14 19 25
14 19 25
14 18 25
14 18 25
14 18 24
15 19 25
14 19 25
14 18 25
14 18 25
14 18 24
14 18 24
14 18 25
14 19 25
14 18 25
14 18 24
14 18 24
14 18 24
14 18 24
14 18 24
14 18 25
12 16 21
6 8 10
7 8 10
6 8 10
6 7 9
6 8 10
7 9 11
7 9 11
7 8 10
7 8 10
7 9 11
7 9 11
6 8 10
8 9 12
7 9 11
8 10 13
7 8 10
7 9 11
6 8 10
7 9 11
7 8 10
8 10 12
8 10 13
7 9 11
6 8 10
7 9 11
8 10 12
7 8 11
8 10 13
7 9 11
9 10 13
8 10 12
8 9 11
7 9 11
8 10 13
9 11 14
9 11 14
8 9 12
8 9 12
6 8 10
8 10 12
8 10 12
7 9 11
8 10 12
8 9 12
7 9 12
8 10 13
7 8 10
8 10 13
7 9 12
7 9 11
7 9 11
7 9 11
7 9 11
8 10 13
7 8 10
9 11 14
6 8 10
7 9 11
8 10 13
8 10 13
8 9 12
7 9 11
8 9 12
9 11 14
7 9 12
9 11 14
7 8 10
8 10 13
7 9 11
7 9 11
7 8 10
7 9 11
8 9 12
7 9 11
9 11 14
8 10 12
9 10 13
8 10 12
6 7 9
8 9 12
8 9 12
6 7 9
7 9 11
8 9 12
8 10 12
8 10 12
8 10 13
8 10 12
7 9 11
7 9 11
9 10 13
7 8 10
9 11 14
7 9 11
9 10 13
7 9 11
8 10 13
7 8 11
8 10 12
6 8 10
7 8 11
8 10 13
7 9 11
7 9 12
7 9 11
6 8 10
8 9 12
8 9 11
6 8 10
9 10 13
7 8 10
7 9 11
7 9 11
7 8 10
8 9 12
8 10 12
7 8 11
6 8 10
13 17 23
14 18 24
14 19 25
14 18 25
14 18 24
14 19 25
14 18 25
14 18 25
14 18 25
14 18 25
15 19 25
15 19 25
14 18 24
14 18 25
14 18 25
14 19 25
14 18 25
14 19 25
15 19 25
14 18 25
14 18 25
14 18 24
14 19 25
15 19 25
14 19 25
14 18 25
14 18 25
14 18 25
14 18 24
15 19 25
14 18 25
14 18 25
14 19 25
14 19 25
15 19 25
14 18 25
14 18 24
14 18 25
14 19 25
14 19 25
15 19 25
14 18 25
14 19 25
14 18 25
15 19 25
14 18 24
15 19 25
14 19 25
14 19 25
15 19 25
14 19 25
14 19 25
14 19 25
14 18 25
14 18 25
15 19 25
14 19 25
14 19 25
14 19 25
14 18 25
14 19 25
15 19 25
14 19 25
14 18 24
15 19 25
14 19 25
14 18 25
15 19 25
15 19 25
14 18 25
14 19 25
15 19 25
15 19 25
14 18 25
14 19 25
14 19 25
14 19 25
14 19 25
14 19 25
14 18 25
14 19 25
14 19 25
14 19 25
14 18 25
14 19 25
14 19 25
14 18 25
14 19 25
14 19 25
14 19 25
15 19 25
14 19 25
15 19 25
14 19 25
14 19 25
14 19 25
15 19 25
14 19 25
14 19 25
14 19 25
14 19 25
14 19 25
14 19 25
14 18 25
14 18 25
14 19 25
15 19 25
14 19 25
14 19 25
14 19 25
15 19 25
15 19 25
14 19 25
14 19 25
14 19 25
14 19 25
15 19 25
14 19 25
14 19 25
14 19 25
14 19 25
14 19 25
14 19 25
15 19 25
15 19 25
14 18 25
15 19 25
14 19 25
14 19 25
14 19 25
14 19 25
14 19 25
14 19 25
14 19 25
14 19 25
15 19 25
14 19 25
14 18 25
14 19 25
14 19 25
14 19 25
14 19 25
14 19 25
15 19 25
15 19 25
14 18 25
15 19 25
14 19 25
14 19 25
15 19 25
14 19 25
14 19 25
14 19 25
14 19 25
14 18 25
14 19 25
14 19 25
14 19 25
15 19 25
15 19 25
14 19 25
14 19 25
14 19 25
14 19 25
14 19 25
14 19 25
15 19 25
14 18 25
14 19 25
14 19 25
14 19 25
15 19 25
15 19 25
14 19 25
14 19 25
14 19 25
14 19 25
14 19 25
14 18 25
14 19 25
14 19 25
15 19 25
14 19 25
15 19 25
14 19 25
14 19 25
14 19 25
14 18 25
14 19 25
14 19 25
14 19 25
14 19 25
14 18 25
14 19 25
14 18 25
14 19 25
14 19 25
14 18 25
14 19 25
15 19 25
14 19 25
14 19 25
14 19 25
14 18 25
14 19 25
14 19 25
14 19 25
14 19 25
14 19 25
15 19 25
14 18 25
15 19 25
14 18 25
14 19 25
14 19 25
14 19 25
14 18 25
14 19 25
14 18 25
14 19 25
15 19 25
15 19 25
14 18 25
14 18 25
14 19 25
14 18 25
14 19 25
14 18 25
14 19 25
15 19 25
14 18 25
14 18 25
14 19 25
14 19 25
15 19 25
14 19 25
14 19 25
15 19 25
14 18 25
14 18 25
14 19 25
14 18 25
15 19 25
14 18 25
14 18 25
14 19 25
15 19 25
14 18 25
14 18 25
14 19 25
14 19 25
14 18 25
14 18 25
14 18 25
14 19 25
14 18 25
15 19 25
14 19 25
14 18 25
14 18 25
14 19 25
14 18 24
14 18 24
14 18 25
14 18 25
14 18 25
14 19 25
14 18 25
14 18 24
14 18 25
14 18 25
14 18 25
14 18 24
14 18 24
14 18 25
14 18 25
14 18 24
14 18 25
14 18 24
14 18 24
14 18 24
14 18 25
9 12 16
6 7 9
6 7 9
8 9 12
7 9 11
7 8 10
9 10 13
8 10 12
7 9 11
7 8 10
7 9 11
7 9 11
6 7 9
6 8 10
8 10 13
8 10 12
6 8 10
8 10 13
8 10 12
8 9 12
8 9 12
8 9 12
9 10 13
8 10 13
8 10 12
9 11 14
9 11 13
8 10 13
8 9 12
9 11 14
8 9 12
9 11 14
8 10 12
7 8 10
7 9 11
7 8 11
6 7 9
7 9 11
8 10 12
9 10 13
7 9 11
7 9 11
8 9 12
8 10 12
6 7 9
8 9 12
8 10 12
8 9 12
8 9 12
8 9 12
7 9 11
8 10 13
7 9 11
8 9 12
8 10 13
7 8 10
7 8 10
6 8 10
8 9 11
10 12 15
8 9 12
7 8 10
8 10 12
8 10 13
7 8 11
7 9 11
7 9 11
8 9 12
8 10 13
8 10 13
9 10 13
8 10 13
7 8 10
8 10 12
8 10 12
8 10 12
8 10 13
7 8 10
8 10 12
7 9 11
8 10 12
8 10 13
9 10 13
8 10 13
8 10 12
7 9 11
7 8 10
7 9 11
10 12 15
7 9 11
8 10 13
8 9 12
9 11 13
8 9 12
10 12 15
8 10 12
7 9 11
8 9 12
8 9 12
7 8 10
7 9 11
8 10 12
7 8 11
8 10 13
7 9 11
7 9 11
8 10 12
8 10 13
8 10 12
8 10 13
7 9 11
7 9 11
6 8 10
7 8 11
7 9 11
7 8 11
7 9 11
11 14 18
14 18 24
14 18 25
14 19 25
14 18 25
14 18 24
14 18 24
14 18 25
14 18 25
14 18 25
15 19 25
14 19 25
14 18 25
14 18 24
14 18 24
14 18 25
14 18 25
14 19 25
14 18 25
14 19 25
15 19 25
14 19 25
14 18 24
14 18 25
14 18 25
14 19 25
14 18 24
14 18 25
14 18 25
14 18 25
14 18 25
14 19 25
15 19 25
14 19 25
14 18 25
14 19 25
14 19 25
15 19 25
14 19 25
14 18 25
14 18 25
14 18 25
14 18 25
14 19 25
14 18 25
14 18 25
14 19 25
14 18 25
14 18 24
15 19 25
13 18 24
14 18 25
14 19 25
14 19 25
14 19 25
14 19 25
14 19 25
14 18 25
15 19 25
14 19 25
14 18 25
14 19 25
15 19 25
14 19 25
14 19 25
15 19 25
14 18 24
15 19 25
14 18 25
14 19 25
14 19 25
14 19 25
15 19 25
14 19 25
14 19 25
14 19 25
14 19 25
14 19 25
14 19 25
14 19 25
15 19 25
14 19 25
15 19 25
14 19 25
14 19 25
14 18 25
15 19 25
14 19 25
15 19 25
14 19 25
14 19 25
15 19 25
14 18 25
15 19 25
15 19 25
15 19 25
14 19 25
14 19 25
15 19 25
14 19 25
14 19 25
15 19 25
15 19 25
14 19 25
15 19 25
14 19 25
14 19 25
15 19 25
14 19 25
14 19 25
14 19 25
14 19 25
14 19 25
14 18 25
15 19 25
14 19 25
14 19 25
15 19 25
14 19 25
14 19 25
14 19 25
14 19 25
14 19 25
14 19 25
15 19 25
14 19 25
15 19 25
14 19 25
14 19 25
15 19 25
14 19 25
14 19 25
14 19 25
14 19 25
14 19 25
14 19 25
14 19 25
14 19 25
14 19 25
14 19 25
15 19 25
15 19 25
14 19 25
14 19 25
14 19 25
14 19 25
14 19 25
14 19 25
14 19 25
14 19 25
14 19 25
15 19 25
14 19 25
14 19 25
14 19 25
14 19 25
15 19 25
14 19 25
15 19 25
14 18 25
14 19 25
14 19 25
14 18 25
14 19 25
14 19 25
15 19 25
14 19 25
14 18 25
14 19 25
14 19 25
14 19 25
14 19 25
14 19 25
14 19 25
14 19 25
14 19 25
14 19 25
14 19 25
14 19 25
14 19 25
14 19 25
14 19 25
14 19 25
14 19 25
14 19 25
14 19 25
14 19 25
14 19 25
14 19 25
14 18 25
15 19 25
15 19 25
14 19 25
14 19 25
14 19 25
14 19 25
14 18 25
14 18 25
15 19 25
14 18 25
14 19 25
14 19 25
15 19 25
14 19 25
14 19 25
14 19 25
14 18 25
14 19 25
14 18 25
15 19 25
14 18 25
14 18 25
14 19 25
14 18 25
15 19 25
14 19 25
15 19 25
14 19 25
14 18 25
14 18 25
14 18 25
15 19 25
14 18 25
14 18 25
14 18 25
14 19 25
14 19 25
14 18 25
14 19 25
14 19 25
15 19 25
14 18 25
14 19 25
14 18 25
14 19 25
14 18 25
14 18 24
14 18 25
15 19 25
14 18 25
14 18 25
14 18 25
14 19 25
14 18 25
14 18 25
14 19 25
14 19 25
14 18 24
14 18 25
14 19 25
15 19 25
14 19 25
14 18 25
14 18 25
15 19 25
14 18 25
15 19 25
14 18 25
14 19 25
14 18 25
14 18 24
15 19 25
14 18 24
14 18 25
14 18 25
13 18 24
14 18 24
14 19 25
14 18 24
14 19 25
13 17 23
14 17 23
14 18 25
14 18 24
13 17 24
14 19 25
14 18 25
14 18 24
14 18 24
14 18 24
14 18 25
14 18 24
13 17 24
13 17 22
6 7 9
6 8 10
5 7 8
8 9 12
8 9 12
8 10 12
8 9 12
7 9 11
7 8 10
7 8 11
8 10 12
7 8 10
8 9 12
8 10 12
8 10 12
9 11 13
7 8 10
7 8 10
8 10 12
6 8 10
7 8 10
7 8 10
6 8 10
7 9 12
7 9 12
7 8 10
8 10 12
8 9 12
6 7 9
8 10 13
6 7 9
9 10 13
9 11 13
8 10 12
8 10 13
7 9 12
10 12 15
8 10 13
8 9 12
9 10 13
8 10 12
7 9 11
8 10 13
9 11 13
8 10 12
8 9 12
9 11 14
7 9 11
8 10 13
8 9 12
7 8 10
10 11 14
7 9 11
9 11 14
6 8 10
7 8 10
8 10 12
7 9 11
7 9 11
8 9 12
6 7 10
7 8 10
7 9 11
7 8 10
7 9 12
8 10 12
7 9 12
8 10 12
8 9 12
9 10 13
6 7 9
7 9 11
10 12 15
8 10 12
7 9 11
8 9 12
7 9 11
7 8 10
7 9 11
8 9 12
7 8 10
7 9 11
8 10 13
8 9 12
7 9 11
7 8 11
9 10 13
6 7 9
8 9 12
7 9 11
7 8 10
8 10 13
8 9 12
7 8 10
8 9 12
7 9 11
9 11 14
7 8 11
7 9 11
8 10 13
7 8 10
6 8 10
10 12 15
6 7 9
8 10 12
9 11 13
7 9 11
6 7 10
6 7 9
8 10 13
7 9 11
7 8 10
8 10 12
7 8 10
6 8 10
7 8 10
13 17 22
13 18 24
14 18 25
14 18 25
13 17 23
14 18 25
14 18 24
14 18 24
14 18 24
14 18 24
14 18 24
14 18 24
14 18 25
14 18 24
14 19 25
14 18 24
14 19 25
14 19 25
14 18 25
14 18 25
14 18 25
14 18 25
14 19 25
14 18 24
14 18 25
14 18 25
15 19 25
15 19 25
14 18 25
14 18 24
14 18 25
14 18 24
14 18 25
14 18 25
14 18 25
14 19 25
14 18 25
14 19 25
14 18 25
14 19 25
14 18 25
14 19 25
14 19 25
14 18 25
14 19 25
14 18 25
14 19 25
14 18 25
14 19 25
14 18 25
14 19 25
14 19 25
14 18 24
14 18 25
14 19 25
14 19 25
14 19 25
14 18 25
15 19 25
14 19 25
14 19 25
14 18 25
14 19 25
14 18 25
14 19 25
14 18 24
14 18 25
14 19 25
14 19 25
14 18 25
14 18 25
14 18 25
14 19 25
15 19 25
14 18 25
14 19 25
14 19 25
14 19 25
14 19 25
14 19 25
14 19 25
14 19 25
14 18 25
15 19 25
14 19 25
14 19 25
14 19 25
15 19 25
14 18 25
14 18 25
14 18 25
14 18 25
14 19 25
14 19 25
14 18 24
15 19 25
14 19 25
15 19 25
14 18 25
15 19 25
15 19 25
14 18 25
15 19 25
14 19 25
14 18 25
14 19 25
14 19 25
14 19 25
14 19 25
15 19 25
14 19 25
14 19 25
15 19 25
15 19 25
14 19 25
15 19 25
14 19 25
14 19 25
15 19 25
14 18 25
14 19 25
14 19 25
14 19 25
14 19 25
15 19 25
14 19 25
14 19 25
14 19 25
15 19 25
14 19 25
14 19 25
14 19 25
14 19 25
14 19 25
15 19 25
14 19 25
15 19 25
15 19 25
14 19 25
15 19 25
15 19 25
14 19 25
14 18 25
15 19 25
14 19 25
14 19 25
15 19 25
14 18 25
14 19 25
14 19 25
14 19 25
15 19 25
14 19 25
15 19 25
14 19 25
14 19 25
14 19 25
14 19 25
14 19 25
14 19 25
15 19 25
14 19 25
14 19 25
14 19 25
14 18 25
14 19 25
14 19 25
14 19 25
14 19 25
14 19 25
14 19 25
14 19 25
14 19 25
14 18 25
14 19 25
14 19 25
14 18 25
14 19 25
15 19 25
15 19 25
14 19 25
14 19 25
14 19 25
15 19 25
15 19 25
14 18 25
14 19 25
14 18 25
14 18 25
14 18 25
14 19 25
14 19 25
14 19 25
14 18 25
14 19 25
14 19 25
14 19 25
15 19 25
14 19 25
15 19 25
14 19 25
15 19 25
14 19 25
14 18 25
15 19 25
14 19 25
14 19 25
14 18 25
15 19 25
14 19 25
14 19 25
14 18 25
14 19 25
14 18 25
14 19 25
14 18 25
14 19 25
14 19 25
14 19 25
14 19 25
14 18 25
14 19 25
14 19 25
14 19 25
15 19 25
14 18 24
14 19 25
14 18 25
14 18 25
15 19 25
14 18 25
14 18 25
14 18 24
14 18 24
14 18 25
14 19 25
14 18 25
14 18 25
15 19 25
15 19 25
14 18 25
14 18 24
14 18 24
14 18 25
14 18 25
14 19 25
14 19 25
14 19 25
15 19 25
14 19 25
14 19 25
14 18 24
14 18 24
14 18 24
14 19 25
14 18 24
14 18 25
14 18 24
14 18 25
14 18 25
14 18 24
14 18 25
14 19 25
14 19 25
14 19 25
14 18 24
14 18 24
14 18 24
14 18 25
14 19 25
14 18 24
14 18 24
14 18 24
14 18 25
14 18 24
14 18 24
14 18 25
14 18 24
14 19 25
14 18 25
14 18 24
14 18 24
14 18 24
14 18 25
9 12 15
6 8 10
6 8 10
6 7 9
8 10 12
6 7 9
8 9 12
7 8 11
8 9 12
7 8 11
9 10 13
7 9 11
7 9 11
8 10 13
8 9 11
8 9 12
9 11 14
7 9 11
7 8 11
6 7 9
7 9 11
7 9 11
9 10 13
7 9 11
9 11 14
6 7 9
7 9 11
6 8 10
8 9 12
7 9 12
7 8 10
7 8 11
7 9 11
8 9 12
8 9 12
7 9 11
7 8 10
7 9 11
9 11 13
7 9 11
8 9 12
8 10 12
6 7 9
7 9 11
8 10 13
7 8 11
8 10 13
7 9 11
8 10 13
7 8 11
8 10 12
8 9 12
7 9 11
8 9 12
8 10 12
7 9 11
8 10 12
7 9 11
8 9 12
9 10 13
8 10 12
6 8 10
7 8 11
9 11 14
7 9 11
7 9 11
8 10 12
7 9 11
7 8 10
7 9 11
7 9 11
8 10 13
8 10 12
7 9 11
8 9 11
7 8 10
7 9 11
8 9 12
8 10 13
7 9 11
6 7 9
8 9 12
7 9 11
8 10 13
6 7 9
6 7 9
7 9 11
8 10 12
7 8 10
7 8 11
8 10 13
8 9 12
8 10 12
7 9 12
7 8 10
7 9 11
8 9 12
7 8 10
8 10 13
7 8 10
7 9 11
8 10 12
8 10 13
6 8 10
7 9 11
7 9 11
7 8 10
6 8 10
7 8 10
8 10 12
7 8 10
7 8 11
6 8 10
8 9 12
7 8 11
9 11 15
14 18 25
14 18 24
14 18 24
14 18 24
14 18 24
14 18 24
14 18 24
14 18 24
14 19 25
14 18 24
14 18 24
14 18 25
14 18 24
13 18 24
14 19 25
14 18 24
14 18 24
13 17 24
14 18 24
14 18 24
14 18 25
14 18 25
14 18 25
14 18 25
14 18 24
14 18 25
14 18 24
14 18 25
14 18 25
14 19 25
14 18 25
14 18 25
14 18 25
14 18 24
15 19 25
14 18 25
14 18 24
15 19 25
14 18 24
14 18 25
14 18 25
14 18 25
14 18 24
14 19 25
14 19 25
14 18 25
14 18 25
14 18 24
14 18 25
14 18 25
14 18 24
14 18 25
14 18 24
14 18 25
15 19 25
14 18 24
14 19 25
15 19 25
14 18 25
14 18 24
15 19 25
14 19 25
14 19 25
14 18 25
14 18 25
14 18 25
14 19 25
15 19 25
14 19 25
14 19 25
15 19 25
15 19 25
14 19 25
14 19 25
14 18 25
14 19 25
14 19 25
14 19 25
14 18 25
14 19 25
14 18 25
14 19 25
14 18 25
14 18 25
14 18 25
15 19 25
14 18 25
15 19 25
14 19 25
15 19 25
14 19 25
14 18 25
15 19 25
14 19 25
14 19 25
14 19 25
15 19 25
14 19 25
14 19 25
14 19 25
14 19 25
14 19 25
14 19 25
14 19 25
14 19 25
15 19 25
14 19 25
14 18 25
15 19 25
14 18 25
14 19 25
14 19 25
14 19 25
14 19 25
14 19 25
14 19 25
14 19 25
15 19 25
14 19 25
14 19 25
14 19 25
15 19 25
14 18 25
14 19 25
15 19 25
14 19 25
14 19 25
14 19 25
14 18 25
14 19 25
15 19 25
14 18 25
15 19 25
14 18 25
14 19 25
15 19 25
15 19 25
15 19 25
14 19 25
15 19 25
14 19 25
15 19 25
14 18 25
15 19 25
14 19 25
14 19 25
14 19 25
15 19 25
14 19 25
14 19 25
15 19 25
14 19 25
14 18 25
14 19 25
14 19 25
15 19 25
14 19 25
14 19 25
14 19 25
14 18 25
14 19 25
14 19 25
14 19 25
14 19 25
14 19 25
15 19 25
14 19 25
14 19 25
14 19 25
14 18 25
14 19 25
14 19 25
15 19 25
14 19 25
14 19 25
14 19 25
15 19 25
14 18 25
14 18 25
15 19 25
14 19 25
15 19 25
14 19 25
14 19 25
14 18 25
15 19 25
14 19 25
14 19 25
14 19 25
15 19 25
15 19 25
14 19 25
14 18 25
14 19 25
14 19 25
14 19 25
14 19 25
15 19 25
15 19 25
15 19 25
14 19 25
14 19 25
14 18 25
15 19 25
14 19 25
14 18 25
15 19 25
14 19 25
14 19 25
14 18 24
14 19 25
15 19 25
14 19 25
14 19 25
14 19 25
14 18 25
14 19 25
14 19 25
14 18 25
14 18 24
15 19 25
14 18 25
14 18 25
14 18 25
14 18 25
14 18 25
14 19 25
14 18 25
14 18 24
14 18 25
14 18 25
15 19 25
14 19 25
14 18 25
14 18 25
14 18 24
14 18 24
14 19 25
14 18 25
14 19 25
14 18 25
14 19 25
14 18 24
14 18 25
14 18 24
14 18 25
14 18 25
14 18 24
14 19 25
14 18 25
14 18 25
14 18 25
14 18 25
14 18 24
14 19 25
14 18 25
14 18 25
14 19 25
14 18 24
14 19 25
13 17 24
13 17 23
14 18 25
14 18 24
14 19 25
14 18 25
14 18 24
14 18 25
14 19 25
14 18 24
14 18 25
14 18 24
14 18 25
14 18 24
14 18 24
14 18 24
14 18 24
14 18 24
14 18 24
13 17 23
13 17 23
14 18 25
14 19 25
14 18 24
13 17 22
6 8 10
6 7 9
5 6 7
6 8 10
6 8 10
9 11 13
7 8 10
7 8 10
5 7 9
7 9 11
7 9 11
7 9 11
6 8 10
5 7 9
7 8 11
7 9 11
6 7 9
7 8 11
7 8 11
7 8 10
6 8 10
6 7 9
6 7 9
8 9 12
8 10 13
7 9 11
8 9 12
7 8 11
7 9 11
7 8 10
6 7 9
7 9 11
7 8 10
7 8 10
6 8 10
7 8 10
8 10 12
7 9 11
7 9 11
7 9 11
8 10 13
6 7 9
8 10 12
7 9 11
6 8 10
7 8 11
7 9 11
8 10 12
7 9 11
7 9 11
6 8 10
7 9 11
8 10 12
8 10 12
8 10 12
8 10 12
7 8 11
7 8 11
8 10 12
8 10 13
9 10 13
7 8 10
7 9 11
8 10 12
6 8 10
7 9 11
7 9 11
7 9 12
7 8 10
6 8 10
8 9 12
6 8 10
8 10 13
6 8 10
6 8 10
6 7 10
6 8 10
7 8 10
7 9 12
8 10 13
7 8 10
7 8 10
8 9 12
6 8 10
10 12 14
6 7 9
9 11 13
6 7 9
6 7 9
7 9 11
8 9 12
7 8 10
8 10 12
7 8 11
8 9 12
7 8 11
6 7 9
7 9 11
7 8 10
7 9 11
7 9 11
8 9 12
8 10 12
7 9 11
7 8 10
6 7 9
6 7 9
7 8 10
8 9 11
7 9 11
6 8 10
8 9 12
9 11 13
7 9 11
13 17 23
14 18 24
13 17 23
13 18 24
13 17 23
13 18 24
14 18 24
14 18 24
13 17 23
13 18 24
14 18 24
14 18 24
14 18 24
14 18 24
13 18 24
14 18 24
14 18 24
14 18 24
14 18 24
14 18 24
13 17 23
14 18 25
14 18 25
14 18 24
14 18 25
14 19 25
14 19 25
14 19 25
14 19 25
14 18 24
14 18 24
14 19 25
14 19 25
14 18 25
14 18 25
14 18 25
14 18 24
14 18 25
14 18 25
14 18 25
15 19 25
14 19 25
14 18 24
15 19 25
14 18 24
14 18 24
14 19 25
14 19 25
14 19 25
14 18 25
14 18 25
14 18 25
14 18 25
14 19 25
14 18 24
14 19 25
14 19 25
15 19 25
14 19 25
14 18 25
14 19 25
15 19 25
14 18 25
14 18 25
14 18 25
14 18 25
14 19 25
15 19 25
14 19 25
14 18 25
14 18 25
14 19 25
14 18 25
14 19 25
14 19 25
14 18 25
14 18 25
14 18 25
14 19 25
14 19 25
14 19 25
14 19 25
14 19 25
14 19 25
15 19 25
14 19 25
14 19 25
15 19 25
14 18 25
14 19 25
15 19 25
14 18 25
15 19 25
14 19 25
14 18 25
15 19 25
14 19 25
14 19 25
15 19 25
14 18 25
14 18 25
14 19 25
15 19 25
15 19 25
14 19 25
14 19 25
15 19 25
14 19 25
14 19 25
15 19 25
14 19 25
14 19 25
14 19 25
14 19 25
15 19 25
14 19 25
14 19 25
14 19 25
14 19 25
15 19 25
14 19 25
15 19 25
14 19 25
14 19 25
14 19 25
14 19 25
15 19 25
15 19 25
14 19 25
14 19 25
15 19 25
15 19 25
15 19 25
15 19 25
15 19 25
14 19 25
15 19 25
14 19 25
14 19 25
14 18 25
14 19 25
14 19 25
14 19 25
14 19 25
15 19 25
14 19 25
14 19 25
14 19 25
15 19 25
15 19 25
14 18 25
14 19 25
14 18 25
15 19 25
14 19 25
14 19 25
14 19 25
14 19 25
14 19 25
14 19 25
14 19 25
15 19 25
14 19 25
14 19 25
14 19 25
15 19 25
14 19 25
14 19 25
15 19 25
14 18 25
14 19 25
14 19 25
15 19 25
14 18 25
14 19 25
14 19 25
15 19 25
14 19 25
14 18 25
14 19 25
14 19 25
15 19 25
14 19 25
15 19 25
14 18 25
14 19 25
15 19 25
15 19 25
14 19 25
14 19 25
14 19 25
14 18 25
14 19 25
14 18 25
14 18 25
14 19 25
14 18 25
14 18 25
14 18 25
14 18 25
14 19 25
14 18 24
14 19 25
14 18 25
14 18 25
15 19 25
14 19 25
15 19 25
14 18 25
14 18 25
14 18 25
14 19 25
14 18 25
14 19 25
14 18 25
15 19 25
14 19 25
15 19 25
14 18 24
14 18 25
14 19 25
14 18 25
14 19 25
14 19 25
14 18 24
14 18 25
14 19 25
14 19 25
14 18 25
15 19 25
14 19 25
14 18 25
14 19 25
15 19 25
14 18 25
14 18 24
14 19 25
14 18 24
15 19 25
14 18 24
14 19 25
14 18 25
14 18 24
14 18 24
14 18 24
14 19 25
14 18 25
14 18 25
14 18 25
14 18 25
14 18 25
14 18 25
14 18 24
14 18 24
14 18 25
14 18 24
14 18 25
14 18 25
14 18 24
14 18 24
14 19 25
14 18 25
14 18 25
14 18 24
14 18 24
14 18 24
14 18 24
14 18 25
14 18 24
14 18 24
14 18 24
14 18 24
14 18 25
14 18 24
14 18 24
14 19 25
14 18 24
13 18 24
14 18 24
14 18 25
14 18 24
14 18 25
13 18 24
14 18 25
13 17 23
13 17 23
9 11 15
8 9 12
8 9 12
6 8 10
7 9 11
6 8 10
5 6 8
7 8 11
6 8 10
7 9 11
6 7 9
9 11 13
7 9 11
7 9 12
7 9 11
7 9 11
9 11 13
6 8 10
8 10 12
7 9 11
6 7 9
7 8 10
6 8 10
7 9 11
7 8 10
7 8 11
8 10 12
8 9 12
7 9 11
7 9 11
7 8 10
6 8 10
8 10 12
7 8 10
8 10 12
7 9 11
8 9 12
8 10 12
8 9 11
8 10 13
8 10 12
7 9 11
8 10 12
6 8 10
7 9 11
7 8 11
7 9 11
7 8 10
8 9 12
8 9 12
8 10 13
6 8 10
8 9 12
7 8 10
8 10 12
7 9 11
8 10 13
7 8 10
7 9 11
7 9 11
8 10 12
8 10 13
8 10 12
7 9 11
7 8 11
7 9 11
7 9 11
7 9 11
7 9 12
6 7 8
7 9 11
6 8 10
8 9 12
8 10 12
7 9 11
5 6 8
7 8 11
9 11 14
7 9 11
7 8 11
7 9 11
6 8 10
10 11 14
6 7 9
8 9 12
7 9 11
7 8 10
7 8 11
7 8 10
7 8 11
8 10 13
7 9 11
7 8 11
7 8 11
6 8 10
7 8 11
7 9 11
7 9 11
8 10 13
8 10 12
8 9 11
8 10 12
8 9 12
8 10 12
7 8 10
6 7 9
7 8 10
6 7 9
7 8 10
7 8 11
6 8 10
6 7 9
8 10 13
9 12 16
13 17 24
14 18 24
14 18 24
13 17 23
14 18 24
14 18 24
14 18 24
14 19 25
14 18 24
14 18 24
14 18 24
14 18 24
14 18 24
14 18 24
14 18 24
14 18 25
14 18 24
14 18 24
14 18 24
14 19 25
14 18 24
14 18 24
14 18 24
14 18 25
14 18 24
14 18 24
14 18 25
14 18 24
14 18 25
14 18 25
14 18 25
14 18 25
14 18 25
14 18 25
14 18 24
14 18 24
14 18 24
14 18 25
14 18 25
14 18 25
14 18 25
14 19 25
14 18 24
14 18 25
15 19 25
15 19 25
14 18 24
14 18 24
14 19 25
14 18 24
14 18 25
14 19 25
14 18 24
14 18 25
14 19 25
14 18 25
14 19 25
14 18 24
14 18 25
14 18 25
14 19 25
14 19 25
14 18 25
14 18 24
14 18 25
14 19 25
14 19 25
14 19 25
14 18 25
14 19 25
14 18 25
14 19 25
14 19 25
15 19 25
14 18 24
14 19 25
14 18 25
14 19 25
14 18 25
14 18 25
14 19 25
14 18 25
14 19 25
15 19 25
14 18 25
14 18 24
15 19 25
14 18 25
14 18 25
14 19 25
14 19 25
14 18 25
14 19 25
15 19 25
14 19 25
14 19 25
14 19 25
14 18 25
14 19 25
14 19 25
15 19 25
14 19 25
14 18 25
14 18 25
14 18 25
14 19 25
14 19 25
14 18 25
14 19 25
14 19 25
14 19 25
14 19 25
15 19 25
14 19 25
15 19 25
14 19 25
14 19 25
14 18 25
14 19 25
14 19 25
15 19 25
15 19 25
14 19 25
14 19 25
14 19 25
15 19 25
14 18 25
14 19 25
14 19 25
14 19 25
15 19 25
14 18 25
14 19 25
15 19 25
14 19 25
14 19 25
14 19 25
14 19 25
14 19 25
14 19 25
14 19 25
14 19 25
14 18 25
14 19 25
15 19 25
15 19 25
14 19 25
14 19 25
14 19 25
14 19 25
14 19 25
14 19 25
14 19 25
15 19 25
14 19 25
14 19 25
14 19 25
15 19 25
14 19 25
15 19 25
14 19 25
14 19 25
14 18 25
14 19 25
14 19 25
14 19 25
14 18 25
14 19 25
14 19 25
14 19 25
14 18 25
14 19 25
14 19 25
14 19 25
14 19 25
14 19 25
14 19 25
15 19 25
15 19 25
14 19 25
14 19 25
15 19 25
14 19 25
14 18 25
14 18 25
14 19 25
14 19 25
14 18 25
15 19 25
14 19 25
14 19 25
14 18 25
14 19 25
14 19 25
14 18 25
14 18 25
14 19 25
14 19 25
14 19 25
14 18 25
15 19 25
14 19 25
14 19 25
14 19 25
14 19 25
14 19 25
14 19 25
14 18 25
14 19 25
14 19 25
14 18 25
14 19 25
14 18 25
14 18 25
14 19 25
15 19 25
14 19 25
14 18 25
14 19 25
14 19 25
14 19 25
14 18 25
14 19 25
14 19 25
14 19 25
14 18 25
14 18 25
14 18 25
14 18 25
14 18 25
14 18 25
14 18 25
14 18 25
14 18 25
14 19 25
14 18 25
14 19 25
14 18 25
14 18 25
14 18 25
14 18 24
14 19 25
14 18 25
14 19 25
14 19 25
14 18 24
14 18 24
14 19 25
14 19 25
14 19 25
14 18 24
14 19 25
14 19 25
14 18 24
14 18 24
14 18 25
14 18 24
14 18 24
14 18 25
14 18 24
14 18 25
14 18 24
14 18 25
14 18 24
14 18 25
14 18 24
14 18 24
14 18 24
14 18 24
14 18 24
14 18 25
14 18 25
14 18 24
14 17 23
14 18 25
13 17 23
14 18 25
14 18 24
14 18 24
14 18 24
14 18 24
13 18 24
14 17 23
14 18 24
14 18 23
14 17 23
13 17 23
7 9 11
7 8 10
7 9 11
6 7 9
7 8 10
7 9 11
7 8 10
7 8 10
7 9 11
7 9 11
7 8 10
6 7 9
6 8 10
8 10 13
7 9 11
8 9 12
6 7 10
7 8 11
7 9 11
6 7 9
7 9 11
8 9 12
7 8 11
7 8 10
8 10 12
8 10 13
6 8 10
6 7 9
6 8 10
8 9 12
5 7 9
7 9 11
6 7 9
8 9 12
7 9 11
7 9 11
6 7 9
7 8 10
7 8 11
7 8 10
8 10 12
8 10 12
7 8 10
7 9 11
9 11 13
7 8 11
7 8 10
7 8 10
8 9 12
7 9 11
7 9 11
6 8 10
6 7 9
8 10 12
7 9 11
8 9 12
8 9 12
7 8 11
6 8 10
9 10 13
7 9 11
7 9 11
7 8 11
7 8 10
8 10 12
8 9 12
7 8 11
9 11 14
7 9 12
8 9 12
7 8 11
8 9 12
7 9 11
6 8 10
7 8 10
6 8 10
7 9 11
7 9 11
7 9 11
6 7 9
6 7 9
7 8 10
7 8 10
8 10 12
7 8 10
8 10 12
9 11 14
8 9 12
7 8 10
6 8 10
9 10 13
7 8 10
9 10 13
6 8 10
6 8 10
6 8 10
7 8 11
7 8 10
6 8 10
6 7 9
7 8 10
5 7 8
7 8 10
7 9 11
5 6 8
6 7 9
5 7 8
7 9 11
8 10 12
7 9 11
6 7 9
7 9 11
13 16 22
13 17 23
13 17 23
14 18 24
12 16 22
14 18 24
14 18 24
13 17 24
14 18 24
14 18 24
14 19 25
14 18 24
14 18 24
14 18 24
14 18 24
14 18 24
14 18 25
14 18 24
14 18 24
14 18 25
14 18 25
14 18 25
14 18 24
14 18 24
14 18 25
14 18 25
14 18 24
14 18 24
14 18 25
14 18 24
14 18 25
14 18 24
14 18 25
14 18 24
14 18 24
14 18 25
14 18 24
14 18 25
14 18 25
14 18 24
14 18 25
14 19 25
13 18 24
14 18 25
14 18 25
14 18 24
14 18 25
14 19 25
14 18 25
14 18 25
14 18 25
14 18 24
15 19 25
14 18 24
14 18 25
14 19 25
14 18 24
14 19 25
14 18 25
14 18 25
14 19 25
14 19 25
14 18 25
14 18 24
14 18 25
14 18 25
14 19 25
14 18 25
14 19 25
15 19 25
14 18 24
14 19 25
14 18 24
14 18 24
14 19 25
15 19 25
14 19 25
14 18 25
14 19 25
15 19 25
14 18 25
14 19 25
15 19 25
14 18 25
14 18 24
14 19 25
14 19 25
14 19 25
14 19 25
14 18 25
14 19 25
14 19 25
14 18 25
14 19 25
14 19 25
14 19 25
14 19 25
14 19 25
14 19 25
14 19 25
14 19 25
14 19 25
14 18 25
14 18 25
15 19 25
14 18 25
15 19 25
14 18 25
14 19 25
14 19 25
14 18 25
15 19 25
14 18 25
14 19 25
15 19 25
14 18 25
14 19 25
14 19 25
15 19 25
14 19 25
14 18 25
15 19 25
14 18 25
15 19 25
14 19 25
14 19 25
14 19 25
14 18 25
14 19 25
15 19 25
14 19 25
14 19 25
14 19 25
15 19 25
14 19 25
14 19 25
15 19 25
15 19 25
14 19 25
14 19 25
14 19 25
14 19 25
14 19 25
14 19 25
14 19 25
15 19 25
15 19 25
14 19 25
14 19 25
14 19 25
14 19 25
14 19 25
14 19 25
14 19 25
15 19 25
14 19 25
14 19 25
14 19 25
14 19 25
14 19 25
14 19 25
14 19 25
14 19 25
14 19 25
14 19 25
14 19 25
14 18 25
14 19 25
14 19 25
15 19 25
14 18 25
14 18 25
14 19 25
15 19 25
14 19 25
14 19 25
14 19 25
14 18 25
14 19 25
15 19 25
14 19 25
14 19 25
14 19 25
14 18 25
14 19 25
14 18 25
14 19 25
15 19 25
15 19 25
14 19 25
14 19 25
14 18 25
14 19 25
14 19 25
14 19 25
14 18 25
14 19 25
14 19 25
14 18 25
15 19 25
15 19 25
15 19 25
14 18 25
14 18 25
14 18 25
14 18 25
14 19 25
14 19 25
14 18 25
14 18 25
14 19 25
14 19 25
14 18 25
14 18 24
14 18 25
14 19 25
14 19 25
14 18 25
15 19 25
14 18 24
14 18 25
14 18 25
14 19 25
14 18 24
14 18 24
14 18 25
14 19 25
14 19 25
14 19 25
14 19 25
14 18 24
14 19 25
15 19 25
15 19 25
14 18 24
14 18 24
14 19 25
14 18 24
14 18 24
14 18 25
14 18 24
14 18 25
14 18 25
15 19 25
14 19 25
14 18 24
14 18 25
14 18 24
14 18 24
14 18 25
14 18 24
14 18 24
14 18 24
14 18 25
14 19 25
14 18 24
14 18 24
14 18 25
14 18 25
14 18 24
14 18 24
14 18 25
14 18 24
14 18 24
14 18 24
14 18 24
14 18 24
14 18 25
14 18 24
14 19 25
14 18 24
14 18 24
14 18 24
14 18 24
14 18 24
13 18 24
13 17 23
13 17 23
13 17 24
14 18 24
13 17 23
14 17 23
13 18 24
14 18 24
13 18 24
13 17 24
13 17 24
14 18 24
10 13 17
6 7 9
5 6 8
6 8 10
6 7 9
6 7 9
6 8 9
8 9 12
6 7 9
8 9 12
7 9 11
8 9 12
6 8 10
8 9 12
7 9 11
7 9 11
6 7 9
7 9 11
6 7 9
8 10 12
7 8 11
6 7 9
8 10 13
6 8 10
7 8 11
8 9 12
7 8 10
9 10 13
7 8 10
8 9 12
8 10 12
7 9 11
8 9 12
8 9 12
6 8 10
7 8 10
6 8 10
7 8 10
7 9 11
7 8 10
7 8 10
7 9 11
6 7 9
7 9 11
7 8 11
7 8 11
6 8 10
7 8 11
8 9 12
6 7 9
8 10 13
7 9 11
7 8 11
7 9 12
8 9 12
6 7 9
7 8 10
8 10 12
9 11 13
7 9 11
7 8 10
7 9 11
7 8 10
7 8 10
7 8 10
6 8 10
7 9 11
8 9 12
7 9 11
6 8 10
7 9 11
7 8 11
6 7 9
5 7 9
8 10 12
7 9 11
7 8 10
8 10 12
6 7 9
5 6 8
7 9 12
7 9 11
6 8 10
7 9 11
7 8 11
7 9 11
7 8 11
6 7 9
8 9 12
5 7 9
8 9 12
6 8 10
6 8 10
8 9 12
5 7 9
7 9 11
6 8 10
7 9 11
5 7 8
6 8 10
7 8 10
7 8 11
6 7 9
8 9 12
7 8 11
7 9 11
8 10 12
7 9 11
7 8 10
8 10 12
6 7 9
9 12 16
13 17 23
13 17 24
13 17 23
12 16 22
13 17 23
13 17 23
14 17 23
13 18 24
13 17 24
13 17 23
14 18 24
13 17 23
14 18 24
13 17 23
14 18 24
14 18 24
13 17 23
14 18 24
14 18 24
14 18 24
14 18 25
13 18 24
14 18 25
14 18 24
14 18 24
14 18 25
14 18 24
14 18 25
14 18 24
14 18 24
14 18 24
14 18 24
14 19 25
14 18 24
14 18 24
14 18 25
14 18 25
14 18 24
14 18 25
14 19 25
14 18 25
14 19 25
14 18 25
14 18 25
14 18 24
13 18 24
14 19 25
14 18 25
14 18 25
14 18 24
14 18 25
14 18 25
14 19 25
14 18 25
14 18 24
14 19 25
14 19 25
14 18 25
14 18 25
15 19 25
14 19 25
14 18 24
14 18 25
14 18 24
14 19 25
14 18 25
14 18 24
14 19 25
14 18 25
15 19 25
14 19 25
14 18 25
14 19 25
14 19 25
14 19 25
15 19 25
15 19 25
14 19 25
14 18 25
14 18 25
14 19 25
14 19 25
14 18 25
14 18 25
14 18 25
14 19 25
14 19 25
14 18 25
14 19 25
14 19 25
14 18 25
14 19 25
14 19 25
14 18 25
14 19 25
14 19 25
14 19 25
14 18 25
14 18 25
14 18 25
14 19 25
14 18 25
14 19 25
14 18 25
15 19 25
15 19 25
14 19 25
14 19 25
14 19 25
14 19 25
14 18 25
14 19 25
15 19 25
14 19 25
14 19 25
14 19 25
14 18 25
14 18 25
14 18 25
14 19 25
14 19 25
14 19 25
14 19 25
14 19 25
14 19 25
14 19 25
14 18 25
14 19 25
14 18 25
14 19 25
14 19 25
14 19 25
14 18 25
14 19 25
14 19 25
14 19 25
15 19 25
14 19 25
14 19 25
14 19 25
14 19 25
14 18 25
15 19 25
14 19 25
14 18 25
14 18 25
14 18 25
14 19 25
14 19 25
14 19 25
15 19 25
14 19 25
14 18 25
14 19 25
15 19 25
14 18 25
14 18 25
15 19 25
15 19 25
14 19 25
15 19 25
14 19 25
15 19 25
14 19 25
14 19 25
14 19 25
15 19 25
15 19 25
14 19 25
14 18 25
14 19 25
14 19 25
15 19 25
14 19 25
14 19 25
15 19 25
14 18 25
14 19 25
14 19 25
14 19 25
14 18 25
14 19 25
14 18 25
14 19 25
14 19 25
14 19 25
14 18 25
14 18 25
14 18 25
14 18 25
14 18 25
14 19 25
14 19 25
15 19 25
14 18 24
14 19 25
14 19 25
14 18 25
14 19 25
14 19 25
14 19 25
15 19 25
14 18 24
15 19 25
14 19 25
14 19 25
14 19 25
14 19 25
14 18 24
14 19 25
14 19 25
14 19 25
14 19 25
14 19 25
14 19 25
14 18 25
14 19 25
14 18 25
14 18 25
14 18 25
15 19 25
14 18 24
14 19 25
14 19 25
14 19 25
14 19 25
14 18 25
14 19 25
14 19 25
14 18 24
14 18 24
14 18 25
14 19 25
14 18 25
14 19 25
14 18 25
14 18 25
14 18 25
14 18 24
14 18 25
14 19 25
14 19 25
14 19 25
14 18 25
14 18 24
14 18 24
14 18 24
14 19 25
14 18 24
14 18 25
14 19 25
14 18 25
14 18 24
14 18 25
13 17 22
14 18 24
14 18 25
14 19 25
14 18 24
14 18 24
13 18 24
14 18 25
14 18 24
14 18 24
14 18 24
14 18 25
14 18 24
13 17 23
14 18 25
14 18 24
14 18 24
14 18 24
14 18 24
13 17 22
13 17 23
14 18 24
14 18 24
13 18 24
14 18 24
13 17 23
14 18 24
14 18 24
13 17 23
13 17 23
13 17 23
13 17 23
13 16 22
13 17 23
13 17 23
7 9 12
6 7 9
6 8 10
7 8 11
6 7 9
7 8 10
6 7 9
7 9 11
5 6 8
6 7 9
7 8 10
7 8 11
7 9 11
6 8 10
6 7 9
8 10 12
5 6 8
8 10 12
8 10 12
7 9 11
7 8 10
7 8 11
7 9 11
8 9 12
6 8 10
6 7 9
8 10 12
6 8 10
7 8 10
8 9 12
8 10 12
8 9 12
7 9 11
7 8 10
7 9 11
7 9 11
7 8 10
7 9 11
6 8 10
7 8 11
8 10 12
8 9 12
8 9 12
7 8 10
8 9 12
8 10 12
6 7 9
7 9 12
8 9 12
7 8 10
8 9 11
5 7 8
9 11 14
9 10 13
7 9 11
6 8 9
7 9 11
6 7 9
7 9 11
7 8 11
7 9 11
9 10 13
8 9 12
7 9 11
6 7 9
7 9 11
8 10 13
7 9 11
8 9 12
7 8 10
8 9 11
7 8 11
6 8 10
7 9 11
7 9 11
9 11 13
8 10 13
7 8 11
7 8 10
8 9 12
8 10 13
7 9 12
7 9 11
6 7 9
6 8 10
7 8 11
7 8 10
6 8 10
6 8 10
7 9 11
6 8 10
7 9 11
7 8 10
7 9 11
8 9 12
7 8 10
7 8 11
6 7 9
7 9 11
6 8 10
8 10 13
7 8 10
7 8 10
6 8 10
6 7 9
7 9 11
8 9 12
6 8 10
5 6 8
7 9 12
13 17 22
13 17 23
13 17 23
13 17 23
13 17 23
14 18 24
13 17 23
13 16 22
13 17 23
13 17 23
14 17 23
13 17 23
13 17 23
13 17 23
14 18 25
14 18 23
14 18 24
14 18 24
13 17 23
13 17 23
13 18 24
14 19 25
14 18 24
14 18 25
14 18 24
14 18 24
14 18 24
14 18 24
14 18 24
14 18 24
14 18 24
14 19 25
14 18 25
14 18 24
14 18 25
14 18 25
14 18 24
14 18 24
14 18 24
14 18 25
14 18 24
14 18 24
14 18 25
14 18 24
14 18 25
14 18 24
14 19 25
14 18 24
14 18 25
14 19 25
14 19 25
14 18 25
14 19 25
14 18 24
14 18 24
15 19 25
14 18 25
14 18 24
14 18 24
14 18 24
14 19 25
15 19 25
14 18 25
14 18 25
14 18 25
14 18 25
14 18 24
14 19 25
14 19 25
14 18 25
14 19 25
14 19 25
14 18 25
14 18 25
14 18 25
14 18 25
14 18 24
14 19 25
14 18 25
14 18 25
14 19 25
14 18 25
14 18 25
14 18 24
14 18 24
14 18 25
14 18 25
14 19 25
14 18 25
14 18 25
14 19 25
14 18 25
14 19 25
14 19 25
14 18 24
15 19 25
14 19 25
14 18 25
14 19 25
14 19 25
15 19 25
14 18 25
15 19 25
15 19 25
14 19 25
14 18 25
14 18 24
14 18 25
14 19 25
14 19 25
14 19 25
14 19 25
14 18 25
14 18 25
14 19 25
14 19 25
14 19 25
15 19 25
14 19 25
14 18 25
15 19 25
14 19 25
14 19 25
14 19 25
14 19 25
14 18 25
15 19 25
14 18 25
14 19 25
14 18 25
14 18 25
14 18 25
14 19 25
14 19 25
15 19 25
15 19 25
15 19 25
14 19 25
14 18 25
14 19 25
14 19 25
14 19 25
15 19 25
14 19 25
14 19 25
14 19 25
14 19 25
15 19 25
14 19 25
14 19 25
15 19 25
14 19 25
14 19 25
14 18 25
14 19 25
14 19 25
14 19 25
14 18 25
14 18 25
14 19 25
14 19 25
15 19 25
14 19 25
14 18 25
15 19 25
15 19 25
14 19 25
14 18 25
14 19 25
15 19 25
14 18 24
14 19 25
14 19 25
14 18 25
14 18 25
14 19 25
14 18 25
15 19 25
15 19 25
14 19 25
14 19 25
14 18 25
14 19 25
15 19 25
14 19 25
14 19 25
14 19 25
14 19 25
14 18 25
14 19 25
14 18 25
14 19 25
14 18 25
14 18 24
14 18 25
14 19 25
14 19 25
14 19 25
15 19 25
14 18 25
14 18 25
15 19 25
14 19 25
14 18 24
15 19 25
15 19 25
14 18 25
14 19 25
14 18 25
14 19 25
14 18 25
14 18 25
14 19 25
14 18 25
14 18 25
14 18 25
14 18 24
14 19 25
14 18 24
14 19 25
14 18 25
14 18 25
14 18 24
14 18 24
14 18 25
14 18 24
14 18 24
14 19 25
15 19 25
14 18 25
14 19 25
14 19 25
14 19 25
14 19 25
14 18 25
14 19 25
14 18 24
14 18 24
14 18 24
14 18 24
14 18 24
14 18 24
14 18 25
13 17 23
14 18 24
14 19 25
14 18 24
14 18 24
14 18 24
14 18 25
13 17 24
14 18 24
14 18 24
14 18 24
14 18 24
14 18 24
14 18 24
14 17 23
14 18 25
13 17 23
14 18 24
14 18 24
14 18 24
13 17 23
14 18 24
14 19 25
14 18 24
13 17 24
13 17 23
14 18 24
14 18 24
14 18 24
14 18 25
14 18 24
13 18 24
14 18 24
13 17 23
12 16 22
13 17 23
13 17 23
12 16 22
13 17 23
13 16 22
13 17 23
14 18 24
13 17 23
13 17 22
14 18 24
13 17 23
13 17 22
12 16 21
6 7 9
6 8 10
5 6 8
5 6 8
7 9 11
6 8 10
5 7 9
6 8 10
6 7 9
6 7 9
6 7 9
7 8 10
7 9 11
6 8 10
7 9 11
8 10 12
6 8 9
7 8 10
7 8 10
8 9 12
7 8 10
6 8 10
8 10 13
8 10 12
8 9 12
7 8 11
7 9 11
7 9 11
8 9 12
7 9 11
8 10 12
6 7 9
8 9 11
7 8 10
7 8 10
8 10 12
7 9 11
6 7 9
7 8 10
7 9 11
7 8 10
8 10 13
7 8 11
8 10 12
7 8 10
9 10 13
7 8 11
7 9 11
8 9 12
9 11 13
7 8 11
7 9 11
6 8 10
6 8 10
6 7 9
6 7 9
6 7 9
9 10 13
5 7 9
6 8 10
6 8 10
7 9 11
7 9 11
6 8 10
7 9 11
7 9 11
6 8 10
7 9 11
8 10 12
8 10 13
6 7 9
8 10 13
6 7 10
7 8 10
7 9 11
5 6 8
6 7 9
7 8 10
6 7 9
7 8 10
6 7 9
7 8 10
7 8 11
7 9 11
7 8 10
6 7 9
7 8 11
7 8 10
8 9 12
7 9 11
8 10 13
6 7 9
7 9 12
5 7 8
8 10 12
9 10 13
7 8 11
6 7 9
5 7 8
6 7 9
7 9 11
7 9 11
8 9 12
7 8 11
6 7 9
6 8 10
8 9 12
8 9 12
13 17 22
13 16 22
13 17 23
13 17 23
12 16 22
13 17 23
13 16 22
14 18 24
13 17 23
13 17 22
13 17 23
14 18 24
13 17 23
13 17 22
14 18 24
14 18 24
13 17 23
14 18 24
14 18 24
14 17 23
14 18 24
14 18 24
14 18 24
13 17 23
14 18 24
14 18 24
14 18 24
14 18 24
14 18 24
14 18 25
13 16 22
14 18 24
14 18 24
15 19 25
13 17 23
14 18 25
14 19 25
14 18 24
14 18 24
14 19 25
14 18 24
14 18 24
14 18 25
14 18 24
14 18 25
14 18 25
14 18 24
14 18 24
14 18 25
14 18 24
13 17 23
14 19 25
14 18 25
14 18 25
14 18 24
14 18 24
14 18 25
13 17 23
14 19 25
14 18 24
14 18 25
14 18 24
14 19 25
14 18 25
14 18 24
14 19 25
14 18 25
14 18 25
14 19 25
14 18 24
14 19 25
14 19 25
14 18 25
14 18 25
14 18 25
14 18 25
14 18 24
14 18 25
14 18 25
14 19 25
14 19 25
15 19 25
14 18 24
14 18 24
14 18 25
14 19 25
14 19 25
14 18 25
14 19 25
14 19 25
14 19 25
14 19 25
14 18 25
14 19 25
14 18 25
14 18 25
14 18 24
15 19 25
14 18 25
14 18 24
15 19 25
14 19 25
14 19 25
15 19 25
14 19 25
14 18 25
14 19 25
14 19 25
15 19 25
14 19 25
14 18 25
14 19 25
15 19 25
15 19 25
14 18 25
14 19 25
14 18 25
14 19 25
14 18 25
14 18 25
15 19 25
14 19 25
14 18 25
14 19 25
14 19 25
14 19 25
15 19 25
15 19 25
15 19 25
14 19 25
14 19 25
15 19 25
14 19 25
14 19 25
14 19 25
14 19 25
14 18 25
14 19 25
14 18 25
14 18 25
14 19 25
14 18 25
14 19 25
14 19 25
14 19 25
14 19 25
14 19 25
14 18 25
14 19 25
15 19 25
14 19 25
14 19 25
15 19 25
14 19 25
15 19 25
15 19 25
14 19 25
14 19 25
14 18 25
14 19 25
15 19 25
14 19 25
15 19 25
14 18 25
14 19 25
14 18 25
14 19 25
14 19 25
15 19 25
15 19 25
14 19 25
14 18 25
14 18 25
14 19 25
15 19 25
14 19 25
14 19 25
14 18 25
14 18 25
14 19 25
14 18 25
15 19 25
14 18 25
14 19 25
14 19 25
14 18 25
14 18 25
14 18 25
14 19 25
14 18 24
14 19 25
14 19 25
14 18 25
14 19 25
14 18 24
14 19 25
14 19 25
14 19 25
14 18 24
14 18 25
15 19 25
14 19 25
15 19 25
14 19 25
14 19 25
14 18 25
14 18 25
14 18 25
14 19 25
15 19 25
14 18 25
14 19 25
14 18 25
14 19 25
15 19 25
14 18 24
14 19 25
14 18 24
14 18 24
14 18 25
14 18 25
14 18 24
15 19 25
14 18 24
14 18 24
14 18 25
14 18 25
14 19 25
14 18 24
14 18 25
14 18 24
14 18 25
14 18 25
14 18 25
14 18 25
14 19 25
14 18 24
14 18 24
14 18 25
14 18 25
14 18 25
14 18 25
14 18 24
14 18 24
14 18 25
14 18 24
14 18 24
14 18 24
14 18 24
14 18 24
14 18 24
14 18 24
14 18 24
14 18 25
14 18 24
14 18 24
14 18 25
14 18 24
13 17 23
14 18 25
14 18 24
14 18 25
14 18 24
13 17 23
13 17 23
13 17 22
14 17 23
14 18 25
14 18 25
14 18 24
14 18 24
14 17 23
14 18 25
14 18 24
14 18 25
14 18 24
13 17 23
13 17 23
13 17 23
13 18 24
13 16 22
14 18 23
13 17 23
13 17 23
12 16 22
13 17 22
13 17 22
13 17 23
13 17 23
13 17 23
13 17 22
13 17 22
11 14 18
6 8 10
5 6 8
6 7 9
6 8 9
6 7 8
6 7 9
7 8 10
6 7 10
7 8 10
6 8 10
6 8 10
6 7 9
6 8 10
6 7 9
8 10 13
7 8 10
7 9 11
7 8 10
6 7 9
7 8 10
6 7 9
8 9 12
6 7 9
6 8 10
6 8 10
6 7 9
6 8 10
7 8 10
6 7 10
7 8 10
6 7 9
7 8 10
7 9 12
7 9 11
7 8 10
7 8 10
7 9 11
7 9 11
7 8 10
6 8 10
6 8 10
6 8 10
8 9 11
7 8 10
6 7 9
8 9 11
6 8 10
7 9 11
7 8 11
7 8 10
6 7 9
8 9 12
6 7 9
6 7 10
7 8 11
6 8 10
8 10 12
6 8 9
7 9 11
7 8 11
7 9 11
7 9 11
7 9 11
7 8 10
7 9 11
7 8 11
7 8 10
7 8 10
7 9 11
5 6 8
6 7 9
6 8 10
6 7 9
7 9 11
6 8 10
7 8 10
6 7 9
7 9 11
5 6 8
6 8 10
7 9 11
7 8 10
6 7 9
5 6 8
6 8 10
6 8 10
6 7 9
7 8 10
7 9 11
7 8 10
8 9 12
6 7 9
6 7 9
7 9 11
7 9 11
6 7 8
6 8 10
6 8 9
6 7 9
7 9 11
6 7 9
6 8 10
8 9 11
5 6 7
6 8 10
6 7 8
10 13 17
13 16 22
13 17 23
12 16 22
12 16 22
12 16 22
13 17 23
13 17 23
13 17 23
13 17 23
14 18 24
13 17 23
14 18 24
14 18 25
13 17 23
13 17 23
14 18 24
13 17 24
13 17 23
14 18 24
13 17 23
14 18 24
14 18 24
14 18 24
14 18 24
13 17 23
14 18 25
14 18 24
14 18 25
14 18 24
13 17 23
14 18 24
14 18 25
14 18 25
14 19 25
14 18 25
14 18 24
14 18 25
14 18 25
13 17 23
14 18 24
14 18 24
13 17 23
14 19 25
14 18 25
14 18 24
14 18 24
14 18 25
14 19 25
14 18 24
14 18 25
14 18 25
14 19 25
14 18 24
14 18 24
14 18 25
14 18 24
14 18 24
14 18 25
14 18 24
14 19 25
14 18 24
14 18 25
14 18 24
14 18 24
14 18 24
14 19 25
14 19 25
14 18 25
14 18 25
14 19 25
14 18 25
14 18 25
14 19 25
15 19 25
14 18 25
14 18 24
14 18 25
14 19 25
14 18 25
14 18 25
14 18 24
14 18 25
14 18 25
14 18 25
14 18 25
14 19 25
14 19 25
14 19 25
14 18 25
14 18 25
14 18 24
14 18 24
14 19 25
14 19 25
14 19 25
14 18 25
14 19 25
14 19 25
14 19 25
14 18 25
14 19 25
14 18 25
15 19 25
14 19 25
14 18 25
14 19 25
14 19 25
14 19 25
14 19 25
14 19 25
14 18 25
14 18 25
14 18 25
14 19 25
14 18 25
14 19 25
14 18 25
14 19 25
14 19 25
15 19 25
14 19 25
15 19 25
14 19 25
14 18 25
14 19 25
14 18 25
14 19 25
14 19 25
14 18 25
15 19 25
14 19 25
14 18 25
15 19 25
14 18 25
14 19 25
14 19 25
14 19 25
15 19 25
14 19 25
14 19 25
15 19 25
14 19 25
14 19 25
14 19 25
15 19 25
14 19 25
14 19 25
14 19 25
14 18 25
14 19 25
14 19 25
14 18 25
15 19 25
14 19 25
14 19 25
14 18 25
14 19 25
14 18 25
15 19 25
14 18 25
14 19 25
14 18 25
14 19 25
15 19 25
14 19 25
14 19 25
14 18 25
14 19 25
14 18 25
14 19 25
14 18 25
14 19 25
14 18 24
14 18 24
14 19 25
14 19 25
14 19 25
14 18 25
14 19 25
14 19 25
14 19 25
14 18 25
14 18 25
14 19 25
15 19 25
14 18 25
14 19 25
14 18 25
14 18 25
14 18 25
15 19 25
14 18 25
15 19 25
14 19 25
14 18 25
14 18 25
14 18 24
14 18 24
14 19 25
14 19 25
14 18 25
14 18 25
15 19 25
14 19 25
14 19 25
14 19 25
14 19 25
14 18 25
14 18 24
14 18 25
14 19 25
14 18 25
14 18 24
14 19 25
15 19 25
14 18 25
14 18 25
14 18 25
14 18 25
14 19 25
14 18 24
14 18 25
15 19 25
14 18 24
14 19 25
14 18 24
14 18 24
14 18 25
14 18 25
14 18 24
14 18 24
14 18 25
14 18 25
14 19 25
14 18 24
14 19 25
14 18 24
14 19 25
14 18 24
14 18 24
14 18 24
14 18 24
14 18 24
14 18 24
14 18 24
14 19 25
14 18 25
13 17 23
14 18 25
14 18 24
14 18 24
14 18 24
14 18 25
13 17 23
13 17 23
13 17 24
14 18 24
14 18 24
13 17 23
14 18 24
14 18 24
14 18 24
14 19 25
14 18 24
14 18 24
14 18 24
13 17 23
14 18 24
13 18 24
13 17 23
13 17 23
14 18 24
13 17 23
14 18 24
14 18 24
13 17 23
13 17 23
13 17 22
14 18 24
14 18 24
13 17 22
13 17 23
13 17 23
13 17 23
13 17 23
13 17 22
13 17 23
12 16 22
13 17 23
12 16 21
13 17 22
13 17 22
13 17 23
9 11 14
6 7 9
5 6 8
6 7 9
7 8 10
5 6 7
5 7 8
7 8 10
7 8 10
7 8 10
7 8 10
6 7 9
9 10 13
5 7 8
7 8 10
6 7 9
6 7 9
7 8 11
7 9 11
7 9 11
7 9 11
6 7 8
6 7 9
8 9 12
6 7 9
8 10 13
6 8 10
7 9 11
6 7 9
6 8 9
6 7 9
7 9 11
7 8 10
6 7 9
7 8 10
6 7 9
7 9 11
5 6 8
6 7 9
7 9 11
7 8 11
8 9 12
6 7 9
9 10 13
7 8 10
8 10 12
7 8 10
7 8 10
7 8 10
6 8 10
6 8 10
7 9 11
7 8 10
6 8 10
8 10 13
8 9 12
7 8 10
5 6 8
7 8 11
7 8 10
7 9 11
8 10 12
7 8 11
6 7 9
7 9 11
7 8 11
6 7 8
8 10 12
6 7 9
8 10 12
6 7 9
7 9 11
6 8 10
7 8 11
6 8 10
7 8 10
7 9 11
8 10 13
7 9 11
7 9 11
6 8 9
7 8 11
6 7 9
5 6 7
6 7 9
7 8 11
8 10 13
6 7 9
6 8 10
6 7 9
7 8 11
6 7 9
8 9 12
7 9 11
7 8 10
5 6 7
6 7 9
5 6 8
6 8 10
6 7 9
8 9 11
5 6 7
6 7 9
6 7 9
5 7 8
8 10 13
13 17 22
13 16 22
13 16 22
13 17 23
12 16 22
12 16 22
12 16 22
13 17 23
12 16 22
13 18 24
12 16 21
13 16 22
14 18 24
13 17 23
13 17 23
13 17 22
13 17 23
13 17 22
14 18 24
14 18 24
14 18 24
14 18 24
14 18 24
14 18 24
13 18 24
14 18 24
14 18 24
14 18 24
14 18 24
14 18 24
13 17 23
14 18 25
14 18 24
13 17 23
13 17 23
13 17 23
13 17 23
13 17 23
14 18 24
14 18 25
14 18 24
14 18 24
14 18 24
14 18 24
14 18 24
13 18 24
14 18 24
14 18 25
14 18 24
14 18 24
14 18 24
14 18 25
14 18 25
14 18 25
14 18 25
14 18 24
14 19 25
13 18 24
14 18 25
14 18 25
14 18 24
14 18 24
13 18 24
14 18 24
14 19 25
14 19 25
14 18 25
14 18 24
15 19 25
14 19 25
14 18 24
14 18 24
14 18 25
14 19 25
14 18 25
14 18 25
14 19 25
14 18 24
14 19 25
14 18 25
14 18 25
14 18 24
14 18 25
15 19 25
14 18 25
14 18 25
14 18 25
14 18 24
14 18 25
14 18 25
14 18 25
14 19 25
14 18 24
15 19 25
14 18 25
14 19 25
14 19 25
14 19 25
14 18 25
14 19 25
15 19 25
15 19 25
14 19 25
14 18 25
14 19 25
14 18 25
14 18 25
14 19 25
14 18 25
14 18 25
15 19 25
14 19 25
14 19 25
14 19 25
14 19 25
14 18 25
14 19 25
14 19 25
15 19 25
14 19 25
14 19 25
15 19 25
15 19 25
14 19 25
15 19 25
14 18 25
14 19 25
14 19 25
14 19 25
14 18 25
14 19 25
14 19 25
14 19 25
14 18 25
15 19 25
14 18 25
14 18 25
14 19 25
14 18 25
15 19 25
14 19 25
14 18 25
14 19 25
14 19 25
15 19 25
15 19 25
14 18 24
15 19 25
14 19 25
14 19 25
14 19 25
14 18 25
14 19 25
14 19 25
15 19 25
14 19 25
14 19 25
14 19 25
14 19 25
14 18 25
14 19 25
14 19 25
14 18 25
15 19 25
14 19 25
14 19 25
14 19 25
14 19 25
14 19 25
15 19 25
14 18 25
14 18 25
14 19 25
14 18 25
14 18 24
14 18 25
14 19 25
14 19 25
14 19 25
14 19 25
14 18 25
14 18 25
14 18 25
15 19 25
14 18 25
14 19 25
14 18 25
15 19 25
14 19 25
15 19 25
15 19 25
14 19 25
14 19 25
14 19 25
14 19 25
14 18 25
14 18 24
14 18 25
14 18 25
14 18 24
14 18 25
14 18 25
14 18 25
14 18 25
14 18 25
14 18 24
14 18 24
14 18 25
14 18 25
14 18 25
14 18 25
14 19 25
14 18 24
14 18 25
14 19 25
14 18 25
14 18 25
14 18 25
15 19 25
14 18 25
13 17 23
14 18 25
14 18 25
13 17 23
14 18 24
14 18 24
14 18 25
14 18 25
14 18 25
14 18 25
13 18 24
14 18 24
14 18 25
14 18 25
14 18 25
14 19 25
14 18 24
14 18 24
14 18 24
14 18 25
13 18 24
14 18 24
14 18 24
14 18 24
14 18 24
14 18 24
14 18 25
14 18 24
14 18 24
14 18 24
14 18 24
14 18 24
14 18 24
14 18 24
14 18 24
14 18 24
14 18 25
13 17 23
14 18 24
14 18 24
14 18 24
14 18 24
13 17 23
14 18 24
14 18 24
13 17 23
13 17 23
13 17 23
13 17 23
14 18 24
13 18 24
13 17 22
14 18 24
14 18 24
13 17 23
12 16 22
13 17 23
13 16 22
14 18 24
13 17 23
13 17 23
14 18 24
12 15 21
14 18 24
13 17 23
13 16 22
13 17 22
13 17 23
12 16 22
13 16 21
13 17 23
13 17 22
12 16 21
12 15 21
12 16 21
6 8 10
6 7 9
5 6 7
7 8 10
6 7 9
6 7 9
5 6 8
8 10 12
6 7 9
5 7 8
7 8 10
6 7 9
7 8 10
7 8 10
7 9 11
6 7 9
7 9 11
6 8 10
7 9 11
6 8 10
8 10 12
6 8 10
6 8 10
7 8 10
6 8 10
6 7 9
5 6 7
7 8 10
7 9 11
7 8 11
6 7 9
6 8 10
6 7 9
6 8 10
6 7 9
5 7 9
8 10 12
7 9 11
7 9 11
7 9 11
7 8 10
7 9 11
8 10 13
7 8 11
7 8 11
6 7 9
6 7 9
6 7 9
7 9 11
6 7 9
7 9 11
8 9 11
8 9 12
6 7 9
6 7 9
8 9 12
8 9 12
8 9 12
7 8 10
8 9 12
7 9 11
7 9 11
6 8 10
6 7 9
7 8 10
5 6 8
6 8 10
6 8 10
5 7 8
5 6 8
7 9 11
7 9 11
7 8 10
7 8 10
8 9 12
7 8 10
6 8 10
7 8 10
7 9 11
7 8 10
7 8 10
6 7 9
6 8 10
6 7 9
8 10 12
7 8 10
5 6 8
6 7 9
7 8 10
6 8 10
7 8 10
5 6 8
7 9 11
7 8 10
5 6 8
7 8 11
7 9 11
6 7 9
5 6 8
5 6 8
5 7 9
5 6 7
7 8 10
5 6 8
12 16 21
13 16 22
11 15 20
11 15 20
13 17 23
13 16 22
13 17 22
12 16 21
13 16 22
13 17 23
13 17 23
13 17 22
12 16 22
13 17 23
14 18 24
13 17 23
13 17 22
13 16 22
13 17 23
13 17 22
13 17 23
14 18 24
13 18 24
14 18 24
13 17 22
13 17 23
14 18 24
14 18 24
13 17 23
13 17 22
13 18 24
14 18 24
13 16 22
14 18 24
14 18 24
14 18 24
15 19 25
14 18 24
14 18 24
14 18 25
14 18 24
14 18 24
14 18 25
14 18 25
14 18 24
14 17 23
14 18 24
14 18 24
14 18 24
14 18 24
14 18 25
14 18 25
14 18 25
14 18 25
14 18 24
13 17 23
14 18 24
14 18 24
14 18 25
14 18 24
14 18 25
14 18 25
14 18 24
14 18 24
14 18 25
14 18 24
14 18 24
14 18 24
14 18 24
14 19 25
14 18 25
14 18 24
14 19 25
14 18 24
14 18 24
14 18 24
14 18 25
14 18 25
14 18 25
14 19 25
15 19 25
14 19 25
14 19 25
14 18 24
14 18 25
15 19 25
14 18 24
14 18 25
14 18 25
15 19 25
14 19 25
14 18 25
14 19 25
14 18 25
14 18 25
14 19 25
14 18 25
14 18 25
14 18 25
14 18 25
14 18 25
14 19 25
14 19 25
14 18 24
14 18 24
14 18 25
15 19 25
14 19 25
14 18 25
14 19 25
15 19 25
14 18 25
15 19 25
14 18 25
14 18 25
14 18 25
14 18 25
14 19 25
14 18 25
14 19 25
14 19 25
14 18 24
14 18 25
14 19 25
14 18 25
14 19 25
14 19 25
14 19 25
14 19 25
15 19 25
14 19 25
14 19 25
14 18 25
14 19 25
14 18 25
14 19 25
14 18 25
14 19 25
15 19 25
14 18 25
14 19 25
14 19 25
14 19 25
14 19 25
14 19 25
14 19 25
14 19 25
14 18 25
14 19 25
14 18 25
15 19 25
15 19 25
15 19 25
14 19 25
14 18 25
14 18 25
14 19 25
14 18 25
14 19 25
14 18 25
15 19 25
14 19 25
14 19 25
14 19 25
14 18 25
14 19 25
14 19 25
14 19 25
14 18 25
14 19 25
14 18 25
15 19 25
14 18 25
14 18 25
14 18 25
14 19 25
14 18 25
14 18 25
14 18 25
14 18 25
14 19 25
14 19 25
14 19 25
14 18 25
14 18 25
14 18 25
14 19 25
14 18 25
14 19 25
14 18 25
14 18 24
14 19 25
14 19 25
14 18 25
14 19 25
14 18 24
14 18 25
14 19 25
14 19 25
14 18 25
14 19 25
14 18 25
14 18 25
14 18 25
14 18 25
14 19 25
14 18 24
14 19 25
14 19 25
14 18 24
14 18 25
15 19 25
14 18 24
14 19 25
14 19 25
14 18 24
14 18 25
14 18 24
14 19 25
14 19 25
14 18 24
14 18 25
14 19 25
14 19 25
14 18 25
14 18 24
14 18 25
14 18 25
14 18 25
14 18 25
14 18 25
14 18 24
14 19 25
14 18 24
14 18 24
14 18 24
14 18 24
14 18 25
14 18 24
14 18 24
14 18 25
14 18 24
14 18 24
13 18 24
14 18 24
13 17 24
14 18 24
14 18 24
14 18 25
14 18 24
14 18 24
13 18 24
14 18 24
14 18 24
13 17 23
14 18 24
14 18 24
14 18 24
14 18 24
14 18 25
13 17 24
13 18 24
13 17 23
13 18 24
14 18 24
13 16 22
14 18 24
13 17 22
14 18 24
14 18 24
14 18 24
14 18 24
13 17 23
13 17 23
13 18 24
13 17 23
12 16 22
13 17 23
13 17 23
13 17 22
12 16 22
13 17 23
14 18 24
13 17 23
12 16 21
13 17 23
13 17 23
13 17 23
13 16 22
12 16 22
12 15 21
12 16 21
12 16 21
12 16 22
12 16 22
13 16 22
11 14 19
6 7 9
5 6 7
6 8 10
5 6 8
8 9 11
6 7 9
7 8 10
6 8 10
7 8 10
5 7 8
6 8 10
8 10 12
5 6 8
5 6 7
8 9 12
6 7 9
6 8 10
5 7 8
7 8 10
8 9 11
6 7 9
5 6 8
5 6 8
5 6 8
7 9 11
8 10 12
6 8 10
6 7 9
6 8 10
6 7 9
6 7 9
7 9 11
7 8 11
6 7 9
7 9 11
6 8 10
7 8 10
7 8 10
7 9 11
8 9 12
5 6 7
7 9 11
7 8 11
7 9 11
6 7 9
7 8 10
6 7 9
6 7 9
7 8 10
5 7 8
7 9 11
6 7 9
7 8 10
6 7 9
6 7 10
7 9 11
6 7 9
7 8 10
7 8 10
7 8 10
7 8 10
7 9 11
7 8 10
8 9 11
7 8 11
8 10 13
6 7 9
5 7 8
6 7 9
6 8 10
5 6 8
8 9 12
7 9 11
6 7 9
6 7 9
6 8 10
5 7 8
8 10 13
8 10 12
7 8 10
5 6 7
7 9 11
7 8 11
6 7 9
7 8 10
5 7 8
6 7 9
7 8 11
6 8 10
6 8 10
7 8 10
7 8 10
5 6 8
6 7 9
6 8 10
7 8 11
8 9 12
6 7 9
6 8 9
5 6 7
6 8 10
4 5 7
10 13 18
12 15 21
12 16 21
12 15 21
13 16 22
12 16 21
12 16 22
12 15 20
13 17 23
13 17 23
12 16 21
13 16 22
14 18 24
13 16 22
14 18 24
12 15 21
14 18 24
14 18 24
13 17 23
13 17 23
13 17 22
13 17 24
13 18 24
13 17 23
14 18 24
13 17 23
13 17 23
13 17 24
13 17 22
14 18 24
14 18 24
13 16 22
13 17 23
13 17 23
14 18 24
14 18 24
14 18 24
14 18 24
14 18 24
14 18 24
13 17 23
14 18 24
13 18 24
14 18 24
14 18 24
14 18 24
13 18 24
14 18 24
14 18 25
14 18 24
14 18 24
14 18 24
13 18 24
14 18 25
14 18 25
14 18 24
14 18 24
14 18 25
14 18 24
14 19 25
14 18 24
14 18 24
14 18 25
14 18 24
14 18 24
14 18 24
14 18 24
14 19 25
14 18 25
15 19 25
14 18 24
14 18 25
14 19 25
14 19 25
14 18 25
14 18 24
14 18 24
14 18 24
14 18 24
14 18 24
14 18 24
14 18 24
14 19 25
14 18 25
14 19 25
14 18 25
14 18 25
14 18 25
14 18 25
14 18 25
14 19 25
14 18 24
14 19 25
14 18 24
15 19 25
14 19 25
14 19 25
14 18 24
14 19 25
14 18 25
14 19 25
14 18 25
14 18 25
14 19 25
14 19 25
14 18 25
14 18 25
15 19 25
14 19 25
14 19 25
14 18 25
14 18 25
14 18 25
14 18 24
14 19 25
14 18 25
14 18 24
14 19 25
14 18 25
14 19 25
15 19 25
14 18 25
14 18 25
14 19 25
14 18 25
14 19 25
15 19 25
14 19 25
14 18 25
14 19 25
14 19 25
14 19 25
14 18 25
14 19 25
14 19 25
14 19 25
14 18 25
15 19 25
14 19 25
14 18 25
14 19 25
14 18 25
15 19 25
14 19 25
14 19 25
14 19 25
14 19 25
15 19 25
14 18 25
14 19 25
14 19 25
14 19 25
14 19 25
14 19 25
14 18 25
15 19 25
14 19 25
14 19 25
14 18 24
15 19 25
14 19 25
15 19 25
15 19 25
14 19 25
14 19 25
14 18 25
14 18 25
14 19 25
14 19 25
14 19 25
14 19 25
14 18 25
14 18 25
14 18 25
15 19 25
14 19 25
14 18 25
14 18 24
14 19 25
14 18 24
14 18 25
14 19 25
14 18 25
14 18 25
14 18 25
14 18 25
14 19 25
13 18 24
14 19 25
14 18 25
14 19 25
14 19 25
14 19 25
14 18 25
14 18 24
14 18 24
14 18 24
15 19 25
14 19 25
14 19 25
14 18 25
14 18 25
14 18 24
14 19 25
14 19 25
14 18 24
15 19 25
14 19 25
14 18 25
14 18 25
14 19 25
15 19 25
14 19 25
14 18 25
14 18 24
14 19 25
14 18 24
14 19 25
14 19 25
14 18 24
14 18 24
14 18 25
14 18 24
14 18 25
14 18 25
14 18 25
14 18 24
14 18 24
14 18 24
14 18 24
14 18 25
14 18 25
14 18 24
14 18 25
14 18 25
14 19 25
14 18 25
14 19 25
14 18 24
14 18 24
14 18 24
14 19 25
14 18 24
14 19 25
14 18 24
13 17 23
14 18 24
14 19 25
14 18 24
13 17 23
14 18 24
13 17 23
14 18 24
14 18 24
13 17 24
14 18 24
14 18 25
13 17 22
13 18 24
13 17 23
13 17 23
13 17 22
13 17 23
13 17 23
14 18 24
14 18 24
13 18 24
13 17 23
13 17 23
14 18 24
13 17 23
12 16 21
13 16 22
13 17 23
13 18 24
14 18 24
13 17 22
13 17 23
13 17 23
14 17 23
13 17 22
13 17 22
13 16 22
12 16 21
13 16 22
13 16 22
12 16 21
14 18 24
12 16 21
13 17 23
12 15 21
12 16 22
13 17 23
12 16 21
13 17 22
12 16 21
12 16 21
13 17 23
9 11 15
5 7 8
5 6 7
6 7 9
6 7 9
5 7 8
6 7 9
6 7 9
6 8 10
6 7 9
6 7 9
6 7 9
8 10 12
6 8 10
4 5 7
5 6 8
6 7 9
6 8 9
6 8 10
6 8 10
7 8 10
6 8 10
7 8 10
6 7 9
6 8 10
6 8 10
5 6 8
7 8 10
6 7 9
7 8 10
6 7 10
6 8 10
6 7 9
7 8 11
6 7 9
5 7 8
7 9 11
6 7 9
7 8 10
8 10 13
5 6 8
6 7 9
5 7 8
6 8 10
7 9 11
7 9 11
8 9 12
6 7 9
6 7 9
7 8 10
5 6 8
7 8 10
8 10 12
7 9 11
7 8 10
6 7 9
7 8 10
5 6 8
7 9 11
7 9 11
5 6 7
6 8 10
6 7 9
7 8 10
6 7 9
6 8 10
7 8 10
5 6 8
6 7 8
6 7 9
8 9 12
6 7 9
6 7 9
5 6 8
7 9 11
8 10 12
6 8 10
7 8 10
6 7 9
7 8 10
7 8 10
6 7 9
7 8 11
6 8 9
7 8 10
6 8 10
7 8 10
7 8 10
7 8 10
7 8 11
8 9 11
7 8 11
5 6 8
7 9 11
5 6 7
7 8 10
5 6 8
6 7 9
4 5 7
7 8 10
5 6 7
9 11 14
13 17 22
13 17 22
12 16 21
13 17 23
12 16 22
13 16 22
13 17 23
12 16 21
13 17 23
12 16 22
13 17 22
13 17 23
12 16 21
13 17 23
13 16 22
13 16 22
13 17 22
13 16 22
13 17 23
13 18 24
13 17 23
13 17 23
13 17 23
13 17 23
13 17 23
13 17 23
14 18 24
13 17 23
13 17 22
13 17 23
13 18 24
13 18 24
13 18 24
14 18 24
14 18 24
13 17 23
13 17 24
13 17 23
13 17 23
13 17 23
14 18 25
14 18 24
13 17 23
14 18 24
13 17 23
14 18 24
13 17 23
14 18 24
14 18 24
13 17 23
13 18 24
13 17 23
13 18 24
14 18 25
14 18 24
14 18 24
15 19 25
14 18 25
14 18 24
14 18 24
14 18 24
14 18 24
14 18 25
14 18 25
14 18 24
14 18 24
14 19 25
14 18 24
14 18 24
13 17 23
13 18 24
14 19 25
14 18 25
14 18 25
15 19 25
14 18 24
14 18 25
14 18 25
14 18 24
14 18 24
14 18 25
14 18 25
14 18 25
14 18 25
14 19 25
15 19 25
14 18 24
15 19 25
14 18 25
14 18 25
15 19 25
14 18 24
14 18 25
15 19 25
14 19 25
14 19 25
14 19 25
14 19 25
14 18 25
14 19 25
14 18 25
14 19 25
14 18 24
14 19 25
14 18 25
14 19 25
14 19 25
14 19 25
14 19 25
14 19 25
14 19 25
14 19 25
15 19 25
14 19 25
15 19 25
14 19 25
14 18 24
14 18 25
14 19 25
14 19 25
14 18 25
14 18 25
14 19 25
14 19 25
14 19 25
14 18 25
14 18 25
14 19 25
14 18 25
14 18 25
14 19 25
14 18 24
14 18 25
14 19 25
14 19 25
14 19 25
14 18 25
14 19 25
14 19 25
14 19 25
14 19 25
14 19 25
14 18 25
15 19 25
14 18 25
15 19 25
15 19 25
14 19 25
14 18 25
14 19 25
14 18 25
14 19 25
14 19 25
14 19 25
15 19 25
14 18 25
14 19 25
15 19 25
14 19 25
14 18 25
14 19 25
14 19 25
15 19 25
14 19 25
14 19 25
14 19 25
14 18 24
15 19 25
14 18 25
14 18 24
14 19 25
14 19 25
14 19 25
15 19 25
14 19 25
14 18 25
14 19 25
14 18 25
14 19 25
14 19 25
14 18 25
14 19 25
14 18 25
14 18 25
14 18 25
14 19 25
14 18 25
14 18 24
14 18 25
15 19 25
14 19 25
15 19 25
15 19 25
14 18 24
14 18 24
14 18 24
14 19 25
14 18 24
14 19 25
14 18 24
14 19 25
14 19 25
14 18 24
15 19 25
14 18 25
14 18 25
14 19 25
15 19 25
15 19 25
14 18 25
14 18 25
14 18 25
14 18 25
14 19 25
14 19 25
14 19 25
14 18 25
14 18 24
14 18 25
14 18 25
14 18 24
14 18 25
14 19 25
14 18 25
13 17 23
15 19 25
14 18 24
14 19 25
13 18 24
14 18 25
14 18 24
14 19 25
14 18 24
14 18 24
14 18 24
14 18 25
14 18 24
14 18 24
14 18 24
14 18 24
14 18 25
14 18 25
14 18 24
13 17 23
13 17 23
14 18 25
14 18 24
14 18 24
14 18 25
14 18 24
14 18 24
14 18 24
14 18 24
13 17 23
14 18 24
13 18 24
13 17 23
13 17 23
14 18 24
14 18 24
13 17 23
14 18 24
14 18 24
14 18 25
13 17 23
13 17 24
13 17 23
13 17 24
13 16 22
12 16 21
14 18 24
13 17 23
13 17 22
13 17 22
12 16 22
13 16 22
12 16 21
13 17 22
13 17 23
13 17 23
13 17 23
12 16 21
13 17 23
12 15 21
13 17 22
13 16 22
12 16 21
12 16 21
12 16 21
12 15 21
12 16 21
12 16 22
12 16 22
12 15 20
12 15 21
13 16 22
12 16 21
12 15 21
11 14 19
8 11 14
6 7 9
5 6 8
6 8 10
7 8 10
6 8 10
5 6 8
6 7 9
6 7 9
7 9 11
7 8 10
7 8 11
6 8 10
5 6 7
6 7 9
6 7 9
6 8 10
7 9 12
6 7 9
7 8 10
7 9 11
6 8 9
5 6 8
7 8 10
6 8 10
7 8 10
6 7 9
7 8 11
6 7 9
7 8 11
8 10 12
5 6 8
6 8 10
6 8 10
6 7 9
4 5 6
7 8 10
6 7 9
5 7 8
7 8 10
7 9 11
6 7 9
7 8 10
7 8 10
7 8 10
6 8 10
6 7 9
7 8 10
5 6 8
6 7 9
6 7 9
6 7 10
6 8 10
6 7 9
7 8 10
7 9 11
6 8 10
5 6 7
7 8 10
6 8 10
8 9 11
5 6 7
5 6 8
5 6 8
6 7 9
6 7 9
6 8 9
5 6 8
6 7 9
6 8 10
6 7 9
6 8 10
7 9 11
6 8 10
7 8 10
7 8 11
5 6 8
6 7 9
6 7 9
6 7 9
7 8 10
5 6 7
5 6 8
7 8 10
6 7 9
7 9 11
5 6 7
5 7 8
6 7 9
6 7 9
7 8 10
6 7 9
5 6 8
6 8 10
7 8 10
6 7 8
6 7 9
5 7 8
5 6 8
8 10 14
12 15 20
12 16 21
11 15 20
12 15 21
12 15 20
12 16 22
13 16 22
13 17 22
12 15 21
13 17 22
11 15 20
13 16 22
13 16 22
12 15 20
13 17 23
13 17 22
11 15 20
13 16 22
13 17 23
13 17 22
12 15 21
13 16 22
13 17 23
14 18 24
13 17 23
13 17 23
13 16 22
13 17 23
12 16 22
13 17 24
12 16 22
13 17 22
13 17 23
13 17 23
13 17 23
13 18 24
14 18 24
14 18 24
14 18 24
14 18 24
13 17 23
14 18 24
13 17 23
13 17 23
13 17 23
14 18 24
13 17 23
13 18 24
13 17 23
14 18 24
14 18 24
14 18 24
14 18 24
14 18 24
14 18 25
14 18 25
14 18 24
13 17 23
14 18 24
13 17 23
14 18 24
14 18 24
13 17 23
14 18 25
14 19 25
14 18 24
14 18 24
14 18 25
14 18 24
14 18 24
14 18 25
14 18 25
14 18 25
14 18 25
14 18 24
14 18 25
14 18 25
14 19 25
14 18 24
14 18 25
14 18 24
14 18 25
14 18 25
14 18 25
14 18 25
14 18 24
14 18 24
14 18 24
14 18 24
14 18 24
14 18 24
14 18 25
14 18 25
14 18 25
14 18 24
14 18 25
14 19 25
14 18 24
14 18 25
14 18 24
14 19 25
14 18 25
15 19 25
14 18 25
14 18 25
14 19 25
14 19 25
14 19 25
14 18 25
14 19 25
14 18 24
14 18 25
14 18 25
14 18 25
14 19 25
14 18 24
14 18 25
14 18 25
14 18 25
14 19 25
14 19 25
14 19 25
14 18 25
14 18 25
14 18 25
14 18 25
14 18 25
14 18 25
14 19 25
14 19 25
14 18 25
14 19 25
14 19 25
14 18 25
14 18 25
15 19 25
14 18 25
14 18 25
14 19 25
14 19 25
14 19 25
14 19 25
14 18 25
14 18 24
14 19 25
14 19 25
14 18 25
14 19 25
14 19 25
14 18 25
14 18 25
14 19 25
14 18 24
14 19 25
15 19 25
14 18 25
14 18 24
14 19 25
14 19 25
14 19 25
14 19 25
15 19 25
14 19 25
14 19 25
14 18 25
14 19 25
14 18 25
14 19 25
14 19 25
14 19 25
14 18 25
14 19 25
14 18 25
14 18 24
14 19 25
14 18 24
14 19 25
14 19 25
14 18 25
14 18 24
14 19 25
14 19 25
15 19 25
14 18 25
14 19 25
14 19 25
14 19 25
14 18 24
15 19 25
14 18 25
14 19 25
14 18 25
14 18 25
14 19 25
14 18 25
14 18 25
14 19 25
14 18 25
14 18 25
14 19 25
14 19 25
14 18 25
14 18 25
14 18 24
14 18 24
14 19 25
14 18 25
14 18 24
14 18 24
14 18 25
14 19 25
14 18 24
14 18 25
14 18 24
14 18 24
14 18 24
14 18 24
14 19 25
15 19 25
14 18 24
14 18 25
14 18 25
14 18 25
14 19 25
14 18 25
14 18 25
14 19 25
13 17 23
14 18 24
14 19 25
14 18 24
14 19 25
14 18 24
14 18 24
14 18 24
14 18 24
14 18 24
14 18 25
14 18 25
14 18 24
14 18 24
13 17 23
14 18 24
14 18 25
14 18 24
14 18 24
13 17 23
14 18 24
13 17 22
14 18 24
14 18 24
14 18 24
14 18 24
14 18 24
14 18 24
14 18 24
13 17 23
14 18 24
13 17 23
13 17 23
13 17 23
14 18 24
14 18 24
14 18 24
13 17 23
13 17 22
14 18 24
14 18 24
13 17 23
13 17 23
13 17 23
13 17 23
12 16 22
13 17 23
13 17 23
12 16 21
12 16 21
13 16 22
14 18 24
14 18 24
13 17 23
13 17 23
12 16 22
12 16 21
11 15 20
12 16 21
12 16 22
12 16 21
12 16 22
12 16 21
13 17 23
13 17 22
12 15 21
11 15 20
12 16 21
11 15 20
12 15 20
12 16 22
13 17 23
12 15 20
11 15 20
8 10 13
6 7 9
5 7 8
6 7 9
5 6 8
5 6 8
6 8 10
6 8 10
5 6 8
5 6 8
6 7 9
6 8 10
5 6 8
4 5 7
6 7 9
5 6 8
7 8 10
5 7 8
7 8 10
7 8 10
6 7 9
5 6 8
7 9 11
6 7 9
5 6 8
6 7 9
5 6 8
6 8 10
7 9 11
7 8 10
6 8 10
6 7 9
6 7 9
7 8 10
6 7 9
5 6 8
7 9 11
6 8 10
6 8 10
6 8 10
6 8 10
6 8 10
7 8 10
6 7 9
6 8 10
7 8 11
7 8 11
5 7 8
6 7 9
8 9 11
7 9 11
5 6 8
7 9 11
7 9 11
6 7 9
7 9 11
6 7 9
6 8 10
6 8 10
7 8 10
5 7 8
7 9 11
6 7 9
8 9 11
6 7 9
7 9 11
6 7 9
7 8 11
7 8 10
7 8 10
5 6 8
5 7 8
5 7 8
7 8 11
6 7 9
6 7 8
5 6 8
5 7 8
8 9 11
7 9 11
6 7 9
7 8 10
7 9 11
5 7 8
5 6 7
6 7 9
5 7 8
5 6 7
6 7 9
7 8 10
5 6 8
7 8 10
6 7 9
7 9 11
5 6 7
5 7 8
5 7 8
7 9 12
11 14 19
13 16 22
11 15 20
12 15 21
12 16 21
12 15 21
12 16 22
12 16 21
13 16 22
12 16 21
12 16 21
12 16 21
12 15 20
13 17 23
12 16 21
12 16 21
13 17 23
13 17 22
13 17 22
13 17 23
12 16 21
12 16 21
12 16 21
13 17 23
13 17 23
12 16 22
12 16 22
13 17 22
14 18 24
13 17 22
13 17 22
13 17 23
13 17 23
13 17 23
13 18 24
13 16 22
14 18 24
13 17 23
13 18 24
13 17 22
13 18 24
14 18 24
13 17 23
14 18 24
14 18 24
13 17 24
13 17 23
14 18 24
14 18 24
13 17 23
13 17 23
13 17 23
14 18 24
14 18 25
14 18 24
13 17 23
14 18 24
14 18 24
14 18 24
14 18 25
14 18 25
14 18 24
13 18 24
14 18 24
14 18 25
14 18 24
14 18 25
14 18 24
14 18 25
14 18 24
14 18 24
14 18 25
14 18 24
14 18 24
14 18 25
14 18 25
14 18 25
14 18 25
14 18 24
14 18 24
14 18 24
14 19 25
14 18 25
14 18 24
14 18 25
14 18 24
14 18 25
15 19 25
14 18 24
14 18 25
14 18 24
14 18 24
14 18 24
14 18 25
14 18 25
14 18 25
14 18 24
14 18 24
14 18 25
14 18 25
14 19 25
14 18 25
14 18 25
14 18 25
14 18 24
14 18 25
14 18 25
14 18 25
14 18 25
14 18 25
14 18 25
14 18 24
15 19 25
14 18 25
14 18 25
14 19 25
14 18 24
14 19 25
14 18 24
14 18 25
14 19 25
14 19 25
14 19 25
14 18 25
14 18 25
14 19 25
14 19 25
15 19 25
15 19 25
14 19 25
14 19 25
14 18 24
14 18 25
14 18 25
14 19 25
14 18 25
15 19 25
14 19 25
14 19 25
14 19 25
14 18 25
14 18 25
14 19 25
14 19 25
14 18 25
14 18 25
14 19 25
14 19 25
14 19 25
15 19 25
14 18 25
14 18 25
14 18 25
14 19 25
14 18 25
14 19 25
14 18 25
14 19 25
14 18 25
14 19 25
14 18 24
14 18 25
14 18 25
14 18 25
14 19 25
14 18 25
14 18 25
14 18 25
14 19 25
14 18 25
14 18 24
14 18 24
14 18 25
14 19 25
14 18 25
14 19 25
14 19 25
14 18 25
14 19 25
14 18 25
14 18 25
14 18 25
14 18 25
14 18 25
14 18 24
14 18 25
14 18 24
14 18 24
14 18 24
14 19 25
14 19 25
14 19 25
14 19 25
14 18 25
14 18 24
14 19 25
14 19 25
15 19 25
14 18 24
14 19 25
14 18 24
14 19 25
14 18 25
14 18 25
14 18 25
15 19 25
14 19 25
14 18 24
14 18 25
14 18 25
14 18 24
14 19 25
14 18 25
14 18 25
14 18 25
14 19 25
14 18 25
14 18 24
14 18 24
14 18 25
14 18 24
14 19 25
14 18 24
14 18 25
14 18 24
14 18 24
14 18 24
14 18 24
14 18 25
14 18 25
13 17 23
13 17 23
14 18 24
14 19 25
14 18 25
14 18 24
14 18 24
14 18 24
14 18 24
14 18 24
14 18 24
13 17 23
14 18 24
14 18 24
14 18 24
14 18 24
14 18 24
14 18 24
14 18 25
14 18 24
13 17 23
14 18 24
14 18 24
13 17 23
13 17 23
14 18 24
13 17 23
13 17 23
14 18 24
13 17 23
14 18 24
13 17 23
13 17 23
14 18 24
14 18 24
13 17 23
13 17 23
13 17 23
13 17 23
13 17 22
13 17 23
13 17 23
13 17 23
13 18 24
13 17 23
13 17 23
13 16 22
13 17 23
12 16 21
12 15 21
12 16 22
11 14 19
12 16 21
12 16 22
11 15 20
12 16 22
12 16 21
12 15 20
13 17 23
13 16 22
11 14 19
11 15 20
12 16 21
12 16 21
11 15 20
12 16 21
12 16 21
11 15 19
12 16 21
11 14 19
11 14 19
11 14 19
10 13 18
7 8 11
6 7 9
4 5 7
6 7 9
7 9 11
5 6 7
5 6 7
4 5 7
6 7 9
6 8 10
6 7 9
6 7 9
6 7 8
6 7 9
6 8 10
7 8 10
4 6 7
6 7 10
5 6 8
5 7 8
5 7 8
7 9 11
6 7 9
6 7 9
6 8 10
5 6 7
7 9 11
7 8 10
6 7 9
6 7 9
6 8 10
6 8 9
6 8 10
5 6 8
5 6 8
6 7 9
5 6 7
6 8 10
8 9 12
6 7 9
6 7 9
6 7 9
6 7 9
7 8 11
6 8 10
7 9 11
6 8 10
7 9 11
6 7 9
7 8 11
6 8 10
5 6 8
6 7 9
5 6 8
5 7 8
6 7 9
6 7 9
5 6 7
6 7 9
7 8 10
5 6 8
7 8 10
7 9 11
6 8 9
6 7 9
7 9 11
7 8 11
6 8 10
5 7 8
6 7 9
5 6 8
7 8 10
5 7 8
6 7 9
6 7 9
7 8 11
6 7 9
5 6 8
6 8 10
6 7 9
6 7 9
6 7 9
5 7 8
6 7 9
5 6 8
5 6 8
5 7 8
6 7 9
5 6 8
5 7 8
7 8 10
4 5 6
6 7 9
5 6 7
4 5 6
5 7 9
12 15 21
11 15 19
11 14 19
11 14 19
12 15 20
11 15 20
12 16 21
11 14 19
12 15 20
11 14 19
13 17 22
11 15 19
12 16 21
11 15 20
12 15 21
12 15 20
12 15 21
12 16 21
13 16 22
13 16 22
13 17 22
12 16 21
12 16 21
13 16 22
11 15 20
13 17 23
13 17 23
13 17 22
13 17 23
12 16 21
14 18 24
13 16 22
13 18 24
13 17 23
13 17 23
13 17 23
13 17 23
13 17 23
13 17 23
14 17 23
13 17 24
13 18 24
13 17 23
13 17 23
13 17 24
14 18 24
13 17 22
13 18 24
13 17 23
13 17 23
14 18 24
14 18 24
13 17 23
14 18 24
13 17 23
14 18 24
14 18 24
14 18 24
13 17 23
14 18 24
14 18 24
14 18 24
14 18 24
14 18 24
14 18 24
13 17 23
14 18 24
14 18 24
14 18 24
14 18 24
14 18 24
13 17 24
14 18 23
14 18 24
14 18 24
14 18 24
14 18 24
14 18 24
13 17 24
14 18 25
14 18 24
14 18 25
14 18 24
14 18 24
14 18 24
14 18 25
14 18 25
14 18 24
14 18 24
14 19 25
14 18 25
14 18 24
14 18 25
14 19 25
14 18 24
14 18 25
14 19 25
14 18 24
14 18 24
14 18 24
14 18 25
14 18 25
14 18 24
14 18 25
14 18 25
14 18 24
14 19 25
14 18 25
14 18 25
14 19 25
14 19 25
14 19 25
14 18 24
14 19 25
14 19 25
14 19 25
14 18 25
14 18 24
15 19 25
14 18 25
14 18 25
14 18 25
14 19 25
15 19 25
14 18 25
14 18 25
14 19 25
14 18 25
14 19 25
14 19 25
14 19 25
14 19 25
15 19 25
14 18 25
15 19 25
15 19 25
14 18 25
14 18 25
14 19 25
14 19 25
14 18 25
15 19 25
14 18 24
15 19 25
14 18 24
14 18 25
14 19 25
15 19 25
14 19 25
14 19 25
14 18 25
14 18 25
15 19 25
14 18 25
15 19 25
14 19 25
14 18 24
15 19 25
14 18 25
15 19 25
14 18 25
14 19 25
14 18 25
14 18 25
14 19 25
14 18 24
14 19 25
14 18 25
14 18 25
14 18 25
14 19 25
14 19 25
14 18 25
14 19 25
14 18 25
14 18 24
14 19 25
14 18 25
14 18 25
14 19 25
14 19 25
14 18 25
14 19 25
14 18 24
14 19 25
14 18 24
14 19 25
14 18 24
14 18 24
14 18 25
14 19 25
14 18 25
14 18 25
14 19 25
14 18 24
14 18 25
14 19 25
14 18 24
14 19 25
14 18 25
14 19 25
14 19 25
14 18 24
14 18 24
14 18 25
14 18 24
14 18 25
14 18 24
14 18 24
14 18 25
14 19 25
14 18 24
14 18 25
14 18 24
14 18 24
14 18 24
14 18 25
14 18 24
14 18 24
14 19 25
14 18 25
14 18 25
14 18 25
14 18 24
14 18 24
14 18 25
14 18 25
13 17 22
14 18 24
14 19 25
14 18 24
14 18 25
13 17 23
14 18 24
14 18 24
14 18 24
14 18 24
14 18 25
14 18 25
14 17 23
14 18 24
14 18 24
14 18 24
13 17 23
13 17 23
14 18 24
14 18 25
14 18 24
13 17 23
14 18 24
14 18 24
14 18 24
13 17 23
13 17 23
14 18 24
13 18 24
14 18 24
14 18 24
13 17 23
13 17 23
13 17 23
13 17 23
13 18 24
13 17 23
13 17 23
14 17 23
13 16 22
13 17 23
12 16 22
13 17 23
13 17 23
14 17 23
13 17 22
12 16 22
12 16 21
13 17 22
13 16 22
13 17 22
12 16 21
13 17 22
12 16 22
12 15 21
13 17 22
13 16 22
12 16 21
12 16 22
12 16 22
13 17 22
12 16 22
13 17 22
11 15 20
11 15 20
11 14 19
11 15 20
12 16 21
11 15 19
11 15 20
11 15 20
12 15 20
11 15 19
12 15 20
11 15 20
11 15 20
10 14 18
10 13 18
5 7 9
4 5 7
6 7 9
5 6 8
6 7 9
6 7 9
6 7 9
5 6 8
6 7 9
5 5 7
6 7 8
5 7 8
6 7 9
6 7 9
6 7 9
5 6 8
6 7 9
6 8 10
6 7 9
6 7 9
7 8 10
6 7 9
6 7 9
6 7 9
6 7 8
5 6 7
6 7 9
6 7 9
6 7 9
6 8 10
8 9 12
6 7 9
6 7 9
5 7 8
6 8 10
6 7 9
5 7 8
5 6 8
7 8 10
7 8 10
6 7 9
6 7 9
6 7 9
6 7 9
6 8 10
7 8 10
6 7 9
7 9 11
8 9 12
7 9 11
6 7 9
6 7 9
7 8 10
6 7 9
6 7 9
6 7 9
6 7 9
7 8 11
5 6 8
7 8 11
6 8 10
6 7 9
5 6 8
7 9 11
5 6 8
6 8 10
7 9 11
7 9 11
5 6 8
7 8 11
6 7 9
5 6 8
7 8 10
5 7 9
6 8 10
5 6 7
6 7 9
7 8 10
7 8 10
6 7 9
6 7 9
5 6 8
5 6 8
5 6 7
5 6 8
6 7 9
8 9 11
5 6 7
6 7 8
5 6 8
5 6 8
5 6 7
5 6 8
7 9 11
11 15 20
11 14 19
11 14 19
12 15 20
11 14 19
12 15 20
11 15 20
12 15 20
12 15 20
11 14 18
12 15 20
11 15 20
11 15 20
12 16 22
13 16 22
12 16 21
11 15 20
12 15 21
13 17 23
11 15 20
12 16 22
12 16 22
12 16 22
13 16 22
13 17 23
13 17 23
13 17 22
12 15 20
12 15 21
12 16 22
13 17 23
13 17 23
12 16 21
13 17 22
12 16 22
12 16 22
13 17 22
13 17 23
14 18 24
13 18 24
13 17 22
13 17 23
13 17 23
13 17 23
14 18 24
14 18 24
13 17 23
14 18 24
13 17 23
13 17 23
14 18 24
14 18 24
14 18 24
14 18 24
14 18 24
14 18 23
13 18 24
14 18 24
14 18 24
13 17 23
14 18 24
14 18 24
14 18 24
14 18 24
14 18 24
14 18 25
14 18 24
13 18 24
14 18 24
14 18 24
14 18 24
14 18 24
14 18 24
14 18 24
14 18 25
14 18 24
14 18 24
14 18 24
14 18 25
14 18 24
13 17 23
14 18 24
14 18 25
14 19 25
14 18 24
14 18 24
14 18 25
15 19 25
14 18 24
14 19 25
14 18 24
14 18 25
14 18 24
14 18 24
14 18 25
14 18 25
14 18 24
14 18 25
15 19 25
14 18 25
14 18 24
14 19 25
13 17 24
14 18 24
14 18 24
14 18 25
14 18 25
14 19 25
14 18 25
14 18 24
14 18 25
14 18 25
15 19 25
14 18 25
14 18 25
14 18 25
14 19 25
14 18 25
14 18 24
14 19 25
14 18 24
14 18 25
14 18 25
14 18 25
14 19 25
14 18 25
14 18 25
14 19 25
15 19 25
15 19 25
14 18 25
14 19 25
14 19 25
15 19 25
14 18 25
14 19 25
14 18 25
15 19 25
14 18 25
14 18 25
14 19 25
14 18 25
14 18 24
14 19 25
14 19 25
14 19 25
14 19 25
14 19 25
14 19 25
14 18 24
14 18 24
14 18 25
14 19 25
14 18 25
14 18 24
14 19 25
14 18 24
14 19 25
15 19 25
14 18 25
14 19 25
14 19 25
14 18 25
14 19 25
14 19 25
15 19 25
14 18 25
14 19 25
14 19 25
14 18 25
14 18 25
14 18 25
14 18 25
14 19 25
14 19 25
14 18 25
14 18 25
14 19 25
14 18 24
14 19 25
14 18 25
14 18 24
14 19 25
14 18 25
14 19 25
14 18 24
14 18 25
14 19 25
13 18 24
14 19 25
14 18 24
14 19 25
14 18 25
14 18 25
14 18 25
14 19 25
14 18 24
14 18 24
14 18 25
14 18 24
14 18 25
14 18 25
14 18 25
14 18 25
14 18 25
14 18 25
14 19 25
14 19 25
14 18 24
13 18 24
14 18 24
14 18 25
14 18 25
14 18 25
14 18 24
14 18 25
14 18 25
14 18 24
14 18 25
14 18 24
14 18 24
14 18 24
14 18 25
14 18 24
14 18 25
14 18 24
14 18 24
13 17 23
14 18 24
14 18 24
14 18 24
14 18 24
14 18 24
13 17 23
14 18 24
14 18 24
14 18 24
14 18 24
14 18 23
14 18 24
14 18 24
13 17 24
13 17 22
14 18 24
13 17 23
14 18 24
14 18 25
14 18 24
14 18 24
14 18 24
14 18 24
13 17 23
13 17 23
13 17 23
14 18 24
13 17 23
13 17 23
14 18 24
13 18 24
14 18 24
13 17 23
14 18 24
14 18 24
13 17 23
14 18 24
14 18 24
13 17 22
13 17 23
12 16 22
13 17 23
13 17 23
13 16 22
12 16 22
13 17 23
13 16 22
13 17 23
12 15 21
13 17 23
13 17 23
12 16 22
13 17 22
13 17 23
12 16 21
13 17 23
12 15 20
13 17 22
12 16 21
12 15 21
12 16 21
12 15 20
11 15 20
12 15 21
11 14 19
11 14 19
11 14 19
11 15 20
11 15 20
11 15 20
11 15 20
11 14 19
10 13 17
11 14 18
10 13 18
12 16 21
9 12 16
11 15 20
10 13 18
6 7 9
5 6 7
4 5 7
5 6 7
4 5 6
6 8 10
6 8 9
6 7 9
6 7 9
5 7 8
6 7 9
4 5 6
5 6 8
5 7 8
5 7 8
6 8 10
5 6 8
5 6 7
7 8 10
5 6 8
5 6 8
4 5 7
6 8 10
5 6 8
6 8 10
5 6 7
6 8 10
7 8 11
6 7 9
5 7 8
7 8 10
7 8 10
5 6 8
6 7 9
6 7 9
5 6 8
7 8 10
6 7 9
5 6 8
4 5 7
7 8 10
7 8 10
5 6 8
5 6 7
6 7 9
6 7 9
6 8 10
6 7 9
7 8 11
8 9 12
4 5 7
6 8 10
4 5 6
6 7 9
6 7 9
6 7 9
6 7 10
7 8 10
5 7 9
6 7 9
6 8 10
5 7 8
5 6 8
6 7 9
7 9 11
6 7 9
6 7 9
6 8 10
5 7 8
5 6 8
6 7 9
5 6 8
5 6 7
5 6 8
6 7 9
6 7 9
6 7 9
7 8 10
5 6 8
5 6 7
5 6 8
5 6 8
6 7 9
5 6 7
6 7 9
5 6 8
5 6 8
5 6 7
5 6 8
5 6 8
5 5 7
7 8 11
10 13 18
11 14 19
10 13 17
11 14 19
11 15 20
11 14 19
10 13 17
12 15 20
12 16 21
11 15 20
11 14 19
12 15 20
12 16 21
12 15 21
12 15 21
12 15 21
12 16 21
12 16 21
12 15 21
13 16 22
12 16 22
11 15 20
13 17 23
12 16 21
12 16 21
12 16 21
12 16 22
12 16 21
13 17 22
12 16 22
12 16 21
12 16 22
13 16 22
13 17 23
13 16 22
13 17 24
13 17 23
14 18 24
13 17 23
13 17 23
13 17 23
12 16 22
13 17 22
13 16 22
13 17 23
14 18 24
13 17 23
13 17 23
14 18 24
14 18 23
13 17 23
13 17 23
13 17 23
13 17 23
14 18 24
14 18 24
14 17 23
13 18 24
14 18 25
14 18 25
14 18 24
14 18 24
14 18 24
14 18 24
14 18 24
14 18 24
14 18 24
14 18 24
14 18 24
14 18 24
14 18 24
13 17 23
14 18 24
14 18 24
14 18 24
14 18 24
14 18 24
14 18 24
14 18 24
13 18 24
14 18 24
14 19 25
14 18 24
14 18 24
14 18 24
14 18 25
14 18 24
14 18 24
14 18 24
14 18 25
14 19 25
14 18 24
14 18 24
13 18 24
14 18 25
14 19 25
14 18 25
14 18 24
14 18 24
14 18 25
14 18 25
14 18 25
14 18 24
14 18 24
14 18 25
14 18 24
14 18 25
15 19 25
14 18 25
14 19 25
14 18 25
14 18 25
14 18 24
14 18 24
14 18 25
14 18 25
14 19 25
15 19 25
14 19 25
14 18 24
14 18 24
15 19 25
14 18 24
14 18 24
14 19 25
14 18 24
14 18 25
14 18 24
14 18 24
14 18 24
14 18 25
14 19 25
14 19 25
14 19 25
14 19 25
14 19 25
14 18 25
14 19 25
14 19 25
14 19 25
15 19 25
14 18 25
14 18 25
14 18 25
14 18 25
14 19 25
15 19 25
14 19 25
14 19 25
14 18 25
14 18 25
14 19 25
14 18 24
14 18 25
14 19 25
15 19 25
14 18 25
14 18 25
15 19 25
14 19 25
14 18 25
14 19 25
14 19 25
14 18 25
14 18 24
14 19 25
14 19 25
14 18 25
14 18 24
14 19 25
14 18 25
14 18 25
14 18 25
14 19 25
14 18 25
14 19 25
14 19 25
14 18 24
14 18 25
14 19 25
14 18 25
14 18 25
14 19 25
14 18 24
14 18 25
13 17 24
14 18 25
14 18 24
14 19 25
14 18 25
14 18 25
14 19 25
14 18 24
14 19 25
14 19 25
14 18 24
14 18 25
14 19 25
14 18 24
14 18 25
14 18 25
14 19 25
15 19 25
14 19 25
14 19 25
14 18 24
14 18 25
14 18 25
15 19 25
14 18 24
14 18 24
14 18 24
13 17 23
14 18 24
14 18 24
14 19 25
13 17 23
13 18 24
15 19 25
14 18 24
14 18 24
14 18 24
14 18 25
14 18 24
14 18 24
14 18 24
14 18 25
14 18 24
14 18 24
14 18 24
14 18 24
14 18 24
14 18 24
13 17 23
14 18 24
14 18 24
13 17 23
13 18 24
14 18 25
13 17 23
14 18 24
14 18 24
14 18 24
14 18 25
12 16 22
13 17 23
13 18 24
14 18 24
13 17 23
13 17 23
14 18 24
13 17 23
14 18 24
14 18 24
14 18 24
13 17 23
13 17 23
13 17 24
14 18 24
13 17 23
13 17 23
13 16 22
13 17 23
14 18 24
13 17 22
13 17 23
14 18 23
13 16 22
13 17 23
13 17 24
13 17 23
13 17 23
13 17 22
13 17 22
13 17 23
12 15 21
12 16 21
12 16 21
12 16 21
13 17 23
12 16 21
13 16 22
12 16 21
13 17 23
12 16 21
12 15 21
13 16 22
13 16 22
12 16 21
12 16 21
12 16 21
12 16 21
10 14 18
12 15 20
10 14 18
11 15 20
12 15 21
10 14 18
10 14 18
12 15 21
11 15 20
10 12 16
12 15 20
11 14 19
11 14 19
11 14 19
10 13 18
9 12 16
9 12 16
5 7 9
4 5 7
3 4 5
5 6 8
4 5 7
4 5 6
5 6 8
5 6 7
5 6 8
6 7 9
6 8 10
5 6 7
5 6 8
4 5 7
5 6 8
5 6 8
5 6 8
6 7 8
6 7 9
5 7 8
7 9 11
6 7 8
6 7 9
7 9 11
5 6 8
6 8 10
6 7 9
6 8 10
5 6 8
7 8 10
6 7 9
6 7 9
6 7 9
6 7 9
6 7 8
5 6 7
6 7 8
6 7 9
5 6 8
6 7 9
6 8 10
6 7 9
6 7 9
6 7 9
7 9 11
5 6 8
7 8 10
6 7 9
5 7 8
8 9 12
5 6 7
5 6 7
6 8 10
8 9 12
5 6 8
4 5 6
6 7 9
7 9 11
6 7 9
7 8 10
5 6 8
7 8 10
5 6 8
5 6 8
5 7 8
6 7 9
5 6 8
5 6 8
5 6 8
5 7 8
7 8 10
6 8 10
6 7 9
5 6 8
5 7 8
6 7 9
6 7 9
6 7 9
6 8 10
5 6 7
6 7 9
3 4 5
5 6 8
6 7 9
5 6 8
5 6 7
5 6 8
5 6 8
5 6 7
6 7 9
9 11 15
10 13 17
11 14 18
10 13 18
12 15 20
10 13 17
10 13 18
10 13 17
11 15 20
11 14 19
11 14 19
11 14 19
10 14 18
12 15 20
11 14 18
12 15 20
12 15 21
13 16 22
12 15 21
12 16 22
11 14 19
12 16 21
12 16 21
12 15 21
12 16 21
12 15 21
12 16 22
12 16 21
13 17 22
13 17 22
12 16 22
13 17 22
12 16 21
13 17 23
13 17 22
13 17 23
13 16 22
13 17 23
14 18 24
13 16 22
13 17 23
12 16 21
13 17 23
13 17 23
13 17 22
13 16 22
13 17 23
13 17 23
13 17 22
13 17 23
14 18 24
14 18 24
13 17 23
13 17 22
13 17 23
14 18 24
13 17 23
12 16 21
14 18 24
13 17 23
14 18 24
14 18 24
14 18 24
14 18 24
13 17 23
13 17 23
13 17 24
14 18 25
13 17 23
14 18 24
14 18 24
14 18 24
14 19 25
14 18 24
14 18 24
14 18 24
14 18 24
14 18 24
14 18 24
14 18 24
14 18 24
13 17 23
14 18 24
14 18 25
14 18 25
14 18 24
14 18 24
14 18 24
14 18 24
14 18 25
14 18 25
14 18 24
14 18 24
14 18 24
14 19 25
14 18 25
14 18 24
14 18 24
14 18 25
14 18 25
14 18 24
14 18 24
14 18 24
14 18 25
14 18 25
14 18 24
14 18 25
14 18 25
14 18 24
14 18 25
14 18 25
14 18 25
14 18 25
14 18 25
14 18 25
14 18 24
14 18 24
14 18 25
14 19 25
14 18 25
15 19 25
14 19 25
14 18 25
14 18 24
14 19 25
14 18 24
14 18 24
14 19 25
14 18 24
14 18 25
14 19 25
14 19 25
14 19 25
14 18 25
14 18 25
14 19 25
14 18 25
14 19 25
14 18 24
14 19 25
14 18 25
14 18 25
14 18 25
14 19 25
14 18 24
14 18 25
14 18 25
14 19 25
14 19 25
14 18 25
14 19 25
14 19 25
14 19 25
14 18 25
14 19 25
14 18 24
14 19 25
15 19 25
14 18 25
14 18 25
14 18 25
14 18 25
14 19 25
14 18 24
14 19 25
14 19 25
14 19 25
14 19 25
14 19 25
14 18 25
14 18 25
14 19 25
14 19 25
14 18 25
14 18 25
14 18 24
14 19 25
14 19 25
14 18 25
14 18 25
14 19 25
14 18 25
14 18 24
14 19 25
14 18 25
14 18 24
14 18 24
14 18 25
14 18 24
14 18 24
15 19 25
14 18 25
14 18 25
14 18 25
14 18 25
14 19 25
14 18 25
14 19 25
14 19 25
14 18 25
14 18 25
14 18 25
14 18 23
14 18 25
14 18 24
14 19 25
14 18 24
14 18 24
14 19 25
14 18 24
14 18 24
14 18 24
14 18 24
14 18 25
14 18 24
14 18 24
14 18 25
14 18 24
14 18 24
14 18 25
14 19 25
13 17 23
14 18 24
14 18 25
14 18 24
14 18 25
14 18 24
14 18 24
14 18 23
13 18 24
14 18 24
13 18 24
14 18 24
14 18 24
14 18 25
14 18 24
13 17 23
14 18 24
14 18 24
13 17 23
13 17 23
13 17 23
14 18 24
14 18 24
14 18 24
14 18 24
13 17 24
14 17 23
14 18 24
13 17 23
13 17 23
13 17 23
13 17 23
13 17 23
13 18 24
13 17 23
14 18 24
14 18 24
13 17 23
13 17 23
13 17 24
12 16 22
13 17 23
14 17 23
13 17 23
13 17 23
13 17 23
12 16 21
13 17 23
13 17 23
13 17 23
13 17 23
13 17 23
13 17 23
13 17 23
12 16 21
13 17 23
12 15 21
11 15 20
13 17 22
12 15 21
11 15 20
12 16 22
12 15 21
12 15 20
12 15 21
12 16 21
11 15 20
12 16 21
12 15 20
12 16 21
12 15 20
11 15 19
11 14 19
11 15 20
12 16 21
11 14 18
10 13 17
11 15 20
10 13 18
10 13 18
9 12 16
11 14 19
9 12 16
9 12 16
10 13 18
9 12 16
10 12 17
10 13 17
8 11 15
10 12 16
5 6 8
4 5 6
4 5 6
5 6 8
4 5 7
6 7 9
5 6 8
6 7 9
6 7 9
4 5 7
5 7 8
4 5 6
4 5 6
4 5 7
5 6 8
6 7 9
6 7 9
5 6 8
5 6 7
6 7 8
6 7 8
6 7 9
6 7 9
6 7 9
4 5 7
5 7 8
5 6 8
6 7 9
5 6 8
5 7 8
6 7 9
6 7 9
6 7 9
7 8 10
5 6 8
6 7 9
5 6 8
6 7 9
6 7 9
6 7 9
7 8 10
4 6 7
5 6 8
5 6 8
7 8 11
5 7 8
5 6 7
6 7 9
5 6 8
6 7 9
5 6 8
5 6 8
7 9 11
5 6 8
6 7 9
5 6 8
6 7 9
5 7 8
5 7 8
7 8 10
5 7 8
7 9 11
5 7 9
5 6 8
6 7 9
6 7 9
7 8 10
6 7 9
5 6 8
6 7 9
6 8 10
7 8 10
6 7 9
5 7 8
4 5 7
3 4 6
5 6 7
5 6 8
5 7 9
5 6 7
5 6 8
5 7 8
4 5 7
4 5 7
4 5 7
4 5 6
5 6 8
6 8 10
9 12 16
10 13 17
10 13 18
9 12 16
9 12 16
9 12 16
10 13 17
10 12 17
11 14 18
12 15 21
12 15 20
10 13 18
11 14 19
12 15 20
12 15 21
11 15 20
11 14 19
10 13 18
11 14 19
12 15 21
12 16 21
12 15 20
11 14 19
12 16 21
12 15 21
12 15 20
12 15 20
12 16 22
12 16 21
13 17 22
11 15 20
13 16 22
13 16 22
13 17 22
12 16 21
13 17 23
12 15 20
13 17 23
12 16 21
13 17 23
13 17 23
13 17 23
12 16 21
12 16 21
13 16 22
12 16 21
13 17 23
12 16 22
14 18 24
14 18 24
13 17 23
14 18 24
13 17 23
13 17 23
14 18 24
13 17 23
13 17 23
13 17 23
13 16 22
14 18 24
14 18 24
13 17 23
14 18 24
14 18 24
13 18 24
14 18 24
14 18 24
14 18 24
14 18 24
13 18 24
13 17 23
13 17 23
13 17 23
14 18 24
14 18 24
14 18 24
13 17 23
14 18 24
13 17 23
13 17 22
14 18 24
14 18 25
14 18 24
14 18 24
14 19 25
14 19 25
14 18 25
14 19 25
14 19 25
14 18 24
14 18 24
14 19 25
14 18 24
14 18 25
14 18 24
14 18 24
14 18 24
14 18 24
15 19 25
14 19 25
14 18 24
14 18 24
14 18 24
14 18 25
14 18 24
14 18 25
14 18 24
14 18 25
14 18 25
14 18 25
14 19 25
14 18 24
14 18 24
14 18 25
14 18 24
14 18 25
14 18 25
14 19 25
14 18 25
14 18 24
14 19 25
14 18 25
14 18 25
14 19 25
14 19 25
14 19 25
14 19 25
14 18 25
14 19 25
14 18 25
14 19 25
14 19 25
14 18 25
14 19 25
14 19 25
14 18 25
14 18 25
14 18 25
14 19 25
14 18 25
14 19 25
15 19 25
14 19 25
15 19 25
14 19 25
14 19 25
14 18 25
14 18 25
15 19 25
14 19 25
15 19 25
14 18 24
14 18 25
14 19 25
14 19 25
14 19 25
14 19 25
14 19 25
14 19 25
15 19 25
14 19 25
14 18 24
15 19 25
14 19 25
14 18 25
14 18 25
14 18 25
14 19 25
15 19 25
14 18 25
14 18 25
14 18 25
14 18 25
14 19 25
14 19 25
14 19 25
14 18 25
14 18 25
15 19 25
14 18 25
14 18 24
14 19 25
14 18 25
14 18 25
14 18 25
14 18 25
14 19 25
14 18 24
14 18 24
14 19 25
14 18 25
14 18 25
14 18 25
14 18 25
14 18 25
14 18 25
14 18 25
14 18 25
14 18 25
14 18 25
14 19 25
14 18 25
14 18 25
14 19 25
14 18 24
14 18 24
14 18 24
13 17 24
14 18 25
14 18 25
14 18 24
14 18 25
14 19 25
14 19 25
14 18 25
14 18 24
14 18 25
14 18 24
14 18 24
14 18 24
14 18 24
13 17 23
13 17 23
14 18 25
14 18 25
14 18 25
14 18 24
14 18 24
14 18 25
14 18 25
14 18 24
14 18 24
13 17 23
13 17 23
14 17 23
14 18 24
14 18 25
13 17 23
14 18 25
14 18 23
14 18 25
14 18 24
13 17 23
13 17 22
14 18 24
13 18 24
13 18 24
13 18 24
13 17 23
13 17 23
13 17 23
14 18 24
13 17 23
13 17 23
13 17 22
13 17 23
13 17 23
14 18 24
14 18 24
13 17 22
13 17 22
13 16 22
14 18 24
13 17 23
14 18 24
13 17 23
13 16 22
13 17 23
13 16 22
13 17 23
12 16 21
13 17 23
12 16 22
13 17 23
13 17 23
13 17 22
12 16 21
13 17 23
12 16 22
13 16 22
13 17 22
13 16 22
12 16 22
13 17 22
12 15 20
11 15 20
11 15 20
12 16 22
12 15 21
11 15 20
11 14 19
11 15 20
11 15 20
12 15 21
11 15 20
11 14 19
11 14 19
10 14 18
11 14 19
10 13 18
10 13 18
11 14 18
11 14 19
9 12 16
9 12 16
9 12 16
9 12 17
11 14 19
10 13 17
9 11 15
9 12 15
9 12 17
8 10 14
6 7 9
4 5 6
6 7 9
5 6 7
4 5 6
6 8 10
6 7 9
5 6 8
5 5 7
4 5 7
4 5 7
6 7 9
7 8 10
5 7 8
5 6 7
5 7 8
6 7 9
5 6 8
6 7 9
5 6 7
6 7 9
5 6 7
6 7 9
6 8 10
6 7 9
7 8 10
5 7 8
6 7 9
5 6 8
6 7 9
4 5 7
5 6 8
6 7 8
5 6 8
6 8 10
6 7 9
6 7 8
5 6 8
5 7 8
5 6 7
6 7 9
5 7 8
6 8 10
6 7 9
6 7 9
6 7 9
7 8 10
4 5 7
6 7 9
5 6 8
6 7 9
5 6 7
4 5 6
6 8 10
6 7 9
5 6 8
5 6 8
5 7 9
6 7 9
6 7 9
6 7 9
5 7 8
5 6 7
4 5 7
6 7 9
7 8 10
5 7 8
6 7 9
6 7 9
6 7 9
5 7 8
5 6 7
5 6 7
6 7 9
4 5 6
4 5 7
5 7 8
3 4 5
5 6 7
6 7 9
4 5 6
4 5 7
5 6 7
6 7 8
5 6 8
6 8 10
9 12 15
8 10 14
9 12 16
10 13 18
10 13 17
10 12 16
10 13 17
10 13 17
10 13 17
11 14 19
10 13 18
11 15 20
11 14 18
11 15 20
12 15 20
9 12 16
11 14 19
11 14 19
11 15 20
11 15 20
11 14 19
13 16 22
13 17 22
11 14 19
12 15 21
12 15 20
11 15 20
12 16 21
12 16 21
11 14 19
13 17 23
12 16 21
13 17 22
12 15 21
12 16 22
12 16 21
13 17 23
12 16 22
12 16 22
13 16 22
12 16 21
13 16 22
14 18 24
12 16 21
13 17 23
13 17 23
13 17 23
14 18 24
14 18 23
13 17 23
13 18 24
13 17 23
13 17 23
13 17 24
13 17 22
13 17 23
13 17 23
14 18 24
12 16 22
14 18 25
14 18 24
13 16 22
13 17 23
14 18 24
14 18 24
13 17 23
14 18 24
14 18 24
13 17 23
14 18 24
14 18 24
14 18 25
14 18 25
13 17 24
14 18 24
13 18 24
13 17 23
13 17 23
14 18 24
13 17 23
13 17 23
14 17 23
14 18 24
14 18 24
14 18 24
14 18 24
14 18 25
14 18 24
14 18 24
14 18 24
13 18 24
14 18 25
14 18 24
14 18 24
13 17 23
13 17 23
14 18 24
14 18 24
13 17 23
14 18 25
14 18 24
14 18 24
14 18 24
14 18 24
14 18 25
14 18 24
14 18 24
14 19 25
14 18 24
14 19 25
14 19 25
14 18 24
14 18 24
14 18 25
14 18 25
14 19 25
14 18 25
14 19 25
14 18 25
14 18 25
14 18 25
14 19 25
14 18 24
15 19 25
14 18 25
14 19 25
14 18 24
15 19 25
14 18 25
14 19 25
14 18 24
14 18 25
15 19 25
14 18 25
14 18 24
14 18 24
14 19 25
14 18 24
14 18 25
14 18 25
14 19 25
14 19 25
14 18 25
14 19 25
14 19 25
14 18 25
14 19 25
14 18 25
14 19 25
14 18 25
14 18 25
14 19 25
14 19 25
14 19 25
14 18 25
14 18 25
14 18 25
14 19 25
14 18 25
14 18 25
14 18 25
14 18 25
14 18 25
14 19 25
14 19 25
14 18 25
14 18 24
14 19 25
14 18 25
14 19 25
14 18 25
14 19 25
14 19 25
14 19 25
14 18 25
14 18 25
14 19 25
14 18 25
14 18 24
14 18 24
14 18 25
14 19 25
14 19 25
14 19 25
14 19 25
14 18 24
14 18 24
14 18 25
14 18 24
14 19 25
14 18 25
15 19 25
14 18 24
14 18 24
14 18 25
14 18 25
14 18 25
14 18 24
14 18 24
14 18 24
14 19 25
14 18 25
14 18 24
14 18 24
14 18 25
14 18 24
14 18 24
14 18 24
14 18 25
13 18 24
14 18 25
14 18 24
14 18 25
14 18 24
14 18 25
14 18 24
13 17 23
14 18 25
13 17 23
14 19 25
14 18 24
14 18 24
14 18 24
14 18 25
14 18 25
14 18 24
14 18 25
14 18 24
14 18 24
14 18 24
14 18 24
13 17 23
14 18 24
14 18 25
13 17 23
13 17 23
14 18 25
14 18 25
14 18 24
13 17 23
14 18 24
14 18 25
13 17 23
13 17 23
14 18 24
14 18 24
14 18 24
14 18 24
14 18 24
14 18 24
14 18 23
13 18 24
14 18 24
13 17 23
13 17 23
14 18 24
14 18 24
13 17 23
13 17 23
13 17 23
13 17 22
14 18 24
13 17 23
13 18 24
13 17 23
13 17 23
13 17 22
13 17 23
13 16 22
13 16 22
12 15 21
12 16 21
13 17 23
13 17 23
13 17 23
13 17 22
12 16 21
12 15 20
12 16 21
11 15 20
12 15 20
11 14 19
12 16 21
12 15 21
12 16 22
12 16 21
12 16 21
12 16 21
11 14 19
12 16 21
11 14 19
11 15 19
10 13 18
12 16 22
12 15 21
11 14 19
11 15 19
11 15 20
11 14 19
10 14 18
11 14 18
12 15 21
11 14 19
11 14 19
10 13 17
11 14 19
9 11 15
8 11 15
10 12 16
10 13 17
10 12 17
11 14 19
8 10 14
10 13 17
8 10 14
6 8 10
5 6 8
4 5 6
4 4 6
5 6 7
5 6 8
7 8 10
4 5 7
4 5 7
6 7 9
4 5 6
5 6 8
4 5 7
4 5 7
4 5 6
4 5 7
5 6 7
5 6 8
5 6 8
6 7 9
5 7 8
6 7 9
5 6 8
5 6 8
6 7 9
6 7 9
6 7 9
5 6 8
6 7 8
6 7 9
4 5 7
6 7 9
5 6 8
6 7 9
5 6 7
4 5 7
5 6 8
6 7 8
6 7 9
6 7 9
6 7 9
6 8 10
7 8 10
4 5 7
6 7 9
5 7 8
5 6 7
5 7 8
7 8 10
7 8 10
5 7 8
6 8 10
4 5 7
5 7 8
5 6 8
5 6 8
5 6 8
6 7 9
5 6 7
6 7 9
6 7 9
7 8 10
6 7 9
6 7 9
5 6 8
4 5 7
5 6 7
6 7 9
6 7 8
6 7 9
4 5 6
5 6 8
5 5 7
5 6 8
5 6 8
5 6 8
5 6 7
5 6 8
5 6 7
4 5 7
4 5 7
5 5 7
5 6 7
6 8 11
9 12 16
9 12 16
10 13 17
11 14 18
9 11 15
9 12 16
10 13 18
9 12 16
10 13 17
10 14 18
10 13 17
11 14 18
11 15 20
11 15 20
10 13 17
10 13 18
10 14 18
11 14 19
11 15 20
10 13 18
11 14 19
11 15 20
11 15 20
11 15 20
12 16 21
11 14 19
12 15 21
12 16 21
11 14 20
11 15 20
12 16 21
13 16 22
12 16 21
13 17 23
12 16 21
12 16 21
13 17 23
11 15 20
13 16 22
12 16 21
13 17 22
12 16 21
13 17 23
13 17 22
13 17 23
13 18 24
13 17 23
13 17 23
13 17 22
12 16 21
13 16 22
13 16 22
13 17 23
13 17 23
14 18 23
14 18 24
14 18 23
12 16 22
13 17 22
13 17 23
13 17 23
13 18 24
14 18 24
13 17 23
13 17 23
14 18 24
14 18 24
14 18 24
14 18 24
13 17 23
14 18 24
14 18 25
14 18 24
14 18 24
13 17 23
13 17 23
14 18 24
14 18 24
14 18 24
13 17 22
14 18 24
14 18 24
13 18 24
14 18 24
13 18 24
14 18 24
14 18 24
14 18 24
14 18 24
13 18 24
14 18 24
14 18 24
14 18 24
14 18 25
14 18 24
14 18 24
14 19 25
14 18 24
14 18 24
14 19 25
14 18 23
14 18 24
14 18 24
14 18 25
14 18 25
14 18 24
14 18 24
14 18 25
14 18 24
14 18 25
14 18 24
14 18 24
14 18 25
14 18 25
14 18 25
14 19 25
14 19 25
14 18 24
14 18 24
14 19 25
14 18 24
14 18 24
14 18 24
14 18 25
14 19 25
14 19 25
14 18 25
14 18 25
15 19 25
14 19 25
14 19 25
14 19 25
14 18 25
14 19 25
15 19 25
14 18 24
14 18 25
14 18 24
14 19 25
14 19 25
14 18 25
14 19 25
14 18 24
14 18 25
14 19 25
14 18 25
14 19 25
14 18 25
14 18 25
14 18 25
14 19 25
14 19 25
14 18 25
14 19 25
14 19 25
15 19 25
14 18 25
14 19 25
14 19 25
14 18 25
14 18 25
14 18 25
14 18 25
14 18 25
14 18 24
14 18 24
14 19 25
14 19 25
14 18 25
14 18 25
14 18 24
14 18 25
14 18 24
14 18 24
14 18 25
14 18 24
14 18 25
14 19 25
14 18 25
14 19 25
14 18 24
14 19 25
14 19 25
14 18 24
14 19 25
14 19 25
14 18 24
14 18 24
14 18 25
14 18 25
14 18 25
14 18 25
14 18 25
14 18 24
14 18 24
14 18 24
14 18 24
14 18 25
14 19 25
14 18 25
14 19 25
13 17 23
14 18 25
14 19 25
14 18 24
14 18 25
14 18 24
14 18 24
14 18 24
14 18 24
14 18 24
14 19 25
14 18 24
14 18 24
14 18 25
14 18 25
14 18 24
14 18 24
14 18 25
13 17 23
13 17 23
14 18 24
14 18 25
14 19 25
14 18 24
14 18 24
14 18 24
13 17 22
13 17 24
14 18 24
14 18 24
14 18 24
13 17 23
14 18 24
14 18 24
14 18 24
13 17 23
13 17 23
13 17 23
13 17 23
14 18 24
13 17 23
14 18 24
12 16 22
14 18 24
13 17 23
14 18 24
13 17 23
13 17 23
13 17 23
13 17 22
13 17 23
13 17 23
13 17 23
13 17 23
14 18 24
14 18 23
13 18 24
13 17 22
13 17 22
12 16 21
13 17 22
13 17 23
13 17 23
13 17 23
13 17 23
12 16 22
13 17 23
13 17 22
13 17 23
13 17 23
13 17 23
12 16 22
14 17 23
13 17 22
13 16 22
11 15 20
12 16 21
12 15 21
12 15 21
13 17 23
12 15 20
12 16 21
12 16 21
13 17 22
12 16 21
13 16 22
11 15 20
11 14 19
12 15 20
11 14 19
12 16 21
11 14 19
10 13 18
12 16 21
11 15 20
11 14 19
11 14 19
11 14 19
11 15 19
11 14 19
10 13 18
10 12 17
10 13 18
10 13 17
10 13 18
9 12 16
10 13 17
9 12 16
9 12 16
9 12 16
9 11 15
9 11 15
9 12 16
10 12 17
8 11 14
8 10 14
8 10 13
4 5 7
4 5 6
4 5 6
4 5 7
6 7 9
4 5 7
4 5 6
6 8 9
4 5 6
5 6 7
5 6 7
5 6 8
4 5 6
4 5 6
4 5 6
5 7 8
7 8 10
5 6 8
7 8 10
4 5 7
5 6 8
4 5 7
4 5 6
4 6 7
5 6 8
5 6 8
6 7 9
7 8 10
6 7 9
5 6 8
4 5 7
6 7 9
6 7 9
7 8 10
7 8 10
6 7 9
6 7 8
6 8 9
5 6 8
6 7 9
7 8 10
5 7 8
5 7 8
6 7 9
6 7 9
6 7 9
5 6 8
6 7 9
6 7 9
5 6 8
5 6 8
6 7 9
7 8 10
5 7 8
6 7 9
6 7 9
5 6 8
6 7 9
5 6 7
6 7 9
5 7 8
5 6 8
6 7 9
6 7 9
5 6 7
6 7 9
6 8 9
7 8 10
5 6 7
4 5 7
3 4 5
4 5 7
6 8 10
5 6 7
5 6 8
5 6 8
4 5 6
4 4 6
5 6 7
4 5 6
7 9 12
9 12 16
8 10 13
8 10 13
9 11 15
9 12 16
9 12 16
9 11 15
10 12 16
11 14 19
10 13 17
9 12 16
10 13 17
11 14 18
10 13 17
11 14 19
10 13 18
12 15 20
11 14 19
11 14 19
11 14 19
11 15 20
11 14 19
11 15 20
11 14 19
11 15 20
12 15 20
11 15 20
12 15 20
12 15 20
11 15 20
13 16 22
13 16 22
13 17 22
12 15 21
12 16 21
12 16 21
12 15 20
13 16 22
12 15 20
13 16 22
13 17 22
12 16 22
12 16 22
13 16 22
12 15 21
12 16 22
13 17 22
13 17 23
13 16 22
13 16 22
12 16 21
13 16 22
13 17 23
14 18 24
13 17 23
14 18 24
13 18 24
13 17 23
13 17 23
12 16 21
14 18 24
13 17 22
12 16 21
14 18 24
14 18 24
13 17 23
13 17 22
13 17 23
13 18 24
14 18 24
13 17 23
13 17 22
13 17 23
14 18 24
14 18 24
13 17 23
14 18 24
14 18 24
14 18 24
14 18 24
13 16 22
14 18 24
13 17 24
13 17 22
14 18 24
14 18 24
13 17 22
14 18 24
14 18 24
14 18 24
14 18 25
13 17 23
14 18 24
14 18 24
13 18 24
14 18 24
14 19 25
13 17 23
14 18 24
14 18 24
14 18 24
14 18 24
14 19 25
14 18 24
14 18 24
14 18 24
14 18 24
14 18 24
14 18 24
14 18 24
14 18 25
14 18 24
13 18 24
14 18 25
14 18 24
14 19 25
14 18 25
14 18 24
14 19 25
14 18 24
14 18 25
14 19 25
14 19 25
14 19 25
14 18 24
14 18 25
14 18 24
14 18 24
14 18 24
14 18 25
14 19 25
14 18 24
14 19 25
14 18 24
14 18 24
14 19 25
14 18 25
14 19 25
14 19 25
14 19 25
14 18 24
15 19 25
14 19 25
14 19 25
14 18 24
14 18 25
14 18 25
14 19 25
14 18 25
14 19 25
14 18 25
14 18 25
14 19 25
14 19 25
14 18 25
14 19 25
14 18 25
14 18 25
15 19 25
14 18 25
14 18 25
14 18 25
14 19 25
14 18 25
14 19 25
14 18 25
14 18 25
14 18 24
14 19 25
14 19 25
14 19 25
14 19 25
14 18 24
15 19 25
14 19 25
14 19 25
14 18 24
14 18 24
14 18 24
14 18 25
14 19 25
14 18 25
15 19 25
14 18 24
14 18 24
14 19 25
14 19 25
14 18 25
14 18 25
14 18 24
14 18 25
14 19 25
14 18 25
14 18 25
14 19 25
14 18 25
14 19 25
14 18 24
14 18 25
14 18 25
14 18 25
14 18 25
14 18 24
14 18 24
14 18 24
13 18 24
14 18 24
14 18 25
14 18 24
13 17 23
13 18 24
14 18 25
14 18 24
14 18 24
14 18 24
13 17 23
14 18 25
13 17 23
14 18 24
13 17 23
14 18 24
14 18 24
13 17 23
13 18 24
14 18 24
14 18 24
14 18 24
14 18 24
14 18 24
14 18 24
13 17 23
14 18 24
13 17 23
13 18 24
14 18 24
14 18 24
14 18 24
14 18 24
13 18 24
14 18 24
14 18 24
14 18 24
14 18 24
14 18 24
14 18 24
13 17 23
13 17 23
13 17 22
14 18 24
13 16 22
13 17 22
13 17 23
13 17 23
13 17 24
12 16 22
13 16 22
14 17 23
13 17 23
14 18 24
13 17 23
13 17 23
12 16 22
13 17 23
12 16 22
13 16 22
13 16 22
13 17 23
13 17 22
13 16 22
12 16 21
12 15 21
13 17 22
13 16 22
13 17 22
13 17 22
14 18 24
13 16 22
12 16 21
12 16 21
11 15 19
12 16 21
11 15 19
12 16 21
12 16 22
12 15 21
12 15 21
12 15 20
12 16 21
10 14 18
12 15 20
12 15 20
12 15 20
11 14 19
12 15 21
11 14 20
10 12 16
11 15 20
11 15 20
11 15 20
10 13 17
11 14 19
10 13 18
11 14 18
10 13 18
9 12 16
9 11 15
10 13 18
9 12 15
9 12 16
9 11 15
10 13 17
9 11 15
8 10 13
10 13 17
9 12 15
8 11 14
9 12 16
8 10 13
7 9 12
8 10 13
5 6 8
3 4 5
4 5 7
5 6 7
5 6 7
5 6 7
5 6 7
4 5 6
4 5 6
5 6 7
4 5 6
6 8 9
5 6 8
5 6 8
5 6 7
4 5 7
4 5 7
6 7 8
4 5 6
5 7 8
5 6 8
5 6 8
6 7 9
5 6 8
5 6 7
5 6 8
5 6 8
6 7 9
6 7 8
4 5 6
4 5 7
5 6 8
5 6 7
5 6 7
5 6 8
6 7 9
5 6 7
6 7 9
6 7 9
5 6 7
5 6 7
5 6 7
5 6 7
6 7 9
4 5 7
4 5 7
5 6 7
4 5 7
6 7 9
5 6 8
5 6 8
6 7 9
5 6 7
5 6 8
5 6 8
5 6 8
5 6 8
6 7 9
4 5 6
5 6 8
4 4 6
5 6 8
5 6 7
5 6 7
5 6 8
5 6 7
4 5 7
6 7 9
5 6 8
5 6 7
4 5 7
5 7 8
5 6 7
5 6 7
5 6 8
5 6 8
5 6 7
5 6 8
7 9 13
8 10 13
8 10 14
7 9 12
8 10 13
9 12 15
10 13 17
9 12 16
9 11 15
10 13 17
9 11 15
9 12 16
11 13 18
10 13 17
9 12 16
8 11 14
10 13 17
9 12 16
11 14 18
11 14 19
10 14 18
11 14 19
11 14 19
11 14 19
11 15 20
12 16 21
11 15 19
11 15 20
12 15 20
11 15 20
12 16 21
11 15 20
11 14 19
12 15 20
12 16 21
13 17 23
12 16 21
11 15 20
11 15 20
12 16 21
13 17 23
12 15 21
12 16 21
12 16 21
13 17 23
13 16 22
12 16 22
13 17 23
12 16 21
13 17 23
13 16 22
13 17 23
13 17 23
13 17 23
13 17 22
13 17 23
13 17 23
14 18 24
13 17 23
13 17 23
13 16 22
13 17 23
13 17 23
14 18 24
13 18 24
13 17 23
14 18 24
13 17 23
13 17 23
13 17 23
14 18 24
14 18 24
14 18 24
14 18 24
13 17 23
13 18 24
14 18 24
13 17 24
14 18 25
13 17 24
14 18 24
14 18 25
13 17 23
13 17 23
14 18 24
14 18 24
13 16 22
13 17 23
14 18 24
13 17 23
13 17 23
13 18 24
14 18 23
14 18 25
14 18 25
13 18 24
14 18 25
14 18 24
14 18 24
14 18 24
14 18 24
14 18 24
13 18 24
13 17 23
14 18 24
14 18 24
14 18 24
14 18 24
14 18 24
14 18 24
14 18 24
14 18 24
14 18 24
14 18 25
14 18 24
14 18 24
14 18 25
14 18 24
14 18 25
14 18 25
14 19 25
14 18 24
14 19 25
14 18 25
14 18 24
14 18 25
14 19 25
14 18 25
14 18 25
14 18 24
14 19 25
14 18 24
14 18 24
14 19 25
14 18 25
14 19 25
14 18 25
14 18 24
14 18 25
14 18 25
14 18 25
14 18 25
14 19 25
14 18 25
14 18 25
14 19 25
14 18 25
14 19 25
14 18 24
14 18 25
14 18 24
14 18 24
14 19 25
14 18 25
14 18 24
14 18 25
14 19 25
14 18 25
14 19 25
14 18 25
14 18 24
14 19 25
14 18 24
14 18 25
14 18 25
14 18 25
14 18 25
14 19 25
14 19 25
14 18 25
14 18 24
14 18 25
14 19 25
14 18 25
14 18 25
14 18 25
14 18 24
14 18 25
14 19 25
14 19 25
14 19 25
14 18 24
14 19 25
14 18 25
14 18 24
14 18 25
14 19 25
14 18 24
14 18 24
14 19 25
14 19 25
14 18 24
14 18 25
14 18 24
14 18 24
14 18 25
14 19 25
14 18 25
14 19 25
14 18 25
15 19 25
15 19 25
13 18 24
14 18 24
14 18 25
14 18 25
14 18 25
14 18 25
14 18 25
14 18 24
14 18 25
14 18 25
14 18 23
14 18 24
13 18 24
14 18 25
14 18 24
14 18 25
14 18 24
14 18 24
14 18 24
14 18 24
14 18 24
14 18 25
14 18 25
14 18 24
14 18 25
14 18 25
14 18 24
14 18 24
13 17 23
14 18 25
14 18 25
14 18 24
13 17 22
13 17 23
13 17 23
14 18 23
13 17 24
14 18 24
13 17 23
13 17 23
14 18 24
14 18 24
14 18 24
13 17 23
13 17 23
13 17 23
14 18 24
13 17 23
14 18 24
13 16 22
13 17 23
12 16 22
13 17 23
14 18 24
14 18 24
14 18 24
14 18 24
13 17 22
13 17 23
12 16 22
12 16 21
13 17 23
13 17 23
12 16 22
13 17 23
12 16 22
13 17 22
14 18 24
13 18 24
13 16 22
12 16 22
11 15 20
12 16 22
13 17 23
13 16 22
11 14 19
12 15 20
12 15 20
12 16 21
12 16 21
12 16 21
12 15 20
12 16 22
12 15 21
12 15 20
11 15 20
12 16 22
12 15 21
11 14 19
12 15 20
11 14 19
12 15 20
11 14 18
12 15 20
12 16 21
11 14 18
11 14 19
11 14 19
10 13 17
10 13 17
11 14 19
11 14 18
11 14 18
9 11 15
12 15 21
9 12 16
11 14 18
10 13 18
8 11 15
9 11 15
8 11 14
9 11 15
9 11 15
8 10 13
9 11 15
10 13 17
7 9 13
7 9 12
8 10 13
9 11 14
7 9 12
6 7 9
4 4 6
5 5 7
5 6 7
4 5 6
5 6 8
5 7 8
4 5 7
4 5 7
4 5 6
3 4 5
4 5 6
4 5 7
4 5 7
5 6 7
5 6 7
5 6 8
3 4 5
5 6 8
4 5 7
6 7 9
6 7 8
5 6 8
6 7 8
5 6 7
5 6 7
5 6 8
6 8 10
5 7 8
5 6 8
4 5 6
6 7 9
6 7 9
5 6 8
4 5 7
5 7 8
6 7 9
7 8 10
5 6 8
6 7 9
6 7 9
5 6 8
5 6 8
4 5 6
5 6 7
4 5 7
4 5 7
5 6 8
5 6 8
5 7 8
4 5 6
5 6 8
5 6 7
5 6 8
6 7 9
5 6 8
5 6 8
5 6 7
5 6 8
4 5 6
4 5 6
5 6 7
3 4 5
5 7 8
6 7 8
4 5 7
4 4 6
6 8 9
4 5 6
5 6 8
3 4 5
3 4 5
5 6 7
4 5 6
4 5 7
5 7 9
6 8 11
7 9 12
9 11 15
7 9 12
7 9 12
9 11 15
9 12 16
8 10 13
9 12 16
9 12 16
8 11 14
8 11 15
10 13 17
8 11 14
10 13 18
9 12 16
11 14 18
11 14 18
10 12 16
9 12 17
11 14 18
11 15 20
10 13 18
11 14 19
10 13 18
11 14 19
11 14 19
11 15 20
12 16 21
12 15 20
12 15 20
10 14 18
12 16 21
11 14 19
11 15 20
12 16 21
12 16 21
12 16 21
12 15 20
12 16 21
12 16 21
13 17 22
12 16 21
13 16 22
12 15 20
12 16 21
13 16 22
12 16 22
12 16 21
12 16 21
11 15 20
13 16 22
12 16 21
12 16 22
13 17 23
12 16 22
13 16 22
13 17 22
13 16 22
13 17 22
13 17 22
13 16 22
13 17 23
13 17 23
13 17 23
13 17 23
14 18 24
13 17 22
13 18 24
13 17 23
14 18 24
13 17 23
13 17 22
13 17 23
14 18 24
13 17 23
13 17 23
13 17 22
13 17 24
14 18 24
14 19 25
14 18 24
13 18 24
14 18 23
13 17 22
14 18 24
14 18 24
14 18 24
14 18 25
14 18 24
13 17 23
13 17 23
14 18 24
14 18 24
14 18 25
13 17 23
14 18 24
14 18 24
14 18 24
14 19 25
14 18 24
14 18 24
14 18 24
14 18 24
14 18 25
14 18 24
14 18 25
14 18 25
14 18 24
14 18 24
14 18 24
13 17 23
14 18 25
14 18 24
14 18 25
14 18 25
14 18 24
13 17 24
14 18 24
13 17 23
14 19 25
14 18 25
15 19 25
14 18 24
14 18 24
14 18 24
14 18 25
14 19 25
14 19 25
14 18 24
14 19 25
14 18 24
14 18 25
13 17 23
14 18 24
14 19 25
14 18 24
14 18 25
14 18 25
14 18 24
14 19 25
14 18 25
15 19 25
14 18 24
14 18 25
14 18 25
14 18 25
14 18 25
15 19 25
14 18 25
14 19 25
14 18 25
15 19 25
14 19 25
14 18 25
14 18 24
14 18 25
14 19 25
14 18 25
14 19 25
15 19 25
14 18 25
14 18 25
14 18 24
14 18 25
14 18 25
14 19 25
15 19 25
14 18 25
14 18 25
14 18 25
14 18 24
14 19 25
14 18 25
14 18 24
14 18 25
14 18 24
14 19 25
14 19 25
14 18 24
14 19 25
14 18 24
14 18 24
14 18 24
14 18 24
14 18 25
15 19 25
14 18 24
13 17 23
14 18 25
14 18 25
14 18 24
14 18 24
14 18 25
14 18 25
14 18 25
13 18 24
14 18 25
14 18 25
14 18 24
14 19 25
15 19 25
14 18 24
14 18 24
14 18 25
14 19 25
14 18 25
13 17 23
14 18 24
14 18 24
14 18 25
14 18 24
14 18 25
14 18 24
14 18 24
13 18 24
14 18 24
14 18 24
13 18 24
14 18 24
14 18 24
14 18 24
14 18 24
14 18 24
14 18 24
14 18 24
14 18 24
14 18 24
14 18 24
14 18 24
14 18 25
13 17 23
13 17 22
14 18 24
13 17 23
13 17 23
13 18 24
13 17 23
13 17 22
13 18 24
14 18 25
14 18 24
14 18 25
13 17 23
14 18 25
14 18 24
13 17 23
14 18 24
13 17 24
13 17 22
13 17 23
13 16 22
13 18 24
14 18 24
13 17 23
13 17 22
13 17 23
13 17 23
13 16 22
13 16 22
13 17 23
12 16 21
13 17 22
12 16 21
13 17 23
13 17 22
12 16 21
13 17 23
11 15 21
13 16 22
12 16 21
13 17 23
13 17 23
12 16 21
12 16 22
12 16 21
12 16 21
11 15 20
12 15 20
11 14 19
11 15 20
12 15 21
12 16 21
12 16 21
12 16 22
11 15 20
12 15 20
12 15 20
11 14 19
12 15 20
10 13 18
11 14 19
12 15 21
10 13 17
11 14 19
11 15 19
11 15 20
11 15 20
10 13 17
10 13 18
11 14 19
10 13 18
10 13 17
9 12 16
9 12 16
10 13 17
10 13 17
9 11 15
9 11 15
9 12 16
10 12 17
9 11 15
9 12 16
10 12 17
10 12 16
9 12 16
7 9 12
8 10 13
9 11 15
9 12 15
8 10 13
7 9 12
7 8 11
7 8 11
8 10 13
5 7 9
4 5 7
4 5 6
5 6 7
4 5 6
4 5 6
4 5 7
4 5 6
4 5 7
4 5 6
5 6 7
5 6 7
4 5 7
4 5 6
5 6 8
5 6 8
6 7 8
4 5 6
4 5 6
4 4 6
5 6 7
5 6 7
7 8 10
5 5 7
5 6 8
7 8 10
5 7 8
4 5 6
5 6 7
5 6 7
5 6 7
6 7 8
7 8 10
5 6 7
5 6 8
5 6 8
5 6 8
4 5 6
6 7 9
5 6 8
6 7 9
7 8 10
5 6 7
6 7 8
4 5 7
6 7 9
5 6 7
4 4 6
6 8 9
5 7 8
5 6 7
4 5 7
5 6 7
5 6 8
5 6 7
5 6 7
5 6 8
4 5 7
4 5 6
5 6 7
5 6 7
5 6 7
5 6 7
6 7 9
4 5 6
5 6 8
4 5 6
4 5 7
4 4 6
3 4 5
4 5 6
4 4 6
5 6 8
7 9 12
6 8 11
7 9 13
8 11 14
9 11 15
9 11 15
8 11 14
7 9 13
9 12 16
9 12 15
8 11 14
9 11 15
8 11 14
9 12 16
11 14 18
10 13 17
11 14 19
10 13 17
8 11 14
9 11 15
10 13 17
11 15 19
11 15 19
11 15 20
10 13 18
11 15 20
11 14 19
11 15 20
10 13 17
11 14 18
10 13 18
11 15 20
12 15 20
12 16 21
12 15 21
11 14 19
12 15 20
12 16 21
11 15 20
12 15 20
11 14 19
12 15 20
12 15 20
12 15 20
12 15 20
13 16 22
11 15 20
12 15 21
12 16 21
12 16 21
11 15 20
13 17 22
13 17 23
13 17 22
12 16 21
13 17 23
13 16 22
13 17 23
13 16 22
12 16 21
13 17 22
13 17 22
12 16 22
13 16 22
13 18 24
13 17 23
13 17 22
13 17 22
13 17 23
13 17 22
14 18 24
14 18 24
13 17 23
14 18 24
13 17 23
13 17 23
14 18 24
13 18 24
13 17 23
12 16 22
13 18 24
14 18 24
14 18 24
13 18 24
14 18 24
14 18 24
13 17 22
14 18 24
14 18 24
14 18 24
13 17 23
14 18 24
14 18 25
14 18 24
14 18 24
14 18 24
14 18 24
14 18 24
13 17 24
14 18 24
14 18 24
13 17 23
14 18 24
14 18 24
14 18 24
14 18 24
14 18 24
14 18 24
13 17 24
13 17 23
14 18 24
14 18 24
14 18 25
14 18 24
13 17 24
14 18 25
14 18 25
14 18 24
14 18 24
14 18 24
14 18 24
14 18 25
13 18 24
14 18 24
14 18 25
14 18 25
14 18 24
14 18 24
14 18 24
14 18 25
14 18 24
14 18 24
14 18 24
14 19 25
14 18 25
14 18 25
14 18 24
14 18 24
14 19 25
14 18 25
14 18 25
15 19 25
14 18 25
14 18 25
14 19 25
14 18 24
14 18 25
14 18 25
14 19 25
14 19 25
14 19 25
14 18 25
14 18 25
14 18 25
14 18 24
14 18 25
14 18 25
14 18 25
14 18 24
14 19 25
14 19 25
14 19 25
14 18 25
14 19 25
14 18 25
14 18 25
14 19 25
14 18 24
14 18 25
14 18 24
14 18 25
14 18 25
14 18 24
14 18 25
14 18 24
15 19 25
14 18 24
14 19 25
14 18 24
14 18 25
14 18 25
14 19 25
14 18 24
14 19 25
14 18 24
14 19 25
14 18 25
14 18 24
14 19 25
14 19 25
14 18 24
14 19 25
14 18 25
14 18 24
14 18 24
14 18 24
14 19 25
14 18 24
14 18 25
14 18 25
14 18 25
14 18 25
14 18 25
14 18 24
14 18 25
14 18 24
14 18 24
14 18 24
14 18 24
14 18 24
14 18 24
14 18 24
14 18 25
14 18 24
14 18 25
14 18 25
14 18 24
14 18 24
14 18 24
14 18 24
13 17 22
14 18 24
14 18 24
14 18 25
14 18 24
14 18 24
13 17 23
14 18 23
14 18 24
13 17 24
14 18 24
14 18 24
14 18 24
14 18 24
14 18 24
14 18 24
14 18 25
14 18 24
13 18 24
14 18 24
13 17 23
13 17 23
14 17 23
13 17 23
13 17 24
13 17 22
14 18 24
13 17 23
14 18 24
12 16 22
14 18 24
14 18 23
14 18 24
13 16 22
14 17 23
14 18 24
13 17 23
12 16 22
13 17 22
13 17 23
13 17 23
13 17 22
12 16 21
12 16 21
13 17 23
13 17 23
13 17 23
13 16 22
13 17 22
12 16 21
13 16 22
12 15 21
13 17 23
13 17 23
13 17 22
12 16 21
12 16 21
12 16 21
13 16 22
12 15 20
11 15 20
12 15 21
12 15 21
12 16 21
12 15 20
11 14 19
11 15 20
11 15 20
10 13 18
11 14 19
11 14 18
11 14 19
12 16 21
12 15 20
10 14 18
11 14 19
11 15 20
10 13 18
12 15 20
11 14 19
10 13 18
10 13 17
9 12 16
10 13 18
9 12 16
8 11 14
10 13 17
9 11 15
9 11 15
9 11 15
9 12 16
10 13 17
9 11 15
9 12 16
9 12 16
8 11 14
9 12 16
9 12 16
9 11 15
8 11 14
9 12 16
6 8 11
8 10 14
8 11 14
6 7 10
6 8 11
6 8 11
6 7 9
6 7 10
6 7 9
4 4 6
3 4 5
5 6 7
4 5 6
4 5 6
4 5 6
4 5 6
4 5 6
3 3 4
5 6 7
5 6 7
5 6 7
4 5 7
3 4 5
4 5 7
4 5 7
5 6 8
4 5 7
5 6 7
4 5 6
6 7 8
4 5 7
4 5 6
5 6 8
5 6 7
5 6 8
5 6 7
5 6 7
5 6 7
5 6 7
5 6 8
4 5 6
4 5 6
5 6 7
4 5 7
5 6 7
5 6 7
4 4 6
5 5 7
3 4 5
4 5 7
5 6 7
6 7 9
4 5 7
5 6 8
4 5 6
5 6 8
5 6 8
4 5 6
6 7 8
4 5 7
6 7 8
5 6 8
6 7 9
5 6 8
5 6 8
4 4 6
5 6 7
5 6 8
4 5 6
5 6 8
4 5 7
4 5 6
5 6 7
4 5 7
3 3 4
3 4 5
4 5 7
5 6 7
6 7 10
6 8 11
7 9 11
8 10 14
7 9 12
8 10 13
8 10 13
8 10 13
7 9 12
9 12 16
8 10 14
8 11 14
7 9 12
10 13 17
8 10 13
10 12 17
10 13 18
9 12 16
9 12 16
10 13 18
11 14 18
9 12 16
9 12 16
11 14 19
10 13 18
10 13 18
10 12 17
10 14 18
9 12 16
10 13 18
11 15 20
11 14 19
11 15 20
11 14 18
12 15 20
11 14 19
10 13 18
11 15 20
13 16 22
11 14 19
11 15 20
12 15 20
13 16 22
10 14 19
11 15 20
12 16 21
12 16 21
11 15 20
12 16 21
13 17 23
12 16 21
12 16 22
11 14 19
13 16 22
12 15 20
13 17 22
12 15 21
13 16 22
13 17 23
12 16 21
13 17 22
13 16 22
13 17 23
13 16 22
13 17 23
13 17 23
13 17 22
13 17 23
13 17 23
12 16 21
13 17 23
14 18 24
12 16 22
13 16 22
14 18 23
13 17 23
13 17 23
14 18 24
13 17 23
14 18 24
13 18 24
13 17 23
13 17 23
13 17 23
13 17 23
12 16 21
13 17 23
14 18 24
14 18 25
13 17 23
13 17 23
14 18 24
14 18 24
14 18 24
14 18 24
13 17 23
14 18 24
14 18 24
14 18 24
14 18 24
14 18 24
13 17 23
14 18 24
14 18 24
14 18 25
14 18 25
14 18 24
14 18 24
14 18 24
14 18 24
14 18 24
14 18 24
14 18 24
13 18 24
14 18 25
14 18 24
14 18 24
14 18 25
14 18 24
14 18 24
14 18 24
14 18 24
14 18 24
14 18 24
14 18 25
14 18 24
14 18 24
14 18 24
14 18 25
14 19 25
14 18 25
13 17 24
14 19 25
14 19 25
14 18 25
14 19 25
14 18 24
14 18 25
14 19 25
14 18 24
14 19 25
14 18 25
14 18 24
14 18 24
14 18 25
14 18 24
14 18 25
14 19 25
14 18 25
14 18 25
14 18 24
14 18 25
14 18 24
14 18 24
14 18 24
14 19 25
14 18 25
14 19 25
14 19 25
14 18 25
14 18 25
14 18 25
14 18 25
14 18 24
14 18 24
14 18 24
14 18 24
14 18 24
15 19 25
14 19 25
14 18 25
14 18 25
14 18 25
14 19 25
14 18 24
14 18 25
14 19 25
14 18 24
14 18 25
14 18 25
14 19 25
14 18 24
14 18 25
14 18 25
14 18 24
14 18 24
14 18 25
14 18 24
14 18 24
14 19 25
14 18 24
14 18 25
14 18 25
14 18 25
14 18 24
14 18 25
14 18 25
14 18 24
14 18 25
14 19 25
14 18 25
14 19 25
14 18 24
14 18 24
14 19 25
14 18 24
14 18 24
14 18 24
14 18 24
14 18 24
13 18 24
14 18 25
14 18 25
14 18 24
14 18 24
14 18 24
14 18 24
14 18 24
13 17 23
14 18 24
13 17 23
14 18 24
13 17 23
13 17 23
13 17 23
14 18 24
14 18 24
14 18 24
14 18 24
13 17 23
13 16 22
14 18 24
14 18 24
13 17 23
13 17 23
14 18 24
14 18 24
13 17 23
13 17 24
14 18 24
14 18 24
14 18 24
14 18 24
14 18 25
14 18 24
13 16 22
13 17 23
13 17 23
13 17 23
13 17 23
14 18 24
14 18 24
14 18 24
13 17 24
13 17 23
12 16 21
13 17 22
13 17 23
13 17 23
13 17 23
13 17 22
13 17 23
13 17 22
13 16 22
12 15 21
13 17 23
13 16 22
12 16 21
13 16 22
12 15 21
12 16 21
12 16 21
13 17 23
12 16 21
12 15 21
12 16 21
13 16 22
12 16 22
12 16 21
11 15 20
12 16 21
12 15 20
13 16 21
11 14 19
11 15 20
11 15 20
12 15 21
12 15 20
12 15 21
11 14 19
10 13 18
11 14 19
11 14 19
11 14 18
11 15 19
11 14 19
11 15 20
11 15 20
11 14 18
11 14 18
10 13 18
11 14 18
11 14 19
11 14 19
9 12 16
10 13 17
10 12 16
9 11 15
9 12 16
8 10 14
10 13 17
8 10 14
9 12 15
8 10 14
10 12 17
8 10 14
9 12 16
8 11 14
8 10 13
7 9 12
8 10 13
7 9 12
7 9 12
8 10 13
7 9 11
7 9 12
7 9 12
7 9 11
5 7 9
5 7 9
5 7 9
6 7 9
3 3 4
4 5 7
5 5 7
4 5 6
4 4 6
4 5 6
3 4 4
3 4 5
4 5 6
5 6 8
4 5 7
5 7 8
4 5 7
5 6 8
4 5 7
5 6 8
3 4 5
5 6 7
4 5 7
4 4 5
4 5 6
4 5 7
3 4 5
4 5 7
5 5 7
4 4 6
5 6 7
4 5 6
4 4 6
5 7 8
4 4 6
5 6 7
4 5 7
3 4 5
4 5 6
6 7 8
4 5 7
5 6 8
5 6 7
3 4 5
4 5 7
4 5 7
4 5 7
5 6 7
5 6 8
4 5 7
4 5 6
5 6 8
5 6 8
5 6 7
4 5 6
5 6 7
5 6 7
4 5 7
4 5 7
4 5 7
4 5 6
5 5 7
5 6 7
6 7 8
4 5 6
4 5 6
5 6 7
4 5 6
3 3 4
4 5 7
5 6 8
5 6 8
6 8 11
6 7 10
8 10 13
7 9 12
6 8 11
8 10 14
8 10 13
8 10 13
8 10 14
7 10 13
9 12 16
9 11 14
8 10 14
9 11 15
10 13 17
9 12 16
8 10 14
9 12 16
10 13 17
9 11 15
8 10 14
10 13 17
10 13 17
10 12 16
9 12 16
11 14 19
10 13 18
10 12 17
11 14 19
11 14 19
11 14 18
10 14 18
11 14 19
11 14 20
11 14 19
11 14 19
11 14 18
11 14 18
12 15 20
11 15 19
11 14 20
12 15 20
12 16 21
12 15 21
12 15 21
13 16 22
12 16 21
12 15 20
12 16 22
12 15 20
12 16 22
12 15 20
12 16 22
12 16 21
12 16 21
12 16 21
12 16 22
13 16 22
11 15 20
12 16 21
12 16 21
12 16 22
12 16 21
12 16 21
13 17 23
13 16 22
13 17 23
13 17 23
14 18 24
14 18 24
13 17 23
14 18 24
13 17 22
14 18 24
13 17 23
13 17 22
14 18 24
14 18 24
13 17 23
13 17 22
13 17 23
13 17 24
14 18 25
13 17 22
14 18 24
13 18 24
13 17 23
13 18 24
14 18 24
14 18 24
14 18 25
13 18 24
13 17 23
13 17 23
13 18 24
14 18 24
14 18 24
14 18 24
14 18 24
14 18 24
14 18 24
13 17 23
14 18 24
14 18 24
13 17 23
14 18 24
13 17 23
14 18 24
14 18 24
14 18 24
13 17 23
14 18 24
13 17 23
14 18 24
14 18 24
14 18 24
14 18 24
14 18 24
14 18 24
13 18 24
14 18 24
14 18 24
14 18 24
14 18 25
14 18 25
14 18 24
14 18 24
14 18 24
14 18 25
14 18 25
14 19 25
14 18 25
14 19 25
15 19 25
14 18 25
14 18 24
14 19 25
14 18 24
14 18 24
14 18 24
14 18 25
14 18 24
14 18 24
14 18 24
14 18 25
14 18 24
14 19 25
14 18 25
14 18 25
14 18 24
14 18 24
14 18 25
14 19 25
14 18 25
14 19 25
14 18 24
14 18 24
14 19 25
14 18 24
15 19 25
14 18 24
14 18 24
14 19 25
14 19 25
14 18 24
14 18 24
14 18 24
14 18 25
14 19 25
14 19 25
14 19 25
14 19 25
14 18 25
14 19 25
14 18 25
14 19 25
14 18 24
14 18 24
14 18 25
14 18 25
14 19 25
13 18 24
14 18 25
14 18 24
14 18 25
14 18 24
14 18 25
14 18 25
14 18 25
14 18 24
14 18 24
14 18 24
14 19 25
14 18 24
14 18 24
14 18 25
14 18 24
14 18 24
13 18 24
14 18 24
14 18 24
14 19 25
14 18 25
15 19 25
14 18 24
13 17 23
14 18 24
14 18 25
14 18 24
14 18 24
14 18 24
14 19 25
14 18 24
13 18 24
14 18 24
14 18 24
14 18 24
14 18 24
14 18 24
14 19 25
13 18 24
13 18 24
13 17 23
14 18 24
13 17 23
13 17 24
13 17 23
14 18 24
14 18 24
14 18 24
14 18 24
13 18 24
14 18 24
13 17 23
14 18 24
13 17 23
14 18 24
13 17 23
14 18 24
12 16 22
13 17 23
13 17 23
13 17 23
13 17 22
14 19 25
13 17 23
14 18 24
13 17 23
13 17 23
13 17 23
13 17 23
14 18 24
13 17 24
13 17 23
13 17 23
13 17 23
13 17 22
14 18 24
12 16 21
12 16 22
13 17 23
13 17 23
13 17 23
12 16 21
13 17 22
12 16 21
13 16 22
13 17 23
12 15 21
13 16 22
12 16 21
12 15 21
12 16 21
13 17 23
12 15 21
13 17 22
12 16 22
12 16 21
12 15 20
13 17 22
12 16 22
12 16 21
12 16 21
12 15 21
12 16 21
12 15 21
11 14 19
10 13 18
10 13 18
11 15 20
9 12 16
11 15 20
11 14 18
11 14 19
11 15 19
11 14 20
11 15 20
11 14 19
10 14 18
9 12 16
10 13 17
11 14 19
11 14 19
10 13 18
11 14 19
11 14 18
9 12 17
9 11 15
9 12 16
9 12 16
10 13 17
9 11 15
9 12 16
8 11 15
9 12 16
8 10 13
8 11 14
9 11 15
7 9 12
8 11 14
9 11 15
7 9 12
8 10 13
8 10 13
7 9 11
8 10 14
7 9 11
7 9 12
6 8 10
4 6 7
4 5 7
5 6 8
5 6 8
4 6 7
5 5 7
4 4 5
5 5 7
4 5 6
4 4 5
5 6 7
4 4 6
4 5 6
5 6 7
3 3 4
3 4 5
4 5 7
6 7 9
3 4 5
4 5 6
4 5 6
4 5 6
3 4 5
3 4 5
4 5 7
4 4 6
5 6 7
4 5 7
4 5 7
4 5 6
4 5 6
5 6 7
4 4 5
6 7 8
4 5 6
4 5 6
4 5 6
5 6 7
3 4 5
4 5 6
5 6 7
5 6 8
4 5 6
3 4 5
6 7 9
4 5 6
5 6 8
5 6 7
4 4 6
5 6 8
5 6 8
4 5 7
4 5 6
5 6 7
4 5 7
3 4 5
4 5 7
4 5 7
4 5 6
5 6 7
4 4 6
3 3 4
5 6 7
3 4 5
3 4 5
4 5 6
4 5 6
4 6 7
6 7 9
6 7 9
5 6 8
6 8 10
5 7 9
7 9 12
6 8 11
7 9 13
6 8 10
7 9 13
7 9 12
8 11 14
7 9 11
8 10 14
9 11 15
9 12 16
10 13 17
8 10 14
9 11 15
9 12 16
8 11 14
9 11 15
9 12 15
10 12 17
9 12 16
10 13 18
10 14 18
10 13 17
10 13 17
9 12 16
10 13 17
10 13 18
11 15 20
10 13 18
10 13 17
11 15 20
11 14 19
11 15 20
10 13 18
11 14 19
11 14 19
11 14 19
11 15 20
11 15 20
12 16 21
12 16 21
12 15 20
13 16 22
12 16 21
12 16 21
12 16 21
12 15 21
13 17 23
12 16 21
11 15 20
13 16 22
12 16 21
14 18 24
11 15 20
13 17 23
12 15 20
13 17 23
13 16 22
12 15 20
12 15 21
12 16 21
13 17 23
13 17 23
13 17 22
12 16 22
13 17 22
12 16 22
13 18 24
13 16 22
14 18 24
12 16 22
13 16 22
13 16 22
13 17 23
13 17 23
13 17 23
14 18 24
13 17 23
13 17 22
13 17 23
14 18 24
14 18 24
14 18 24
13 18 24
14 18 23
14 18 24
13 17 23
14 18 24
13 17 22
14 19 25
14 18 24
14 18 25
13 18 24
14 18 24
14 18 24
14 18 24
14 18 24
14 18 24
14 18 25
14 18 24
13 18 24
14 18 24
13 17 23
14 18 24
14 18 24
14 18 24
14 18 24
14 18 24
13 18 24
13 17 23
14 18 25
14 18 25
14 18 24
14 18 24
13 17 23
14 18 24
14 18 24
14 19 25
14 18 24
14 18 24
13 17 23
14 18 24
14 18 25
14 18 24
14 18 24
14 18 25
14 18 24
14 18 24
14 18 24
14 18 25
14 18 24
14 18 24
13 17 24
14 18 24
14 18 25
14 18 24
14 19 25
14 18 24
14 19 25
14 18 24
14 18 24
14 18 24
14 18 25
14 19 25
14 18 25
14 18 24
14 18 25
14 18 25
14 18 25
14 18 25
14 18 25
14 18 25
14 18 25
14 18 25
14 18 25
14 18 24
14 18 24
14 18 24
14 19 25
14 18 25
14 18 24
14 18 25
14 18 24
14 18 25
14 18 25
14 19 25
14 19 25
14 18 24
14 18 24
13 18 24
14 18 24
14 18 24
14 18 25
14 18 25
14 18 25
14 18 25
14 18 24
14 19 25
14 18 25
14 18 24
14 18 24
14 18 24
14 18 24
14 18 25
14 18 25
14 18 24
14 18 24
13 17 23
14 18 25
14 19 25
14 18 24
14 18 25
14 18 24
14 19 25
14 18 24
14 18 25
14 18 24
14 19 25
14 18 24
14 18 25
14 18 25
14 18 24
13 17 23
14 18 24
14 18 25
13 18 24
13 18 24
14 18 24
14 18 25
14 18 25
14 18 24
14 18 25
14 18 24
14 18 24
13 17 24
14 18 24
14 18 25
13 17 23
14 18 25
14 18 24
14 18 24
14 18 25
14 18 24
12 16 22
14 18 25
14 18 24
13 17 22
13 17 23
13 17 23
14 18 24
14 18 24
13 18 24
14 18 24
13 17 23
14 18 24
14 18 24
13 17 23
14 18 23
14 18 24
14 18 24
13 17 22
13 17 23
13 17 23
13 17 23
13 17 23
13 17 23
12 16 22
13 16 22
13 17 23
13 17 22
13 17 23
13 17 23
13 17 22
13 16 22
13 16 22
13 17 23
13 17 22
12 16 22
13 17 23
13 17 23
12 16 22
13 17 22
13 17 23
12 16 21
14 18 24
12 16 21
12 16 21
12 16 21
12 16 21
13 17 22
13 17 23
12 16 22
13 17 22
13 17 22
12 16 21
14 18 24
11 15 20
11 15 20
12 16 21
13 16 22
11 15 20
11 15 20
12 15 21
12 16 21
11 15 20
11 14 19
11 15 20
10 13 18
11 14 19
11 14 19
11 14 19
11 15 19
10 13 18
10 13 18
9 12 16
9 12 16
10 13 17
10 12 17
10 13 18
10 13 17
10 13 17
10 13 18
10 13 17
10 12 17
10 13 17
9 12 16
8 11 15
10 12 16
9 11 15
9 11 15
8 10 14
9 11 15
9 11 15
9 11 15
8 10 14
8 10 14
7 10 13
8 11 14
8 11 14
6 8 11
7 9 12
7 8 11
6 8 10
7 8 11
6 8 11
5 7 9
5 7 9
6 8 11
6 8 10
6 8 11
4 5 6
4 6 7
5 6 8
4 5 7
3 3 4
2 3 4
4 5 6
4 5 6
3 4 5
4 5 7
3 4 5
4 5 6
5 6 7
3 4 5
2 3 4
3 4 5
4 5 6
4 5 6
4 5 6
3 4 5
3 4 4
5 6 8
4 5 7
3 4 5
4 5 6
6 7 8
4 5 6
3 4 5
4 5 6
5 6 7
4 4 6
5 6 7
6 7 9
4 4 6
4 5 6
5 6 7
5 7 8
5 5 7
4 5 7
3 4 5
6 7 8
4 5 7
5 6 7
4 5 6
4 4 6
4 5 6
3 4 5
5 6 8
3 4 5
3 4 5
5 6 8
4 5 7
4 5 6
4 5 7
3 4 5
5 6 8
4 5 6
3 3 4
4 4 5
3 3 4
4 5 6
4 5 7
4 5 7
4 6 7
5 6 8
5 7 9
4 6 7
7 9 12
7 8 11
6 7 10
5 7 9
6 7 10
7 9 12
7 8 11
7 10 13
7 9 12
9 11 15
8 10 14
7 9 12
8 10 13
8 10 13
8 10 13
9 11 15
9 11 15
8 11 15
8 11 14
10 13 17
8 10 14
9 12 15
8 11 14
10 12 16
8 11 14
10 14 18
9 12 16
10 12 17
10 12 17
9 12 16
10 13 18
12 15 20
11 14 19
10 13 18
10 13 18
11 14 19
9 12 16
11 15 20
10 13 17
11 15 20
10 13 18
11 15 20
12 16 21
12 15 21
12 15 20
11 15 20
11 14 19
11 14 19
11 14 19
11 15 20
13 16 22
12 15 21
12 15 21
11 14 19
12 16 21
11 15 20
13 17 22
13 17 22
13 16 22
12 15 20
13 16 22
12 16 21
12 15 21
13 17 23
12 16 22
12 15 21
13 17 22
12 16 22
13 17 23
12 16 22
13 16 22
13 17 23
13 17 23
12 16 22
13 17 23
13 17 22
13 17 23
13 17 23
13 17 23
13 16 22
13 17 23
14 18 24
13 17 23
13 17 24
13 17 23
13 17 23
13 18 24
13 16 22
13 17 24
13 17 22
13 17 23
13 17 23
14 18 24
14 18 24
14 18 25
13 17 24
13 18 24
13 17 23
13 17 23
14 18 24
13 18 24
14 18 24
13 17 23
13 18 24
13 17 23
13 17 23
13 18 24
14 18 24
14 18 24
14 18 24
14 18 24
14 18 24
14 18 24
13 17 23
14 19 25
14 18 24
14 18 25
14 18 24
14 18 24
13 18 24
14 18 25
14 19 25
14 18 25
14 18 24
14 18 25
13 18 24
15 19 25
14 18 24
14 18 24
14 18 25
14 18 24
14 18 24
14 18 24
14 18 24
14 19 25
14 18 25
14 19 25
14 18 25
14 18 24
14 18 24
14 18 24
14 18 24
14 18 24
14 18 24
14 18 24
13 17 23
14 18 25
14 18 24
14 18 24
14 18 25
14 18 24
14 18 24
14 18 24
14 18 24
14 18 25
14 18 24
14 18 25
14 18 25
14 19 25
14 18 25
15 19 25
14 18 24
14 19 25
14 19 25
14 18 25
14 18 25
14 18 25
14 19 25
14 18 25
14 18 25
14 18 25
14 19 25
14 18 24
14 18 25
13 17 24
15 19 25
14 18 24
14 18 24
14 18 25
14 18 24
14 19 25
14 18 24
14 19 25
14 18 24
13 17 24
14 19 25
14 18 24
14 18 25
14 18 25
14 18 25
14 18 24
14 18 24
14 18 24
14 18 24
13 17 24
13 17 23
13 17 24
14 18 24
14 18 24
14 19 25
14 19 25
14 19 25
14 18 24
14 18 24
14 18 24
14 18 24
13 17 24
14 19 25
14 18 24
14 18 24
14 18 24
14 18 24
14 18 24
14 18 24
14 18 23
13 17 23
14 18 25
13 17 23
14 18 24
14 18 24
14 18 24
14 18 25
13 17 23
14 18 24
13 17 23
13 17 23
14 17 23
14 18 24
13 17 23
14 18 24
13 18 24
14 17 23
14 18 24
14 18 24
12 16 22
13 17 23
14 18 24
13 17 23
13 17 23
13 17 23
13 17 23
14 18 24
13 17 23
13 17 23
13 17 23
14 18 24
13 17 23
13 17 23
14 19 25
13 16 22
14 18 24
12 16 22
13 17 23
14 17 23
13 16 22
13 17 23
13 17 23
12 16 22
13 16 22
12 16 21
13 17 22
13 17 23
13 17 23
13 17 23
12 16 21
12 16 22
13 17 23
13 16 22
12 16 22
13 16 22
13 17 23
12 16 21
12 15 21
12 16 22
12 16 22
13 17 22
12 15 21
12 15 21
12 16 21
11 15 20
11 15 19
11 14 19
12 16 21
11 15 20
11 15 20
12 15 21
11 15 20
11 14 19
10 13 18
12 15 21
10 13 18
12 15 20
11 14 19
11 14 19
11 15 20
11 14 19
10 13 17
11 14 18
10 13 18
9 12 17
10 13 18
10 13 17
8 11 15
10 13 17
10 13 17
11 14 18
11 14 19
9 12 16
10 13 17
8 10 13
8 10 14
7 9 12
8 10 14
9 11 15
8 11 14
8 10 14
7 8 11
7 10 13
9 11 15
7 9 12
8 10 13
7 9 11
7 9 12
7 9 12
7 9 12
7 8 11
6 7 10
8 10 13
8 9 12
6 7 9
5 6 8
5 6 8
6 8 10
6 8 10
4 6 7
6 7 9
4 5 7
4 5 6
3 4 5
2 3 4
3 4 5
3 4 5
4 5 6
4 5 6
3 4 5
4 5 6
5 5 7
3 4 5
4 5 7
3 4 5
4 5 6
3 4 5
3 4 5
5 6 7
4 5 6
4 5 6
3 4 5
3 4 5
4 5 6
4 5 6
4 5 7
4 5 6
4 4 6
4 5 7
4 5 6
4 5 7
4 5 6
3 4 5
5 6 7
5 6 8
4 5 6
5 6 7
3 4 5
5 5 7
3 4 5
3 3 4
4 5 6
4 5 7
5 6 7
4 4 5
3 4 5
3 4 5
5 6 8
3 4 5
5 6 7
4 5 7
3 3 4
3 4 4
4 4 6
3 3 4
3 4 5
3 4 5
4 5 6
4 5 6
4 5 6
3 4 5
4 5 6
5 6 8
5 7 9
4 5 7
5 7 9
5 6 8
5 7 9
5 6 8
7 8 11
8 10 13
6 8 11
6 7 10
7 9 12
6 8 10
8 11 14
7 9 12
8 11 14
9 11 15
8 11 14
8 11 14
9 12 16
8 10 13
10 12 16
9 11 15
9 11 15
7 8 11
9 11 15
10 12 16
9 12 16
11 13 18
11 14 19
10 12 16
10 13 18
9 12 16
10 13 17
10 13 17
11 14 19
10 13 17
10 14 18
11 14 19
12 15 20
12 16 21
10 14 18
11 14 19
11 14 19
11 14 19
11 15 20
12 16 22
11 14 19
11 14 19
12 16 22
11 14 19
12 16 21
12 15 20
11 14 19
11 15 20
12 16 21
12 15 21
13 16 22
12 16 21
12 16 21
12 15 21
11 15 19
12 16 21
13 16 22
12 15 21
12 16 22
12 16 21
12 16 21
12 16 22
12 15 21
13 17 23
12 16 22
13 16 22
12 15 21
13 17 22
12 16 21
12 16 22
14 18 24
13 18 24
13 17 22
13 17 22
14 18 24
13 17 22
13 17 23
13 17 23
13 18 24
13 17 23
13 17 23
14 17 23
13 17 23
13 17 22
13 17 23
14 18 24
13 17 23
14 18 24
13 17 23
14 18 25
13 18 24
14 18 24
13 17 23
14 18 24
14 18 24
13 17 23
14 18 24
14 18 24
14 18 24
14 18 24
13 17 23
13 18 24
14 19 25
13 17 23
13 18 24
13 17 23
14 18 25
14 18 25
14 18 24
14 18 24
14 18 25
14 18 24
13 17 23
13 17 23
14 18 24
13 18 24
14 18 24
14 18 25
14 18 24
14 19 25
14 18 24
14 18 24
14 18 24
13 17 23
14 18 24
14 18 24
14 19 25
13 17 23
14 19 25
14 18 25
14 18 24
13 17 23
14 18 25
14 18 24
14 18 25
14 18 25
14 18 24
14 18 25
14 18 24
14 18 25
14 18 24
14 18 24
14 18 24
14 18 25
14 18 24
14 18 24
14 18 25
14 18 24
14 18 24
14 18 24
14 18 24
14 18 25
14 18 24
14 18 25
14 18 25
14 19 25
14 18 24
14 19 25
14 18 25
14 18 25
14 18 24
14 18 24
14 18 25
15 19 25
14 19 25
14 18 25
14 18 25
14 18 24
14 18 25
14 18 25
14 19 25
14 18 25
14 18 25
14 18 24
14 18 24
14 18 25
14 18 24
14 18 24
14 18 25
14 18 24
14 18 24
14 18 25
14 18 25
14 18 24
15 19 25
14 18 24
14 18 24
14 18 24
14 18 24
14 18 25
14 18 24
14 18 24
14 19 25
14 18 25
14 18 24
14 18 25
14 18 24
14 18 25
14 18 25
14 18 24
14 18 25
14 18 24
14 18 24
13 18 24
14 18 24
14 18 23
13 17 23
14 18 25
14 18 24
14 18 24
14 18 24
14 18 24
14 18 24
14 18 24
14 18 24
14 18 25
13 18 24
13 17 23
14 18 24
14 18 24
14 18 24
14 18 24
14 18 24
14 18 24
14 18 25
14 18 24
13 17 23
14 18 24
13 18 24
14 18 24
14 18 25
13 17 23
13 17 23
14 18 24
13 17 23
13 17 23
13 17 22
14 18 24
12 16 22
13 17 22
13 17 23
13 17 22
14 18 24
13 17 23
13 17 23
13 17 23
13 17 23
13 17 22
13 17 23
13 16 22
13 17 23
12 16 21
13 17 23
13 16 22
13 17 23
13 17 23
12 16 21
13 17 23
12 16 22
13 17 23
13 17 23
12 15 21
13 16 22
12 16 22
12 15 21
12 15 20
13 17 23
12 16 22
13 16 22
12 15 20
12 16 21
13 16 22
13 16 22
12 16 21
12 16 21
11 14 19
12 15 21
12 16 22
11 14 19
11 15 20
12 15 21
11 15 20
11 15 20
11 14 19
12 15 20
12 15 20
11 15 20
11 15 20
11 14 19
10 14 18
11 15 20
11 14 19
10 13 18
11 14 19
9 11 15
9 12 16
12 15 21
10 13 17
10 13 17
11 14 18
10 13 18
11 14 18
8 11 15
9 12 15
9 11 15
8 11 14
9 12 16
8 11 14
8 11 14
9 12 15
7 10 13
8 10 13
8 10 13
8 10 14
7 8 11
8 10 13
8 10 13
7 9 12
7 9 12
6 8 11
5 7 9
6 8 10
6 8 10
7 9 11
6 8 11
7 9 12
7 8 11
6 8 10
5 6 8
5 6 8
5 6 8
6 7 10
4 5 7
5 6 7
3 4 5
3 4 5
4 5 6
3 4 5
3 4 5
3 4 5
3 3 4
2 3 3
3 4 5
4 5 7
3 4 5
2 3 3
3 4 5
3 4 5
4 5 7
3 4 5
3 4 5
4 5 6
4 5 7
4 4 6
4 5 6
3 4 5
4 5 6
5 6 7
4 5 7
4 5 6
3 4 5
4 5 6
5 6 7
3 4 5
3 4 5
5 6 8
4 5 7
5 6 7
4 5 6
6 7 9
5 6 8
4 4 5
4 5 6
4 4 6
4 4 5
4 5 6
3 4 5
3 3 4
3 4 5
4 4 6
4 5 6
4 5 7
3 3 4
3 4 5
2 3 3
3 3 4
4 5 6
4 4 6
2 3 4
5 6 7
5 6 8
5 6 8
4 5 7
5 7 9
6 7 9
5 6 8
6 7 9
5 7 9
6 7 9
6 7 10
6 8 10
6 8 10
7 9 12
7 9 12
7 9 12
8 9 12
7 9 12
8 10 13
9 11 15
8 10 14
8 10 14
9 11 15
9 11 15
7 9 13
9 11 14
9 11 15
7 9 12
8 11 14
8 11 14
10 13 17
11 14 19
10 13 17
10 13 17
10 14 18
9 12 16
9 11 15
9 12 17
10 13 17
9 12 16
12 15 21
11 14 19
11 14 19
11 14 18
10 14 18
11 15 20
12 15 20
11 14 19
10 14 18
12 15 20
10 14 18
11 14 19
12 15 20
12 15 20
11 15 20
11 15 20
12 16 22
11 14 19
13 17 23
12 16 22
12 15 20
12 15 21
11 15 20
12 15 20
13 16 22
12 16 21
13 17 22
13 17 22
12 16 21
13 17 23
12 16 22
13 17 23
13 17 23
12 16 21
13 17 22
11 15 20
13 16 22
13 17 23
12 16 21
12 16 22
13 17 23
13 17 23
13 17 23
14 18 24
14 18 24
14 18 24
14 18 24
13 17 23
13 17 23
13 17 23
13 17 23
14 17 23
13 17 23
14 18 24
13 17 23
13 17 24
13 17 23
14 18 24
13 17 22
13 17 23
13 17 23
13 17 23
14 18 24
13 17 23
12 16 22
14 18 24
13 17 22
13 17 23
14 18 24
13 17 23
13 17 22
14 18 24
14 18 24
13 17 23
13 17 23
13 17 23
14 18 24
14 18 24
13 17 23
14 18 24
14 18 24
14 18 24
14 18 24
14 18 24
14 18 24
14 18 25
13 17 23
14 18 24
14 18 24
13 17 22
14 18 25
14 18 25
14 18 24
14 18 24
14 18 24
14 18 25
14 18 24
14 18 24
14 18 24
14 18 24
14 18 24
14 18 24
14 18 24
14 18 25
14 18 25
14 18 25
14 18 25
14 18 24
14 18 24
14 18 25
13 17 23
14 18 24
14 18 24
14 18 24
14 18 24
14 18 25
14 18 24
14 18 24
14 18 24
14 19 25
14 18 25
14 18 24
14 18 25
14 18 25
14 18 24
14 18 24
14 18 25
14 18 25
13 17 24
14 19 25
14 18 24
14 19 25
14 18 25
14 18 24
14 18 24
14 18 24
14 18 24
14 18 24
13 17 23
14 18 24
14 18 25
14 18 25
14 18 25
14 18 24
14 19 25
14 18 24
14 18 24
14 18 24
14 18 24
14 18 24
14 18 24
14 18 24
14 18 24
14 18 24
14 19 25
14 18 24
14 18 24
14 18 24
14 19 25
14 18 24
14 18 25
14 18 24
14 18 24
13 17 23
14 18 24
14 18 24
13 18 24
14 18 24
14 18 24
13 17 24
14 18 25
14 18 25
14 18 24
13 17 23
13 17 23
14 18 25
14 18 24
14 18 24
14 18 24
14 18 25
14 18 24
13 17 23
14 18 24
13 18 24
14 18 24
14 18 24
14 18 24
14 18 24
13 17 23
13 17 23
14 18 24
13 17 23
13 17 23
14 18 25
14 18 24
13 17 24
14 18 24
13 17 23
13 17 22
14 18 24
13 17 24
13 17 23
14 18 25
13 17 22
13 17 23
14 18 24
13 17 23
14 18 24
13 17 23
13 17 22
13 17 23
13 17 23
13 17 23
12 16 22
13 17 23
13 16 22
13 17 23
13 17 22
12 16 21
13 17 23
12 16 22
12 16 22
13 16 22
12 16 22
12 15 21
13 17 23
13 17 23
12 16 22
12 16 22
13 16 22
12 16 21
13 17 22
13 17 23
13 17 22
12 15 20
12 16 22
13 17 22
12 16 21
12 15 20
13 17 23
11 15 20
12 15 21
11 15 20
13 17 23
11 14 19
11 15 20
12 16 21
12 15 20
12 16 21
12 15 21
12 15 20
12 16 22
11 14 19
10 13 17
11 14 19
12 16 21
11 14 19
12 15 20
10 13 18
10 13 18
10 14 18
10 13 18
13 16 22
10 13 17
10 13 17
11 14 19
10 13 17
10 13 18
11 14 18
11 14 19
9 12 17
10 13 18
11 14 18
10 13 18
9 12 16
8 10 13
9 11 15
9 11 15
9 11 15
9 12 16
9 12 15
8 10 14
8 10 14
9 11 15
10 13 17
9 12 15
7 9 12
7 9 12
7 9 12
7 9 12
8 11 14
7 9 11
7 9 12
7 9 11
6 8 11
6 8 10
6 7 9
6 8 10
6 8 10
6 8 10
5 6 8
6 8 10
6 7 10
6 7 9
3 4 5
4 5 6
2 3 4
3 4 6
4 5 7
2 3 4
3 4 5
3 3 4
2 3 3
3 4 5
2 3 4
2 3 4
3 4 5
3 3 4
4 4 5
4 5 6
4 5 6
3 3 4
3 4 5
3 4 5
3 4 5
3 4 5
5 6 8
4 5 6
3 3 4
3 4 5
3 4 5
4 4 6
3 4 5
4 5 6
4 5 7
3 4 5
4 5 6
5 6 7
3 4 5
4 5 7
4 4 6
5 6 7
3 4 5
4 5 6
3 3 4
3 4 5
3 4 5
4 4 6
2 3 3
5 6 7
3 4 5
3 3 4
3 4 5
3 3 4
3 4 5
3 4 5
4 5 6
4 5 7
5 6 7
4 5 7
4 5 6
4 5 7
4 5 7
5 6 8
5 6 7
5 6 8
5 6 8
5 6 8
7 8 11
5 6 8
5 7 9
6 7 9
6 8 10
7 8 11
6 8 10
7 9 12
6 8 11
7 9 13
8 11 14
9 11 15
9 12 16
8 11 14
8 10 14
8 10 13
10 12 17
9 11 15
8 10 13
8 11 15
9 12 16
10 13 17
9 11 15
9 12 16
9 11 15
9 11 15
10 12 17
10 13 17
9 12 16
10 14 18
10 13 18
10 13 18
10 13 17
9 12 16
11 14 18
10 13 18
11 14 19
9 12 16
11 14 19
12 15 20
11 15 19
11 15 20
12 15 20
11 14 19
10 13 18
11 14 18
11 14 18
12 15 20
12 16 21
11 15 19
11 15 20
11 15 20
12 16 21
12 15 21
12 15 20
12 15 21
12 15 21
13 17 23
12 16 21
12 16 21
11 15 20
12 16 21
13 17 23
13 16 22
12 16 22
12 16 22
12 16 22
12 16 21
12 16 22
12 16 22
13 16 22
13 17 23
12 16 21
13 17 23
12 16 22
13 17 23
12 16 21
12 16 22
13 16 22
13 17 23
13 17 23
12 16 22
13 17 22
13 17 23
13 17 22
13 17 23
13 17 23
13 17 23
13 17 23
13 17 23
13 17 23
14 18 24
14 17 23
14 18 24
13 17 23
13 17 23
13 17 23
14 18 24
14 18 24
14 18 24
13 17 23
14 18 24
13 17 23
14 18 24
14 18 24
14 18 24
14 18 24
13 17 23
14 18 24
13 17 23
14 18 24
14 18 24
14 18 23
13 17 23
14 18 24
13 18 24
13 17 23
14 18 25
14 18 25
13 17 23
14 18 24
14 18 24
14 18 24
13 17 23
14 18 24
14 18 24
13 17 23
14 18 24
14 18 24
14 18 24
14 18 25
14 18 25
14 18 25
14 18 24
14 18 25
14 18 25
14 18 24
14 18 25
14 18 24
14 18 24
13 18 24
14 18 24
13 17 23
14 19 25
14 18 24
14 18 24
14 18 24
14 18 25
14 18 25
14 19 25
14 18 24
14 18 24
14 18 25
14 18 25
14 18 25
14 18 24
14 19 25
14 18 25
14 18 24
14 18 25
14 18 25
14 18 24
14 18 25
14 18 24
14 18 24
14 19 25
14 18 24
14 18 24
14 18 24
14 18 24
14 18 24
14 18 25
14 18 24
14 18 25
14 19 25
14 18 24
14 18 25
14 18 24
14 18 25
14 18 25
14 18 24
14 19 25
14 18 24
14 19 25
14 18 24
14 18 24
14 19 25
13 17 23
14 18 24
13 17 24
14 18 24
14 18 24
13 17 23
13 18 24
13 18 24
14 18 24
14 18 25
13 17 23
14 18 24
14 18 24
14 18 24
14 18 24
14 18 24
13 18 24
14 18 24
14 18 24
13 17 24
13 18 24
14 18 25
14 19 25
14 18 24
13 18 24
14 17 23
13 17 23
14 18 24
14 18 24
14 18 25
14 18 24
14 18 24
14 18 24
14 18 24
13 17 23
14 18 24
14 18 24
13 17 23
13 17 23
13 17 23
14 17 23
13 17 23
13 17 24
13 17 23
13 17 23
13 17 23
13 17 23
13 17 23
14 18 24
13 17 23
13 16 22
13 17 23
12 16 21
13 17 23
12 16 22
13 16 22
13 17 23
13 17 23
13 17 23
14 18 24
12 16 21
12 16 22
14 18 24
13 17 23
13 17 22
13 17 23
13 16 22
12 15 21
13 17 23
13 17 22
12 16 21
12 16 21
13 17 22
13 16 22
14 18 23
12 16 21
13 17 23
12 16 21
13 17 22
12 16 21
12 16 21
13 17 23
13 16 22
12 15 21
12 16 21
12 16 21
12 16 22
12 16 21
12 16 21
12 16 21
13 17 22
11 14 19
11 15 20
11 14 20
11 15 20
11 14 18
12 16 21
11 15 20
11 15 20
11 15 20
12 16 21
11 14 19
11 14 19
9 12 16
12 15 20
11 15 20
11 14 19
11 14 19
10 13 18
11 14 19
10 13 17
11 14 18
9 12 16
11 14 18
11 14 19
10 13 17
10 13 17
9 12 16
9 12 16
8 11 14
11 14 18
7 9 12
7 10 13
9 11 15
7 9 12
9 11 15
8 10 14
8 11 14
8 10 13
7 9 12
7 10 13
8 10 14
6 8 11
7 9 12
7 9 12
8 10 14
6 8 11
6 7 10
6 8 10
5 7 9
7 9 12
7 9 12
5 7 9
5 6 8
5 6 8
4 6 7
4 6 7
5 6 7
5 6 7
4 4 6
4 5 6
3 4 5
2 3 4
4 5 6
3 3 4
3 4 5
4 5 6
3 4 5
2 3 4
3 4 5
2 3 3
2 3 3
2 3 4
2 2 3
3 4 5
3 3 4
3 3 4
4 5 6
4 5 7
3 4 5
3 4 5
3 4 5
3 4 5
3 4 5
3 4 5
4 4 5
3 4 5
3 4 5
4 5 6
3 4 5
4 5 6
4 4 6
3 4 5
3 3 4
3 4 5
3 3 4
3 4 5
3 3 4
4 5 6
3 3 4
3 4 4
3 4 5
3 3 4
3 3 4
3 4 5
2 2 3
3 4 5
2 3 4
2 2 3
2 2 3
3 4 5
4 5 7
4 5 6
3 3 5
5 6 8
3 4 6
3 4 6
4 5 6
4 5 6
6 7 10
4 5 7
7 9 11
6 8 11
6 7 10
6 7 9
6 7 9
6 8 10
7 8 11
7 9 11
7 9 12
6 8 11
6 8 10
7 9 12
7 9 13
7 9 13
8 11 14
8 10 13
8 10 13
7 9 12
10 13 17
7 9 13
9 11 15
9 11 15
8 10 14
8 11 15
10 12 16
10 13 17
9 11 15
10 13 17
10 13 17
10 12 17
10 13 18
10 13 17
11 14 19
11 14 19
10 13 18
10 13 18
10 13 17
11 14 18
11 14 19
11 15 20
11 14 20
10 13 17
10 13 17
10 14 18
12 16 21
10 13 17
11 15 20
12 15 20
10 13 18
11 15 20
11 14 19
13 16 21
12 16 21
12 15 20
11 14 19
11 15 20
13 17 23
11 15 20
11 14 19
12 16 21
12 16 21
12 16 21
12 15 20
13 17 23
12 15 21
12 16 21
12 16 22
12 15 21
13 17 23
13 17 23
12 16 21
13 16 22
11 15 20
12 16 22
12 15 21
13 17 24
12 15 20
13 17 23
13 17 23
13 17 23
13 17 22
13 17 22
13 16 22
13 17 23
13 17 23
14 18 24
13 17 23
13 17 23
13 17 23
13 17 23
13 17 23
13 17 23
13 17 23
14 17 23
13 17 23
13 17 24
13 17 23
13 17 22
14 18 24
14 18 25
14 18 24
13 17 23
13 17 23
13 18 24
14 18 24
12 16 22
13 17 23
14 18 24
13 17 23
14 18 24
14 18 24
14 18 24
13 17 24
14 18 24
13 17 24
13 18 24
14 18 24
14 18 24
14 18 25
14 18 24
14 18 24
14 18 24
13 17 23
14 18 24
14 18 24
14 18 24
14 18 24
14 18 24
14 18 24
14 18 24
14 18 24
14 18 24
14 18 25
14 18 24
14 18 24
14 18 24
14 18 24
14 18 24
14 18 25
14 18 24
13 17 23
14 18 24
14 18 25
14 18 24
14 18 24
14 18 24
14 18 25
14 18 24
14 18 24
14 18 25
14 18 24
14 18 24
14 18 24
14 18 24
15 19 25
14 18 24
14 18 24
13 17 23
14 18 24
13 17 24
14 18 24
14 18 24
14 19 25
14 18 25
14 19 25
14 18 25
14 19 25
14 19 25
14 19 25
14 18 25
13 18 24
14 18 25
14 18 25
14 18 25
14 18 24
14 19 25
14 18 25
14 19 25
14 18 25
14 18 24
14 18 24
14 18 24
14 18 25
13 17 24
14 18 24
14 18 24
14 18 24
14 18 24
14 18 25
14 18 24
14 18 24
13 17 23
14 18 24
14 18 25
14 18 24
15 19 25
14 18 25
14 18 24
14 18 24
14 18 24
14 18 24
14 18 25
14 18 24
14 18 24
14 18 24
14 18 24
14 18 24
13 17 24
13 17 23
14 18 24
14 18 25
13 17 23
14 18 24
14 18 25
13 17 23
14 18 24
14 18 24
14 18 24
13 17 24
14 18 23
13 17 23
14 18 24
14 18 24
13 17 23
13 17 23
14 18 24
14 18 24
13 17 23
14 18 24
13 17 23
13 17 22
14 18 24
14 18 24
14 18 24
14 18 24
13 17 23
13 17 23
13 18 24
13 17 23
14 18 24
13 17 23
13 17 22
14 18 24
14 18 24
13 17 23
12 16 21
14 18 24
13 17 22
13 17 23
13 17 23
13 17 23
13 17 23
12 16 21
13 16 22
12 16 21
12 16 22
12 16 21
13 17 23
12 16 21
12 16 22
13 17 23
13 16 22
12 16 21
13 16 21
12 15 20
12 16 22
12 16 22
12 16 21
12 16 22
10 14 18
12 16 21
13 16 22
12 16 21
12 16 21
13 16 22
12 16 21
12 15 20
11 14 19
12 15 21
12 16 21
12 15 20
12 15 21
12 16 21
12 15 21
11 15 20
11 14 19
10 14 19
10 14 18
11 14 18
11 14 19
10 14 18
12 16 21
11 14 19
11 14 19
11 14 18
10 13 18
10 13 18
12 15 20
11 15 19
9 12 16
10 13 17
11 14 19
11 14 19
10 13 17
10 13 17
9 12 17
9 12 16
10 13 17
8 10 14
9 11 15
8 11 14
9 12 15
8 10 14
8 10 13
8 11 14
8 10 14
8 10 14
9 11 15
7 9 12
7 9 12
6 8 11
8 10 13
6 8 10
8 10 13
7 9 11
8 10 13
6 8 11
7 9 12
5 6 8
5 7 9
6 7 9
6 8 10
6 7 9
4 5 6
5 6 9
5 6 8
5 6 8
6 7 9
4 5 7
5 6 8
4 5 7
3 4 5
5 6 7
3 4 5
3 4 5
2 3 4
3 4 5
4 5 6
2 3 4
2 3 4
2 2 3
2 3 3
2 2 3
3 3 4
3 3 4
3 3 4
3 3 4
3 4 5
4 4 5
2 3 3
4 5 6
3 3 4
3 4 5
2 3 4
3 4 5
2 3 4
3 4 5
3 4 5
4 4 6
2 3 4
3 3 4
2 3 4
2 3 4
2 3 4
3 4 5
3 4 5
2 3 4
2 3 4
3 3 4
2 3 4
3 4 5
3 4 5
2 2 3
1 2 3
1 1 2
2 3 4
2 3 3
2 3 4
3 3 4
3 4 6
3 4 6
4 5 7
2 3 3
4 4 6
4 5 7
6 8 10
4 6 7
3 4 5
3 4 6
5 7 9
6 7 9
7 9 11
5 7 9
6 8 10
5 6 8
6 8 10
5 6 8
6 8 10
6 8 11
5 7 9
6 8 11
7 9 12
7 8 11
6 8 11
7 9 12
8 10 14
6 8 11
8 10 13
8 10 14
8 10 14
9 11 14
11 14 18
9 12 16
9 11 15
10 13 17
10 13 17
9 12 16
9 11 15
10 13 18
9 11 15
9 11 16
8 11 14
10 12 17
10 12 16
10 13 18
10 13 17
10 14 18
10 13 18
9 12 16
11 14 19
11 14 19
10 13 17
11 14 19
10 13 18
11 14 19
11 15 20
11 14 19
10 13 18
11 14 19
11 14 19
11 14 19
10 13 18
12 15 20
11 15 20
12 15 20
11 14 19
12 16 21
11 15 20
12 15 21
11 14 19
12 16 21
12 16 22
12 16 21
11 15 20
12 15 20
12 16 21
12 15 21
13 16 22
12 16 22
13 17 22
12 16 21
12 16 22
12 16 21
13 17 23
13 17 23
13 17 23
13 16 22
12 16 21
13 16 22
13 17 23
13 17 23
12 15 21
13 17 23
13 17 23
12 16 22
13 17 22
13 17 23
13 17 22
13 17 23
13 17 23
14 18 24
13 17 23
13 16 22
13 17 23
14 18 24
13 17 23
13 17 23
14 18 24
13 17 23
14 17 23
14 18 24
13 17 23
13 17 23
14 18 23
14 18 24
14 18 24
13 17 23
14 18 24
13 17 23
14 18 25
14 18 24
13 17 22
14 18 24
13 17 24
14 18 25
13 17 23
14 18 24
13 17 23
14 18 24
14 18 24
14 18 24
14 17 23
14 18 25
14 18 24
14 18 24
14 18 25
14 18 24
14 18 24
13 17 23
13 18 24
14 18 24
14 18 24
14 18 25
14 18 24
14 18 25
14 18 24
14 18 24
14 18 25
14 18 24
14 18 24
14 18 24
14 18 24
14 18 24
14 18 24
14 18 25
14 18 24
14 18 24
14 18 24
14 18 24
14 19 25
14 18 25
14 19 25
14 18 24
14 18 24
14 18 25
14 18 24
14 18 24
14 18 24
14 18 25
14 18 24
14 18 24
14 18 25
14 18 25
14 18 24
14 18 24
14 18 24
14 19 25
14 18 24
14 18 24
14 18 24
14 18 24
14 18 24
14 18 25
14 19 25
14 18 24
13 17 23
14 18 24
14 18 25
14 18 25
14 18 24
14 19 25
14 18 24
14 18 24
14 18 24
14 18 24
14 18 24
14 18 24
14 18 25
14 18 25
14 19 25
14 18 24
14 18 24
14 18 24
14 18 24
14 18 24
14 18 24
14 18 24
14 18 24
14 18 24
14 18 24
14 18 24
14 18 25
14 18 24
13 17 23
13 17 23
14 18 24
14 18 24
14 18 25
14 18 24
13 17 23
13 17 24
13 18 24
14 18 24
14 18 24
13 17 23
14 18 25
13 17 23
14 18 24
13 17 24
13 17 23
14 18 24
14 18 24
13 17 22
13 17 23
14 18 24
14 17 23
13 17 23
13 17 23
14 18 24
13 17 23
13 17 23
14 18 24
13 17 23
13 17 23
14 18 24
13 17 23
13 18 24
12 16 22
14 18 24
14 18 24
12 16 21
13 17 23
13 17 23
13 17 23
14 18 24
12 16 22
13 16 22
13 17 23
13 16 22
13 17 23
12 16 22
13 17 22
13 16 22
12 16 22
13 17 23
13 17 23
11 15 20
13 17 22
13 16 22
12 16 22
13 17 22
13 17 23
13 17 22
12 16 22
12 15 20
12 16 21
12 16 21
12 16 21
13 17 22
12 16 22
13 17 23
11 15 20
11 14 19
12 16 21
11 14 19
12 15 21
12 15 20
11 14 19
12 15 21
12 15 20
12 15 21
11 14 19
12 16 21
12 15 20
11 15 20
12 15 20
10 13 18
10 13 18
11 15 19
11 14 19
10 14 18
11 14 19
9 12 16
10 13 18
9 12 16
10 13 17
10 13 18
11 14 19
10 13 18
10 13 17
9 12 16
10 13 18
10 13 17
11 14 18
9 12 16
9 12 15
9 12 16
10 12 17
9 11 15
9 12 16
9 12 16
9 12 16
8 11 14
8 11 15
8 10 14
8 10 13
8 10 13
8 10 13
7 9 12
7 10 13
8 10 13
8 10 14
8 11 14
8 10 13
7 8 11
7 9 12
7 9 11
6 7 9
6 8 10
6 8 11
4 6 8
6 8 11
6 8 10
5 6 8
6 7 10
5 6 8
5 6 8
3 4 6
6 8 10
4 5 7
6 7 9
4 4 6
3 3 5
4 4 6
3 4 5
2 3 4
3 3 4
3 4 5
2 3 4
2 2 3
2 3 4
3 4 5
1 2 2
2 2 3
1 2 2
2 2 3
3 3 4
2 3 4
2 2 3
2 3 4
2 2 3
2 2 3
2 3 4
2 3 4
3 3 4
3 4 5
2 2 3
2 3 4
4 4 6
2 2 3
3 3 4
2 2 3
2 3 4
2 3 4
2 3 3
1 2 2
2 3 3
1 1 2
2 2 3
2 2 3
1 2 2
2 3 4
3 3 4
2 3 4
2 2 3
3 3 4
3 3 4
3 4 6
3 3 4
4 5 6
3 4 5
5 6 8
4 5 7
4 5 7
4 5 7
5 6 8
5 6 8
5 7 9
4 6 7
5 6 8
5 7 9
4 5 7
6 8 11
5 6 8
6 7 10
5 6 8
7 9 11
6 7 10
6 7 10
7 8 11
6 7 10
6 8 11
7 9 12
8 10 14
8 10 13
8 10 13
8 10 13
8 11 14
8 10 13
9 12 16
9 12 16
8 10 14
10 13 17
9 11 15
8 10 13
10 13 18
9 12 16
9 12 16
11 14 18
11 14 18
9 11 15
9 12 16
9 12 16
10 13 17
11 14 19
10 13 17
10 12 17
10 13 18
10 13 18
11 14 19
11 14 18
10 13 18
11 14 19
10 12 17
11 14 19
11 15 20
11 15 20
11 14 19
12 15 20
11 15 20
10 13 18
11 15 20
12 15 20
11 14 19
11 15 20
13 16 22
12 16 21
11 15 20
11 15 20
13 16 22
11 15 20
11 15 20
12 16 21
12 16 22
11 14 19
11 15 20
13 17 23
13 16 22
12 16 22
13 16 22
14 18 24
12 16 21
13 17 22
13 17 22
13 16 22
13 17 23
13 17 23
13 17 22
13 17 23
12 16 21
13 17 23
12 16 22
12 16 21
13 18 24
12 16 22
13 16 22
12 16 21
13 17 23
12 16 22
13 17 23
13 16 22
13 17 23
13 17 23
14 18 24
13 17 23
13 17 23
14 18 24
13 17 23
13 17 23
13 17 24
13 17 24
14 18 24
13 17 23
14 18 24
13 17 23
13 17 23
14 18 24
13 17 23
13 18 24
14 18 24
13 17 23
13 17 23
13 17 23
14 18 24
13 18 24
14 18 24
13 17 23
13 17 23
14 18 24
13 17 23
14 18 24
14 18 24
14 18 24
14 18 24
13 18 24
14 18 24
14 18 24
14 18 24
14 18 24
14 18 24
14 18 24
14 18 24
14 18 24
14 18 24
14 18 24
14 18 24
14 18 24
14 18 24
14 19 25
14 18 24
14 18 24
14 18 25
14 18 25
14 18 25
14 18 24
14 18 24
14 18 25
14 18 24
14 18 25
14 18 25
14 18 23
14 18 25
14 18 24
14 18 24
14 18 24
13 18 24
14 18 24
14 18 24
14 18 25
14 18 24
13 18 24
14 18 24
14 18 24
14 18 25
15 19 25
14 19 25
14 18 25
14 18 24
14 18 24
14 18 25
14 18 25
14 18 24
14 18 24
14 18 25
14 18 24
14 18 24
14 18 25
14 18 25
14 18 24
14 18 25
14 18 25
14 18 25
14 18 25
14 19 25
14 18 24
14 17 23
14 18 24
14 18 24
14 18 24
14 18 24
13 17 23
14 18 24
14 18 24
13 17 24
14 18 24
14 18 24
14 18 24
13 17 23
14 18 25
14 18 24
14 18 25
14 18 24
14 18 24
14 18 24
14 18 24
14 18 24
14 18 24
14 18 24
13 17 23
13 18 24
13 18 24
13 17 23
13 17 23
14 18 24
14 18 24
14 18 25
14 18 24
13 17 23
13 17 23
14 18 24
13 17 23
14 18 24
12 16 22
14 18 24
14 18 24
13 17 22
14 18 24
13 17 23
13 17 24
13 17 23
14 18 24
13 17 23
13 17 23
14 18 24
14 18 24
13 17 23
13 17 22
14 18 24
13 17 24
13 17 22
13 17 23
13 17 23
13 17 23
13 17 22
12 16 22
13 17 23
12 16 22
13 17 23
14 18 24
14 18 24
12 16 21
12 16 21
13 17 23
13 17 23
13 17 23
12 16 22
13 16 22
11 15 20
13 17 23
12 16 22
12 16 21
13 17 23
12 16 22
12 16 21
12 16 21
13 16 22
12 16 21
12 15 21
12 16 21
12 15 20
13 17 22
11 14 19
11 15 20
12 15 20
12 15 20
12 16 22
12 16 22
12 15 20
12 16 21
12 16 21
12 16 22
12 16 21
12 16 21
11 14 19
11 14 18
12 15 20
11 15 20
11 14 18
10 13 18
10 13 18
11 15 20
11 14 19
10 14 18
10 13 18
9 12 16
9 11 15
11 15 20
10 13 17
9 12 16
10 13 17
10 13 18
12 15 20
9 12 16
10 12 17
10 12 16
9 12 16
8 11 15
8 11 15
9 12 16
10 13 17
10 12 16
8 11 14
10 12 16
8 10 13
9 11 15
8 10 14
8 11 14
8 10 13
6 8 10
6 8 11
8 10 13
7 9 12
7 9 11
8 10 14
8 11 14
8 10 13
7 9 11
5 6 8
5 7 9
7 9 11
5 7 9
6 7 10
5 6 8
5 7 9
4 5 7
4 5 7
5 6 8
4 5 7
3 4 6
4 6 7
2 3 4
3 4 6
4 5 6
3 4 6
3 4 5
4 5 6
3 4 5
5 6 8
3 4 5
3 4 5
3 3 5
3 3 4
2 2 3
3 3 4
2 3 3
1 2 2
1 2 2
2 2 3
2 3 4
2 2 3
2 3 3
2 2 3
2 2 3
1 1 2
2 2 3
1 1 2
2 3 3
2 2 3
2 2 3
1 1 1
1 2 2
1 1 1
1 2 2
2 3 4
1 1 2
1 1 2
1 2 2
2 2 3
2 2 3
1 2 2
2 3 4
2 2 3
2 2 3
2 2 3
2 3 4
3 4 5
4 5 7
3 3 5
3 4 6
3 4 6
4 5 6
3 4 5
5 6 8
4 5 6
4 5 7
4 5 7
5 6 8
4 4 6
6 7 9
6 7 10
5 6 8
6 7 10
5 7 9
5 7 9
7 8 11
8 10 14
5 7 9
6 8 11
6 8 10
8 10 13
7 10 13
9 11 15
7 9 12
7 8 11
6 8 11
9 11 15
7 9 12
7 9 12
9 11 15
8 10 13
8 11 14
11 14 18
9 12 16
8 11 14
9 11 15
8 10 13
9 11 15
9 11 15
9 12 16
10 12 17
11 14 18
11 15 19
10 13 18
10 13 18
10 13 17
11 14 19
10 13 18
10 13 17
10 13 17
10 13 18
11 14 19
10 13 18
12 15 20
11 14 19
11 15 20
11 14 18
12 15 20
13 16 21
12 15 20
10 13 18
11 14 19
10 13 18
12 15 21
11 14 19
11 15 20
13 16 22
13 17 23
11 14 19
12 15 21
13 16 22
12 15 21
12 15 21
12 16 21
12 15 21
12 15 20
12 15 20
12 16 21
12 15 21
12 16 22
12 16 21
12 16 21
12 15 20
12 16 22
12 15 21
13 17 23
13 16 22
12 15 21
13 17 23
12 16 21
13 17 23
13 17 23
13 16 22
13 17 23
13 17 22
13 17 22
13 17 22
13 16 22
13 17 22
13 17 22
13 17 23
13 17 23
13 17 23
13 17 23
14 18 24
14 18 24
13 17 23
13 17 23
14 18 24
13 17 23
13 17 23
13 17 23
13 17 23
13 17 22
14 18 24
14 18 24
13 17 23
13 17 23
13 17 23
14 18 24
13 17 24
14 18 24
14 18 24
13 17 23
13 17 23
14 18 25
13 18 24
13 17 23
13 17 23
14 18 24
13 17 23
14 18 24
14 18 24
14 18 24
13 17 23
14 18 24
14 18 24
14 18 24
13 17 23
13 17 24
14 18 24
13 17 23
13 18 24
14 18 24
13 17 23
14 18 24
14 18 24
13 17 23
14 18 24
14 18 24
13 17 23
13 18 24
14 18 24
14 18 24
14 18 24
13 17 23
14 18 25
14 18 25
14 18 24
14 18 24
14 18 25
14 18 24
14 18 25
14 18 25
14 18 25
14 18 24
14 18 25
14 18 24
15 19 25
14 18 24
14 18 24
14 18 24
14 18 24
14 19 25
14 18 25
14 18 24
14 18 25
14 18 25
14 18 24
14 18 24
14 18 24
14 18 25
14 18 24
14 18 25
14 18 24
14 18 24
14 18 25
14 19 25
14 19 25
14 19 25
14 18 24
14 18 25
13 17 24
14 18 24
14 19 25
14 18 25
14 18 24
14 18 24
14 18 24
14 18 24
14 18 25
14 18 24
13 17 23
14 18 24
14 18 25
14 18 24
14 18 25
13 18 24
14 18 24
14 19 25
14 18 24
14 18 24
14 18 25
14 18 24
14 18 24
13 18 24
14 18 25
14 18 24
14 18 24
14 18 24
13 17 23
14 18 25
13 17 23
13 17 23
13 17 23
13 17 23
13 17 23
14 18 24
13 17 23
14 18 24
14 18 24
14 18 24
14 18 25
13 17 23
14 18 24
13 17 23
13 17 23
13 17 23
13 17 23
13 17 24
13 18 24
13 17 23
14 18 23
13 17 24
13 17 23
13 17 23
14 18 24
13 17 23
13 17 23
13 17 23
13 17 23
13 17 22
13 17 22
13 17 22
12 16 21
14 17 23
13 18 24
13 16 22
12 16 22
12 16 22
13 17 22
13 17 22
12 16 21
13 17 23
14 18 24
13 17 22
13 16 22
13 17 22
13 17 22
13 16 22
12 16 21
12 16 22
12 15 21
12 16 21
12 16 21
12 15 21
12 16 21
12 16 21
12 16 22
12 16 21
12 16 22
12 16 21
12 16 21
12 15 20
13 17 22
12 15 20
12 16 21
12 15 20
12 15 21
12 15 20
11 15 20
11 14 19
11 15 20
10 14 18
11 15 20
10 13 18
11 14 19
11 14 18
11 14 18
10 14 18
10 13 18
10 13 18
10 13 18
12 16 21
11 14 18
10 12 17
10 12 17
10 13 17
10 13 17
10 13 18
10 13 18
9 12 16
11 14 18
9 11 15
10 13 17
8 10 14
9 11 14
10 12 16
9 11 15
9 12 16
8 10 14
9 12 16
9 11 15
9 11 15
9 11 15
7 9 12
8 10 13
8 10 14
8 10 13
9 12 16
8 9 12
7 9 12
8 10 13
7 9 12
6 8 10
8 10 13
7 8 11
7 8 11
8 10 13
7 8 11
5 7 9
5 6 8
6 7 9
4 5 7
5 6 8
5 7 9
5 6 8
5 6 8
5 6 8
4 5 6
4 5 6
5 6 8
5 6 7
4 5 6
4 6 7
3 3 4
3 4 5
5 6 7
4 5 6
3 3 5
3 3 4
4 4 6
3 3 4
2 3 3
2 2 3
2 2 3
3 3 4
2 3 3
1 1 2
2 3 3
2 2 3
1 1 1
2 2 3
2 3 3
1 1 2
1 2 2
0 1 1
2 3 3
3 4 4
1 1 1
1 1 1
3 3 4
2 2 3
2 2 3
2 2 3
2 3 4
2 2 3
1 1 2
1 2 2
2 2 3
2 3 3
2 2 3
3 3 4
2 3 4
3 3 5
4 4 6
2 3 3
3 4 6
3 4 6
4 5 7
4 5 7
3 4 5
4 5 7
5 6 8
5 6 8
5 6 8
4 5 7
5 6 8
3 4 6
3 4 6
4 6 7
4 5 6
6 7 9
6 8 11
6 7 9
7 9 12
7 9 11
6 8 11
8 9 12
8 10 13
7 10 13
7 9 12
8 10 14
9 11 15
8 10 13
6 8 11
8 10 13
8 10 13
7 9 12
8 10 13
7 9 13
9 12 16
9 12 15
9 12 16
8 10 13
9 11 15
10 13 17
9 12 16
10 13 18
9 12 16
9 12 16
9 12 16
10 13 18
10 13 17
10 13 17
10 13 18
10 13 18
10 13 17
11 14 19
10 13 18
11 14 18
10 14 18
11 14 18
11 15 20
10 13 18
11 14 19
11 14 19
11 15 20
11 14 19
13 17 22
10 13 18
12 16 21
11 15 20
11 15 20
11 14 19
12 15 20
12 15 20
12 16 21
12 16 22
12 16 21
11 15 20
12 15 21
12 16 21
11 15 20
11 15 20
11 15 20
11 14 19
12 16 21
12 16 21
12 15 20
12 16 21
12 16 21
11 15 20
12 15 21
13 17 23
12 16 21
12 15 21
13 17 22
12 15 21
14 18 24
13 17 23
12 16 21
12 16 21
13 16 22
13 17 22
13 16 22
13 16 22
12 16 22
12 16 22
13 17 22
13 17 22
13 17 22
12 16 22
12 16 21
14 18 24
13 17 23
13 17 23
13 16 22
13 17 23
13 17 24
14 18 24
13 17 23
13 17 23
13 17 23
13 17 23
14 18 24
13 18 24
14 18 25
13 17 23
13 18 24
14 18 24
13 17 23
14 18 24
13 17 23
14 18 24
14 18 24
14 18 24
14 18 24
13 17 22
14 18 24
14 18 24
14 18 24
13 17 23
14 18 25
14 18 24
13 17 23
14 18 24
14 18 24
14 18 24
14 18 24
14 18 24
13 17 23
13 18 24
13 17 23
14 18 24
14 18 25
14 18 25
15 19 25
14 19 25
13 18 24
14 18 24
14 18 24
14 18 24
14 18 24
14 18 24
14 18 24
14 18 24
14 18 24
14 18 25
14 18 24
14 18 24
14 18 24
14 18 24
14 18 24
14 18 24
14 18 24
14 18 23
14 18 24
14 18 25
14 18 24
15 19 25
14 18 24
14 19 25
14 18 24
14 18 24
14 18 25
14 18 24
14 19 25
13 17 23
14 18 25
14 18 25
14 18 24
14 18 24
14 19 25
14 18 24
14 18 25
14 19 25
14 18 25
14 18 24
14 18 24
14 18 24
14 18 24
14 18 24
14 18 25
14 18 24
14 18 24
14 18 24
14 18 24
14 18 24
13 18 24
14 18 25
14 18 25
14 18 25
14 18 24
13 17 23
14 18 24
14 18 25
14 18 24
14 18 24
14 18 24
14 18 25
14 18 24
14 18 24
14 18 24
14 18 24
14 18 24
14 18 24
14 18 24
14 18 24
14 18 24
13 17 24
14 18 24
14 18 24
14 18 24
13 18 24
13 17 23
13 17 23
14 18 24
13 17 23
13 17 23
14 18 24
14 19 25
14 18 24
14 18 24
13 17 23
13 17 23
13 17 23
13 17 23
13 17 23
13 18 24
13 17 23
13 17 23
14 17 23
13 17 23
14 18 24
12 16 22
13 17 23
13 17 22
14 18 24
13 16 22
13 17 23
13 17 23
14 18 24
13 17 23
12 16 22
13 17 22
13 17 22
13 17 23
14 18 24
13 17 23
12 16 21
12 16 22
12 16 22
11 15 20
13 17 22
13 17 23
13 17 23
13 17 23
12 16 22
13 17 22
13 17 22
13 16 22
12 16 22
12 16 22
12 16 21
13 17 23
12 16 22
12 15 20
11 14 19
13 17 23
12 16 22
12 15 20
11 14 19
12 16 21
12 15 21
12 16 21
11 15 19
11 14 19
12 15 20
12 16 22
12 15 20
13 17 22
12 16 21
12 16 21
12 15 20
11 14 18
10 13 18
10 14 18
10 12 17
10 13 18
10 13 18
11 14 19
11 15 19
11 14 18
10 13 18
10 13 18
10 13 17
11 14 19
10 14 18
10 13 17
9 12 16
9 12 15
9 12 16
11 14 18
9 12 16
10 13 17
9 11 15
9 12 16
9 11 15
8 11 14
8 11 14
9 11 15
8 11 14
9 11 15
7 9 12
10 13 17
8 10 13
7 9 12
9 11 14
8 10 13
7 9 12
6 7 10
9 11 14
6 7 10
8 10 14
6 8 10
9 11 15
7 8 11
5 7 9
6 8 10
6 7 10
6 8 11
6 8 10
6 7 10
5 6 8
5 7 9
5 6 8
6 7 10
5 6 7
5 6 8
5 6 8
4 5 7
5 6 8
5 6 8
4 5 6
4 5 7
4 5 6
4 5 7
4 5 6
4 4 6
4 5 6
3 3 4
2 3 4
2 3 4
3 4 5
2 2 3
3 3 4
2 3 4
2 3 4
3 4 4
3 3 4
2 2 3
3 3 4
1 2 2
3 3 4
3 3 4
2 3 4
2 2 3
1 2 2
1 2 2
3 3 4
3 4 5
2 3 3
2 3 3
2 3 3
3 3 4
3 4 5
2 2 3
2 2 3
2 3 4
3 3 4
4 5 6
4 5 6
2 3 4
3 4 5
2 3 4
4 5 6
2 3 4
3 4 5
4 5 6
4 5 7
3 4 6
4 5 7
4 5 6
6 8 10
5 7 9
4 5 6
4 5 7
6 8 10
5 6 8
6 7 9
7 8 11
4 5 6
6 7 10
5 6 9
6 8 10
7 9 11
6 7 10
7 8 11
6 8 10
6 7 10
7 10 13
7 8 11
8 10 13
7 9 12
7 9 12
8 10 14
8 10 13
9 12 15
8 10 13
9 11 15
9 11 15
9 11 15
9 11 15
8 11 15
9 11 15
9 11 15
9 12 16
9 12 16
8 10 14
8 10 13
8 10 14
10 12 16
11 14 18
11 14 18
10 13 17
10 14 18
9 12 16
10 13 18
10 14 18
11 14 19
10 13 17
11 14 18
10 13 17
11 15 20
10 13 17
11 14 19
10 13 18
11 14 19
11 14 19
10 13 17
11 15 20
11 14 19
12 16 21
12 15 21
12 15 20
12 15 21
12 16 21
12 16 21
11 14 19
12 15 20
12 15 21
12 16 22
11 14 19
12 16 21
12 16 21
12 16 21
12 15 20
13 16 22
12 15 20
12 16 22
13 17 23
12 16 21
13 16 22
13 17 23
12 16 21
12 16 21
13 17 23
12 16 21
13 16 22
14 18 24
13 17 23
12 16 22
13 17 22
13 17 24
13 17 22
13 17 22
13 17 23
12 16 21
14 18 24
12 16 21
13 17 23
13 18 24
13 17 22
13 17 23
13 17 23
13 17 23
13 17 24
13 17 23
12 16 22
13 17 24
13 17 22
13 17 23
13 17 23
13 17 23
13 17 23
14 18 24
13 17 23
13 17 23
13 16 22
13 17 22
14 18 24
13 17 23
13 17 23
14 18 23
14 18 25
13 17 23
14 18 24
14 18 24
13 17 23
13 17 23
14 18 25
14 18 24
13 17 22
13 17 23
14 18 24
13 17 23
13 18 24
13 18 24
13 17 23
14 18 24
14 18 24
13 17 23
14 18 24
13 17 23
14 18 24
13 17 23
14 18 24
13 17 23
14 18 24
13 17 23
14 18 24
14 18 25
14 18 25
13 18 24
14 18 24
13 17 23
13 17 23
14 18 24
14 18 24
14 18 24
14 18 24
14 18 25
14 18 24
14 18 24
14 18 24
14 18 24
13 17 23
14 18 25
14 18 25
14 18 25
14 18 25
14 18 24
14 18 24
14 18 24
14 18 25
14 18 25
14 18 24
14 18 24
14 18 24
13 17 23
14 18 24
14 18 24
14 18 25
14 18 25
14 18 24
14 18 24
13 17 23
14 18 24
14 18 24
13 18 24
14 18 25
14 18 25
14 18 24
13 17 23
14 18 25
14 18 24
14 18 24
14 18 24
14 18 24
13 18 24
14 18 25
14 18 24
14 18 25
14 18 24
14 18 24
14 18 24
14 18 24
14 18 24
13 18 24
14 18 24
14 18 24
14 18 25
14 18 24
14 18 24
14 17 23
14 18 24
14 18 24
14 18 24
13 18 24
14 18 24
14 18 24
14 18 24
13 17 23
13 17 23
14 18 24
13 18 24
14 18 24
13 17 23
14 18 24
14 18 24
13 17 23
13 18 24
13 17 23
14 18 24
14 18 24
14 18 24
14 17 23
13 17 23
13 17 23
13 17 24
13 17 23
13 17 23
12 16 21
13 17 23
13 17 23
14 18 24
13 17 23
14 18 24
13 17 23
14 18 24
13 16 22
13 17 23
13 17 23
12 16 22
13 17 23
13 17 22
13 17 22
13 17 23
13 17 23
13 16 22
13 17 22
13 16 22
12 16 22
13 17 23
13 17 22
12 15 21
12 16 21
13 17 22
12 16 21
12 16 21
12 16 22
12 16 22
11 15 20
12 16 22
13 17 23
12 16 21
11 15 20
12 16 22
12 16 21
11 15 20
12 15 20
12 15 20
12 15 20
12 16 22
11 14 19
12 15 20
11 15 20
12 16 21
12 15 21
12 15 20
11 14 19
12 15 20
10 13 18
11 15 20
10 13 18
10 14 18
12 15 20
10 13 18
11 14 19
11 14 19
10 13 18
11 15 20
11 14 19
10 13 18
11 14 19
12 15 20
9 12 16
10 12 17
10 13 17
10 12 16
11 14 19
9 11 15
10 12 16
9 11 15
10 13 17
10 12 16
11 14 19
8 11 14
6 8 11
8 11 15
9 12 16
7 9 12
8 10 13
8 10 14
8 11 14
8 10 13
8 10 14
7 10 13
6 8 11
7 9 12
6 7 10
7 9 12
8 10 13
7 9 11
7 9 12
7 10 13
7 9 11
7 8 11
6 7 10
7 9 11
6 7 9
6 8 10
6 8 10
6 8 10
5 6 8
5 7 9
5 6 8
5 7 8
5 7 9
6 7 9
3 4 6
6 8 10
5 6 8
4 5 6
4 5 6
4 5 7
4 5 7
3 4 6
4 5 6
3 3 5
3 4 5
3 3 5
3 4 5
3 4 5
2 2 3
3 4 5
3 4 5
3 4 5
2 2 3
1 2 2
3 3 4
2 2 3
2 2 3
2 2 3
2 2 3
3 4 5
3 3 4
2 3 4
3 4 5
2 3 4
2 2 3
3 4 4
3 3 4
2 2 3
2 3 4
2 3 3
1 2 2
2 2 3
2 3 4
3 3 4
3 3 4
3 4 5
1 2 2
3 3 5
3 4 5
4 5 6
3 4 5
5 6 8
3 4 6
3 3 5
3 4 5
4 5 6
4 5 6
3 4 5
6 7 9
5 7 9
6 7 9
5 6 8
6 7 10
5 7 9
5 7 9
7 9 12
6 8 10
5 6 8
7 8 11
4 5 7
8 10 14
7 9 12
7 8 11
6 8 10
7 8 11
7 9 12
6 8 11
6 8 11
7 10 13
7 9 11
8 11 14
8 10 13
6 8 11
8 10 14
8 10 14
8 11 14
8 10 14
8 10 14
10 12 16
7 9 12
9 11 15
9 11 15
9 11 15
10 13 17
10 12 17
9 12 16
10 13 17
10 12 16
10 13 17
10 13 18
11 14 19
10 13 17
10 13 17
11 15 20
10 13 18
11 15 20
10 12 16
11 14 18
10 14 18
10 13 18
10 13 18
11 14 19
12 15 20
11 14 19
12 15 20
11 14 19
11 14 19
12 16 22
11 14 19
11 14 19
12 16 21
11 15 20
11 15 20
11 14 19
12 15 21
11 15 20
11 15 20
11 15 20
12 16 22
11 15 20
13 16 22
12 16 21
11 14 19
12 16 21
12 15 21
12 16 21
12 16 21
13 16 22
13 16 22
12 15 21
13 17 23
13 17 22
13 17 23
14 18 24
13 17 22
13 17 22
13 18 24
12 15 21
13 17 23
12 16 22
14 18 24
12 16 21
13 17 23
13 17 23
12 16 21
13 16 22
13 17 23
13 18 24
13 17 23
14 18 24
13 17 23
12 16 22
13 17 23
13 18 24
13 17 23
13 16 22
13 17 24
13 17 23
14 18 24
13 17 23
13 17 23
13 17 23
13 17 22
14 18 23
13 17 23
13 17 23
14 18 24
13 17 22
13 17 23
13 17 23
13 17 24
14 18 23
13 17 23
14 18 24
14 18 25
14 18 24
13 17 22
14 18 24
13 17 23
14 18 24
13 17 23
13 17 22
14 18 24
13 17 23
13 17 23
14 18 24
14 18 24
14 18 24
13 17 23
14 18 24
14 18 24
14 18 24
14 18 25
14 19 25
14 18 25
14 18 24
14 18 24
13 17 23
13 17 23
14 18 24
14 18 24
14 18 24
14 18 24
13 18 24
14 18 24
14 18 24
14 18 24
13 17 23
14 18 24
14 18 24
14 18 24
14 18 24
14 18 24
14 18 25
13 17 24
14 18 24
13 18 24
14 18 24
14 18 25
14 18 25
14 18 24
14 18 24
14 18 24
14 18 24
14 18 24
14 18 24
14 18 25
14 18 24
14 18 24
14 18 25
15 19 25
14 18 24
13 17 23
14 18 24
14 18 24
14 18 24
14 18 25
14 18 25
14 18 24
14 18 24
14 18 24
14 18 24
14 18 25
14 18 24
14 18 24
14 18 24
14 18 24
14 18 24
13 17 23
14 18 24
14 18 24
14 18 24
14 17 23
13 17 23
14 18 24
14 18 23
13 18 24
14 18 24
14 18 24
13 17 24
14 18 24
13 18 24
14 18 24
13 17 22
14 18 24
13 17 23
14 18 24
13 17 23
14 18 25
14 18 25
13 17 22
13 17 22
14 18 24
14 18 24
13 17 23
14 18 24
14 18 24
14 18 24
13 17 24
13 17 23
13 17 23
13 17 23
12 16 22
13 17 23
13 17 23
13 16 22
13 17 23
12 16 22
13 17 23
14 18 24
13 17 22
13 17 23
13 16 22
13 17 24
13 17 23
13 17 22
13 17 23
13 17 23
13 16 22
12 16 21
12 16 22
12 16 21
12 16 21
13 17 22
13 17 23
13 17 22
12 16 21
12 16 21
13 17 22
13 17 23
13 17 22
12 16 22
13 17 22
12 16 22
12 16 21
12 15 21
13 16 22
12 16 22
12 16 21
12 16 21
12 16 22
12 16 21
12 16 22
12 16 21
12 16 21
11 14 19
12 16 22
12 15 21
12 15 21
11 15 20
11 14 19
11 15 20
13 17 23
11 14 19
12 15 20
11 14 19
10 14 18
10 14 18
11 15 20
10 13 17
10 14 18
10 13 18
11 14 19
12 16 21
10 14 18
10 13 18
10 12 17
10 13 17
10 13 17
10 14 18
9 11 15
10 12 16
10 12 17
9 11 16
9 11 15
10 13 17
10 13 18
9 11 15
9 12 16
9 12 15
10 13 17
9 12 16
8 10 14
8 10 14
10 12 17
8 11 15
7 9 13
9 11 15
7 9 12
9 12 16
8 10 13
8 10 13
8 10 14
8 10 13
7 9 12
8 10 13
6 8 10
7 10 13
8 10 14
6 8 10
7 9 12
6 7 10
5 7 9
6 7 10
6 8 11
5 7 9
7 9 11
5 6 8
5 7 9
6 7 9
6 8 10
4 5 7
6 8 10
4 6 7
5 7 9
6 7 10
5 6 8
3 4 5
5 6 8
3 4 6
5 6 8
4 5 7
4 6 7
5 6 7
3 4 5
3 4 6
3 4 5
3 4 5
3 4 5
3 4 5
3 4 5
4 4 6
2 3 4
3 4 5
2 3 4
2 2 3
3 4 6
1 2 2
3 4 5
1 2 2
3 4 5
3 4 5
3 4 5
2 3 4
3 4 5
3 4 5
2 3 3
2 3 3
2 3 4
2 2 3
2 3 4
4 5 6
2 3 4
3 4 6
4 5 6
4 5 6
3 4 5
3 4 5
3 4 5
4 5 7
4 5 7
5 6 8
4 5 7
4 5 6
4 5 7
5 6 8
4 5 7
4 5 7
6 7 9
5 7 9
5 6 8
4 5 6
6 7 9
7 9 11
5 6 8
6 8 10
7 9 11
7 9 12
7 9 12
5 7 9
8 10 14
7 9 11
7 9 11
8 10 13
8 10 13
6 7 10
7 9 11
8 11 14
8 10 14
8 11 14
8 11 15
7 9 12
9 11 15
7 9 12
8 11 15
8 11 14
8 10 13
9 11 15
6 8 10
8 10 13
9 11 15
9 12 16
10 12 17
10 12 16
9 12 16
9 12 16
9 12 16
10 13 17
10 13 17
9 12 15
11 14 19
9 12 16
9 12 16
10 13 17
8 11 14
10 13 17
9 12 17
9 12 17
11 14 19
10 13 17
12 15 20
11 15 20
10 13 17
11 15 20
11 15 20
12 16 21
11 15 19
11 15 20
12 15 20
11 15 20
11 14 19
12 16 21
12 15 21
12 15 21
11 14 19
11 15 20
12 16 21
13 16 21
12 16 21
12 16 21
12 16 21
13 16 22
12 16 22
12 16 21
11 15 20
12 16 21
12 15 21
12 15 20
12 16 22
12 16 21
12 16 21
12 16 22
12 16 22
13 17 23
12 16 21
13 16 22
13 17 23
13 17 23
13 17 23
13 16 22
12 16 22
13 17 23
13 17 23
13 17 23
13 17 22
12 16 22
12 16 21
13 17 23
13 16 22
13 17 23
13 17 24
14 18 23
14 17 23
13 17 23
13 17 23
13 17 23
13 17 23
14 18 24
14 18 24
13 17 22
13 17 22
12 16 22
13 17 23
13 18 24
14 18 25
13 17 23
13 17 24
14 18 24
13 17 23
13 17 23
14 18 24
13 17 23
13 17 23
13 17 23
13 17 23
13 17 24
13 17 24
13 17 23
14 18 24
13 17 23
14 18 24
14 17 23
14 18 24
14 18 24
14 18 25
13 18 24
13 17 23
13 17 23
13 18 24
14 18 24
13 17 23
14 18 24
14 17 23
13 18 24
14 18 24
14 18 24
14 18 24
14 18 24
14 18 24
14 18 24
14 18 25
13 17 23
13 17 23
14 18 24
15 19 25
14 18 24
14 18 25
14 19 25
14 19 25
14 18 24
14 18 25
14 18 25
14 18 24
14 18 24
14 18 25
14 18 25
14 19 25
14 19 25
13 18 24
14 18 24
14 18 25
14 18 24
14 18 25
14 18 24
14 18 24
14 18 24
14 19 25
14 18 25
14 18 24
14 18 24
14 18 25
13 18 24
13 17 24
13 17 23
13 17 23
14 18 24
14 18 24
14 18 25
13 17 23
14 18 24
13 17 24
14 18 24
13 18 24
14 18 25
13 17 23
14 18 24
13 18 24
13 18 24
14 18 24
14 18 24
14 18 24
14 18 24
14 18 24
14 19 25
14 18 24
14 18 24
14 18 24
13 17 23
13 17 23
13 17 23
14 18 25
13 17 23
13 17 23
13 17 23
14 17 23
14 18 24
13 17 23
13 18 24
13 17 23
14 18 24
14 18 24
13 17 22
14 18 24
13 17 23
13 17 23
13 17 23
13 17 23
13 17 23
13 17 23
14 18 24
13 17 23
13 17 23
13 17 23
14 18 24
13 17 22
13 17 22
12 16 22
13 17 23
13 17 23
13 17 23
13 17 23
13 17 23
13 17 23
13 17 22
12 16 22
12 16 22
12 16 22
13 17 22
13 17 23
13 17 23
13 17 23
12 16 22
13 17 22
13 16 22
12 15 20
13 16 22
14 18 24
13 16 22
13 17 22
12 16 21
13 17 22
12 16 21
12 15 21
12 16 22
12 16 21
11 15 20
12 16 22
12 16 21
12 16 22
12 16 21
12 16 22
11 15 20
12 15 21
11 14 19
13 17 22
11 14 19
13 17 23
12 15 20
11 14 19
12 15 20
13 16 22
12 15 20
11 14 18
12 15 20
10 13 18
11 14 19
12 16 21
11 14 19
11 15 20
11 14 19
10 14 18
10 13 17
11 14 18
10 13 18
11 15 20
11 14 19
10 13 18
9 12 16
10 12 16
10 13 18
9 12 16
10 14 18
9 12 16
9 12 16
10 13 17
9 12 16
10 13 17
9 11 15
9 12 16
9 12 16
10 13 17
9 11 15
9 11 15
8 10 14
6 8 11
9 12 16
9 12 16
9 11 15
8 10 13
8 10 13
7 9 12
8 10 13
7 9 13
7 10 13
9 11 14
6 8 11
7 9 12
7 9 12
7 9 12
7 9 12
8 10 14
8 10 13
6 8 10
7 9 12
6 8 11
5 6 8
6 8 11
6 8 10
6 8 10
6 8 10
6 7 9
5 7 9
6 7 9
5 6 9
8 10 12
4 5 7
5 6 8
3 4 6
5 6 8
5 6 7
5 6 8
4 5 7
3 4 5
4 5 7
4 5 6
5 6 8
3 3 4
4 4 6
3 4 5
4 4 6
2 3 4
3 4 5
2 3 4
5 6 8
3 4 6
4 5 6
3 4 5
3 3 4
3 4 6
2 3 4
3 4 5
4 5 6
2 3 3
3 3 4
1 2 2
3 3 4
3 4 5
3 4 5
2 2 3
2 3 4
3 4 5
4 5 7
3 4 5
4 5 6
4 4 5
3 4 5
5 7 9
4 5 6
5 6 8
5 6 8
3 4 5
5 6 7
4 4 6
4 6 7
5 6 7
4 6 7
3 4 6
4 6 7
6 7 10
5 6 8
4 5 6
5 6 8
5 6 8
6 7 9
6 7 10
6 7 10
7 8 11
7 9 12
6 8 10
7 9 12
7 9 12
8 10 13
8 10 13
8 10 13
8 10 13
6 8 11
8 10 13
8 10 14
8 10 13
8 10 13
7 10 13
9 12 15
8 10 13
8 10 13
9 12 16
8 10 13
9 12 16
9 12 16
8 11 14
9 12 16
9 11 15
10 13 17
9 11 15
9 12 16
10 12 16
9 11 15
10 12 17
10 13 17
9 12 15
10 13 17
10 12 17
9 12 16
10 13 17
11 14 19
11 14 18
11 14 19
10 13 18
11 14 19
11 14 19
11 15 20
12 15 21
12 15 20
10 13 18
11 14 19
11 14 19
12 15 21
11 14 18
11 14 19
12 16 21
12 16 21
11 14 19
11 15 20
11 14 19
11 14 19
12 15 20
11 15 20
13 17 22
12 16 22
12 15 20
12 16 21
12 15 21
12 15 20
12 16 21
12 16 22
11 14 19
12 16 21
12 16 21
12 15 20
13 16 22
11 14 19
12 15 20
12 15 21
13 17 23
13 17 22
13 17 23
13 16 22
12 16 22
12 15 21
13 17 23
13 17 23
13 16 22
13 16 22
13 17 22
14 18 24
12 15 21
13 16 22
13 17 23
13 17 23
13 17 23
13 17 23
13 17 22
12 16 22
13 17 23
13 17 23
13 17 23
14 18 24
14 18 24
13 17 23
12 16 21
13 17 23
13 17 23
13 17 23
13 17 23
12 16 21
13 17 24
14 18 23
14 18 24
13 17 23
14 18 24
13 17 23
13 17 23
14 18 24
14 18 24
14 18 24
14 17 23
13 18 24
13 17 23
13 17 23
13 17 24
14 18 24
13 17 23
13 17 23
14 18 24
14 18 24
13 17 23
13 17 23
13 17 23
14 18 24
14 18 24
14 18 24
14 18 24
13 17 23
14 18 24
14 18 24
13 18 24
13 17 24
14 18 24
13 17 23
13 17 23
14 18 24
14 18 24
13 17 23
14 18 25
14 18 24
14 18 24
13 18 24
14 18 24
14 18 24
14 18 25
14 18 25
13 17 24
14 18 24
14 18 25
14 18 24
14 18 24
14 18 24
13 17 24
14 19 25
14 18 24
14 18 24
14 18 24
14 18 25
14 18 25
14 18 25
14 18 24
14 18 24
14 18 24
14 18 24
14 18 24
14 18 24
14 18 24
13 17 23
13 17 23
14 18 24
14 18 24
14 18 24
13 18 24
14 18 25
14 18 24
14 18 25
14 18 24
14 18 24
13 18 24
14 18 24
13 17 23
14 18 24
13 17 23
14 18 23
13 17 23
13 17 23
13 17 23
13 17 23
13 17 23
14 19 25
14 18 24
14 18 24
13 17 23
13 17 23
14 18 24
14 18 24
13 17 23
13 17 23
13 17 23
14 18 24
14 18 24
14 18 24
14 18 25
13 17 24
13 17 23
13 17 23
13 17 23
14 17 23
13 17 23
13 17 23
13 18 24
14 18 24
13 17 23
13 17 23
13 17 23
13 17 24
13 16 22
14 18 23
13 16 22
14 18 24
13 17 23
13 16 22
13 17 23
12 16 22
13 17 23
13 17 23
13 17 22
12 16 22
13 17 23
13 16 22
13 17 22
12 15 20
12 16 21
13 17 23
12 16 21
13 16 22
12 16 21
12 16 21
13 16 22
12 16 22
12 16 22
12 16 21
12 16 22
12 16 22
12 16 21
12 15 20
12 16 21
12 15 21
12 16 22
12 16 21
12 16 22
12 16 21
13 16 22
12 15 21
12 16 21
12 15 20
12 16 21
11 14 19
11 15 20
12 16 22
12 16 22
11 15 20
11 14 19
11 14 19
12 15 20
12 16 21
12 16 21
13 16 22
11 14 19
11 15 20
11 14 19
11 14 19
12 16 21
10 14 18
11 15 20
11 14 19
11 15 20
11 14 19
10 13 18
10 13 17
11 15 20
11 14 19
10 13 17
11 14 18
10 13 18
10 13 18
10 13 17
10 12 17
11 14 18
8 11 14
9 12 17
9 12 16
9 11 15
9 12 16
9 12 16
10 13 17
9 11 15
9 11 15
10 13 17
9 11 15
8 10 14
9 11 15
9 11 15
9 12 16
8 10 13
8 11 14
9 11 15
8 10 14
6 8 11
7 9 12
8 10 13
8 10 14
9 11 14
8 10 14
7 9 11
8 10 13
7 8 11
7 9 11
6 8 10
6 8 11
7 9 12
5 7 9
7 9 12
7 8 11
6 7 9
6 7 9
6 7 10
5 7 9
5 6 8
5 7 9
4 5 7
4 5 7
4 5 6
4 5 6
5 6 8
5 6 8
4 5 7
6 7 9
4 5 7
4 5 6
2 2 3
3 4 5
5 6 8
2 3 4
4 5 7
3 4 5
3 3 5
3 4 5
4 5 7
3 3 5
4 5 6
4 5 6
5 6 7
3 3 5
4 5 6
4 6 7
3 4 5
4 4 6
4 5 6
3 4 5
3 3 5
5 6 8
4 5 6
3 4 5
4 5 6
5 6 8
3 4 6
3 4 5
4 5 7
3 4 6
3 3 4
3 4 6
3 4 5
4 5 7
4 5 7
5 7 9
5 6 8
4 5 7
4 5 7
5 7 9
4 4 6
4 6 7
6 7 9
4 5 7
5 7 9
5 6 8
7 8 11
6 8 10
6 8 10
5 6 9
7 9 12
5 7 9
7 9 11
6 7 10
7 9 12
7 9 12
6 7 10
8 10 13
7 9 12
7 9 13
6 8 10
8 10 13
8 11 14
8 10 13
7 9 13
7 9 12
8 10 14
8 10 14
9 11 15
10 12 17
9 12 16
8 10 14
9 12 16
9 12 15
9 11 15
8 10 13
9 11 15
8 11 15
10 13 17
9 12 16
9 12 16
10 13 17
10 13 17
11 14 18
10 13 17
11 14 19
11 14 19
10 13 17
10 13 18
10 13 17
11 15 20
9 12 16
11 14 19
11 14 18
12 15 20
11 14 19
12 15 20
11 14 19
11 15 20
11 15 20
11 14 19
11 14 19
11 14 19
11 14 20
12 15 20
10 13 18
11 15 20
12 15 21
12 15 21
12 16 21
12 16 22
12 15 20
12 16 21
12 15 21
11 14 19
12 16 21
12 15 20
12 15 21
13 16 22
11 14 20
12 16 22
11 15 20
13 17 23
12 16 21
13 17 23
12 16 22
11 15 20
12 16 21
13 17 23
13 17 23
12 16 22
13 17 23
12 16 22
12 16 21
13 17 22
12 16 22
12 16 22
12 16 21
13 17 22
13 17 23
12 15 21
13 16 22
13 17 23
13 17 23
13 17 23
14 18 23
13 17 22
12 16 22
13 16 22
13 16 22
13 17 23
13 17 23
13 18 24
12 16 22
13 16 22
13 16 22
13 17 23
13 17 23
14 18 24
13 17 23
13 17 22
13 17 23
13 17 23
13 17 23
14 18 24
13 17 22
14 18 24
14 18 24
14 18 24
14 18 24
13 17 24
14 18 24
14 18 24
13 17 24
14 18 24
13 17 23
14 18 25
14 18 24
14 17 23
14 18 24
14 18 24
13 18 24
13 17 24
13 18 24
13 18 24
14 18 25
14 18 24
13 17 23
14 18 24
13 17 23
13 17 23
13 17 23
14 18 25
14 18 24
14 18 25
13 17 24
14 18 24
13 18 24
14 18 24
14 18 24
14 18 24
14 18 24
14 18 24
14 18 24
14 18 24
14 18 24
14 18 24
14 18 24
14 18 25
14 18 25
14 18 24
14 18 25
14 18 24
14 19 25
13 17 23
14 18 25
14 18 24
14 18 25
13 17 24
14 18 24
14 18 24
14 18 24
14 18 24
14 18 24
14 18 24
14 18 25
14 18 24
14 18 24
14 18 24
13 17 23
13 18 24
13 17 23
14 18 24
14 18 24
14 18 24
14 18 24
14 18 25
14 18 25
13 18 24
14 18 24
13 17 23
13 17 23
14 18 24
14 18 24
13 17 23
14 18 24
14 18 24
13 17 23
14 18 25
13 17 22
14 18 24
13 17 23
13 17 23
14 18 24
13 18 24
14 18 24
14 18 24
14 18 24
14 18 25
13 17 23
13 17 23
13 17 23
14 17 23
13 18 24
14 18 24
14 18 24
14 18 24
12 16 22
14 18 24
14 17 23
14 18 24
14 18 24
14 18 23
13 17 23
14 18 24
13 17 23
14 18 24
14 18 24
13 17 23
14 18 24
12 16 22
12 16 22
13 17 23
13 17 23
12 16 22
12 16 21
13 16 22
13 17 23
12 16 21
12 15 21
13 17 23
13 17 23
12 16 22
13 16 22
12 16 22
13 17 23
12 16 22
13 17 23
13 17 23
12 16 21
13 16 22
12 16 22
12 16 22
12 16 21
13 16 22
13 16 22
13 16 22
12 15 21
13 17 23
12 16 21
12 15 20
12 16 21
11 15 20
13 16 22
11 15 20
11 15 20
11 15 20
13 16 22
12 16 21
13 16 22
12 16 22
11 14 19
12 15 21
11 15 20
11 14 19
12 15 20
11 15 20
11 14 19
11 14 19
12 15 21
11 15 20
11 15 20
11 14 19
11 15 20
11 14 18
12 15 20
11 14 19
12 15 21
11 14 19
11 14 18
11 14 19
11 14 19
11 14 19
10 13 18
11 14 19
9 11 15
9 12 17
10 13 17
10 13 17
10 12 17
8 11 14
10 13 17
9 12 16
9 12 15
9 11 15
9 12 16
9 12 16
10 12 16
8 11 14
9 11 15
8 10 13
8 11 15
9 12 15
8 11 14
7 8 11
7 9 12
6 8 10
8 10 13
6 8 10
8 10 13
7 9 12
8 11 14
8 10 13
8 10 13
7 9 12
6 8 11
8 10 13
8 10 13
8 11 14
7 8 11
6 7 10
5 6 8
7 9 12
6 7 9
6 8 11
7 8 11
7 9 11
4 5 7
6 8 10
5 7 9
6 7 9
5 6 8
5 6 8
5 7 8
5 6 8
5 6 8
5 7 9
6 7 9
5 6 8
5 6 8
3 4 6
3 4 6
4 5 7
4 5 7
4 5 7
5 6 8
5 6 7
3 4 6
3 3 4
4 5 6
4 5 7
3 4 5
3 4 5
4 5 7
3 4 5
5 6 8
4 5 7
2 3 4
4 5 6
5 6 8
3 4 5
3 3 5
2 3 4
2 3 4
4 5 7
3 4 5
3 4 6
4 5 6
4 5 6
4 5 6
5 6 8
3 4 6
4 5 7
4 5 7
5 6 8
5 6 8
4 5 6
4 5 7
5 6 8
3 4 5
5 6 8
5 6 8
5 7 9
5 6 8
5 6 8
6 7 10
6 8 10
7 9 11
5 7 9
6 7 10
7 8 11
7 8 11
7 8 11
8 10 13
7 8 11
6 8 10
7 9 12
6 8 11
8 10 13
6 7 10
8 10 13
8 10 13
7 9 12
9 11 15
8 11 14
8 10 14
8 10 13
6 8 11
9 12 16
8 10 14
9 11 14
9 11 15
9 12 16
9 11 15
9 11 15
9 12 16
10 12 16
10 12 16
10 13 17
10 13 17
9 11 15
9 12 16
10 13 17
10 13 17
9 12 15
10 13 18
10 12 17
10 13 17
11 14 19
11 14 19
11 14 18
12 15 20
10 13 18
10 13 18
11 14 19
10 13 18
11 14 19
11 14 19
11 15 20
10 12 17
11 14 19
11 14 18
11 14 19
11 15 20
11 15 20
12 16 21
12 15 21
11 14 19
12 16 21
11 14 19
13 16 22
12 15 21
11 14 19
12 15 20
11 15 20
12 15 20
12 16 21
12 16 22
12 15 21
13 17 22
12 16 22
12 16 21
13 16 22
12 15 21
12 15 20
11 14 19
12 15 21
12 15 21
12 16 21
14 18 24
12 16 22
13 17 22
12 16 22
12 16 22
13 16 22
12 16 21
13 17 22
12 16 21
13 16 22
13 17 22
13 17 22
13 17 23
13 17 23
13 17 23
12 16 21
12 16 21
13 17 23
13 16 22
13 17 23
13 17 23
14 18 24
13 17 23
13 17 23
13 16 22
12 16 22
13 17 22
13 17 23
13 17 23
12 15 20
13 17 23
14 18 24
13 17 23
13 17 23
13 17 23
13 17 23
14 18 24
14 18 24
13 17 23
13 17 23
13 17 23
13 17 23
13 17 24
14 18 24
14 18 24
13 17 23
13 17 23
14 17 23
14 18 24
14 18 24
14 18 24
14 18 24
13 17 23
13 17 23
14 18 23
13 17 23
14 18 24
13 17 23
13 17 23
14 18 25
14 18 24
14 18 24
14 18 25
14 18 24
14 18 24
13 18 24
13 17 23
13 17 24
14 18 24
14 18 24
13 17 23
14 18 24
14 18 25
14 18 24
14 18 24
13 18 24
14 18 25
14 19 25
14 18 24
13 17 23
14 18 24
14 18 24
14 18 25
14 18 24
14 18 24
14 18 24
14 19 25
14 18 24
14 18 24
14 18 24
14 18 25
14 18 24
14 19 25
14 18 24
14 18 25
14 18 24
14 18 25
14 18 24
13 18 24
13 17 23
14 18 24
14 18 24
14 18 25
14 18 25
14 18 24
14 18 25
14 18 25
13 18 24
14 18 24
13 17 23
14 18 24
14 18 24
13 17 23
14 18 24
14 18 25
13 17 23
14 18 24
14 18 24
14 17 23
13 18 24
13 17 23
14 18 24
13 17 23
14 18 24
13 17 23
14 18 24
14 18 24
13 17 23
13 17 24
13 17 23
14 18 25
14 18 24
14 18 24
14 18 23
13 17 23
14 18 24
13 17 23
13 17 23
13 17 23
13 17 23
13 17 23
13 17 22
14 18 24
14 18 24
13 17 24
13 17 22
13 17 23
13 17 23
13 17 22
13 17 23
13 17 23
13 17 22
14 17 23
13 17 22
12 16 22
13 17 23
13 16 22
13 17 23
13 17 22
11 15 20
13 17 23
13 17 23
13 17 23
12 16 21
11 15 20
13 17 23
12 16 21
13 17 22
13 17 23
13 17 22
12 16 22
13 17 23
12 16 21
13 17 23
13 16 22
12 16 22
13 17 22
13 17 23
13 16 22
12 15 21
12 16 21
11 14 19
12 15 21
12 16 21
11 15 20
12 16 21
12 16 21
12 16 21
12 16 21
12 16 21
12 16 21
12 16 21
12 15 21
12 15 20
11 15 20
11 14 19
12 15 20
11 14 18
12 15 20
11 14 20
11 14 18
10 13 18
10 13 17
11 14 19
11 15 20
10 13 18
12 15 20
10 13 18
12 15 20
10 13 18
10 13 18
11 14 19
11 14 18
10 13 17
9 12 16
9 12 16
9 11 15
9 12 16
10 13 17
9 12 16
10 13 17
11 14 19
9 12 16
10 13 17
10 13 17
9 12 16
9 11 15
10 12 17
10 13 18
9 11 15
9 11 15
8 11 15
8 10 14
9 12 16
7 9 12
8 10 14
7 10 13
7 10 13
8 11 14
10 12 16
8 11 14
9 11 15
8 10 13
8 10 14
7 9 12
8 10 13
7 9 12
6 8 11
7 9 13
6 8 10
6 8 11
7 9 12
7 8 11
6 8 10
6 8 10
7 9 12
5 7 9
7 9 12
6 8 10
5 6 8
6 8 10
6 8 11
6 8 11
4 5 7
4 5 7
5 7 9
5 6 8
5 6 8
5 6 7
4 5 6
5 6 7
4 5 7
4 5 7
4 5 7
4 5 7
4 5 7
4 5 6
4 5 7
3 4 6
4 5 6
4 5 7
4 5 6
4 5 7
4 5 7
4 5 6
4 4 6
2 3 4
3 4 5
3 4 5
4 5 7
4 4 6
3 4 5
4 4 6
5 6 8
4 4 6
4 5 6
4 5 6
4 5 7
3 4 5
5 7 9
4 5 7
4 5 6
5 6 8
4 5 7
5 6 7
5 6 8
6 8 10
4 6 7
4 6 7
5 7 9
5 7 9
4 5 6
5 7 9
6 8 10
6 7 10
4 5 7
5 7 9
6 8 11
6 7 10
8 10 13
5 7 9
7 8 11
6 8 10
5 7 9
5 6 8
6 7 10
6 8 10
6 8 10
8 11 14
8 10 13
7 10 13
6 7 10
7 8 11
7 9 12
8 10 13
7 9 12
7 10 13
8 11 14
9 11 15
8 10 13
8 10 14
9 11 15
8 11 15
9 12 16
10 13 17
8 11 14
8 11 14
8 11 14
9 11 15
9 12 15
9 12 16
10 13 17
9 11 15
9 12 16
10 13 17
10 13 18
10 12 16
9 12 16
9 12 17
10 14 18
11 14 18
10 13 17
10 13 18
9 12 17
10 13 18
11 14 19
10 13 18
8 11 15
12 15 20
11 14 19
10 13 18
12 15 21
11 14 19
11 14 19
11 15 20
10 13 17
12 15 20
11 14 19
11 14 18
11 14 19
12 15 21
12 16 21
11 15 20
11 15 20
11 15 20
11 14 19
12 15 20
12 15 21
13 17 23
12 16 22
12 16 21
12 15 20
11 15 20
12 16 21
12 16 21
12 16 22
12 15 20
12 15 21
12 16 22
12 16 21
13 17 23
13 16 22
13 17 23
13 16 22
13 17 22
12 15 21
13 17 22
13 16 22
12 15 21
12 16 21
13 16 22
14 18 24
14 18 24
13 17 23
14 18 24
12 16 22
13 17 23
13 17 23
12 16 22
13 17 23
12 16 22
12 16 22
14 18 24
13 17 23
13 18 24
13 17 24
13 17 23
13 17 23
14 18 24
13 17 23
13 17 23
12 16 22
13 18 24
13 17 23
13 18 24
13 17 23
13 17 23
13 17 23
14 18 24
14 18 24
14 17 23
13 17 23
13 17 23
13 17 22
13 17 23
14 18 24
13 17 23
14 18 24
14 18 24
13 17 23
14 18 24
14 18 24
13 17 23
14 18 24
13 17 23
13 17 24
14 19 25
14 18 24
14 18 24
13 17 23
14 18 24
13 17 23
14 18 24
13 17 24
13 18 24
14 18 24
14 18 24
13 17 23
14 18 24
14 18 24
14 18 24
14 18 24
14 18 24
14 18 24
14 18 25
14 18 25
14 18 24
14 18 24
14 18 24
14 18 24
14 18 24
14 18 25
14 18 24
14 18 24
14 18 24
14 19 25
14 18 24
14 18 24
13 17 23
14 18 24
14 18 24
14 18 24
13 17 23
14 18 24
14 18 25
14 18 24
14 18 24
14 18 25
13 17 23
14 18 24
13 17 24
14 18 24
14 18 24
14 18 25
14 19 25
14 18 24
14 18 24
14 18 24
14 18 24
14 18 24
14 18 24
13 17 23
14 18 24
13 17 23
14 18 25
13 17 23
14 18 24
13 17 24
13 17 23
14 18 24
13 17 23
13 17 22
14 18 24
14 18 24
14 18 25
13 17 23
13 17 24
13 18 24
13 17 23
12 16 22
13 17 22
14 18 24
13 17 23
13 17 22
14 18 24
14 18 24
13 17 23
14 18 24
13 17 22
13 17 23
13 17 23
14 18 24
14 18 24
13 17 23
13 17 23
13 16 22
13 17 22
13 17 23
13 17 23
13 17 22
13 17 23
13 17 22
13 17 22
13 17 23
13 17 23
13 17 23
13 17 22
13 17 23
12 16 22
13 17 22
13 17 23
13 16 22
13 17 22
13 17 22
12 16 22
13 17 23
13 17 22
13 17 23
12 15 21
13 17 23
12 16 21
13 17 22
12 15 20
13 17 22
12 16 21
12 15 20
13 17 23
12 15 20
12 16 21
13 16 22
12 16 21
12 16 21
12 15 20
11 15 20
12 15 21
11 15 20
12 16 21
11 15 20
12 16 21
12 15 20
12 15 20
11 14 19
12 15 20
11 15 20
12 16 21
12 15 20
11 14 19
9 12 17
11 14 19
11 14 19
11 15 20
12 16 21
12 15 20
11 15 20
11 14 19
11 14 19
10 13 18
11 15 20
11 14 19
10 13 18
11 14 19
10 13 18
10 13 17
11 14 19
10 13 18
10 13 17
11 14 18
11 14 18
11 14 19
10 13 17
10 13 17
11 14 19
10 12 16
11 14 18
11 14 18
9 11 15
9 11 15
8 11 15
10 12 17
11 14 18
9 12 16
9 11 15
10 12 16
8 10 13
8 11 14
7 9 12
9 12 16
7 9 12
9 11 14
9 11 15
9 12 16
8 10 13
7 9 12
7 9 12
7 8 11
6 8 11
8 10 14
7 9 11
8 10 13
6 8 11
7 9 11
7 9 11
5 6 9
5 7 9
6 8 11
7 9 12
7 9 12
6 7 9
5 6 9
5 6 8
6 7 10
5 6 8
5 7 8
5 6 8
4 5 6
5 7 9
6 7 9
5 6 8
4 5 7
5 6 8
4 5 7
4 5 7
4 6 7
6 7 9
4 5 7
3 4 6
2 3 4
3 4 6
5 6 8
5 6 8
4 5 6
5 6 8
4 5 6
5 6 8
4 4 6
4 5 7
4 5 7
4 5 7
4 4 6
3 4 6
4 5 7
3 4 6
3 4 6
3 4 5
4 5 6
5 6 8
4 5 6
6 7 9
5 6 8
5 6 8
4 5 7
4 5 7
5 6 8
5 6 8
5 6 8
5 7 8
4 6 7
5 7 9
4 5 7
5 6 8
6 7 10
7 8 11
5 7 9
6 8 10
5 7 9
6 8 11
5 6 8
7 9 12
7 9 12
5 7 9
7 9 12
5 7 9
8 10 13
7 9 12
7 9 11
6 8 11
7 9 12
7 8 11
7 8 11
7 9 12
9 11 14
6 8 11
7 9 12
8 10 13
9 11 15
8 10 13
7 8 11
7 9 12
8 10 13
8 10 14
9 12 16
8 11 14
9 11 15
8 10 14
9 12 16
8 11 15
8 11 15
8 10 14
9 12 16
8 11 14
8 11 15
8 11 14
9 12 16
9 12 16
10 12 16
10 13 17
11 14 19
11 14 18
9 12 16
9 12 16
10 12 16
11 14 19
9 12 16
11 14 19
9 12 16
11 14 19
11 14 19
11 14 19
10 13 18
11 15 19
10 12 17
11 14 19
12 16 21
11 14 19
11 14 19
11 14 18
11 15 20
12 15 21
12 16 21
12 15 21
11 15 20
10 14 19
12 15 20
11 14 19
11 14 19
14 18 23
12 16 21
12 16 21
13 17 22
11 15 20
10 13 18
11 15 20
13 16 22
12 16 22
12 16 21
11 14 19
12 15 21
11 15 20
12 16 21
12 16 22
13 17 23
13 16 22
13 16 22
12 15 20
12 16 21
12 16 21
13 17 22
12 16 21
13 17 23
13 17 22
12 15 20
13 16 22
12 16 21
13 17 22
12 16 22
12 16 22
13 16 22
13 17 23
13 16 22
12 16 21
13 17 23
13 16 22
13 17 23
14 18 24
13 17 23
13 18 24
12 16 22
13 17 23
13 17 23
13 17 23
13 17 23
14 18 24
13 17 23
14 18 24
13 17 23
13 17 23
14 18 24
13 17 23
13 17 23
13 17 23
13 17 23
14 18 24
14 18 24
13 17 23
14 18 24
13 17 23
14 18 24
13 17 23
13 18 24
13 17 23
13 17 23
14 18 24
14 18 24
14 18 24
13 17 24
14 18 24
14 18 24
14 18 24
13 17 23
13 18 24
14 18 24
14 18 24
13 17 23
14 18 25
14 18 24
14 18 25
13 17 23
14 18 24
13 17 23
14 18 24
14 18 24
13 17 24
13 17 23
14 19 25
14 18 25
13 18 24
13 17 24
13 18 24
14 18 24
14 18 25
14 18 24
14 18 24
14 18 24
14 18 24
14 18 23
14 18 24
14 18 25
14 18 25
14 19 25
14 18 24
13 17 23
14 18 24
14 18 24
14 18 24
14 18 24
14 18 24
14 18 24
14 18 24
13 17 23
13 17 23
14 18 24
13 17 23
14 18 24
13 18 24
13 17 23
14 18 25
13 17 24
13 17 24
13 17 23
14 18 24
13 17 23
14 17 23
14 18 25
13 17 23
14 18 24
14 18 24
14 18 24
14 18 24
14 18 24
13 17 23
13 17 23
13 17 23
13 17 23
14 18 24
14 18 25
13 17 23
13 17 23
13 16 22
13 17 23
14 18 24
13 16 22
14 17 23
14 18 24
13 17 23
13 17 23
13 17 23
13 17 22
12 16 22
13 17 23
13 17 22
14 18 24
14 18 24
13 17 23
14 18 24
14 18 23
13 17 23
13 17 24
13 17 23
14 17 23
13 17 23
13 17 23
13 17 23
13 17 24
13 17 23
13 17 23
13 17 22
13 16 22
13 17 23
12 16 22
14 18 24
12 16 21
12 16 21
12 16 21
14 18 24
13 17 23
13 16 22
13 17 23
12 16 22
12 16 22
12 16 21
13 17 22
12 15 20
12 16 21
12 16 22
12 16 21
12 16 22
12 16 22
14 18 24
13 16 22
12 15 20
12 15 20
12 16 21
12 15 20
12 15 21
12 15 21
12 15 21
12 15 21
12 16 21
12 15 20
11 14 19
11 15 20
10 14 18
11 14 19
12 15 20
11 14 19
11 15 20
11 15 20
10 13 18
11 15 20
12 15 21
12 15 20
10 13 17
11 14 19
10 13 18
12 15 20
9 12 16
11 14 18
11 14 19
11 15 20
10 13 17
10 13 18
9 12 16
11 14 18
10 13 18
10 13 17
9 12 16
10 12 17
10 12 16
10 12 16
9 11 15
10 12 17
9 11 15
9 12 16
8 10 14
10 13 18
10 12 17
10 13 17
8 10 14
9 11 15
9 11 15
8 10 14
8 10 14
10 13 17
9 11 15
10 12 17
9 11 15
8 10 14
9 12 15
9 12 16
8 11 15
7 9 12
8 10 13
8 10 13
7 9 11
8 10 14
7 9 12
7 9 12
8 10 13
6 8 11
7 8 11
7 8 11
7 9 11
8 10 13
6 7 10
7 9 11
7 9 12
6 8 11
6 8 10
6 7 10
6 7 9
7 8 11
5 7 9
5 7 9
7 9 12
4 5 6
5 6 8
4 5 7
5 7 9
5 6 8
5 6 8
5 7 8
4 5 7
3 4 6
5 7 9
4 6 7
5 6 8
5 7 9
6 8 10
3 4 5
4 5 7
5 6 7
4 5 6
5 6 8
4 5 6
5 6 8
4 5 7
4 5 7
3 4 6
5 7 8
6 8 10
5 6 8
3 4 6
4 5 6
4 5 7
5 6 8
6 7 9
4 5 7
4 5 7
4 5 6
3 3 5
5 6 7
5 7 9
4 5 7
5 6 9
4 6 7
4 6 7
6 8 10
4 6 7
5 7 9
6 7 10
5 7 9
6 8 10
6 8 10
5 6 7
6 8 10
6 7 10
6 8 11
4 6 7
5 7 9
5 6 8
6 8 11
6 8 10
8 10 13
6 8 10
6 8 10
6 7 10
6 8 11
7 9 12
7 9 11
6 8 10
8 10 13
8 11 14
9 11 15
7 10 13
8 10 13
9 11 15
9 11 15
8 10 13
9 11 15
7 9 12
8 11 14
8 10 14
8 10 13
8 10 13
8 10 14
8 11 14
8 10 13
9 12 16
9 12 15
10 12 16
9 12 16
9 11 15
8 10 13
9 12 16
10 13 17
9 12 16
10 13 17
11 14 19
9 11 15
11 14 19
11 14 18
10 12 17
11 14 19
11 14 19
10 13 18
11 14 19
10 13 18
11 14 19
11 14 19
11 14 18
10 13 18
11 15 20
11 15 20
11 15 20
11 15 20
11 14 19
10 14 18
12 16 21
11 15 20
11 14 19
11 14 18
11 14 19
12 15 20
12 15 20
11 15 20
11 14 19
12 16 22
12 15 20
12 15 21
13 16 22
12 15 21
11 15 20
12 16 21
12 16 21
12 16 22
11 14 19
12 16 22
12 15 21
12 16 22
12 16 22
13 16 22
13 16 22
12 16 22
13 16 22
13 17 23
12 16 22
12 16 22
13 17 23
13 17 22
13 16 22
13 17 22
13 17 23
13 17 23
12 16 22
12 16 21
12 16 21
13 16 22
13 17 23
12 16 22
13 17 23
13 17 23
13 17 23
12 16 21
12 16 22
13 17 23
13 17 23
13 17 23
12 16 22
14 18 24
13 17 24
12 16 22
13 17 23
14 18 24
14 18 24
13 17 23
13 17 23
13 18 24
14 18 24
13 16 22
13 17 23
13 17 23
13 17 23
14 18 24
13 17 22
13 17 23
13 17 23
13 17 23
14 18 25
13 17 23
14 18 24
13 17 23
13 18 24
14 18 24
14 18 24
13 17 23
14 18 24
14 18 24
14 18 24
14 18 24
14 18 24
13 17 23
14 18 25
14 18 24
14 18 24
13 17 23
13 17 23
14 18 24
13 17 23
14 18 24
14 18 24
14 18 24
14 18 24
14 18 25
14 18 24
14 18 24
14 18 24
13 17 23
14 18 25
14 18 25
13 17 23
14 18 25
14 18 24
14 18 25
14 18 24
14 18 24
14 19 25
14 18 24
14 18 25
14 18 25
14 18 24
14 19 25
14 18 24
14 18 25
13 18 24
14 18 23
13 17 24
14 18 24
14 19 25
14 18 24
14 18 24
14 18 25
13 18 24
14 18 25
13 18 24
14 18 24
14 18 24
13 17 23
14 18 24
14 18 24
14 18 24
14 18 24
14 18 24
14 18 24
14 18 24
14 18 24
14 17 23
14 18 24
14 18 23
13 17 24
13 17 23
13 17 23
13 17 23
13 17 23
13 17 23
13 18 24
13 17 23
13 18 24
14 18 24
13 17 23
14 18 24
14 18 24
13 16 22
13 18 24
13 17 23
13 17 23
14 18 23
12 16 22
13 17 23
13 17 23
13 17 23
14 18 24
13 17 22
13 17 22
13 17 24
14 18 24
14 17 23
13 17 23
13 17 23
12 16 22
12 16 22
13 17 22
12 16 21
13 17 22
13 17 23
13 16 22
13 17 23
12 16 22
13 17 22
13 17 23
12 16 21
13 17 22
13 17 22
13 17 23
12 16 21
13 18 24
12 16 21
12 16 21
13 17 22
13 16 22
13 17 22
12 16 22
12 15 20
12 16 22
12 16 22
13 16 22
12 15 20
11 15 20
12 15 21
12 16 21
12 16 21
12 16 22
12 15 21
13 16 22
11 14 19
12 16 21
12 15 21
12 15 21
12 16 21
11 14 19
11 15 20
11 15 20
12 15 20
10 14 18
11 14 19
11 14 19
11 14 19
11 15 20
12 15 20
11 14 19
12 16 21
10 13 18
10 13 18
10 14 18
11 14 19
11 15 20
11 14 19
11 14 19
11 14 19
11 15 20
12 15 20
11 14 19
10 13 18
9 12 15
10 12 17
10 13 18
9 12 16
11 14 18
10 13 18
10 13 17
10 13 17
9 12 16
9 12 16
9 11 15
9 12 16
10 13 17
8 10 14
9 11 15
10 12 16
9 12 16
9 11 15
8 10 13
8 10 13
8 10 14
8 11 14
9 11 15
8 11 14
10 13 17
9 11 14
8 10 13
7 9 13
7 10 13
7 9 12
8 11 14
8 10 13
7 9 12
6 8 10
7 9 12
8 9 12
7 9 13
6 8 11
7 9 12
7 9 12
7 9 11
6 8 11
7 8 11
6 8 11
6 8 10
6 8 10
6 8 11
6 8 10
5 7 9
6 8 10
6 8 10
6 7 10
6 7 9
5 6 8
6 7 9
5 7 9
4 6 8
7 8 11
4 5 6
6 7 9
5 6 8
4 6 7
5 6 8
5 6 8
4 6 8
6 7 9
5 6 8
5 7 9
6 7 9
6 7 9
4 6 7
5 6 8
4 5 7
4 5 7
4 5 7
5 6 7
3 4 5
5 6 7
4 5 6
5 6 8
5 6 8
5 6 8
5 6 7
6 7 10
6 7 9
5 7 9
5 7 9
5 6 8
5 6 9
6 7 9
6 8 10
5 6 8
5 6 8
6 7 10
5 6 8
6 7 9
5 7 9
7 9 12
6 8 10
6 7 10
5 7 9
6 7 9
6 8 10
6 8 11
6 8 10
7 9 11
6 8 10
6 7 10
6 7 10
7 9 12
7 8 11
7 9 11
8 10 13
7 9 12
7 9 12
7 9 13
7 9 12
7 10 13
8 10 13
9 11 15
8 10 14
8 10 13
7 10 13
7 10 13
7 9 13
9 11 15
8 10 13
8 10 13
8 10 13
9 11 15
8 11 14
7 9 12
10 12 16
9 11 15
9 12 15
8 10 13
10 12 16
9 12 15
10 13 17
10 13 17
9 11 15
10 13 17
10 13 18
10 13 17
8 11 14
9 12 16
10 13 17
10 12 17
10 13 18
10 13 17
10 13 17
11 14 18
10 13 17
10 13 17
10 13 17
11 14 18
10 12 17
11 14 18
10 13 17
10 13 18
11 14 19
11 15 20
12 15 20
11 15 20
9 12 16
11 15 20
12 15 20
11 15 20
12 16 21
11 15 20
11 14 19
11 14 19
11 15 20
12 15 21
12 15 21
12 16 22
12 15 20
12 16 21
12 16 21
11 15 20
12 16 21
12 16 21
12 15 21
12 16 21
12 15 20
13 16 22
11 15 20
13 16 22
12 16 21
13 16 22
14 18 24
12 16 21
13 18 24
13 16 22
13 17 22
12 15 20
13 17 22
12 16 22
12 16 21
12 16 21
13 17 23
13 17 22
12 16 22
12 16 22
13 17 22
12 16 22
12 16 21
13 17 22
13 17 22
12 16 22
12 16 22
13 17 23
13 17 23
14 18 24
12 16 22
13 16 22
13 17 23
13 17 23
13 17 22
13 17 23
13 17 22
14 18 24
13 17 23
13 17 23
13 17 23
13 17 22
14 18 24
13 17 23
13 17 23
14 18 24
14 18 24
13 17 23
13 17 23
13 17 23
13 17 23
14 18 24
14 18 24
14 18 25
13 17 23
13 17 23
13 17 23
14 18 24
13 17 23
14 18 24
14 17 23
13 17 23
13 17 24
13 18 24
14 18 24
14 18 24
14 18 24
14 18 24
13 17 23
13 17 23
14 18 24
13 18 24
14 18 24
14 18 24
13 17 23
14 18 24
13 17 24
14 18 24
14 18 24
13 17 23
13 18 24
14 18 24
14 18 24
14 18 24
14 18 24
14 18 24
14 18 25
14 18 24
14 18 24
14 18 24
13 18 24
14 18 24
14 18 24
14 18 25
14 18 25
14 18 24
14 18 24
14 18 24
14 18 24
14 18 24
14 18 24
14 18 25
14 18 24
14 19 25
14 18 24
13 17 23
14 18 24
14 18 24
14 18 24
14 18 24
14 18 24
14 18 24
13 17 23
14 18 24
13 17 23
14 18 24
13 17 23
13 17 23
13 17 23
14 18 24
14 18 25
13 17 23
13 17 23
14 18 25
14 18 24
14 18 24
13 17 23
13 17 23
12 16 22
13 17 23
13 17 23
13 17 23
13 17 23
14 18 24
14 18 24
14 18 24
13 17 23
14 18 24
14 18 24
14 18 24
13 17 23
12 16 22
14 18 24
12 16 22
13 17 23
14 18 24
13 16 22
13 17 22
12 16 21
13 17 22
14 18 24
13 16 22
13 17 23
13 17 23
14 18 24
13 16 22
13 17 23
13 17 22
12 16 21
13 17 23
12 16 21
13 17 23
14 18 24
12 16 22
13 17 23
13 17 23
13 16 22
12 16 21
13 17 22
12 16 21
12 16 21
12 16 22
12 16 22
13 17 23
12 16 22
13 17 22
12 16 21
12 16 22
11 15 19
12 15 20
13 16 22
12 15 20
12 16 21
12 16 22
12 16 21
12 16 21
11 15 20
12 16 22
12 15 21
12 15 20
12 16 22
13 16 21
11 14 19
12 15 20
12 16 21
11 14 19
11 14 19
11 14 19
11 14 19
11 14 20
11 14 19
11 15 20
11 14 19
11 14 19
11 14 18
11 15 20
11 14 19
11 15 20
11 15 20
10 13 17
10 14 18
10 14 18
11 14 19
11 14 19
12 15 20
10 13 18
10 13 17
10 13 17
10 13 18
9 12 16
11 14 19
10 13 18
9 12 17
10 13 17
10 12 17
9 12 16
10 12 16
9 12 16
11 14 18
9 11 15
9 12 16
9 11 15
10 13 18
9 12 16
10 12 16
9 11 15
9 12 16
8 11 14
8 10 13
9 11 15
8 11 14
8 10 14
7 9 13
8 10 13
7 10 13
8 10 14
7 9 12
8 10 14
7 9 12
7 10 13
7 9 12
8 11 14
8 11 14
7 9 12
8 10 13
7 9 11
7 9 11
7 9 12
7 8 11
7 9 11
6 8 11
7 9 11
7 9 12
6 7 10
6 7 9
6 8 10
4 6 8
6 8 11
5 7 9
5 6 8
4 5 7
6 7 9
7 9 12
6 8 10
5 6 8
4 5 6
5 6 8
5 6 8
5 6 8
6 7 10
6 7 9
5 6 8
5 7 9
4 6 7
6 8 10
4 4 6
5 7 9
5 7 9
5 6 8
5 6 8
6 7 9
5 6 8
5 7 9
6 7 9
5 7 9
5 6 8
4 5 7
5 6 8
5 7 9
5 6 8
5 6 8
4 5 7
6 7 9
4 5 7
4 5 7
5 6 8
5 6 8
6 7 10
6 7 10
7 8 11
6 7 9
7 8 11
6 7 9
6 7 10
6 7 10
6 7 9
6 8 10
7 8 11
7 9 12
7 9 11
7 9 12
8 10 13
6 8 11
5 7 9
6 8 10
8 10 13
6 8 11
8 9 12
8 10 13
7 8 11
8 10 14
7 8 11
6 8 11
6 8 11
7 9 12
7 9 12
7 8 11
8 10 14
7 9 12
7 9 12
8 11 14
8 10 13
8 11 14
9 11 15
8 11 14
10 12 17
8 11 14
7 9 12
9 11 15
8 11 14
9 12 16
8 10 14
9 11 15
9 12 15
9 12 15
9 12 15
9 12 16
10 13 18
10 13 17
11 14 19
9 12 16
8 11 14
9 12 16
10 13 18
10 13 17
11 14 19
10 13 17
11 14 19
11 14 18
12 16 21
11 15 20
10 13 18
11 15 19
11 14 19
12 15 20
10 14 18
11 15 19
11 15 20
11 15 19
11 14 19
10 13 18
11 14 19
12 15 21
11 14 19
12 16 21
13 17 23
11 15 20
11 14 19
10 14 18
13 16 22
11 14 19
13 17 22
12 16 22
12 16 22
13 17 22
12 15 21
12 16 22
13 16 22
11 14 19
12 16 21
12 16 22
13 16 22
12 16 22
11 15 20
13 16 22
12 15 20
12 16 21
12 15 20
12 16 22
12 16 22
13 16 22
13 17 23
13 17 23
12 16 21
12 16 22
12 16 21
12 16 22
11 15 20
12 16 22
12 16 22
13 16 22
13 17 22
13 17 22
13 17 23
13 17 23
12 16 22
13 16 22
13 17 22
13 17 22
12 16 22
13 17 22
13 17 22
13 16 22
12 16 21
13 17 23
13 17 23
12 16 21
13 17 23
13 16 22
14 18 24
13 17 23
13 17 23
13 17 22
13 17 23
12 16 22
14 18 24
14 18 24
14 18 24
13 17 23
14 18 24
13 17 23
14 18 24
13 17 23
14 18 24
14 18 24
14 17 23
14 18 24
14 18 24
14 18 24
14 18 24
13 17 23
13 17 23
12 16 22
14 18 24
14 18 24
13 17 23
13 17 23
14 18 24
14 18 24
14 17 23
14 18 24
14 18 24
13 18 24
14 18 24
14 18 24
13 17 23
13 17 22
14 18 25
14 18 24
14 18 24
14 18 24
14 18 24
14 19 25
14 18 24
13 16 22
14 18 24
14 18 24
13 17 23
14 18 24
14 18 25
14 19 25
13 18 24
13 18 24
14 18 25
14 18 24
13 17 23
14 18 24
13 17 24
14 18 25
14 18 24
14 18 24
14 18 24
14 18 23
13 18 24
14 18 24
13 17 23
14 18 24
14 18 25
14 18 24
14 18 25
14 18 24
13 17 24
13 17 23
13 18 24
14 18 24
13 18 24
13 17 23
14 18 24
13 17 23
13 18 24
14 18 24
14 18 24
14 18 24
14 18 24
13 17 23
13 17 23
13 17 23
14 18 24
14 18 24
13 17 23
14 18 24
13 17 23
13 16 22
13 16 22
14 18 24
13 17 23
14 18 24
13 17 23
14 18 24
14 18 24
13 17 23
14 18 24
13 17 23
13 17 23
13 17 23
13 17 23
13 17 24
12 16 21
12 16 22
13 16 22
12 16 22
12 16 22
13 17 23
13 17 22
13 17 23
12 16 22
12 16 21
13 17 23
13 17 22
13 17 22
12 16 22
13 17 23
13 17 23
13 17 22
13 17 23
13 17 23
12 16 22
12 16 22
12 16 22
12 16 22
14 17 23
12 16 22
12 16 22
12 16 21
12 16 21
12 15 21
13 17 23
13 17 22
13 17 23
12 16 22
12 16 22
12 16 22
13 17 23
13 16 22
13 17 22
11 14 19
12 16 22
11 15 20
12 15 20
13 17 22
12 16 21
12 16 21
12 16 21
11 15 20
11 14 19
13 17 22
11 15 20
12 16 21
12 16 21
11 14 19
10 14 18
11 15 20
12 15 20
11 14 18
12 15 21
10 14 18
11 14 19
10 14 18
11 15 20
12 15 21
12 15 20
11 14 19
10 13 18
10 13 18
11 14 19
8 11 14
11 14 18
12 15 21
11 14 19
10 13 17
9 11 15
10 12 16
10 12 16
10 12 16
10 13 17
10 13 18
10 12 17
9 11 15
9 11 15
10 13 17
8 10 13
11 14 18
8 10 13
8 10 14
10 13 18
7 10 13
7 9 12
8 10 14
10 13 17
7 9 13
8 10 14
9 11 15
8 11 14
8 10 14
8 10 13
9 12 16
9 11 15
7 9 12
8 10 14
8 10 13
7 9 13
7 9 11
7 9 12
7 9 12
7 9 11
7 10 13
8 11 14
7 9 12
8 10 13
7 9 12
7 9 12
5 6 8
6 7 10
5 7 9
7 9 12
6 8 11
5 7 9
6 8 11
6 7 10
5 6 9
7 9 11
6 7 10
6 7 9
6 7 10
5 6 8
4 5 7
7 8 11
5 6 8
5 7 9
6 8 10
6 7 10
5 6 8
6 7 10
5 6 8
5 7 9
6 7 10
6 8 10
6 8 10
6 8 10
5 7 9
6 7 9
5 6 8
4 5 6
6 7 10
5 7 9
6 7 9
4 5 6
6 7 10
5 7 8
4 5 6
7 9 12
5 6 8
6 7 9
4 5 7
5 6 8
5 6 8
5 6 8
5 6 8
5 6 7
6 8 10
6 7 9
4 5 7
5 7 9
5 6 9
6 7 9
6 8 10
7 8 11
4 6 8
5 7 9
7 9 11
7 9 11
6 8 10
8 10 13
6 8 11
6 8 11
7 9 12
6 8 10
7 9 12
6 8 10
7 8 11
8 10 13
7 9 12
8 10 13
8 11 14
9 12 16
8 11 14
8 11 14
6 8 11
7 9 12
8 10 13
9 11 15
8 10 14
7 9 12
8 10 14
8 10 13
7 10 13
8 10 14
9 12 16
9 11 15
10 13 17
9 12 15
9 11 15
10 13 17
9 12 16
9 11 15
9 12 15
9 12 16
9 12 16
10 12 16
10 13 17
9 12 16
9 12 16
10 13 18
9 12 16
10 12 17
11 14 19
10 13 17
11 14 18
11 14 18
11 14 18
10 12 17
10 14 18
11 14 18
10 12 17
10 13 18
12 15 20
12 15 20
10 13 18
11 15 20
11 14 19
12 15 20
10 14 18
11 14 19
13 17 22
9 12 16
11 15 20
11 14 19
12 15 21
11 14 19
11 14 19
12 16 21
12 16 21
11 15 20
11 14 20
12 16 21
12 16 21
12 15 20
12 15 20
11 15 20
11 14 19
12 15 21
12 15 20
12 15 21
12 15 20
12 16 22
12 15 21
13 17 22
13 17 23
13 17 23
12 16 22
12 16 22
12 16 22
13 17 22
12 16 21
12 15 20
13 17 22
12 16 22
12 16 22
13 17 22
13 16 22
13 17 23
13 16 22
13 17 23
14 18 24
12 16 22
13 17 23
13 17 23
12 16 21
12 16 22
14 18 24
13 17 23
12 16 21
13 17 23
13 18 24
14 18 24
14 18 24
13 18 24
13 17 23
13 17 23
13 17 23
12 16 22
13 17 23
13 17 23
13 17 24
14 18 24
14 18 24
13 17 23
13 17 23
13 16 22
13 17 23
12 15 21
14 18 24
14 18 24
13 17 23
13 17 23
14 18 24
14 18 24
14 18 24
13 18 24
13 17 23
14 19 25
14 18 24
13 17 22
13 18 24
14 18 24
13 17 24
14 18 24
13 17 23
13 17 23
14 18 24
13 18 24
13 17 23
14 18 25
13 17 23
14 19 25
14 19 25
14 18 24
14 19 25
13 17 23
14 18 24
14 18 24
14 18 24
13 17 23
14 18 24
14 18 24
14 18 24
14 18 24
13 18 24
14 18 25
14 18 24
14 19 25
13 17 23
14 18 24
13 17 23
14 18 24
14 18 25
14 18 24
14 18 24
13 18 24
14 18 24
14 18 24
14 18 24
14 18 24
13 17 23
13 17 23
14 18 25
14 18 23
13 17 23
13 17 23
14 18 24
14 18 24
14 18 24
13 17 23
14 18 24
13 17 23
14 18 24
14 18 24
13 18 24
14 18 24
13 17 23
14 18 24
14 18 25
14 18 24
13 17 22
13 18 24
13 17 23
14 18 24
14 19 25
14 18 24
13 17 23
13 17 24
13 17 23
13 17 23
13 17 23
13 17 23
13 17 23
13 17 23
14 18 24
14 17 23
13 18 24
14 18 24
14 17 23
13 17 23
13 16 22
12 16 22
13 17 23
12 16 22
14 18 24
13 17 23
13 17 22
12 16 22
13 18 24
12 16 22
13 17 23
13 18 24
13 17 22
13 17 23
13 17 22
12 16 21
13 17 22
13 17 22
13 17 22
12 16 21
13 16 22
12 16 21
12 16 22
12 16 21
11 15 20
14 18 24
13 16 22
13 17 22
13 16 22
12 16 21
13 16 22
12 16 21
12 16 21
13 17 23
12 16 22
12 16 22
13 16 22
12 15 21
11 15 20
11 15 20
13 16 22
12 15 21
12 15 21
11 15 20
12 15 20
12 16 21
12 16 21
12 16 21
13 16 22
13 16 22
11 15 20
11 14 19
12 16 21
10 13 18
12 15 20
12 16 21
12 16 21
11 15 20
10 13 18
12 15 20
11 15 20
11 15 20
11 15 20
12 15 20
12 16 21
11 14 18
10 13 18
9 12 16
10 13 18
11 14 18
11 15 20
12 15 20
9 12 17
11 14 19
9 11 15
11 14 19
9 12 16
9 11 15
10 13 18
11 14 19
9 12 16
10 13 17
10 13 17
10 13 18
10 13 17
10 13 17
10 13 17
9 12 16
9 12 16
9 12 16
10 12 17
9 12 16
9 11 15
10 13 17
9 12 16
8 10 13
9 11 15
9 12 16
8 11 14
8 11 14
8 11 14
8 11 15
9 11 15
8 10 14
7 10 13
7 8 11
7 9 13
7 9 13
7 9 12
8 11 14
7 9 12
8 10 13
8 10 14
7 9 12
7 8 11
7 9 11
7 9 12
6 7 10
6 8 11
6 8 11
8 10 13
6 8 11
7 9 13
4 6 8
6 8 10
6 8 10
4 5 7
6 8 11
6 7 9
5 6 8
6 7 10
6 8 11
6 8 10
6 8 10
6 8 11
6 7 9
6 8 10
6 8 10
6 8 10
6 7 9
5 7 9
6 7 9
4 5 7
7 9 12
6 7 9
5 6 8
6 8 10
4 5 7
5 6 8
6 8 10
4 6 8
5 6 8
5 7 9
5 6 8
6 8 10
5 7 9
4 5 7
6 7 9
6 8 10
5 6 8
6 7 9
5 7 9
6 7 10
4 6 7
5 7 9
5 7 9
6 8 11
5 7 9
6 8 10
6 7 10
6 7 9
6 8 10
4 5 7
5 7 9
7 9 12
6 8 10
6 8 10
7 9 12
6 8 11
7 9 12
7 9 12
6 7 10
7 9 12
7 9 12
5 7 9
7 8 11
6 8 11
8 11 14
8 10 13
7 9 12
7 10 13
9 11 14
8 11 14
8 10 13
8 10 14
7 9 13
8 10 13
8 10 14
7 9 12
7 9 12
9 12 16
8 10 14
9 11 15
8 10 13
9 12 16
8 10 13
9 11 15
9 12 16
10 13 18
9 12 16
11 14 18
9 11 15
9 12 16
10 13 17
10 13 17
10 13 17
10 13 18
10 13 17
9 12 16
11 14 19
10 13 17
10 13 17
10 13 17
10 13 18
11 14 19
11 14 18
10 13 18
12 15 20
10 13 18
12 15 21
10 13 17
10 14 18
11 14 19
11 15 20
11 14 19
11 14 19
11 14 19
10 13 18
11 14 19
12 16 22
11 14 19
11 14 19
12 16 21
11 14 19
12 16 21
12 16 21
12 15 21
12 16 21
11 14 19
11 15 20
12 16 21
12 15 20
12 16 21
12 15 21
12 16 22
12 16 22
12 16 22
12 15 21
11 15 20
12 15 20
13 16 22
12 16 22
12 15 21
11 15 20
13 17 23
13 17 22
13 16 22
12 16 22
13 17 23
13 17 22
13 16 22
13 17 23
12 16 22
12 16 21
12 16 22
12 16 22
13 17 23
12 16 22
12 16 21
13 17 23
12 16 22
14 17 23
13 17 23
12 16 22
13 17 23
12 16 22
12 16 22
13 17 22
13 17 24
13 17 22
13 17 22
12 16 21
13 17 23
12 16 22
13 17 22
13 17 24
14 18 24
14 18 24
13 17 23
13 17 23
13 17 23
13 17 23
13 16 22
13 17 23
13 17 23
13 17 23
14 18 24
13 17 23
14 18 24
13 17 23
12 16 22
13 17 23
13 17 22
14 18 24
13 17 23
13 17 23
13 17 23
14 18 24
13 17 22
14 18 24
13 18 24
14 18 24
12 16 22
14 18 24
14 18 24
13 17 23
13 17 23
13 17 22
14 18 24
14 18 24
14 18 24
14 18 24
13 17 23
14 18 24
13 17 22
14 18 24
14 18 25
14 18 24
14 18 24
14 18 24
13 17 23
14 18 24
14 17 23
14 17 23
14 18 24
14 18 23
14 18 25
14 18 24
14 18 25
14 18 24
14 18 24
14 18 24
14 18 24
14 18 25
13 17 23
13 18 24
14 18 24
14 18 24
14 18 25
14 18 24
14 18 25
14 18 24
13 17 23
13 17 23
14 18 24
13 17 23
13 17 23
14 18 25
14 18 24
13 17 23
14 18 24
14 18 24
14 19 25
14 18 24
14 18 24
14 18 24
13 17 23
13 17 23
14 18 24
13 17 23
13 17 24
14 18 24
13 17 24
14 18 24
13 17 23
14 18 24
13 17 23
14 18 24
13 17 22
13 17 23
13 17 22
13 17 23
13 16 22
13 17 23
13 17 23
13 17 22
13 16 22
13 17 23
13 17 23
13 17 23
13 17 23
13 16 22
14 18 24
13 17 23
13 17 23
14 18 24
12 16 21
13 16 22
12 16 21
13 16 21
13 17 22
12 15 21
13 16 22
13 16 22
13 16 22
12 16 22
13 17 22
13 17 23
13 17 23
13 17 23
13 17 23
13 16 22
12 16 22
12 16 22
12 15 20
13 16 22
12 16 22
13 17 24
13 17 22
12 16 21
12 16 22
13 17 22
13 17 23
12 15 21
12 16 21
13 16 22
12 16 21
12 16 21
11 14 19
12 15 21
12 16 21
12 16 21
12 15 21
11 14 19
11 15 20
11 14 19
12 15 20
11 15 19
12 15 20
13 16 21
12 16 21
11 14 19
11 15 20
12 16 21
11 14 18
12 15 20
12 15 20
11 15 20
10 14 18
11 14 19
11 14 19
10 13 18
10 13 17
11 14 19
11 14 19
11 14 19
11 14 18
11 14 18
10 13 17
12 15 21
11 14 18
9 12 16
10 14 18
9 12 16
11 15 20
9 11 15
10 13 18
11 14 19
10 13 17
10 13 17
10 13 17
10 13 18
9 12 16
9 12 16
8 11 15
9 11 15
9 12 15
8 11 15
9 11 15
10 12 16
9 12 16
8 10 14
9 12 16
9 12 16
10 12 16
9 11 15
10 13 17
9 12 16
9 11 15
7 9 12
9 11 15
8 10 13
8 11 14
8 11 14
7 10 13
8 10 13
8 10 14
9 11 15
9 11 15
8 10 13
7 9 12
7 9 12
8 10 13
6 8 11
8 10 14
7 9 12
7 9 13
7 9 12
7 9 11
8 10 13
7 9 12
6 8 10
6 8 10
7 8 11
6 8 10
6 8 11
7 8 11
7 8 11
7 9 11
6 7 10
6 7 10
6 8 10
6 8 10
7 9 11
5 6 8
6 7 9
6 7 10
4 5 7
5 7 9
6 7 10
7 8 11
5 6 8
6 8 10
5 6 9
5 6 9
5 7 9
6 7 10
5 6 8
5 7 9
5 6 8
7 9 11
5 6 8
4 5 6
6 7 10
6 7 9
5 7 9
5 7 9
5 6 8
4 6 8
6 7 9
7 9 12
6 7 10
6 7 10
6 8 10
6 7 10
5 6 8
6 7 10
6 8 10
6 7 10
7 8 11
5 7 9
6 8 10
6 8 10
5 6 8
7 9 12
8 10 13
6 8 10
7 9 12
7 9 11
7 9 12
7 9 11
8 10 13
6 8 10
8 10 13
7 9 12
7 9 12
6 8 11
6 8 10
8 10 14
8 10 13
7 10 13
8 10 14
8 10 13
8 10 13
8 10 13
8 10 14
8 10 14
8 11 14
8 11 14
9 11 15
9 12 16
7 9 13
9 12 16
9 11 15
8 11 14
9 11 15
9 12 16
9 11 15
10 13 17
9 11 15
10 12 17
10 12 17
10 13 18
8 11 14
9 12 16
9 12 16
11 14 18
9 11 15
10 13 17
10 12 16
10 13 18
9 12 16
9 12 16
11 14 19
10 13 18
11 14 19
10 13 18
10 12 17
10 13 17
10 13 18
11 14 18
10 13 17
10 13 18
9 12 16
10 13 18
12 15 21
10 13 18
12 15 20
12 15 21
12 15 20
11 15 19
12 15 20
12 15 20
11 15 20
12 15 20
11 15 20
12 16 21
10 14 18
12 15 21
12 16 21
11 14 19
12 16 21
12 15 21
11 15 20
12 15 20
12 16 21
12 15 21
12 15 21
13 16 22
12 16 22
12 16 21
12 16 21
12 16 21
11 15 20
12 16 21
13 17 22
13 16 22
12 15 20
13 16 22
13 16 22
13 16 22
13 16 22
12 15 20
13 17 22
13 17 23
13 16 22
12 15 20
12 16 21
13 17 22
12 16 21
13 16 22
13 17 23
13 17 23
13 17 23
14 17 23
13 17 23
13 16 22
13 17 22
13 17 23
12 16 22
13 17 23
13 17 23
13 17 23
13 17 23
13 17 23
13 17 23
13 17 23
12 16 22
13 17 23
13 17 22
13 16 22
12 16 22
13 17 24
13 17 23
13 17 23
13 17 23
12 16 22
13 17 23
14 18 24
13 17 22
13 17 23
13 17 24
13 17 22
14 18 24
13 17 24
14 18 24
13 17 23
13 17 23
14 18 24
13 17 24
13 17 23
14 18 24
13 18 24
13 17 23
14 18 24
13 17 23
14 18 24
13 17 23
13 17 23
14 18 24
13 17 23
14 18 25
14 18 25
13 18 24
14 18 24
14 18 24
14 18 24
14 18 24
13 17 23
14 18 24
13 17 23
13 17 23
14 18 24
14 18 24
14 18 24
14 18 24
14 18 24
14 18 24
13 17 23
14 18 24
14 18 24
14 18 24
13 17 23
14 18 24
14 18 24
13 17 23
13 17 23
13 17 23
14 18 24
13 17 23
14 18 24
14 18 24
14 18 25
14 18 24
13 17 23
13 17 23
14 18 24
13 17 23
13 17 23
13 17 23
13 17 23
13 17 23
13 17 23
13 17 24
14 18 24
14 18 24
13 17 23
14 18 24
13 17 23
13 17 23
13 17 23
14 18 24
13 16 22
13 17 24
13 17 23
12 16 22
13 18 24
13 17 23
13 17 23
14 18 23
14 18 24
14 18 24
14 18 24
14 18 24
13 17 22
13 17 22
13 17 23
13 17 23
13 17 23
12 16 22
13 17 23
12 16 22
13 17 22
14 18 24
13 17 23
13 17 22
14 18 23
13 17 22
13 17 22
13 17 23
12 16 22
13 17 23
13 16 22
13 17 23
13 17 23
12 16 22
14 18 24
13 18 24
13 16 22
11 15 20
13 17 23
12 16 21
13 16 22
12 16 22
12 16 22
12 16 22
13 17 23
13 17 22
11 15 20
12 16 21
11 15 20
13 16 22
13 17 23
12 16 21
11 14 19
11 15 20
12 16 22
12 16 22
12 16 22
12 16 22
11 14 19
12 16 21
11 15 20
12 16 21
12 15 20
11 14 19
11 15 20
11 14 19
11 15 20
12 16 21
11 14 19
11 15 20
11 15 20
11 14 19
11 14 19
10 13 18
11 14 19
12 15 20
11 15 20
11 14 19
11 14 18
11 14 19
11 14 20
11 14 19
12 15 21
10 13 17
11 14 19
10 13 17
10 13 17
12 15 21
10 13 18
11 14 19
9 12 15
10 14 18
11 14 19
10 13 18
11 14 19
10 13 18
11 14 19
9 12 16
10 12 17
9 12 16
10 14 18
9 12 16
9 12 16
9 12 15
9 11 15
9 12 15
8 10 14
8 11 14
9 12 16
8 11 15
11 14 18
9 11 15
6 8 11
9 11 15
9 12 16
8 10 14
7 10 13
9 12 16
9 11 15
8 10 14
8 10 13
8 10 13
8 10 13
9 12 16
8 10 13
9 12 16
8 10 14
8 10 13
8 10 13
7 9 12
7 9 12
8 10 13
6 8 11
7 9 12
7 8 11
7 9 12
5 7 9
7 9 12
6 8 10
6 8 10
9 11 14
7 9 12
6 8 11
7 8 11
7 9 12
7 9 13
5 6 8
7 9 12
5 6 9
6 7 9
7 8 11
6 8 10
6 8 11
6 7 9
6 7 10
5 7 9
6 8 11
5 6 8
5 7 9
5 7 9
5 6 9
7 8 10
6 7 9
7 9 12
5 7 9
6 7 9
5 7 9
6 8 10
5 6 8
6 7 9
6 8 11
6 8 11
6 8 10
4 6 8
8 10 13
6 7 9
5 6 8
6 7 9
6 7 10
6 7 10
5 7 9
7 9 11
5 7 9
6 8 10
6 8 10
7 9 11
5 7 9
6 8 10
7 8 11
6 8 11
6 8 10
6 8 10
7 9 12
9 11 14
8 10 13
7 9 12
7 9 12
8 10 13
5 7 9
8 10 13
5 6 9
6 8 10
8 10 13
8 10 14
7 9 13
8 10 13
7 8 11
7 10 13
9 11 15
9 11 15
7 9 12
8 10 13
7 9 12
8 10 14
8 10 14
8 10 13
8 11 14
9 11 15
8 11 14
7 10 13
9 11 15
8 10 13
10 13 17
10 13 17
9 12 16
8 10 14
9 12 16
9 12 15
9 12 16
8 11 14
9 12 16
10 12 17
10 12 17
9 12 16
10 13 17
9 11 15
9 12 16
10 13 18
10 13 17
10 13 17
10 13 17
10 14 18
10 13 17
10 13 18
10 13 17
10 13 18
11 14 19
10 13 17
11 14 18
10 13 18
10 12 16
10 13 18
11 14 19
11 14 20
10 13 18
11 14 19
11 14 18
11 14 19
11 15 20
11 15 20
11 15 20
10 13 18
11 15 20
12 15 20
11 14 18
11 14 19
11 14 18
12 16 22
11 15 20
12 16 22
12 16 21
11 15 19
13 17 22
13 17 22
12 16 21
13 16 22
11 15 20
13 17 22
12 15 21
12 15 20
12 16 21
13 16 22
13 16 22
12 16 22
11 15 20
11 15 20
13 16 22
13 17 22
12 15 20
12 16 21
13 17 23
12 16 21
11 15 20
13 17 23
12 16 21
13 17 22
13 17 23
13 17 23
13 17 23
14 17 23
13 17 22
12 16 21
13 16 22
13 17 22
12 16 21
13 17 23
13 17 23
13 17 23
12 16 21
12 16 22
13 17 23
13 17 23
14 18 24
13 16 22
13 17 23
13 17 24
13 17 22
13 17 22
12 16 22
13 17 23
14 18 24
13 17 23
13 17 23
13 17 22
13 17 23
13 17 23
13 17 23
13 17 23
14 18 23
13 17 23
13 18 24
14 18 24
13 17 23
14 18 24
13 17 23
13 17 23
14 17 23
13 17 23
14 18 24
14 18 24
14 18 24
14 18 24
14 18 24
14 18 24
13 17 23
13 17 23
14 18 24
13 17 24
13 17 24
14 18 24
14 18 24
13 17 23
13 17 23
14 18 25
14 18 24
14 18 24
14 18 24
14 18 24
14 18 24
14 18 23
14 18 24
14 18 24
13 17 24
14 18 24
14 18 25
13 17 23
13 18 24
14 18 24
13 18 24
14 18 24
14 19 25
14 18 25
13 17 23
13 17 24
14 18 24
14 18 24
13 18 24
14 18 25
13 17 23
14 18 24
13 17 23
13 17 23
14 18 24
14 18 24
14 19 25
14 18 24
13 17 23
14 18 24
14 17 23
13 18 24
13 17 23
13 17 23
14 18 24
13 17 23
14 18 24
14 18 24
13 17 23
14 18 24
14 18 25
14 18 24
14 19 25
13 17 23
13 17 23
13 17 23
13 17 22
14 18 23
13 18 24
13 18 24
13 17 23
14 18 24
13 17 24
13 17 23
13 17 23
13 17 23
13 17 23
14 18 24
13 17 22
12 16 21
14 18 23
12 16 22
13 16 22
13 17 23
13 17 23
14 18 24
12 16 22
12 15 21
13 17 23
13 17 23
13 17 22
12 16 22
13 17 23
13 17 23
13 17 23
12 16 21
13 17 23
13 16 22
12 16 21
13 16 22
13 17 22
12 16 22
13 17 22
12 16 21
13 16 22
12 16 22
13 16 22
12 16 21
12 15 21
12 15 20
13 17 22
11 15 20
12 16 21
12 16 22
12 16 21
12 16 22
12 15 20
13 16 22
11 15 20
12 15 20
11 15 19
12 15 20
12 15 20
11 14 19
12 15 20
11 14 19
12 16 21
11 15 20
11 15 20
11 15 19
12 15 20
12 16 21
12 16 22
11 14 19
11 14 19
12 15 21
11 15 20
12 15 21
11 15 20
11 14 19
10 13 18
11 14 19
11 14 19
11 14 19
10 13 18
11 15 20
11 14 19
11 14 19
12 15 20
11 14 19
10 14 19
10 13 17
11 14 19
9 11 15
10 13 17
9 12 16
10 13 17
9 11 15
10 13 18
10 13 17
9 12 17
10 13 17
10 12 17
9 12 16
10 13 17
9 12 16
9 12 16
8 10 14
7 9 13
9 12 16
10 12 16
10 13 17
10 13 17
7 10 13
10 13 17
8 11 14
9 12 15
8 10 13
9 11 15
9 11 15
8 10 14
7 9 12
8 10 13
9 12 16
7 9 12
7 9 13
8 10 14
8 10 13
7 9 11
7 9 11
8 10 13
8 10 13
7 9 12
8 10 13
8 11 14
6 7 10
7 9 11
8 10 14
8 11 14
7 9 12
7 9 12
6 8 11
7 9 12
7 9 12
8 10 13
7 9 12
7 9 12
6 8 10
7 8 11
7 9 11
7 9 12
5 6 8
7 8 11
5 7 9
5 7 9
6 8 10
7 9 11
5 6 8
7 9 12
7 8 11
6 8 11
6 8 10
7 9 11
6 7 9
6 8 10
6 7 10
5 6 8
5 6 8
6 8 10
6 7 9
5 7 9
5 7 9
6 7 10
5 6 8
7 9 11
7 9 12
6 8 11
6 7 10
6 7 9
7 9 12
5 6 8
7 9 11
6 7 10
5 6 8
6 7 10
6 8 11
6 7 9
6 7 10
6 7 10
7 9 12
6 8 10
6 8 10
7 8 11
5 7 9
6 8 11
7 9 11
7 8 11
7 9 12
7 9 12
7 8 11
6 8 10
9 11 15
7 9 12
7 9 12
7 9 12
8 10 14
8 10 13
8 10 13
8 10 13
8 11 14
7 9 12
9 11 15
8 10 13
7 9 12
7 9 12
8 10 14
8 11 14
8 10 14
9 11 15
9 12 16
9 11 15
10 13 17
8 11 14
8 10 13
10 12 17
10 12 17
10 12 16
9 11 15
9 11 15
8 10 14
10 13 17
9 12 16
9 12 16
9 11 15
10 13 18
10 13 17
9 12 16
10 13 18
9 12 15
9 12 16
9 11 15
11 14 18
11 14 19
11 15 20
10 13 18
11 15 20
10 13 17
11 14 19
10 13 18
10 13 18
11 14 18
11 14 19
11 14 19
11 14 19
11 14 18
12 16 21
11 14 19
11 14 19
11 14 19
12 15 20
10 13 18
10 13 18
12 15 21
11 15 20
13 17 23
11 14 19
10 13 17
10 14 19
12 15 21
12 15 21
11 14 19
13 17 22
11 15 19
10 14 19
11 15 20
12 15 20
13 16 21
12 15 21
12 16 21
12 15 20
12 15 20
12 16 22
12 16 22
12 16 21
11 14 20
12 16 22
12 16 21
12 16 22
13 17 23
13 17 22
12 16 21
12 16 21
13 16 22
12 16 22
13 17 23
12 16 22
13 17 23
13 16 22
13 17 23
13 17 23
12 16 21
12 16 22
12 15 21
12 15 21
13 16 22
14 18 24
13 17 22
14 18 23
13 17 23
13 16 22
13 17 23
12 16 21
12 16 22
12 16 22
12 16 22
13 17 23
13 17 23
12 16 21
14 18 24
13 17 23
12 16 22
13 17 23
13 17 23
13 17 23
13 16 22
13 17 22
14 17 23
14 18 24
13 17 23
13 17 23
13 17 23
13 17 22
14 18 24
13 17 23
13 17 23
13 17 23
12 16 22
13 17 22
13 17 23
13 17 23
13 17 23
13 17 23
14 18 24
14 18 24
13 17 23
13 18 24
13 18 24
14 18 24
13 17 24
14 18 24
13 17 24
12 16 22
14 18 24
13 17 23
13 17 23
14 18 25
14 18 24
14 18 24
13 17 23
14 18 25
14 18 24
13 17 23
14 18 24
14 18 24
14 18 24
13 17 23
14 18 25
14 18 24
14 19 25
14 18 24
13 17 23
14 18 24
14 18 24
14 18 24
13 18 24
14 18 24
14 18 24
14 18 24
14 18 24
13 17 23
14 18 24
14 18 24
14 18 24
13 17 23
14 18 23
14 18 24
14 18 25
14 18 24
14 18 24
14 18 24
13 17 23
14 18 25
14 18 24
13 17 23
13 18 24
13 17 23
13 17 23
13 17 23
13 17 23
13 17 23
13 17 23
13 17 23
13 17 23
14 18 24
14 18 24
13 17 24
14 18 24
13 17 23
13 17 23
13 16 22
14 18 24
13 17 22
13 17 23
14 18 24
13 17 22
12 16 22
13 17 23
13 17 22
13 17 23
12 16 22
13 17 22
13 17 22
13 17 23
13 17 23
13 17 22
13 16 22
13 17 22
14 18 23
12 16 22
13 17 23
13 16 22
12 16 21
12 16 22
13 16 22
13 17 23
13 16 22
13 16 22
13 17 22
13 16 22
13 17 23
13 17 22
12 16 22
12 16 22
12 16 22
13 16 22
13 17 23
12 15 21
12 16 21
11 15 19
12 15 21
12 15 20
12 15 20
12 16 22
12 16 21
13 17 22
11 15 20
12 16 22
13 17 22
12 15 21
12 15 21
13 16 22
12 15 21
12 16 21
12 16 21
10 13 18
11 15 19
12 15 20
11 15 20
12 15 21
11 14 19
12 15 21
11 14 19
11 15 20
11 15 20
12 15 21
11 15 20
11 15 20
10 13 18
12 15 20
11 14 18
12 15 20
11 15 19
11 15 20
9 12 16
11 13 18
12 15 20
10 13 18
10 14 18
10 14 18
11 14 19
10 14 18
10 13 17
10 13 17
11 14 19
11 15 19
10 12 16
11 14 19
9 11 15
10 13 17
10 13 17
10 13 18
12 15 20
10 14 18
10 13 17
11 14 18
8 11 14
8 11 15
10 13 16
10 12 16
9 12 16
7 10 13
8 11 15
8 10 14
10 12 16
7 9 13
9 11 15
8 10 14
9 11 15
8 10 13
8 10 14
8 11 14
8 11 15
9 12 16
7 9 12
8 10 13
8 10 13
8 10 13
9 11 15
7 9 12
8 10 14
8 10 14
8 10 14
7 9 13
8 10 13
7 9 12
8 11 14
7 9 12
8 11 15
8 10 14
6 8 11
7 9 12
7 9 12
7 9 12
7 8 11
6 8 10
6 8 10
7 9 11
7 9 11
6 8 10
5 7 9
6 7 10
8 10 13
7 9 11
6 7 10
6 8 10
7 9 11
6 8 10
7 9 12
6 7 9
5 7 9
6 7 10
7 8 11
7 9 12
5 6 8
6 8 11
6 8 10
5 7 9
7 9 12
7 9 11
6 8 10
5 6 8
5 6 8
6 7 10
5 7 9
7 8 11
7 9 12
6 7 10
7 9 11
6 7 10
7 9 11
5 7 9
6 7 9
7 9 12
6 8 10
5 6 8
7 8 11
7 9 12
6 8 11
6 8 10
6 7 10
7 9 12
6 8 10
7 9 12
7 9 11
6 8 11
7 8 11
7 9 12
7 8 11
9 11 15
7 9 12
6 8 11
8 10 13
9 11 15
8 10 13
8 10 14
8 11 14
8 10 13
8 10 14
8 11 14
9 11 15
7 9 12
9 11 15
7 9 12
9 12 16
9 12 16
8 11 14
8 10 14
10 12 16
8 11 14
9 12 16
9 11 15
8 11 14
9 12 16
9 11 15
9 11 15
9 11 15
9 12 16
8 11 14
9 12 16
10 13 17
11 14 19
10 13 17
9 12 16
11 15 20
9 12 16
9 12 16
9 12 16
9 11 15
8 11 14
9 12 16
11 13 18
9 12 16
11 14 19
11 14 18
10 14 18
10 13 17
10 12 17
10 13 18
11 15 20
11 14 19
11 14 19
10 13 18
11 14 19
10 14 18
11 14 19
11 14 19
11 15 20
11 15 20
10 14 18
11 14 19
11 15 20
11 15 20
10 13 18
11 15 20
11 14 19
11 15 20
11 15 19
11 15 20
11 15 20
11 14 19
11 15 20
11 14 19
12 16 21
12 15 20
12 15 21
11 15 20
11 15 20
12 16 21
11 15 20
11 15 20
12 16 22
13 17 22
13 17 22
13 16 22
13 17 23
12 16 21
12 16 21
12 16 21
11 15 21
12 16 21
12 15 21
13 17 23
12 15 20
13 18 24
12 16 22
12 15 21
12 16 22
13 17 22
12 16 21
13 17 22
13 17 22
13 17 22
13 17 23
13 17 23
13 17 23
13 16 22
13 17 23
13 17 23
13 16 22
14 18 24
14 18 24
13 17 24
12 16 21
13 17 23
13 17 23
13 17 23
13 16 22
13 17 22
13 17 23
13 17 23
13 17 23
13 17 23
13 17 23
14 18 24
13 17 22
13 17 23
14 18 24
13 17 22
13 17 23
13 17 23
13 17 23
13 17 23
13 17 23
13 17 23
13 17 23
14 18 24
14 18 24
13 18 24
13 17 23
14 18 24
13 17 23
14 18 24
13 17 23
13 17 23
14 18 24
14 18 24
13 18 24
13 17 23
13 17 23
13 17 23
14 18 24
14 18 24
13 17 23
13 17 22
14 18 24
13 17 23
14 18 24
14 18 24
14 18 24
14 18 25
14 18 24
14 18 24
14 18 24
14 18 25
13 17 23
14 18 24
14 18 24
14 18 24
13 17 22
14 18 24
14 18 24
13 17 23
13 17 23
13 17 23
14 18 24
14 18 24
13 17 23
13 17 23
13 17 23
14 18 24
14 18 24
13 17 23
13 17 23
14 18 25
14 17 23
13 17 23
13 17 23
13 17 23
13 17 23
13 17 24
13 17 23
13 17 23
14 18 24
14 18 24
13 17 24
14 18 24
13 17 23
14 18 24
13 17 23
14 18 24
13 17 23
13 18 24
14 18 25
13 16 22
14 18 24
13 17 23
12 16 22
13 17 23
13 17 23
13 17 24
13 17 24
13 17 22
13 17 22
13 17 23
13 17 23
13 17 23
13 17 22
12 16 21
13 17 23
13 16 22
12 16 22
13 17 23
13 17 23
14 18 24
14 18 24
13 17 22
13 17 23
13 17 23
13 17 22
12 16 22
12 16 21
12 15 21
12 16 21
12 15 21
12 16 22
12 16 21
12 16 22
13 16 22
13 17 23
12 16 22
13 17 23
13 16 21
12 16 21
13 17 23
12 16 21
12 16 21
12 16 21
11 15 20
13 16 21
12 16 21
13 17 23
11 15 21
12 16 21
13 17 23
12 16 21
13 16 22
13 16 22
13 16 22
12 15 21
12 16 21
13 16 22
12 16 21
12 16 21
11 15 20
12 15 20
12 15 21
12 16 21
10 14 18
11 14 19
11 14 19
13 16 22
12 15 20
11 14 18
12 15 20
12 15 21
13 16 22
11 14 19
12 15 20
12 16 22
12 15 20
11 14 19
10 13 18
10 13 17
10 14 18
10 13 18
12 15 21
12 15 20
11 15 20
11 14 18
11 14 18
11 14 19
9 12 16
11 14 18
11 14 19
10 13 18
10 13 17
10 12 17
10 13 17
10 12 17
9 12 16
9 12 16
10 13 17
9 12 16
11 14 18
10 12 17
9 11 15
9 12 16
8 11 15
9 12 15
9 11 15
9 12 16
8 11 14
10 13 17
8 11 14
9 12 16
8 10 13
9 12 16
8 11 14
8 10 14
9 11 15
9 11 15
8 11 14
9 11 15
8 10 13
8 11 14
8 11 14
8 10 13
7 9 12
9 12 15
6 8 10
8 10 14
7 9 12
8 10 14
7 9 13
6 8 11
7 9 11
8 10 13
8 10 13
6 8 10
6 8 10
7 9 12
8 11 15
8 10 13
6 8 10
6 8 10
7 9 12
6 8 10
7 9 12
6 8 10
7 9 11
7 9 11
7 9 12
7 9 12
7 9 12
6 8 11
8 10 14
7 9 12
6 8 10
6 7 9
7 9 11
5 7 9
6 8 11
8 10 13
8 10 13
5 7 8
7 9 12
7 9 11
7 8 11
6 8 10
7 9 12
6 8 10
6 8 10
6 8 10
6 7 10
7 8 11
7 9 11
7 9 12
7 9 12
5 7 9
6 8 10
6 8 11
6 7 10
7 9 12
6 8 10
7 9 12
7 9 12
7 9 11
8 10 13
7 8 11
8 10 13
7 9 12
7 9 12
7 8 11
7 9 13
8 10 14
6 7 10
7 9 12
9 12 16
6 8 11
7 9 12
8 11 14
7 9 12
7 9 12
8 10 13
5 6 8
7 9 12
7 9 12
9 12 15
8 10 13
7 9 13
9 11 15
10 12 16
9 11 15
9 12 16
8 11 14
9 11 15
9 12 16
8 11 14
9 12 16
9 11 15
8 10 13
9 11 15
8 10 14
9 12 16
9 12 16
11 14 19
9 11 15
10 13 18
7 10 13
9 12 16
10 13 17
10 13 17
9 11 15
9 12 16
9 11 15
9 12 16
9 12 16
9 12 16
9 12 16
10 13 17
10 12 17
11 14 18
10 13 18
11 14 19
10 13 17
11 14 19
10 13 18
10 13 17
10 13 18
11 15 20
11 15 19
12 15 20
11 15 20
12 15 20
11 14 18
11 14 18
10 13 17
12 15 21
11 14 19
11 15 20
11 14 19
12 16 21
11 14 19
13 16 21
12 15 20
11 15 20
11 14 19
10 13 18
12 16 21
11 15 20
12 16 21
11 15 20
11 15 20
12 16 21
11 15 20
12 16 21
10 13 18
11 15 20
11 14 19
12 15 20
11 15 20
12 15 21
13 17 22
12 16 21
12 15 21
13 16 22
13 16 22
12 15 21
13 17 22
12 16 21
13 17 23
12 15 20
13 17 22
12 15 20
12 16 21
13 17 22
13 17 23
12 16 22
13 17 23
13 17 23
13 17 23
13 17 22
13 17 23
13 17 23
13 17 22
13 17 22
13 16 22
13 17 23
13 17 22
13 17 22
13 17 23
14 18 24
13 17 23
13 17 23
12 16 22
12 16 22
14 18 24
12 16 21
13 17 23
12 16 22
13 16 22
14 18 24
13 17 24
13 17 23
13 16 22
13 18 24
13 17 22
14 18 24
13 17 24
13 17 23
12 16 22
13 17 23
13 17 22
14 18 24
13 16 22
13 17 23
14 18 24
13 17 23
14 18 24
14 18 24
13 17 23
14 18 24
13 17 23
13 17 23
14 18 24
13 17 23
14 18 24
14 18 24
14 18 24
13 17 23
13 17 24
14 18 24
13 17 23
13 17 24
14 18 24
13 17 22
14 18 24
14 18 24
14 18 24
14 18 24
14 18 24
13 17 23
13 17 23
13 17 23
14 18 24
13 18 24
14 18 24
14 18 24
14 18 24
13 17 23
14 18 24
14 18 25
14 18 24
14 18 24
14 18 24
13 17 23
13 17 23
14 18 24
14 18 24
14 17 23
13 17 23
14 18 24
14 18 24
13 17 23
13 18 24
13 17 23
14 18 24
14 18 24
14 18 24
14 18 24
14 18 24
13 17 23
14 18 24
14 18 24
13 17 23
14 18 24
14 18 24
13 17 23
13 17 23
13 17 23
13 17 23
13 17 23
14 18 24
13 17 23
13 17 23
13 17 22
13 16 22
13 17 23
13 18 24
13 17 23
12 16 21
14 18 24
13 17 23
12 16 21
13 17 23
13 16 22
13 18 24
13 17 23
13 16 22
12 16 22
13 17 22
14 18 24
13 17 23
13 16 22
14 17 23
13 17 23
13 17 22
13 17 23
13 17 22
13 17 23
13 17 23
12 16 21
13 17 23
12 16 22
12 16 21
12 16 21
13 17 23
13 17 22
13 16 22
12 16 21
13 17 23
13 17 23
12 16 21
13 17 22
12 16 21
11 14 19
13 16 22
12 15 20
13 17 22
12 16 21
12 16 22
12 16 22
12 15 20
12 15 21
11 15 20
12 16 22
12 16 22
11 14 19
12 16 22
12 15 20
12 15 21
12 15 21
11 15 20
12 16 21
12 15 21
12 15 20
12 15 20
11 14 19
12 16 22
13 17 22
12 16 21
11 15 20
12 15 20
12 15 20
10 14 18
11 14 19
11 14 20
12 15 21
10 13 17
10 14 18
12 15 20
10 13 18
11 14 19
10 13 18
12 15 20
11 15 19
10 12 17
11 14 19
10 13 18
11 14 19
11 15 19
10 12 17
10 13 17
10 13 18
11 14 18
10 13 18
10 13 17
11 14 19
9 11 15
10 13 17
8 10 14
9 12 16
11 14 18
10 13 18
9 12 16
10 13 17
8 11 15
9 12 16
10 12 17
8 11 15
9 11 15
10 13 17
9 12 16
10 13 17
9 12 16
9 12 16
8 11 14
7 10 13
8 11 14
9 11 15
8 10 13
8 11 15
8 10 13
8 11 14
8 10 14
8 10 13
7 9 12
6 8 11
10 12 16
7 10 13
8 11 14
7 10 13
8 11 14
8 10 13
10 12 16
8 10 14
7 9 12
7 8 11
7 9 13
6 8 10
8 10 13
7 9 12
7 9 12
8 10 14
7 9 12
8 10 14
9 11 15
6 8 10
8 10 13
8 10 13
7 9 13
8 10 13
6 8 10
7 9 12
7 9 12
7 8 11
6 8 11
7 9 12
6 8 10
7 9 11
7 9 12
6 8 11
7 9 12
7 9 11
6 8 10
6 7 10
6 8 10
6 7 10
6 7 9
7 8 11
7 9 11
6 8 11
6 7 10
7 9 12
8 10 13
6 7 9
6 8 11
8 11 14
8 10 13
6 8 10
7 9 12
7 9 12
7 9 11
6 8 11
8 10 13
6 8 11
8 10 13
8 10 13
7 9 11
7 9 11
6 8 11
7 9 12
7 9 12
8 9 12
6 8 10
8 10 13
7 10 13
9 11 15
8 11 14
7 9 12
9 12 16
8 10 13
7 9 12
8 10 13
8 10 14
7 10 13
7 9 13
9 12 15
8 11 14
8 10 14
8 10 14
6 8 11
6 8 11
8 10 14
8 10 13
9 12 15
7 10 13
8 11 14
8 11 14
8 11 14
8 11 14
9 11 15
9 12 16
9 11 15
9 12 16
10 13 17
9 11 15
9 12 16
9 11 15
10 13 17
9 12 16
9 12 16
10 13 17
9 12 16
9 12 16
8 11 14
9 11 15
10 13 17
9 11 15
10 13 17
11 15 20
10 13 18
10 13 17
10 14 18
10 12 17
10 13 18
9 12 16
11 14 19
10 13 17
11 14 19
11 15 20
10 13 18
10 14 18
10 13 18
11 14 19
11 14 19
11 14 18
10 13 17
10 13 17
11 14 18
12 15 20
12 15 21
11 15 20
12 15 20
10 13 18
11 15 20
12 16 21
12 15 20
11 15 20
12 16 21
12 16 21
11 14 19
12 16 21
12 15 21
12 16 21
11 15 20
11 15 21
12 16 22
12 15 21
12 16 21
11 14 19
12 16 21
13 16 22
12 15 20
13 16 22
12 16 22
13 16 22
12 16 21
12 16 21
13 16 22
11 14 19
13 16 22
13 16 22
12 16 21
12 16 21
12 16 21
13 16 22
12 16 21
12 16 22
13 17 23
12 16 21
13 17 23
13 16 22
12 16 22
13 17 23
12 16 22
13 16 22
13 17 23
12 16 21
12 16 21
13 17 23
13 17 23
13 17 23
12 16 22
13 17 23
13 17 23
12 16 21
13 17 22
14 18 23
12 16 22
14 18 24
14 18 24
13 17 22
13 17 23
13 17 22
13 17 23
13 17 23
13 18 24
13 17 23
13 18 24
13 17 22
13 17 23
13 17 23
13 17 22
13 17 23
13 17 23
13 17 23
14 18 24
14 18 24
14 18 24
13 17 23
13 17 23
13 17 24
13 17 23
14 18 25
14 18 24
14 18 24
13 17 23
14 18 24
13 17 23
13 17 23
14 18 24
13 17 23
14 17 23
14 18 24
14 18 24
14 18 24
14 18 24
13 17 22
14 18 24
14 18 24
14 18 24
14 18 24
14 18 25
14 18 24
14 18 24
14 18 25
14 18 24
13 17 23
14 18 24
14 18 24
14 18 24
13 17 23
14 18 24
14 18 24
14 18 24
13 17 23
14 18 24
14 18 24
14 18 24
14 18 24
14 18 24
14 18 24
13 17 23
13 17 23
14 18 24
14 18 24
13 17 23
13 17 22
14 18 24
13 17 24
13 17 23
14 18 24
13 17 23
13 17 23
13 17 24
14 18 24
14 18 24
13 17 23
12 16 21
13 18 24
13 17 23
13 17 23
13 17 23
14 18 24
14 17 23
13 17 23
12 16 21
14 18 23
13 17 23
14 18 24
13 17 22
12 16 22
13 16 22
13 17 22
12 16 21
13 17 23
13 17 23
13 17 23
13 17 23
13 17 23
12 16 21
14 18 24
13 16 22
12 16 21
13 17 22
13 17 22
13 17 23
13 17 24
13 17 24
13 17 23
13 17 22
12 16 21
13 17 23
12 16 21
13 16 22
12 16 21
13 17 22
13 16 22
13 16 22
12 16 21
12 15 20
13 17 23
12 16 22
12 16 21
13 17 23
12 15 21
12 16 22
13 17 22
13 17 23
12 16 22
12 15 20
13 17 22
11 15 20
12 16 22
12 16 21
11 14 19
11 14 19
13 17 22
11 14 19
12 16 22
12 15 21
11 15 20
12 15 20
12 16 21
12 15 20
11 15 20
11 15 19
12 15 20
12 15 20
11 15 20
11 14 19
12 16 21
13 16 22
12 16 21
11 14 18
11 15 20
12 15 20
10 13 17
11 14 18
10 14 18
11 15 19
11 14 18
10 13 18
10 14 18
10 14 18
10 13 18
11 15 19
12 15 20
11 15 19
11 15 20
10 13 18
10 13 17
10 13 18
10 13 17
10 13 17
10 13 17
11 14 19
11 14 19
11 14 18
9 12 16
9 12 15
11 14 18
10 12 17
10 13 18
10 13 18
10 12 16
8 11 14
10 13 18
11 15 19
9 12 15
8 10 14
9 12 15
8 11 15
9 12 16
10 12 16
8 11 14
9 11 15
9 12 16
8 11 14
8 10 13
9 12 16
9 11 15
10 12 16
7 10 13
8 11 14
9 11 15
8 11 14
8 10 14
9 11 15
8 10 14
8 10 13
8 10 14
9 11 15
9 11 15
9 12 15
6 8 10
7 9 13
8 10 14
7 9 12
7 9 12
10 12 16
8 10 13
9 11 15
8 10 13
8 10 14
7 9 11
8 10 13
8 10 13
6 8 11
6 8 11
7 9 12
6 8 11
6 8 11
8 10 13
7 8 11
7 9 11
6 8 11
8 10 13
6 7 10
9 11 15
6 8 11
6 8 10
7 10 13
7 8 11
6 7 10
7 9 11
7 8 11
6 8 11
7 9 12
7 8 11
7 9 12
7 9 12
8 10 13
6 8 10
6 8 10
6 8 11
6 8 10
8 10 13
6 8 11
7 10 13
6 8 10
7 8 11
6 8 11
7 9 12
8 10 13
6 7 10
6 8 11
6 8 10
6 8 10
7 10 13
7 9 12
7 9 12
7 9 11
6 8 10
7 9 12
7 9 12
9 11 14
6 7 10
8 10 14
7 9 13
9 12 16
8 10 14
9 11 15
7 8 11
8 10 13
8 11 15
8 10 14
9 12 16
8 10 13
8 10 14
9 12 16
8 11 14
9 12 15
6 8 11
8 11 14
9 11 15
9 11 15
8 11 14
8 11 14
10 12 16
8 10 14
9 12 16
9 11 15
9 12 16
9 11 15
9 12 17
8 10 14
9 12 16
9 12 16
9 12 16
9 12 15
9 11 15
10 13 17
9 11 15
9 11 15
10 13 17
10 13 17
11 14 19
11 14 19
10 12 17
11 14 19
11 14 18
10 13 17
10 13 18
10 13 18
9 12 16
10 13 17
11 14 19
10 14 18
11 14 19
11 15 20
9 12 17
10 13 18
10 13 18
11 14 19
10 13 17
11 14 19
11 15 20
11 14 19
12 16 21
11 14 19
11 14 19
12 15 21
12 16 21
11 15 20
12 16 22
11 14 19
11 15 20
12 16 22
12 15 20
11 14 20
11 15 20
12 16 21
13 16 22
12 15 20
12 15 21
11 14 19
13 17 22
13 16 22
11 15 20
12 16 21
12 15 21
11 15 20
13 17 22
11 15 20
12 15 20
12 15 21
12 15 21
12 16 21
13 16 22
13 16 22
12 15 21
12 16 22
11 15 20
13 17 23
11 15 20
13 17 22
13 17 22
12 16 22
12 16 22
13 17 23
13 17 22
12 16 21
12 16 22
12 15 21
13 16 22
13 17 23
14 18 24
13 17 23
13 16 22
13 17 23
13 17 22
12 16 22
12 16 22
12 16 22
12 16 22
13 17 22
14 18 24
13 17 24
13 16 22
12 16 22
13 17 23
12 16 22
13 16 22
13 17 22
13 17 23
13 16 22
13 17 23
13 17 23
14 18 24
13 17 22
14 18 24
13 17 23
13 17 23
13 17 23
13 17 22
13 17 23
13 17 23
13 16 22
14 18 24
13 18 24
14 18 24
14 18 24
13 17 23
13 18 24
14 18 24
13 17 23
14 18 24
14 18 24
14 18 24
13 17 23
13 17 23
14 18 24
13 17 23
14 18 24
14 19 25
14 18 24
13 17 23
13 17 24
14 18 25
14 18 24
14 18 24
14 18 24
14 18 24
14 18 24
13 18 24
14 18 24
14 17 23
14 18 24
14 18 24
13 17 23
13 17 23
14 18 24
14 18 24
14 18 24
14 18 24
14 18 24
13 17 23
13 17 23
14 18 24
13 17 24
14 18 23
13 17 23
13 17 24
14 18 24
13 18 24
13 17 23
13 17 23
13 18 24
14 18 24
13 17 23
13 17 23
14 18 24
13 17 23
13 17 23
13 17 23
13 18 24
13 17 23
13 17 23
13 17 23
13 17 23
13 17 23
13 17 22
13 18 24
13 17 23
13 16 22
13 17 23
13 17 24
14 18 24
13 17 23
13 17 23
13 17 23
13 17 23
13 17 23
12 16 21
13 17 23
13 17 23
14 18 24
13 17 23
12 16 21
13 16 22
12 16 21
12 16 22
13 16 22
13 17 23
13 17 23
12 16 21
13 17 23
13 17 23
12 16 21
13 17 23
13 17 23
12 16 21
13 17 22
12 16 21
12 15 21
12 16 21
13 17 23
12 16 22
11 15 20
13 17 23
12 16 21
13 16 22
12 16 21
12 16 22
13 16 22
12 15 20
13 17 22
13 17 23
12 16 21
13 17 22
13 17 22
12 15 20
12 16 22
13 16 22
11 15 20
12 15 20
10 13 18
12 15 20
12 15 21
12 16 22
11 15 20
11 15 20
11 15 20
11 15 20
12 15 21
12 15 20
12 15 21
12 15 20
11 15 20
11 14 18
11 15 20
11 15 20
11 14 19
12 15 21
10 14 18
11 15 19
10 13 17
11 15 20
11 14 19
11 14 19
12 15 20
11 14 18
12 15 20
10 14 18
11 14 19
11 14 18
10 14 18
10 13 18
10 13 17
11 14 19
11 14 18
10 13 17
11 14 19
11 14 19
10 13 18
8 11 15
9 12 16
10 13 17
10 13 17
11 14 18
10 13 18
10 12 17
10 13 18
10 13 18
9 12 15
10 12 16
10 13 17
9 12 16
10 12 17
10 13 17
9 12 15
8 10 14
9 11 15
10 13 17
9 12 16
8 10 13
10 13 17
9 11 15
9 11 15
8 10 14
8 10 14
7 9 13
9 11 15
8 10 14
9 12 16
8 10 14
9 11 15
8 11 15
9 11 15
9 11 15
7 10 13
8 10 13
8 10 13
8 10 14
9 11 15
8 10 14
7 9 13
7 9 13
7 9 12
8 10 14
7 8 11
9 11 15
7 8 11
9 11 15
8 10 13
8 10 14
8 10 13
6 7 10
9 11 15
7 9 13
7 9 12
8 10 14
7 9 12
8 10 13
7 9 11
5 7 9
6 7 9
7 9 12
8 10 13
7 9 12
6 8 10
6 8 11
7 9 12
6 8 11
8 10 13
7 9 12
7 8 11
5 7 9
8 10 13
7 9 12
8 10 13
7 9 12
7 9 12
8 9 12
8 10 13
6 8 11
7 8 11
7 9 12
7 9 12
6 8 10
8 10 13
7 9 12
7 8 11
7 10 13
7 10 13
6 8 11
7 9 12
7 9 12
7 8 11
8 11 14
6 7 10
8 10 13
8 11 14
8 10 13
7 9 12
8 10 13
6 8 11
7 9 13
7 10 13
8 10 13
9 11 15
9 11 15
7 9 12
8 10 13
8 11 14
8 10 13
8 11 14
8 10 13
10 13 18
8 10 13
9 11 15
8 11 14
9 11 15
9 11 15
11 14 19
9 11 15
9 11 15
8 11 14
9 11 15
9 12 16
7 10 13
9 11 15
9 12 16
9 12 16
8 11 14
9 12 16
10 13 18
10 13 17
9 12 16
9 11 15
11 14 19
10 13 17
10 13 17
10 13 17
9 12 16
11 14 19
9 12 17
10 13 17
10 13 18
11 14 19
11 15 20
9 12 16
10 13 17
11 14 19
11 14 19
11 14 18
10 12 16
10 13 18
10 13 18
12 16 21
10 13 18
12 15 20
11 14 19
11 14 19
11 14 19
10 13 18
12 15 21
10 14 19
11 14 18
12 16 21
10 13 17
11 14 19
12 15 20
11 14 19
12 16 21
10 13 18
12 15 20
11 14 19
11 14 19
12 15 20
12 15 21
12 15 21
12 15 20
13 16 22
11 15 21
13 16 22
12 15 21
12 16 22
11 15 20
11 15 20
12 16 22
12 16 21
11 14 19
11 15 20
12 16 21
13 17 22
12 15 20
11 15 20
12 15 21
13 17 23
12 16 22
12 16 21
13 16 22
13 17 22
13 17 23
13 16 22
13 17 22
14 18 23
13 17 22
12 16 22
12 16 21
12 16 21
13 17 22
11 15 20
12 16 22
13 17 22
12 15 21
12 16 22
13 17 23
12 16 22
13 17 22
13 17 23
13 17 23
14 18 24
12 16 22
13 17 23
13 17 23
13 17 23
13 17 23
12 15 20
13 17 23
13 17 24
13 17 23
13 17 23
13 17 23
13 17 23
13 17 23
12 16 21
13 17 23
14 18 24
13 17 23
13 17 23
13 17 23
14 18 24
14 17 23
13 17 23
13 17 23
13 17 23
14 18 24
13 17 23
14 18 24
12 16 22
13 16 22
13 17 23
14 18 24
14 18 23
13 17 23
13 16 22
14 18 24
13 17 23
14 18 24
13 17 24
14 18 24
14 18 24
13 18 24
13 17 23
14 18 24
13 17 24
13 17 23
14 18 25
13 17 23
14 18 24
13 17 23
14 18 25
14 18 24
13 17 23
13 17 22
14 18 24
14 18 24
14 18 23
13 17 23
13 17 22
13 17 23
13 17 23
13 17 23
13 17 23
14 18 24
13 17 23
13 17 23
13 17 22
13 17 23
14 18 24
13 17 23
14 18 24
13 17 23
14 18 24
13 16 22
14 18 24
14 18 24
13 17 24
12 16 22
13 17 23
13 17 23
13 17 23
14 18 24
13 17 23
14 18 24
13 17 22
13 17 23
13 17 22
13 16 22
12 16 22
14 18 23
13 17 23
13 17 22
15 19 25
13 17 23
12 16 22
13 17 23
13 17 24
13 17 22
13 17 23
13 16 22
13 17 23
12 15 21
13 17 23
13 16 22
13 17 23
13 17 22
13 17 22
14 18 24
12 16 22
13 17 23
13 17 23
12 16 22
13 17 22
13 17 23
13 17 22
13 16 22
13 17 22
12 16 22
13 17 22
12 16 21
13 17 23
12 15 21
13 17 23
12 16 21
13 17 22
13 16 22
12 16 21
12 16 21
12 16 21
12 15 21
12 16 21
13 17 23
12 15 21
12 16 21
13 16 22
13 17 22
12 16 21
13 16 22
11 14 19
13 17 23
11 15 21
12 16 21
12 16 22
11 15 20
10 13 17
12 15 21
12 15 20
12 16 22
11 15 20
11 15 20
12 15 20
12 16 21
12 15 20
11 15 20
12 16 21
11 15 20
11 15 20
11 14 19
12 15 21
10 13 18
11 15 20
12 15 21
11 14 19
11 14 19
12 15 21
11 15 20
11 14 19
11 14 19
10 14 18
11 14 19
11 14 19
12 15 20
10 13 18
10 13 18
11 14 19
11 14 19
10 13 18
10 12 17
11 15 19
10 13 17
10 13 18
9 12 17
9 12 16
10 13 17
9 12 15
11 14 18
10 13 17
10 13 17
9 11 15
9 11 15
10 13 17
10 12 16
9 12 16
10 13 17
10 12 16
10 13 17
10 12 17
10 12 16
9 12 16
9 12 16
9 12 16
10 13 18
9 11 15
8 11 14
9 12 15
10 13 17
10 12 17
8 11 14
8 11 15
8 10 14
8 11 14
9 11 15
7 9 12
8 10 13
8 11 14
8 11 15
8 11 14
8 10 14
9 11 15
7 9 12
8 10 14
7 9 12
7 9 12
7 9 12
7 9 13
7 9 13
9 11 15
6 8 11
8 10 14
7 9 12
7 9 12
7 10 13
8 11 14
7 9 12
7 9 12
7 9 12
7 9 12
7 9 12
7 9 12
6 8 11
7 9 12
6 8 11
8 10 13
8 11 14
8 10 13
7 9 12
8 10 13
7 9 12
7 9 12
7 10 13
7 9 12
8 10 14
6 8 11
7 9 12
7 10 13
7 9 13
6 8 11
7 9 12
7 10 13
7 9 11
8 10 13
8 10 13
7 9 13
6 8 11
8 10 13
8 10 14
6 8 11
6 8 11
6 8 11
7 9 11
8 10 14
7 9 11
6 8 11
8 10 13
6 8 10
8 10 13
8 10 13
9 11 15
7 9 12
7 8 11
7 9 12
8 10 14
8 10 14
7 9 12
7 9 12
8 11 14
9 11 15
8 11 14
7 9 12
8 10 13
8 10 14
9 11 15
10 12 17
8 11 14
7 9 12
9 11 15
8 10 14
9 12 15
9 11 15
9 12 15
9 11 15
9 12 16
10 12 16
10 13 17
8 10 14
9 12 16
9 12 16
9 11 15
10 13 17
9 12 16
9 11 15
9 12 15
9 12 16
9 12 16
10 13 17
8 11 15
10 13 17
10 13 18
9 12 15
10 13 18
10 13 17
10 13 18
10 13 17
9 12 16
8 11 14
10 13 18
11 14 18
10 13 17
10 13 18
10 13 18
11 14 19
11 15 20
11 14 18
10 13 18
10 12 17
10 13 17
11 14 18
11 14 19
11 15 20
10 13 17
11 15 20
11 14 19
11 15 20
11 15 20
12 15 20
11 14 19
11 13 18
11 15 20
11 14 19
11 14 19
10 13 18
10 14 18
12 15 20
11 15 20
11 15 20
11 14 19
11 15 20
11 15 20
12 16 21
12 15 20
12 16 22
12 16 21
12 16 21
12 15 20
11 15 20
12 16 21
12 16 21
12 16 21
12 15 21
12 16 21
13 17 22
11 15 20
12 16 21
13 17 22
12 16 21
13 16 22
13 16 22
12 16 22
13 16 22
12 16 21
13 16 22
12 16 21
13 16 22
12 15 21
12 16 21
12 16 21
12 16 21
12 16 22
13 17 22
13 17 23
12 15 21
13 17 23
13 17 23
13 16 22
13 17 23
12 16 22
12 16 22
13 17 22
14 18 24
13 17 23
14 17 23
13 16 22
13 17 23
13 17 23
13 16 22
12 16 22
13 17 23
13 17 23
13 16 22
13 16 22
12 16 21
13 16 22
12 16 22
13 17 23
13 17 23
12 16 22
13 17 23
13 17 23
13 17 24
13 17 23
13 17 22
13 17 23
14 18 24
13 17 23
13 17 23
13 17 23
13 17 23
13 17 22
14 18 24
13 18 24
14 18 24
13 17 23
13 17 23
14 18 24
13 17 22
13 17 23
13 17 23
13 17 23
13 17 23
14 18 24
14 18 24
13 17 23
13 17 23
13 16 22
13 17 24
13 17 23
14 18 24
13 17 23
14 18 24
14 18 24
13 17 23
14 18 24
13 17 23
14 18 24
14 18 24
14 18 24
13 17 23
14 18 24
13 17 23
14 18 24
13 17 23
13 18 24
14 18 24
13 17 23
14 18 24
13 18 24
13 17 23
13 18 24
12 16 22
13 17 22
13 17 23
13 17 24
14 17 23
14 18 24
13 16 22
13 18 24
13 17 23
14 17 23
14 18 24
13 17 24
13 17 23
14 18 24
13 17 23
14 18 24
13 17 22
13 17 23
13 17 23
12 16 22
13 17 23
12 16 22
13 16 22
14 18 24
13 17 23
13 16 22
12 16 22
13 17 23
13 17 23
13 17 22
13 16 22
13 16 22
13 17 23
13 18 24
12 16 22
13 17 23
13 16 22
12 15 21
13 17 23
13 17 23
13 17 23
13 17 23
12 16 21
13 16 22
12 16 21
13 16 22
12 16 21
12 15 21
13 17 23
14 18 23
13 16 21
13 17 22
12 15 21
12 16 21
13 17 22
13 17 23
12 16 21
13 16 22
12 15 20
13 16 22
13 17 22
12 16 21
12 15 21
11 15 20
12 15 20
11 15 20
12 16 21
12 15 20
12 16 21
12 16 21
12 16 21
11 14 20
11 15 20
11 14 19
12 15 20
12 16 22
11 15 20
11 15 20
13 16 22
11 15 20
12 15 20
12 15 20
12 16 21
11 15 20
12 15 20
12 15 20
11 15 20
12 15 20
12 16 22
12 16 21
11 14 19
10 13 18
11 13 18
11 14 19
10 13 17
11 14 19
11 14 19
11 14 19
11 14 19
10 13 17
11 14 18
9 12 17
10 13 18
11 15 19
9 12 17
9 12 17
10 13 18
11 15 20
11 14 19
10 13 18
10 13 18
10 13 17
10 13 17
10 13 17
11 14 19
10 13 18
10 13 17
10 12 17
10 13 17
9 12 16
11 15 19
10 13 17
10 13 18
10 12 16
10 13 18
9 12 16
9 12 15
9 12 16
9 12 16
10 12 16
10 13 18
10 13 17
8 11 15
9 11 15
10 13 17
10 13 17
9 11 15
8 10 13
8 10 13
8 10 14
9 11 15
8 10 13
7 10 13
9 11 15
8 10 14
8 11 14
7 9 12
8 10 14
7 9 12
9 11 15
7 9 11
7 10 13
8 11 14
8 11 15
9 11 15
8 10 13
8 10 13
7 9 12
7 10 13
8 10 13
9 11 15
9 11 15
8 10 13
8 10 13
8 10 13
7 9 12
7 9 12
7 9 12
8 10 14
8 10 14
7 9 12
6 8 11
6 8 11
6 7 10
7 9 12
6 8 10
7 9 11
8 11 14
8 10 13
8 11 14
8 10 13
7 9 12
8 11 14
6 8 11
8 10 14
8 10 14
7 8 11
7 9 13
7 9 12
7 9 12
7 9 12
7 9 12
9 11 14
6 8 10
7 9 12
8 10 13
9 11 15
6 8 10
9 11 14
7 9 11
6 8 11
7 9 12
7 9 12
7 9 13
8 10 13
7 9 13
8 10 13
7 9 12
7 9 12
8 10 13
7 9 12
7 9 12
9 12 16
7 9 12
8 10 13
7 10 13
9 11 15
8 10 13
9 12 16
7 9 12
8 10 13
8 10 14
8 10 14
8 11 14
8 10 13
8 10 14
8 11 14
9 11 15
9 11 15
9 11 15
9 11 15
9 12 16
9 11 15
10 13 17
10 13 17
8 10 14
9 12 16
9 11 15
11 14 18
10 13 17
9 11 15
9 12 16
9 11 15
8 10 13
8 11 14
9 12 15
7 10 13
11 14 19
10 13 17
10 13 17
10 13 17
9 12 16
10 13 18
10 13 17
10 13 18
10 13 18
12 15 20
8 11 15
10 13 17
11 14 19
10 13 17
11 15 20
11 14 19
11 14 18
12 15 20
11 14 19
10 14 18
10 14 18
11 14 19
10 13 18
10 13 17
11 14 19
11 14 19
10 14 18
11 15 20
10 13 17
12 15 20
11 14 19
11 14 19
11 14 19
12 15 21
11 14 19
10 13 18
11 15 20
11 15 20
12 16 21
12 15 21
12 16 21
11 14 19
12 15 20
12 15 20
12 15 21
11 15 20
11 14 19
10 14 19
12 16 21
12 16 21
12 16 21
12 16 21
12 16 21
12 16 21
12 15 21
12 16 22
12 16 21
12 16 21
13 17 23
12 15 20
12 16 22
12 16 21
13 16 22
12 15 21
13 17 23
12 16 21
11 15 20
12 16 22
12 15 21
12 16 22
12 16 21
11 14 19
13 17 23
12 16 21
13 16 22
13 17 23
13 16 22
13 17 23
13 16 22
12 16 21
13 17 23
13 17 23
12 16 22
13 17 22
13 17 23
12 15 20
13 17 23
13 17 22
13 17 23
13 17 23
13 16 22
13 17 22
13 17 23
13 16 22
13 16 22
13 16 22
13 17 23
13 17 23
13 17 23
13 17 22
13 16 22
13 17 23
13 17 23
13 17 23
13 17 23
13 17 23
13 17 23
14 18 24
13 17 22
13 16 22
13 17 23
13 17 23
13 17 23
14 18 24
13 17 22
14 18 25
13 17 23
13 17 23
13 17 23
14 18 24
14 18 24
13 17 22
13 17 24
13 17 24
14 18 24
13 17 24
14 18 24
13 17 23
14 18 24
14 18 24
13 17 23
13 17 23
13 17 23
13 17 23
14 18 24
14 18 25
14 18 24
14 18 24
14 18 24
14 18 24
14 18 24
14 18 24
13 17 23
14 18 24
14 18 24
14 18 24
14 18 24
14 18 24
14 18 24
13 17 23
13 17 23
13 17 23
14 17 23
14 18 24
13 17 23
14 18 24
13 17 23
14 18 24
14 18 25
13 17 23
14 18 24
13 18 24
14 18 24
14 18 23
13 17 23
13 17 23
12 16 21
13 17 23
13 17 23
13 17 23
12 16 22
13 17 22
13 17 23
13 17 23
13 17 23
13 17 23
12 16 22
13 17 23
13 17 24
13 17 23
13 17 22
13 17 23
13 17 23
12 16 22
13 17 22
14 18 24
12 16 21
13 17 23
13 17 23
13 16 22
13 17 23
13 16 22
12 15 21
13 16 22
12 16 21
13 17 23
13 17 23
13 17 23
13 16 22
13 17 23
13 16 22
13 17 22
13 17 23
13 17 22
14 18 24
13 16 22
13 17 22
12 16 22
11 15 20
12 16 21
11 15 20
13 16 22
13 17 22
12 16 21
13 16 22
12 16 21
11 15 20
12 16 21
12 15 21
12 16 21
12 16 22
11 15 20
13 16 22
12 15 20
12 16 21
11 15 19
12 15 20
13 16 22
12 16 21
12 16 21
12 16 21
12 15 20
12 16 21
13 16 22
11 14 19
12 16 21
11 14 19
11 14 19
11 15 20
13 17 23
10 13 17
12 15 21
10 13 18
11 14 18
12 16 21
11 14 20
13 17 23
10 13 18
11 15 20
11 15 20
11 14 19
12 15 20
11 14 19
12 15 20
11 14 19
10 13 17
10 13 18
12 15 20
11 14 19
10 13 18
11 14 18
11 14 18
9 12 16
12 15 20
10 13 18
10 13 18
9 11 15
10 13 18
11 14 20
11 14 18
11 14 19
10 13 18
10 12 17
9 12 16
10 13 17
9 12 16
9 12 16
10 13 17
7 10 13
9 11 15
10 12 17
10 13 17
8 10 14
9 11 15
10 13 17
10 13 17
8 11 15
9 12 16
9 12 15
10 12 16
8 10 14
8 11 14
9 11 15
7 9 12
8 11 15
9 12 16
8 11 14
9 11 15
7 9 12
8 10 13
10 13 17
8 10 14
8 10 14
9 11 15
9 11 15
8 11 15
8 10 14
6 8 11
10 12 16
9 12 16
9 11 15
8 11 14
9 11 15
7 9 12
8 10 13
7 9 12
7 8 11
9 11 15
7 9 12
8 10 13
8 11 14
7 8 11
7 9 12
6 7 10
7 9 12
7 9 13
8 10 13
9 11 15
7 9 12
6 8 11
6 8 11
7 9 12
7 9 12
7 10 13
8 10 14
7 9 12
7 9 12
6 8 11
6 8 11
7 9 12
8 10 14
8 10 13
7 8 11
7 9 12
6 7 10
8 10 13
7 9 13
8 10 14
7 9 12
7 8 11
8 10 13
8 10 14
6 8 11
8 10 13
7 9 12
6 8 10
8 10 14
8 10 13
8 10 13
9 11 15
7 9 12
7 9 12
8 10 13
7 9 11
9 11 15
8 10 13
8 10 14
9 11 15
9 11 15
9 12 15
8 10 14
8 11 14
9 11 15
8 10 14
9 12 16
8 10 13
9 11 15
8 10 13
9 12 16
8 11 15
9 11 15
9 12 16
9 11 15
7 9 11
9 11 15
8 10 13
8 11 15
9 11 15
9 12 16
9 11 15
8 11 14
10 13 17
10 12 16
9 11 15
10 13 18
9 12 15
8 10 14
9 12 16
12 15 20
9 12 16
11 14 18
10 13 17
9 12 16
9 12 16
10 13 17
10 12 17
11 15 20
10 13 18
10 13 17
10 13 18
10 13 18
10 13 17
10 13 18
11 14 18
10 13 18
11 14 18
10 13 17
10 13 17
12 15 20
11 14 18
10 13 17
11 14 19
11 14 19
11 15 20
12 15 20
10 13 18
10 13 18
11 14 19
12 16 21
12 15 20
12 16 21
9 12 16
12 16 21
11 14 19
12 16 21
10 13 18
11 14 19
10 13 18
12 16 21
12 16 21
11 14 19
12 16 21
11 14 19
11 15 20
12 15 21
12 15 20
12 15 20
12 16 22
13 17 22
11 15 20
12 15 20
11 15 20
12 15 20
12 16 21
12 16 22
12 15 20
13 16 22
12 16 21
12 16 21
13 17 22
12 15 21
12 15 21
12 16 22
12 16 22
12 15 21
12 16 21
13 17 23
12 15 21
12 16 21
14 17 23
11 15 20
13 17 23
13 16 22
12 16 21
12 16 22
12 16 21
12 16 21
12 16 21
12 16 21
13 17 22
12 16 22
14 18 24
13 17 23
13 17 24
13 16 22
12 16 21
12 16 21
13 17 23
13 16 22
13 17 22
13 17 22
12 16 22
13 17 23
13 16 22
14 18 24
13 17 23
14 18 24
13 17 23
14 18 24
14 17 23
13 17 23
13 17 23
13 17 23
14 18 24
13 17 22
12 16 22
14 18 24
12 16 22
13 17 23
13 17 23
13 17 22
14 18 24
13 17 23
14 18 24
14 18 24
14 18 24
14 18 24
13 18 24
13 17 23
13 17 23
14 18 24
14 18 24
13 17 23
14 18 25
13 17 23
13 17 22
14 18 24
13 17 23
14 18 24
14 18 24
14 18 24
14 18 24
13 17 24
13 16 22
14 18 24
14 18 24
14 18 24
13 17 23
14 18 24
14 18 24
13 17 23
14 18 24
13 17 23
14 18 24
13 17 23
13 17 23
14 18 24
13 17 23
13 17 23
13 17 23
14 18 24
14 18 24
13 17 23
13 17 22
14 17 23
13 17 22
13 17 23
14 18 24
14 18 24
13 17 23
13 17 23
13 17 23
13 17 23
13 16 22
13 17 22
13 17 22
13 17 22
12 16 21
14 18 24
13 17 22
13 17 23
13 17 23
13 17 23
13 17 23
13 17 23
13 17 23
13 17 23
13 17 23
13 17 23
13 17 23
13 17 23
12 16 21
13 17 23
13 17 23
13 17 22
13 17 23
12 16 21
13 16 22
12 16 22
13 17 23
13 17 23
12 16 22
12 16 21
13 17 22
13 17 23
13 17 23
13 17 22
12 16 22
12 16 22
12 16 21
13 17 23
12 15 21
13 17 23
13 17 23
13 16 22
13 18 24
13 17 22
13 16 22
13 17 23
12 16 22
12 16 22
11 15 20
12 16 22
12 16 21
12 15 20
13 16 22
12 16 21
12 15 21
11 15 20
12 16 21
13 16 22
12 15 20
12 15 20
12 16 21
12 15 20
10 13 18
11 15 20
12 16 21
12 16 21
12 15 20
11 15 20
11 14 19
12 16 22
12 15 21
13 17 23
12 15 21
11 14 19
12 15 20
11 15 20
11 15 20
13 16 22
11 14 19
12 15 20
11 15 20
11 14 19
11 15 20
10 13 18
11 14 18
11 14 19
11 14 19
11 15 19
11 14 19
11 15 20
11 14 19
11 14 18
10 13 18
12 15 20
11 14 19
11 14 19
10 13 17
11 14 19
10 13 17
10 13 17
11 14 19
11 14 18
11 14 19
10 14 18
10 13 18
9 11 15
10 13 18
11 14 18
10 13 17
9 12 16
9 12 16
10 13 18
9 12 17
9 12 16
10 13 17
10 13 18
10 13 18
9 12 16
10 12 17
10 13 17
10 13 17
10 13 17
9 12 16
9 11 15
8 10 14
10 13 18
9 12 16
9 12 15
8 11 14
9 11 15
9 11 15
8 11 15
9 11 15
10 12 16
9 12 16
10 12 16
8 11 15
9 12 15
9 11 15
9 11 15
7 9 13
7 10 13
8 10 14
8 10 13
7 9 12
8 11 15
8 11 14
8 10 13
8 10 14
9 11 15
7 8 11
8 10 14
8 10 14
8 10 13
8 10 13
7 9 12
7 9 12
7 9 12
7 10 13
6 8 11
9 11 15
7 9 12
7 9 12
8 11 14
8 10 13
8 10 13
7 9 12
8 10 13
7 8 11
6 8 11
7 9 13
6 8 10
8 11 14
8 10 13
7 9 12
7 10 13
7 9 11
7 9 13
7 9 13
8 10 14
9 11 14
8 10 13
8 10 13
8 10 13
8 10 14
7 9 12
8 10 13
8 10 13
8 10 14
8 10 13
8 10 13
8 10 13
8 10 13
8 10 13
8 10 13
7 8 11
7 9 12
8 10 13
7 9 12
8 10 13
7 9 12
8 10 14
9 11 15
7 9 12
9 11 15
8 11 14
8 10 13
9 12 16
8 9 12
8 11 14
9 12 16
9 12 16
9 11 15
9 12 15
9 11 14
9 11 15
7 9 12
8 10 13
9 12 16
8 10 14
9 11 15
10 13 17
9 12 16
10 13 17
10 13 17
9 12 15
8 11 14
10 14 18
9 12 16
9 11 15
9 12 16
9 12 16
9 12 16
9 11 15
9 12 16
10 12 16
10 13 18
9 12 16
9 11 15
9 12 16
10 13 17
11 14 18
9 11 15
9 11 15
10 13 18
10 13 18
11 15 20
10 13 17
12 15 20
9 12 16
11 14 18
11 14 19
11 14 18
12 15 20
10 13 18
10 13 17
10 13 17
10 13 18
11 14 19
11 15 20
10 13 18
11 14 19
11 14 19
12 15 20
10 14 18
11 14 19
11 14 19
10 13 18
11 14 19
11 14 19
11 14 19
11 14 19
11 14 18
12 16 21
12 16 22
12 16 21
12 15 20
11 14 18
10 13 17
11 15 20
12 15 20
12 16 21
12 15 20
12 16 21
11 15 20
12 15 21
12 16 21
11 15 20
12 15 21
12 15 21
13 17 22
12 16 21
13 17 23
12 16 21
13 16 22
12 15 20
12 15 21
12 15 20
12 16 21
12 16 22
12 16 22
12 16 22
13 17 22
12 15 21
12 15 20
12 16 22
12 16 22
12 16 21
12 16 21
12 16 22
12 16 22
13 17 23
13 17 23
13 17 23
13 17 22
13 16 22
13 17 22
12 16 21
13 17 22
13 16 22
14 18 23
12 16 22
13 17 23
12 16 22
12 16 22
13 16 22
13 17 23
13 17 22
12 16 22
13 17 22
14 18 24
13 17 23
13 17 23
14 17 23
14 18 24
14 18 24
12 16 22
13 17 23
13 17 23
14 18 23
13 17 23
14 18 24
14 18 24
13 17 24
13 17 23
14 18 24
14 17 23
13 17 23
14 18 24
14 18 24
13 17 24
13 17 22
14 17 23
13 17 23
14 18 24
13 17 23
13 17 22
13 17 22
14 18 24
13 18 24
14 18 24
14 18 24
12 16 21
13 18 24
12 16 22
14 18 24
14 18 24
13 17 23
14 18 24
13 17 22
14 18 24
13 17 23
14 18 25
14 18 24
14 18 24
14 18 24
14 18 24
13 17 24
13 17 23
13 17 23
14 18 24
13 17 23
14 18 24
13 17 23
13 17 23
14 18 24
14 18 24
13 17 24
14 18 24
13 17 23
14 18 23
13 17 24
14 18 24
13 17 23
13 17 22
14 18 24
13 18 24
13 17 23
13 18 24
14 18 24
13 17 23
13 17 23
13 17 23
13 16 22
14 18 24
13 17 23
13 17 24
13 17 22
13 17 23
13 16 22
13 17 23
13 17 22
13 17 23
14 18 24
13 17 23
13 17 23
13 17 23
13 17 22
13 17 23
13 17 23
12 16 21
13 17 23
13 16 22
14 18 24
12 16 22
12 16 21
13 17 23
13 17 23
12 16 22
12 16 22
13 17 23
12 16 21
13 16 22
12 16 22
13 16 22
13 17 23
12 16 21
13 16 22
12 16 21
13 17 22
13 16 22
12 15 21
12 16 22
13 17 22
12 16 22
12 16 21
12 16 21
12 16 21
11 14 19
12 16 21
12 15 21
12 15 21
12 16 21
12 15 21
13 16 22
12 16 21
12 16 21
12 15 21
12 15 21
11 14 19
12 15 21
12 15 20
12 16 21
13 16 21
12 16 21
12 15 20
12 15 21
12 15 20
12 16 21
12 15 20
11 15 20
11 14 19
12 16 21
12 16 21
11 14 19
11 14 19
11 14 19
12 15 20
11 15 20
12 15 21
12 15 21
11 15 20
12 15 20
12 15 20
11 15 20
11 14 19
10 13 18
9 12 17
11 14 19
11 15 20
10 13 18
11 15 20
10 14 18
11 14 18
12 15 20
9 12 16
11 15 20
11 15 19
10 14 18
10 13 17
11 14 19
10 13 17
11 14 19
10 13 17
11 14 19
11 15 19
10 13 17
10 13 17
10 13 18
10 13 17
10 13 17
11 15 20
10 13 17
9 12 16
9 12 16
9 12 16
9 12 15
9 12 15
10 13 17
10 13 17
9 12 16
10 13 17
10 13 17
9 12 16
9 11 15
9 12 15
9 11 15
9 12 16
10 12 16
10 13 17
9 12 16
9 11 15
9 12 16
9 11 15
8 10 13
8 10 13
8 10 14
9 12 15
8 11 14
8 10 14
9 12 16
9 11 15
7 9 12
10 12 16
8 10 13
10 12 16
8 10 13
9 11 15
10 12 16
9 11 15
8 11 14
9 11 15
8 11 14
7 9 13
8 11 14
7 9 12
7 8 11
9 11 15
7 9 12
7 9 13
9 11 15
9 11 14
8 10 13
7 9 12
7 9 13
8 10 13
7 9 13
8 10 13
7 10 13
8 10 13
8 10 13
8 10 13
7 9 11
8 10 14
8 10 14
7 9 13
7 9 11
7 9 12
9 11 14
8 11 14
8 10 13
7 9 12
6 8 11
7 9 12
8 11 14
8 10 13
8 10 13
9 11 15
8 10 14
7 9 12
7 9 12
6 8 10
7 9 12
8 10 14
9 11 15
7 9 13
7 9 12
8 10 14
8 10 14
9 12 15
7 9 12
9 11 15
8 10 13
9 11 14
9 11 15
8 11 14
9 12 16
9 11 14
7 9 12
11 13 17
9 11 15
8 10 13
9 11 15
8 10 14
9 11 15
9 11 15
10 13 17
8 10 13
10 12 16
10 12 16
8 11 14
8 11 14
11 13 18
9 12 16
7 10 13
9 11 15
10 13 17
9 11 15
9 12 15
9 11 15
9 12 16
9 11 15
9 11 15
9 12 16
10 13 18
11 14 19
10 14 18
9 11 15
9 11 15
10 13 17
10 13 17
11 14 19
10 13 18
11 14 19
10 13 17
10 13 17
10 13 18
11 14 18
9 12 16
10 13 18
10 13 18
10 13 18
9 12 17
10 13 18
11 14 19
10 13 17
11 14 19
10 13 17
12 15 20
11 14 18
11 14 19
11 14 19
11 15 20
11 15 20
11 15 20
11 14 18
10 13 18
11 14 19
10 13 18
11 15 20
11 15 20
10 13 17
12 16 22
11 15 19
12 16 21
12 16 21
10 13 18
12 16 21
12 15 20
11 14 19
11 15 20
12 16 21
10 14 18
12 15 20
12 16 21
12 15 20
12 15 21
11 15 20
11 15 20
12 16 21
12 15 20
11 15 20
12 16 21
12 16 21
11 14 19
12 16 22
12 16 22
12 15 21
12 15 21
12 16 21
12 15 20
13 17 22
11 15 20
12 16 22
13 16 22
12 16 21
12 16 22
13 16 22
12 16 21
12 15 21
12 16 21
13 17 22
12 15 21
12 16 22
12 16 21
12 16 21
12 16 22
13 17 22
12 15 21
13 16 22
12 16 22
12 16 21
14 18 24
13 17 23
12 16 22
14 18 24
13 16 22
13 17 23
14 17 23
14 17 23
13 17 22
13 17 23
14 18 24
13 17 22
13 17 23
13 17 22
13 17 23
13 16 22
12 16 22
14 18 23
14 18 24
13 17 23
13 17 23
13 16 22
13 17 23
13 16 22
13 17 22
14 18 24
13 17 23
13 17 22
14 18 24
14 18 24
14 18 24
13 17 23
13 17 23
13 17 23
14 17 23
13 17 22
14 18 24
13 17 23
13 17 23
12 16 22
13 17 23
13 17 23
13 17 24
13 17 23
13 17 22
13 17 24
13 17 23
13 17 23
13 17 22
13 17 24
14 18 24
14 18 24
13 18 24
14 18 24
14 18 24
14 18 24
13 17 23
14 18 24
14 18 24
13 17 23
14 18 23
13 17 23
13 17 23
13 17 22
13 17 23
14 18 24
13 17 23
14 18 24
13 18 24
13 17 23
14 18 24
13 17 23
13 17 23
13 17 23
13 16 22
13 17 22
13 17 22
14 18 24
13 17 23
13 17 23
14 18 24
13 17 23
13 16 22
13 17 23
13 17 23
14 18 24
13 17 23
13 17 22
14 18 24
12 16 22
13 17 23
12 16 21
13 17 23
14 18 23
13 17 22
13 17 22
13 17 23
13 16 22
13 16 22
13 16 22
13 16 22
12 16 21
13 17 23
13 17 22
12 16 21
12 16 22
12 16 21
13 17 22
13 16 22
13 17 23
13 17 23
12 15 21
13 17 23
12 16 22
14 18 24
13 17 23
13 16 22
12 16 21
12 16 21
12 16 21
13 17 23
13 17 23
12 16 21
12 16 22
12 16 21
12 15 21
12 16 21
13 17 22
12 16 21
12 16 21
12 15 20
12 16 22
11 15 20
12 16 21
12 16 21
13 16 22
12 16 21
12 16 22
12 15 21
12 16 21
11 15 20
12 16 21
12 15 21
12 15 20
11 14 19
12 15 21
11 14 19
12 15 20
12 15 21
12 16 21
11 15 20
10 14 18
12 15 21
11 14 19
11 14 18
11 14 19
11 14 19
11 14 19
11 14 19
11 14 18
11 15 20
11 14 19
11 14 19
9 12 17
11 14 19
10 13 18
11 15 20
11 14 19
10 14 18
10 14 18
11 14 19
10 13 17
10 13 17
10 14 18
10 14 18
10 12 17
9 12 16
11 13 18
10 12 17
10 13 17
11 14 19
10 12 16
11 14 19
10 13 17
10 13 18
10 13 17
9 12 16
11 13 18
11 14 18
10 13 17
11 14 19
10 12 17
9 12 16
8 11 14
9 12 16
10 12 16
10 13 17
10 13 17
10 13 17
10 13 17
9 11 15
9 12 16
10 12 17
9 11 15
9 12 15
9 12 16
9 11 15
11 13 18
9 11 15
9 12 16
9 12 16
9 12 16
8 10 13
10 12 16
10 13 17
9 11 15
8 11 14
8 11 15
9 11 15
10 13 17
8 10 13
8 10 14
9 12 16
7 10 13
7 9 12
8 10 13
7 9 12
8 10 13
9 11 14
9 11 15
8 10 13
9 11 15
7 10 13
8 11 14
7 9 12
8 11 14
7 9 12
7 9 12
8 11 14
7 10 13
7 9 12
8 10 14
7 9 12
7 9 12
7 8 11
7 9 12
7 9 12
7 10 13
8 10 14
7 10 13
8 10 14
8 10 13
7 9 12
8 11 14
9 11 15
7 9 13
8 10 13
7 9 11
7 9 13
7 9 12
8 10 13
7 9 12
8 10 13
7 9 12
8 10 14
7 9 12
8 10 13
9 11 15
8 10 14
9 12 16
8 10 13
7 9 12
8 10 13
8 10 14
9 11 15
7 9 12
8 10 13
9 11 15
9 11 14
9 11 15
8 10 14
9 12 15
9 11 15
9 11 15
9 12 16
6 8 11
9 11 15
7 9 13
9 11 15
9 11 15
9 12 16
8 11 14
8 11 15
9 12 16
10 13 17
8 10 14
9 12 16
9 12 16
9 11 15
9 12 16
9 12 15
8 10 14
9 12 16
10 13 17
8 10 14
10 12 17
10 12 17
10 13 18
9 12 16
9 12 16
11 14 18
10 13 17
10 13 18
10 13 18
10 12 16
11 14 19
9 12 16
10 13 18
10 13 17
11 14 18
9 12 16
11 14 18
10 13 18
10 13 17
10 13 17
11 14 18
10 13 18
11 14 19
10 13 18
10 13 17
12 15 20
12 15 21
10 13 17
10 13 18
10 13 18
11 14 18
11 15 20
11 14 18
11 15 20
10 13 17
10 13 18
10 14 18
11 14 19
11 14 19
11 14 18
10 13 18
10 13 18
11 15 20
12 16 21
12 15 20
10 14 18
11 14 18
11 14 19
12 15 21
12 15 20
12 15 20
11 15 20
12 16 21
11 15 20
11 14 18
12 16 22
13 16 22
11 14 19
12 15 21
11 14 19
12 16 22
11 15 20
11 14 19
11 15 20
12 16 22
12 15 20
11 15 20
11 14 19
12 15 20
12 15 20
13 17 23
13 16 22
12 15 20
12 16 22
12 16 21
12 15 21
12 16 21
11 14 19
13 17 23
13 16 22
12 16 21
12 16 22
11 14 19
12 16 21
13 17 22
13 17 23
12 16 21
12 16 21
13 17 22
13 16 22
12 16 21
13 17 23
12 15 21
13 17 23
12 16 22
13 17 23
13 17 23
14 18 24
12 16 21
12 16 21
12 15 21
13 17 22
13 17 23
13 17 22
13 17 23
14 18 24
13 17 22
13 17 22
13 17 22
12 16 21
13 17 23
13 17 23
13 17 23
13 17 23
13 16 22
13 17 23
13 17 23
13 17 23
13 17 23
13 17 22
13 17 23
13 17 22
13 17 24
14 18 24
13 17 23
14 18 24
13 16 22
14 18 24
14 18 24
13 17 23
12 16 22
14 18 24
13 17 23
13 17 23
13 17 23
13 17 23
14 18 24
13 17 23
13 18 24
13 17 23
13 17 23
14 18 23
13 17 22
13 17 23
14 18 24
14 18 25
14 18 24
14 18 24
13 17 23
13 17 23
14 18 24
13 17 23
14 18 24
12 16 22
13 17 23
14 18 24
13 16 22
13 17 23
14 18 24
13 17 23
14 18 24
13 18 24
13 17 23
13 17 23
13 17 23
12 16 21
13 17 23
13 17 23
13 18 24
14 18 24
13 17 24
13 18 24
13 17 23
14 18 24
13 17 23
12 16 21
13 17 23
13 17 22
14 18 24
13 17 23
13 17 23
13 17 23
13 17 23
14 17 23
13 17 23
13 17 23
13 17 22
13 17 22
13 16 22
14 18 24
13 17 22
13 17 23
12 16 22
13 17 23
13 17 23
13 17 22
13 17 22
12 16 21
13 16 22
14 18 24
13 17 23
13 16 22
12 15 21
13 17 22
13 17 22
12 15 20
13 17 22
12 16 21
13 16 22
12 16 21
12 15 21
12 16 22
12 16 21
12 16 21
12 16 22
12 16 21
13 17 23
12 15 21
12 15 21
11 15 20
12 16 22
13 17 22
12 15 21
12 16 22
13 17 22
12 16 22
12 15 20
12 16 21
12 15 20
12 15 20
12 16 21
12 15 20
11 15 20
12 15 20
13 17 23
13 17 22
12 15 20
12 16 21
12 15 20
11 15 20
10 13 17
12 16 22
12 15 21
12 16 21
11 15 20
12 15 21
11 15 20
11 15 20
11 15 20
11 14 19
11 15 20
11 14 19
12 15 20
12 16 21
11 14 19
12 15 21
10 14 19
10 14 18
12 16 21
11 14 19
12 15 20
12 16 21
11 14 19
11 14 19
11 15 20
11 14 19
11 14 19
12 15 20
11 14 19
11 15 20
11 14 19
11 14 18
10 13 18
10 12 17
10 13 17
10 13 18
9 12 16
11 14 19
9 12 16
10 13 17
10 13 18
10 13 17
10 13 17
11 14 19
9 12 16
10 14 18
9 12 16
10 13 17
11 14 19
10 12 17
10 12 16
10 13 17
11 14 19
10 12 16
10 13 18
10 12 16
9 11 15
10 12 17
9 12 16
9 12 16
9 12 16
9 11 15
8 10 14
9 12 16
9 12 15
8 11 15
10 12 17
8 11 14
7 10 13
9 12 16
8 10 13
9 12 15
9 12 16
8 10 14
8 10 14
9 11 15
8 10 13
8 10 14
7 10 13
8 10 14
8 11 14
8 10 14
10 13 17
8 10 14
8 11 15
9 12 16
9 12 16
8 10 13
8 10 14
7 9 12
8 11 14
8 10 14
9 12 15
8 10 13
8 10 13
7 9 12
7 10 13
9 11 15
7 9 12
7 9 12
7 10 13
8 10 13
6 8 11
8 10 13
8 11 15
6 8 11
8 10 13
9 11 15
8 11 14
8 10 13
8 10 13
8 10 14
8 10 14
7 9 12
8 10 13
8 10 14
8 10 13
7 10 13
9 11 15
9 11 14
7 9 12
8 10 13
8 10 13
9 11 15
8 10 14
8 11 15
8 10 14
8 10 14
8 10 13
8 11 14
8 10 14
8 10 13
8 11 14
9 11 15
8 10 14
10 12 16
7 9 12
7 10 13
9 12 16
9 11 15
8 10 14
9 11 15
9 12 15
8 10 14
9 12 16
10 13 17
9 11 15
9 11 15
8 11 14
8 10 14
9 11 15
8 10 14
10 13 18
9 11 15
8 11 14
9 12 16
9 12 16
9 12 16
10 13 17
11 14 18
9 12 16
9 12 16
8 11 14
8 10 14
10 13 17
10 12 16
11 13 18
11 14 19
10 13 17
10 13 17
11 14 18
9 12 16
10 13 17
9 12 16
10 13 17
10 14 18
11 14 19
11 13 18
9 12 16
9 12 16
10 13 17
10 13 18
12 15 21
11 14 19
11 14 19
10 13 18
11 14 19
11 14 19
10 13 18
11 14 19
11 14 19
11 14 19
10 14 18
10 13 18
11 15 19
11 14 19
11 14 19
10 14 18
11 15 20
11 14 19
10 14 18
11 15 19
11 15 19
11 15 20
12 15 20
11 15 20
12 16 21
11 15 20
11 15 20
12 16 21
12 15 20
11 15 20
12 16 21
12 15 21
11 15 20
12 16 21
12 16 21
11 14 19
11 15 20
12 15 20
11 15 20
11 15 20
12 15 20
11 15 20
12 15 21
12 16 21
11 15 20
12 16 21
12 16 21
12 15 21
12 16 21
12 16 22
13 17 22
12 15 21
12 16 21
12 16 21
12 15 20
12 16 22
12 15 21
13 17 22
12 16 21
13 17 23
12 15 21
12 16 22
13 16 22
12 15 21
13 16 22
12 16 21
13 18 24
12 16 21
13 17 22
13 16 22
14 18 24
13 17 23
13 17 23
13 17 23
13 17 23
12 15 20
13 16 22
13 17 23
12 16 22
12 16 21
13 17 23
13 17 22
14 18 23
13 17 22
12 16 21
13 17 23
13 17 22
14 18 24
13 17 23
13 17 23
13 17 23
13 16 22
13 17 23
13 17 23
13 17 23
13 17 23
13 17 23
13 18 24
13 17 23
13 17 22
14 18 24
13 17 23
13 17 23
13 17 23
12 16 22
13 17 23
13 17 23
13 17 23
13 17 22
13 17 23
13 17 23
14 18 24
13 17 23
14 17 23
13 17 23
14 18 24
13 18 24
13 17 23
13 17 23
14 17 23
13 17 23
14 18 24
13 18 24
14 18 24
13 17 23
13 17 23
13 17 23
14 18 23
13 17 23
14 18 24
14 18 24
14 18 24
13 17 24
14 18 24
14 18 24
14 18 24
13 17 23
13 17 23
13 17 23
13 17 23
13 17 23
14 18 25
14 18 24
13 18 24
13 17 23
13 17 23
14 18 25
14 18 24
14 17 23
13 17 23
14 18 24
13 17 23
13 17 23
13 17 22
13 16 22
13 17 24
13 17 23
13 17 23
13 17 23
13 17 23
13 17 22
13 17 23
13 17 23
13 17 22
13 17 22
13 16 22
13 16 22
13 17 22
14 18 23
12 16 21
13 16 22
13 17 22
12 16 21
12 16 22
13 17 22
13 17 24
12 16 22
13 17 22
13 17 22
13 17 22
12 16 22
12 16 22
13 17 23
13 17 23
13 16 22
13 17 23
12 15 21
12 16 21
12 16 21
11 15 20
12 15 21
12 16 22
13 16 22
11 15 20
12 16 21
13 17 22
13 17 22
12 16 22
12 15 21
12 15 21
12 15 21
12 16 22
12 16 21
13 16 22
12 16 22
11 14 19
13 17 23
12 16 21
12 15 20
13 16 22
12 16 22
12 16 22
11 15 20
12 15 21
11 15 20
12 15 20
11 15 20
12 15 20
12 16 21
12 15 20
12 16 21
12 15 20
11 14 19
11 15 20
12 15 20
12 15 21
11 14 19
12 15 21
10 13 18
11 14 19
11 14 19
11 15 19
12 16 21
11 14 19
10 13 17
11 14 19
10 13 18
11 15 20
10 13 18
11 15 20
11 15 20
10 13 18
11 15 20
10 13 18
11 14 19
11 14 19
11 14 18
10 13 17
11 14 18
11 14 19
12 15 20
11 14 19
10 13 18
10 13 18
10 13 17
10 14 18
10 13 17
11 14 19
11 14 18
10 13 18
11 14 19
10 13 17
9 12 16
8 11 15
10 13 18
10 13 18
10 14 18
10 12 16
10 12 16
11 14 19
10 13 17
10 12 16
10 13 17
8 11 14
11 14 19
10 13 17
9 12 16
9 11 15
9 12 16
10 12 17
9 11 15
9 11 15
9 11 15
10 13 17
9 11 15
9 11 15
8 11 15
10 12 16
9 12 16
9 11 15
9 11 15
10 12 16
8 11 15
8 11 15
9 12 16
8 10 14
9 11 15
8 10 14
9 12 16
8 11 14
9 11 15
8 11 15
9 11 14
9 11 15
9 12 16
8 10 13
9 12 16
8 10 13
9 12 15
8 11 14
7 9 12
9 11 15
8 10 14
8 10 14
7 9 13
8 10 13
8 10 14
8 11 14
8 10 13
8 10 13
8 11 14
6 8 11
9 11 15
8 10 14
7 9 12
8 10 13
8 11 14
9 12 16
8 11 14
8 11 14
7 9 11
8 10 13
9 11 15
8 10 13
8 10 13
7 9 13
8 10 13
7 9 12
8 10 13
7 9 12
7 10 13
9 11 15
9 12 15
8 10 13
9 11 15
9 11 15
8 10 14
8 10 13
8 11 14
8 10 13
8 10 14
8 10 14
8 10 13
8 10 13
10 12 16
8 10 13
9 12 15
9 11 14
7 9 12
8 10 14
8 11 15
8 11 15
9 12 16
9 11 15
8 11 14
8 10 14
8 10 14
9 12 16
8 10 14
9 11 15
10 13 17
10 12 17
9 11 15
10 13 17
10 13 17
10 13 17
8 11 15
8 11 14
9 12 17
10 13 17
9 12 16
10 12 16
9 12 16
9 12 15
10 12 16
10 13 17
11 14 19
10 13 18
10 13 17
10 13 18
10 13 17
10 13 18
11 14 19
9 11 15
10 13 17
9 12 16
10 13 18
9 12 16
10 13 18
10 13 18
11 14 19
9 12 16
11 14 19
10 13 17
10 13 18
11 14 19
11 14 19
11 14 18
11 14 19
11 15 20
11 14 18
10 13 18
11 14 19
10 13 18
11 14 19
10 13 18
12 16 22
12 15 20
11 14 19
11 14 18
12 16 21
11 14 19
12 16 21
11 14 19
12 15 20
10 13 17
11 15 19
12 15 20
12 15 21
11 14 19
12 16 21
11 14 19
12 16 21
12 15 20
12 15 21
11 14 19
13 16 22
12 16 22
12 15 20
12 15 20
12 16 22
12 15 21
12 16 21
13 17 23
12 16 22
12 15 20
13 16 22
13 16 22
12 16 21
12 15 21
12 16 21
13 16 22
13 16 22
13 16 22
11 14 19
12 16 21
13 17 22
12 16 21
12 15 21
13 17 23
12 16 21
13 17 22
13 16 22
12 16 22
13 17 23
12 16 22
13 17 23
13 17 23
13 17 23
13 17 23
13 16 22
13 17 23
13 17 23
13 17 23
13 16 22
13 17 23
13 17 23
13 17 22
12 16 21
13 16 22
13 17 23
13 16 22
13 17 23
13 17 23
13 17 23
13 16 22
13 17 23
13 17 23
13 17 23
14 18 24
13 17 23
14 18 24
13 17 23
13 17 23
13 17 22
13 17 23
13 17 23
13 17 23
13 16 22
13 17 22
13 17 23
13 17 23
13 17 22
13 18 24
13 17 22
13 17 23
14 18 24
13 17 23
13 17 22
14 18 24
14 18 24
13 17 23
12 16 22
13 17 23
13 17 22
14 18 24
13 17 23
13 17 22
14 18 24
13 17 23
13 18 24
14 18 23
13 17 23
14 18 25
14 18 25
12 16 22
13 17 23
13 17 24
13 17 22
13 17 23
13 17 23
13 17 22
14 18 24
13 17 23
14 18 24
13 17 23
13 17 23
13 17 23
14 18 24
13 17 23
13 17 23
14 18 24
13 17 22
13 17 23
12 16 22
13 17 22
14 18 24
13 17 23
13 17 23
14 18 24
13 17 22
14 17 23
13 17 23
13 17 22
14 18 24
13 17 23
14 18 24
14 18 24
13 17 23
13 17 23
13 17 23
13 17 23
13 17 23
13 17 23
12 16 21
13 17 23
12 16 22
13 17 23
13 17 23
13 16 22
12 16 21
12 15 21
13 17 23
13 17 22
13 16 22
13 16 21
13 17 22
13 17 22
12 16 21
13 17 22
12 15 20
12 16 22
12 16 21
12 15 20
12 16 22
12 16 21
11 15 20
12 16 22
12 16 21
12 15 21
13 16 22
13 17 23
13 17 23
12 16 21
13 16 22
12 16 22
13 16 22
13 17 22
13 17 23
13 16 22
12 16 21
13 16 22
13 17 23
12 16 22
12 15 21
13 16 22
11 15 20
12 15 20
13 17 22
11 15 20
12 16 21
11 14 19
12 15 20
13 16 22
12 16 21
13 16 22
12 15 20
12 15 21
12 16 22
11 15 20
12 15 20
12 16 21
11 14 18
12 15 21
12 15 20
12 15 20
12 15 21
11 15 19
12 15 20
11 15 20
10 13 18
12 16 21
11 14 19
11 14 19
11 14 19
10 14 19
11 14 19
12 15 20
11 14 19
12 15 20
10 13 18
11 14 19
10 14 18
10 13 18
12 16 21
10 14 18
11 14 19
10 13 17
10 13 17
11 14 19
11 14 18
10 13 17
10 13 17
10 13 17
10 12 17
11 14 19
10 13 17
10 13 18
11 15 20
10 13 17
10 14 18
10 13 17
9 11 15
10 13 17
10 13 18
8 11 14
10 13 18
10 13 18
9 12 16
9 11 15
9 12 16
10 13 17
11 14 18
11 14 19
9 12 16
10 13 17
10 13 17
10 13 18
9 11 15
9 12 16
9 12 16
9 11 15
7 10 13
9 12 16
8 10 13
8 10 13
10 13 18
10 13 17
9 11 15
9 11 15
8 11 14
9 12 16
8 10 14
9 11 15
8 11 14
10 13 17
9 12 16
9 11 15
10 12 16
9 12 15
8 11 14
8 10 13
7 9 12
9 11 15
7 10 13
8 10 13
9 11 15
10 12 16
9 12 16
8 11 14
9 11 15
8 10 13
9 12 15
9 11 15
9 11 15
8 10 14
8 10 14
8 10 14
8 11 14
8 11 14
8 10 13
7 9 12
7 9 12
8 10 14
8 11 14
7 9 13
8 10 14
8 10 14
8 10 14
8 11 14
8 10 13
8 10 14
9 11 15
6 8 11
8 10 13
9 11 15
7 8 11
8 10 13
9 11 15
8 10 14
8 10 14
7 9 13
8 11 14
8 11 14
8 10 13
9 11 15
7 9 13
9 11 15
9 12 16
9 12 15
8 10 13
8 11 14
8 10 13
7 9 13
8 10 14
9 12 16
9 11 15
10 13 17
9 11 15
9 11 15
8 11 14
8 10 14
7 9 12
11 13 18
8 10 13
9 11 15
10 12 16
8 11 15
10 12 17
9 12 16
8 11 15
8 11 14
8 11 14
11 14 19
9 12 16
10 12 17
9 12 16
9 12 16
9 11 15
9 12 16
10 13 17
9 11 15
10 13 18
11 14 19
9 12 16
8 10 14
10 12 16
9 11 15
9 12 16
11 14 19
10 13 17
9 12 16
10 13 17
9 12 16
10 13 18
11 14 19
9 12 17
10 13 17
10 13 17
11 14 18
11 14 18
11 14 19
11 14 19
9 12 16
11 14 19
11 15 20
11 14 19
11 14 19
10 13 18
11 14 19
10 13 18
11 15 20
12 16 21
10 13 18
11 14 19
11 14 19
10 13 17
11 15 20
11 15 20
11 15 20
11 14 19
11 14 19
13 16 22
11 14 19
12 15 21
11 14 18
11 14 19
12 15 20
11 14 19
11 15 20
11 14 19
11 15 20
12 16 21
10 14 18
12 15 21
12 15 20
12 16 21
11 14 19
11 14 19
12 15 21
12 16 21
12 16 21
12 16 21
13 16 22
11 14 19
12 15 20
12 15 21
12 16 21
12 16 21
12 15 21
11 15 19
12 15 21
13 16 22
10 14 19
13 17 22
12 16 21
12 16 21
13 17 22
12 15 20
12 16 22
12 16 21
10 14 18
12 16 21
12 15 20
12 16 21
12 16 21
13 17 23
12 16 21
13 17 22
13 17 22
12 16 21
13 17 23
13 17 23
13 17 23
12 16 22
12 16 21
12 16 21
13 17 22
14 18 24
13 17 23
12 15 21
13 17 23
13 17 22
13 17 23
12 16 21
12 15 21
13 17 23
12 16 22
13 17 22
13 17 22
13 17 23
13 17 23
13 16 22
12 15 21
13 16 22
13 17 23
13 17 23
13 17 23
13 17 23
13 16 22
13 16 22
13 17 23
12 16 22
13 16 22
13 17 23
13 17 23
14 18 24
14 18 24
14 18 24
13 17 23
14 18 25
13 17 23
13 17 23
13 17 23
13 17 23
14 18 24
14 18 24
14 18 24
13 17 23
13 17 23
14 18 24
13 18 24
13 17 23
14 18 24
14 18 24
14 18 25
13 17 22
14 18 24
13 17 23
14 18 24
14 18 24
14 18 24
13 17 23
14 18 24
12 16 21
14 18 24
13 17 23
13 17 23
12 16 22
13 17 23
14 18 24
13 17 24
13 17 22
14 18 24
13 17 22
13 17 23
13 17 23
12 16 22
14 18 24
13 18 24
13 17 24
13 17 23
13 17 23
13 17 22
13 17 23
13 17 22
13 17 22
13 17 23
13 17 23
12 16 22
14 18 24
13 17 23
13 17 23
14 18 24
12 16 22
14 18 24
13 17 23
13 18 24
12 16 22
13 17 22
12 16 22
13 17 23
13 16 22
13 17 23
13 17 22
13 16 22
12 16 22
12 16 21
12 16 22
13 17 23
13 17 22
13 17 23
12 16 22
13 17 23
13 17 23
13 16 22
13 16 22
13 17 22
13 16 22
12 16 21
13 17 22
13 16 22
13 16 22
13 17 22
13 17 23
13 17 23
12 16 22
11 15 20
12 15 21
13 17 23
12 16 22
12 15 20
11 15 20
11 15 20
13 17 23
12 16 21
12 15 21
12 16 21
12 16 21
11 15 20
12 15 21
12 15 21
11 14 19
12 15 21
11 14 19
11 14 19
12 16 21
12 16 21
12 15 20
11 14 19
12 16 21
12 16 21
12 16 21
11 15 19
11 14 19
11 15 20
12 15 21
11 14 19
11 14 19
10 13 18
12 15 20
11 14 19
12 15 21
11 15 20
10 13 17
10 13 17
12 15 20
11 14 19
11 14 19
11 14 19
11 14 18
10 13 17
10 13 17
10 13 17
10 13 17
12 15 20
10 13 17
10 13 17
11 14 19
11 15 19
10 13 17
10 13 17
11 14 18
11 14 19
10 13 17
10 13 17
10 13 18
10 13 17
10 13 18
10 12 17
9 12 16
10 13 18
10 13 17
11 15 20
10 13 17
10 13 17
10 14 18
10 12 16
10 13 17
10 13 17
11 14 18
11 14 19
10 13 17
10 13 18
9 12 16
10 13 17
8 11 14
8 11 14
9 11 15
9 12 15
9 12 16
9 12 16
10 12 17
9 12 16
9 11 15
8 10 13
9 12 15
9 12 16
9 12 16
9 12 16
10 13 18
9 12 16
8 11 14
10 12 17
9 12 16
9 11 15
9 12 16
9 11 15
9 12 15
9 11 15
9 12 16
8 11 14
7 9 13
8 11 14
9 11 15
9 11 15
8 11 14
8 10 13
8 10 14
7 9 13
10 13 17
7 10 13
8 10 14
9 11 15
6 8 10
8 11 14
8 10 14
8 10 14
8 11 14
8 10 14
9 12 15
9 11 14
9 11 15
8 11 14
8 10 13
8 11 14
8 11 14
8 10 14
8 10 14
8 10 14
7 9 12
8 10 14
8 11 14
8 11 14
8 10 13
9 12 16
9 11 15
8 10 14
9 11 15
8 11 14
9 12 15
7 9 13
9 11 15
8 10 13
9 11 15
8 10 14
9 11 15
9 11 15
8 11 14
7 10 13
7 9 13
10 12 16
9 11 15
9 12 16
9 12 16
8 10 14
9 11 15
8 10 13
7 9 13
10 13 17
9 12 16
9 11 15
9 11 15
10 12 17
8 10 14
9 11 15
9 11 15
10 13 17
9 12 16
9 11 15
9 12 15
11 14 18
9 11 14
9 11 15
10 13 17
10 14 18
9 12 17
11 14 19
10 12 17
11 14 18
10 13 17
9 12 16
9 11 15
10 13 17
10 13 18
10 13 18
10 13 18
9 11 15
10 13 17
10 13 18
10 12 16
11 14 19
11 14 18
10 13 17
10 13 18
11 14 19
11 14 18
11 14 19
10 13 17
10 13 17
10 13 18
11 14 19
11 15 20
12 15 21
10 14 18
9 12 16
10 14 18
11 14 19
10 13 17
11 15 20
11 15 20
11 14 18
10 13 18
10 13 18
12 16 21
11 14 19
10 13 18
11 14 19
12 16 21
12 15 20
11 14 19
11 15 20
12 16 21
11 14 19
11 15 20
11 14 19
11 15 20
12 16 21
11 14 19
11 14 19
11 15 20
13 17 22
12 16 21
10 14 18
12 16 22
12 15 20
12 15 20
11 14 19
12 15 20
12 15 20
12 15 20
12 15 21
12 16 22
12 15 20
12 16 21
13 17 22
12 15 20
12 16 22
13 17 23
12 16 22
13 17 23
12 16 21
11 15 20
11 15 20
12 16 21
13 16 22
12 15 21
13 17 23
11 14 19
13 16 21
12 16 22
13 17 22
12 16 21
13 16 22
12 16 21
13 16 22
13 16 22
13 17 23
13 16 22
11 15 20
12 16 22
13 17 22
12 16 22
12 16 22
13 17 23
13 17 22
12 16 21
13 17 22
12 16 22
13 17 23
13 17 23
12 15 21
12 16 22
13 16 22
12 16 21
13 17 23
12 16 22
13 17 23
13 17 22
13 17 23
13 17 22
12 16 22
13 16 22
13 17 23
13 17 23
14 18 24
13 17 23
13 17 22
13 17 22
13 17 23
13 17 23
13 17 22
13 17 24
13 17 23
13 17 22
14 18 24
13 17 23
13 17 22
14 18 24
14 18 24
13 17 23
14 18 24
14 18 24
13 16 22
13 17 23
14 18 24
13 17 23
13 17 23
13 17 23
13 18 24
13 17 23
13 17 23
13 17 23
13 16 22
14 18 24
14 18 24
13 17 23
14 18 24
13 17 23
14 18 23
14 18 24
14 18 24
14 17 23
13 17 23
14 18 24
14 18 24
14 18 24
13 17 23
13 17 23
13 17 23
13 17 23
14 18 24
14 18 24
13 17 22
14 18 24
14 18 24
12 16 22
13 17 23
14 18 24
13 17 23
13 17 23
12 16 22
13 17 23
13 16 22
13 17 23
13 17 23
12 16 21
13 17 23
13 17 23
13 17 23
13 17 22
13 17 23
13 17 22
14 18 23
12 16 21
13 16 22
12 16 21
13 17 22
13 17 22
12 16 22
12 16 21
12 16 22
13 17 23
13 17 23
13 17 23
12 16 21
13 17 23
12 16 22
13 17 22
13 17 22
13 17 22
11 15 20
13 16 22
14 18 24
12 15 21
13 16 22
12 16 21
13 17 23
13 17 23
13 17 23
12 15 21
12 16 21
12 15 21
12 16 21
13 16 22
13 17 23
12 16 22
12 15 21
12 15 20
13 16 22
11 15 20
12 16 21
11 14 19
13 17 22
13 17 23
12 15 21
12 16 22
12 15 20
12 15 20
13 17 23
12 16 21
13 17 22
12 15 21
12 16 22
11 14 19
12 16 21
13 16 22
12 15 20
12 15 20
12 15 20
12 15 21
12 15 20
12 16 21
11 14 19
11 14 19
11 15 20
11 14 19
11 14 19
13 16 22
11 14 19
11 15 19
11 14 18
10 13 18
11 15 19
11 15 20
11 14 18
11 15 19
12 15 20
11 14 19
10 13 17
12 15 20
11 15 20
11 15 20
11 15 20
11 15 20
11 14 19
12 15 21
11 14 18
11 14 19
11 14 19
11 15 20
12 15 20
11 14 19
10 14 18
11 14 18
11 14 18
10 13 18
10 12 17
10 13 18
10 13 17
10 13 17
11 14 19
10 13 17
10 13 17
9 12 16
10 13 17
11 14 19
9 12 16
10 12 16
9 12 16
10 13 17
10 12 17
10 13 17
10 12 16
10 13 17
10 12 17
10 13 17
10 13 17
10 13 17
10 13 17
10 12 16
10 13 18
10 13 17
9 11 15
9 12 16
9 11 15
9 11 15
9 11 15
8 11 14
9 12 16
8 10 13
9 12 16
9 11 15
8 10 14
8 10 14
8 10 13
9 11 15
9 11 15
9 12 16
9 12 16
9 11 15
9 12 15
8 11 14
9 12 16
11 14 18
8 11 14
9 12 16
8 11 14
9 11 15
9 11 15
10 13 17
10 13 17
9 12 16
8 10 13
9 12 16
9 11 15
7 9 12
8 10 13
8 11 14
8 10 14
9 11 15
9 12 16
9 12 16
8 11 15
8 10 14
8 11 15
8 10 13
8 10 13
9 11 15
10 12 17
8 10 13
8 11 14
9 12 16
10 12 17
9 11 14
8 11 14
8 10 14
8 10 14
8 10 13
7 9 12
7 9 12
9 12 16
8 11 14
8 10 13
8 11 15
9 11 15
9 11 15
8 11 15
9 11 15
8 11 14
9 11 15
9 12 16
8 10 14
9 11 15
7 10 13
8 10 14
8 10 14
9 11 15
8 11 14
10 13 17
9 11 15
8 11 14
10 13 18
10 12 17
10 13 17
8 11 14
8 11 15
8 11 14
9 12 16
8 11 15
11 14 18
10 13 18
10 12 16
8 11 14
10 13 17
10 13 17
9 11 15
8 11 14
8 11 15
10 13 17
9 11 15
10 13 18
9 12 16
10 12 16
9 12 15
10 12 17
10 12 17
10 13 18
10 13 17
10 13 17
10 13 17
10 13 18
11 14 19
8 11 15
10 13 18
9 12 15
11 14 19
10 14 18
12 15 20
11 14 19
11 14 19
10 13 18
11 14 19
10 13 18
10 14 18
11 14 19
11 14 19
11 14 19
10 13 17
11 14 19
11 14 19
11 14 19
10 13 17
10 12 16
11 15 20
11 14 19
11 15 19
11 14 19
11 14 18
12 15 21
10 13 17
10 14 18
11 15 20
10 14 19
12 15 20
12 15 20
12 15 20
11 14 19
12 15 21
12 16 22
12 16 21
12 15 20
10 13 18
12 15 20
12 16 21
12 15 21
11 15 20
12 15 21
12 16 22
12 16 21
12 16 21
11 14 19
12 16 21
11 15 20
12 16 21
12 16 22
12 16 22
11 15 20
13 16 22
13 16 22
12 15 21
12 16 21
12 16 22
11 14 19
12 16 21
12 16 21
11 14 19
13 16 22
12 16 21
12 16 21
13 17 22
13 16 22
12 16 22
13 17 23
12 15 20
12 16 21
12 16 22
13 17 23
13 17 23
12 16 22
13 16 22
13 16 22
13 16 22
13 17 23
13 17 22
12 16 22
12 15 21
13 17 23
13 17 23
12 16 21
12 16 21
14 18 24
12 16 22
13 17 23
12 16 21
13 17 23
13 16 22
13 17 23
13 16 21
12 16 22
13 17 23
13 17 23
13 16 22
13 17 23
13 17 23
13 17 23
14 17 23
13 16 22
13 17 23
13 17 23
14 18 24
13 16 22
14 18 24
13 17 23
13 17 23
13 17 23
13 17 23
13 17 22
13 17 24
14 17 23
13 17 23
14 18 24
14 18 24
13 17 23
13 17 23
13 17 23
13 17 23
13 17 23
14 18 24
13 17 23
13 17 24
14 18 24
14 18 24
14 18 24
14 18 24
14 18 24
14 17 23
14 18 24
13 17 23
13 17 24
14 18 24
13 17 23
14 18 24
14 18 24
13 17 23
13 17 23
14 17 23
14 18 25
14 18 24
13 17 23
13 17 24
13 17 23
13 17 23
14 17 23
14 18 24
13 17 24
12 16 22
14 18 24
14 18 24
12 16 21
14 18 24
13 17 24
13 17 22
13 17 23
13 17 23
13 17 23
12 16 22
13 17 23
13 17 23
14 18 24
13 17 22
13 17 23
13 17 23
13 17 23
13 17 23
13 17 23
13 16 22
13 17 23
13 16 22
13 17 23
13 17 23
13 17 22
13 17 22
13 17 23
12 16 22
12 16 22
13 17 23
13 16 22
12 16 22
13 17 22
13 16 22
13 16 22
13 17 23
12 16 21
13 17 22
13 17 23
13 17 22
12 16 21
13 17 22
13 17 23
12 15 20
12 15 21
12 15 21
12 16 21
13 16 22
11 15 20
13 17 22
11 15 20
12 15 21
12 16 22
12 16 22
12 16 22
12 16 22
12 16 21
12 15 20
13 17 22
12 15 20
12 16 22
12 15 20
12 16 21
13 17 23
12 16 21
11 15 20
11 14 19
11 15 20
11 15 20
11 14 19
12 16 21
12 16 21
12 16 21
12 16 22
12 15 21
11 15 20
12 15 20
12 15 21
11 15 19
12 16 21
12 15 21
10 14 18
12 15 20
12 16 21
12 15 21
11 15 20
12 16 21
12 15 21
12 15 21
11 14 19
11 14 19
11 15 20
10 13 18
12 15 20
11 14 18
11 14 19
11 14 19
11 15 20
10 14 18
12 15 20
10 12 17
10 13 17
11 14 19
11 14 18
11 14 18
10 13 17
10 13 18
10 13 18
10 12 16
10 13 17
10 13 18
10 13 18
10 13 18
10 13 18
9 12 17
11 14 19
11 14 18
9 11 15
9 12 16
12 15 20
10 13 18
11 14 19
9 12 17
11 14 18
12 15 20
9 12 17
8 10 14
9 12 16
10 13 17
10 13 18
9 12 16
9 12 16
11 14 19
10 13 18
10 13 17
10 13 17
9 11 15
10 13 17
7 10 13
10 13 17
8 10 13
9 12 16
8 11 14
10 12 16
10 13 17
9 11 15
9 11 15
9 11 15
9 11 15
9 11 15
9 12 15
9 12 16
9 11 14
8 11 15
9 12 16
10 13 18
8 10 13
9 12 16
8 11 14
8 11 15
9 12 16
7 9 12
7 9 12
9 12 16
9 11 15
9 12 15
9 12 15
7 9 13
9 11 15
11 14 18
7 9 12
9 12 16
7 9 12
8 11 14
7 10 13
8 11 14
10 13 18
8 10 14
8 11 14
8 10 13
9 11 15
8 11 14
7 9 13
8 11 14
8 10 13
8 10 13
8 10 14
7 9 12
8 11 14
8 11 15
10 12 16
8 10 14
8 10 13
8 10 13
8 11 14
9 12 16
10 13 17
9 11 14
9 11 15
9 11 15
8 10 13
8 10 13
8 11 14
9 11 15
8 11 15
9 12 16
9 11 14
9 11 15
9 11 15
9 12 16
9 11 15
8 11 14
9 11 15
9 11 15
9 12 16
9 12 16
9 11 15
9 11 15
9 11 15
9 12 16
10 12 16
9 12 16
9 11 15
10 13 17
10 13 17
9 11 15
10 13 17
9 11 15
10 13 18
8 10 14
10 13 17
9 12 16
10 12 17
11 14 18
10 13 17
10 13 17
9 12 16
9 12 16
10 13 17
10 13 17
9 12 16
10 13 17
10 13 17
8 11 14
11 14 18
10 13 18
10 13 17
11 15 19
10 13 17
11 15 20
11 15 20
10 13 18
10 12 17
11 14 19
10 14 18
9 12 16
12 15 20
11 14 19
11 14 19
10 13 18
11 15 20
9 12 16
11 14 19
11 15 20
12 15 20
10 13 18
11 14 19
11 14 19
11 15 20
11 14 19
11 15 20
11 15 20
11 15 20
13 16 22
11 14 19
11 14 19
11 14 19
12 15 20
11 14 19
11 15 20
12 15 20
11 14 19
12 15 20
12 15 21
11 15 20
12 16 21
11 15 20
11 14 19
11 15 20
12 16 21
12 15 20
11 15 20
11 15 20
11 15 20
12 16 21
12 16 21
12 16 22
11 15 20
12 16 21
12 15 20
13 16 22
12 15 21
11 15 20
13 17 22
11 15 20
13 16 22
12 16 21
12 16 21
12 16 21
12 15 21
13 16 22
13 16 22
12 15 21
12 16 21
13 17 22
12 16 21
12 16 22
12 16 22
13 16 22
13 17 22
12 16 22
12 16 21
12 16 22
13 17 23
13 17 23
13 17 22
13 17 23
12 15 21
13 16 22
13 17 22
13 16 22
12 16 21
12 16 21
13 17 23
13 17 23
13 17 23
12 16 22
12 16 21
14 18 24
13 17 24
13 17 23
12 16 21
13 17 23
13 17 23
13 16 22
13 17 23
14 18 24
12 16 22
13 17 24
13 16 22
12 16 22
13 17 22
13 17 23
13 16 22
14 18 24
14 18 24
14 18 24
13 17 23
13 17 22
13 17 22
14 18 24
14 18 24
13 17 23
13 17 23
14 18 24
13 17 22
13 17 23
13 17 23
13 17 22
13 17 23
14 18 24
13 17 22
13 16 22
13 17 23
14 18 24
13 17 23
14 18 24
13 17 23
13 17 23
14 18 23
13 17 23
13 17 23
13 16 22
13 17 24
13 18 24
13 17 23
13 17 23
14 18 24
13 17 23
13 17 23
13 17 23
12 16 21
13 17 23
13 17 23
14 18 25
13 17 23
14 17 23
14 18 24
14 18 24
13 17 22
13 17 23
13 17 23
13 17 23
13 17 23
13 17 24
12 16 21
13 16 22
13 16 22
13 17 22
13 17 24
13 17 23
13 16 22
12 16 21
14 18 24
13 16 22
13 17 23
13 17 22
13 17 23
13 17 23
13 17 23
12 16 22
13 17 23
13 17 23
12 15 20
13 17 23
12 16 22
12 16 21
13 17 23
13 16 22
13 17 23
12 15 20
13 17 23
12 15 21
11 15 20
13 17 22
12 16 22
13 17 23
12 15 21
13 16 22
12 16 21
12 16 21
13 17 23
13 16 22
13 17 23
12 15 21
12 15 21
13 17 22
13 16 22
13 17 23
13 16 22
12 16 21
12 16 22
12 15 20
12 16 22
11 15 20
11 15 20
11 15 20
13 16 21
12 15 20
12 16 21
13 16 22
12 16 21
12 16 21
12 15 20
12 15 20
12 15 21
11 14 19
12 16 21
12 15 20
12 16 21
12 15 21
12 15 21
12 15 20
12 15 20
11 14 19
11 15 20
11 14 19
12 15 20
11 14 19
11 15 19
11 15 20
11 14 19
11 15 20
12 15 20
12 15 20
11 15 20
11 15 20
11 15 20
11 14 18
10 14 18
11 15 20
12 16 21
10 14 18
11 15 20
11 14 19
11 14 18
12 15 21
11 15 20
10 13 18
11 14 19
11 14 19
10 13 18
10 13 18
10 13 17
10 13 18
10 13 17
11 14 19
9 12 17
11 14 19
10 13 18
10 13 17
11 14 19
11 14 19
10 13 17
10 13 18
10 13 17
10 12 17
8 11 15
10 13 17
10 13 18
9 11 15
10 13 18
10 13 17
10 13 18
8 10 13
9 11 15
9 11 15
11 14 18
9 12 16
10 13 17
9 12 16
9 11 15
9 12 16
10 12 16
8 10 14
9 11 15
8 11 14
9 12 15
9 12 16
9 11 15
8 10 13
9 11 15
9 12 16
9 11 15
9 11 15
8 10 14
8 11 14
9 12 16
9 12 16
9 12 15
10 13 17
8 10 14
9 11 15
9 11 15
7 9 12
8 11 15
9 12 15
9 11 15
9 12 16
9 11 15
9 12 16
8 10 13
8 10 14
10 13 17
9 12 16
10 13 17
9 11 15
8 10 14
10 12 16
9 11 15
9 12 16
10 12 17
8 10 14
8 11 14
7 9 13
8 10 14
9 11 15
9 11 15
8 10 14
8 11 14
8 10 14
9 11 15
8 10 13
9 11 15
9 11 15
9 12 16
8 10 13
9 12 16
8 11 14
8 11 14
9 12 16
9 11 15
8 10 13
9 11 15
8 11 14
8 10 14
8 10 13
9 11 15
8 11 14
8 11 15
10 13 18
9 12 16
9 11 14
9 11 15
7 10 13
9 12 16
7 9 12
10 12 16
10 13 17
8 10 14
10 13 17
9 11 15
9 12 15
8 11 15
9 12 16
8 10 14
10 13 17
10 13 17
8 11 14
10 13 17
9 12 16
9 12 16
10 13 18
9 12 16
10 13 17
9 12 15
9 12 16
10 13 17
10 13 17
9 12 16
8 11 15
10 12 16
10 13 18
10 12 17
10 13 17
9 12 16
10 13 17
10 12 16
11 14 19
10 13 18
10 13 17
10 13 18
10 13 18
10 13 17
11 14 19
10 13 17
11 15 20
10 13 18
11 14 19
10 13 17
10 13 18
12 15 20
9 12 16
12 15 20
11 15 20
10 14 18
10 13 17
11 14 18
11 14 19
11 14 19
11 14 19
11 14 19
11 14 19
11 14 19
11 14 19
12 16 21
10 13 18
12 16 21
11 14 19
12 16 21
10 13 18
11 14 18
11 14 19
12 15 21
10 13 18
10 13 18
11 14 18
11 14 19
12 15 20
11 14 19
11 15 20
11 14 19
12 15 20
11 14 19
12 15 20
12 15 21
12 15 20
12 16 21
12 15 21
12 15 20
12 15 20
11 14 20
12 15 20
12 16 22
12 15 21
12 16 21
12 16 21
12 15 20
12 16 21
12 16 21
12 16 22
11 15 20
12 16 22
12 15 21
12 15 20
13 17 22
12 16 21
12 16 21
13 16 22
12 16 22
12 16 22
12 16 22
12 16 21
13 16 22
12 15 21
12 16 21
12 16 21
12 16 22
13 17 23
13 16 22
13 16 22
13 16 22
12 16 21
12 16 22
12 16 22
13 17 23
12 15 20
12 15 21
13 16 22
12 16 21
13 17 23
12 16 21
13 17 23
13 17 23
12 16 22
12 16 22
12 16 21
13 17 23
13 17 23
13 17 23
13 17 23
13 16 22
13 17 23
13 17 23
12 16 22
13 17 23
14 18 24
14 18 23
12 16 21
12 16 22
14 17 23
13 17 23
13 17 22
13 17 23
13 17 22
13 17 23
14 18 24
13 17 22
13 17 23
13 17 23
14 18 24
13 17 23
13 18 24
13 17 22
14 18 25
13 17 22
13 17 22
14 18 24
13 17 22
13 17 23
14 18 24
13 17 23
13 17 23
13 17 23
14 18 25
13 17 23
14 18 24
12 16 22
14 18 24
13 17 23
14 18 24
13 17 23
14 18 24
13 17 23
13 17 22
13 17 23
13 17 23
14 18 24
13 17 24
13 17 24
13 17 23
13 17 23
13 17 22
13 17 23
12 16 21
13 17 23
13 17 23
13 17 23
13 17 22
13 17 23
13 17 23
13 17 22
14 18 24
12 16 22
13 17 23
13 16 22
13 17 24
13 17 22
12 16 21
14 18 24
14 18 24
12 16 22
14 18 24
13 17 23
13 17 23
13 17 23
13 17 23
12 15 21
13 16 22
12 16 22
13 17 22
13 17 23
12 16 21
13 17 23
12 16 22
12 16 21
13 17 22
13 17 23
13 17 23
12 16 21
13 17 22
12 16 21
13 17 23
13 17 22
12 16 22
12 15 21
13 16 22
12 16 22
13 17 22
12 16 22
13 17 23
12 15 21
13 17 23
13 16 22
12 16 21
13 16 22
11 15 20
13 17 22
13 17 23
12 16 21
12 16 21
13 16 22
12 16 21
12 16 22
13 17 23
12 16 21
12 16 22
12 15 20
12 15 21
13 17 22
12 15 21
13 17 22
13 16 21
12 16 21
11 15 20
12 15 20
12 15 20
11 14 19
12 15 20
11 15 20
13 16 22
12 15 20
12 15 21
12 15 21
11 14 20
11 14 19
12 16 21
11 14 19
11 15 19
12 15 20
11 14 19
13 16 22
11 14 19
12 15 20
11 14 18
11 14 19
13 17 22
11 15 20
11 14 19
11 15 20
12 16 21
11 15 20
10 13 18
11 14 19
12 15 20
11 14 19
10 13 18
11 14 18
11 15 20
11 15 20
10 13 18
9 11 15
10 13 18
10 14 18
11 14 18
11 14 19
10 14 18
9 12 16
10 13 18
10 13 17
9 12 16
10 13 18
10 13 18
10 13 18
10 13 17
10 13 18
10 13 18
10 13 17
9 12 16
10 13 17
10 13 18
9 12 16
11 14 19
11 14 18
11 14 18
11 13 18
10 12 17
10 12 16
10 12 16
9 11 15
9 12 16
8 11 14
10 13 18
11 14 19
10 13 17
8 11 14
10 12 17
9 12 16
9 12 16
9 11 15
9 12 16
9 12 16
9 12 15
10 13 17
9 11 15
10 12 17
9 12 16
9 11 15
8 10 14
9 12 17
9 12 16
9 12 16
9 12 16
9 11 15
9 12 16
8 11 15
8 10 14
9 11 15
10 12 16
9 12 16
10 13 17
9 11 15
9 11 15
8 11 14
9 11 15
9 12 15
8 11 14
9 11 15
9 12 16
9 12 16
10 13 17
10 13 17
9 11 15
9 11 15
10 12 16
9 11 15
8 11 14
7 9 13
8 10 13
8 11 14
9 12 16
9 11 15
9 11 15
10 13 17
9 12 16
9 12 16
9 11 15
9 11 15
8 10 14
8 11 14
9 12 15
8 11 14
10 12 16
8 10 14
8 11 14
7 10 13
10 12 17
8 11 14
8 11 15
9 11 15
8 10 14
10 12 16
10 13 17
8 10 13
9 12 15
9 11 14
9 11 15
10 13 17
8 10 14
8 10 13
10 12 17
9 11 15
9 12 16
10 13 17
9 12 16
9 12 16
10 13 17
11 14 18
10 12 16
10 13 18
10 13 17
8 11 15
9 11 15
8 11 14
10 13 17
10 12 17
11 13 18
9 12 16
9 12 16
10 13 17
10 13 17
12 15 20
9 12 16
10 13 18
10 12 16
10 13 17
8 10 14
10 12 16
11 14 18
8 11 15
9 12 16
10 13 18
9 12 16
10 12 17
11 14 19
10 13 17
10 13 17
11 14 19
9 12 17
10 13 18
12 15 20
10 13 17
9 12 16
11 14 18
10 13 18
11 14 19
11 14 19
10 13 18
10 13 17
10 13 18
10 14 18
12 15 20
11 14 19
10 13 18
11 15 20
10 13 18
10 13 17
10 13 17
11 14 19
10 13 18
11 14 19
11 14 19
11 15 20
12 15 20
11 14 19
11 14 19
11 15 20
10 13 18
11 14 20
11 14 19
11 14 19
12 15 20
12 15 20
12 15 20
11 14 19
11 14 19
11 15 20
12 15 21
12 16 21
11 14 19
12 16 21
11 15 20
13 16 22
11 15 20
12 16 21
12 15 21
12 16 21
11 15 20
11 14 19
12 15 21
12 15 21
12 15 20
12 16 22
12 16 22
12 16 22
12 16 22
12 16 21
12 16 22
12 15 21
12 16 21
12 16 22
12 15 21
12 16 21
12 16 21
13 17 23
12 16 21
13 16 22
12 16 21
12 16 22
13 17 23
13 17 23
12 16 22
12 16 21
12 16 21
12 16 21
13 16 22
13 17 23
13 17 22
13 17 23
13 16 22
12 16 21
12 16 21
13 17 23
13 17 23
12 15 21
13 17 23
13 17 22
13 17 22
12 16 21
13 17 23
14 17 23
12 16 21
13 17 22
13 17 22
13 17 23
12 16 22
13 17 23
14 18 24
13 16 22
13 16 22
13 17 23
13 16 22
13 16 22
13 17 23
13 17 23
13 17 22
13 17 23
13 17 23
13 17 23
13 17 23
13 17 23
13 17 23
13 17 23
13 17 23
14 18 24
12 16 22
13 17 23
14 18 24
13 17 23
14 18 24
12 16 22
13 18 24
13 17 23
13 17 23
13 17 23
13 17 23
14 18 24
13 17 22
13 17 23
14 18 24
13 17 23
13 17 23
14 18 24
13 18 24
13 17 23
12 16 22
13 17 23
14 18 24
13 17 24
12 16 22
13 17 23
13 17 22
14 18 24
13 17 22
13 17 23
13 17 23
13 17 23
13 17 23
13 17 23
13 17 23
13 17 23
14 18 24
13 17 23
13 17 23
12 16 22
13 16 22
12 16 21
13 16 22
14 17 23
13 17 23
13 17 23
13 17 23
13 17 23
13 17 23
13 17 23
13 17 23
13 17 23
11 15 20
13 17 23
13 16 22
13 16 22
13 17 23
13 17 23
13 17 23
13 17 23
12 16 22
13 17 23
13 16 22
13 17 23
12 16 22
13 17 23
13 17 23
13 17 23
13 17 23
13 16 22
13 17 23
12 16 21
13 16 22
12 16 21
12 16 22
12 16 22
12 16 21
12 16 21
13 16 22
12 16 22
12 16 22
13 16 22
13 17 23
13 16 22
13 17 23
12 15 20
13 16 22
12 16 21
12 16 21
12 15 21
12 16 22
13 17 23
12 15 21
13 17 22
12 16 21
11 15 20
11 14 19
12 15 21
12 16 21
11 15 20
11 15 20
12 15 20
12 16 22
10 13 17
12 15 21
11 15 20
12 15 21
11 14 19
11 14 19
11 15 20
12 16 21
11 14 19
11 15 20
10 13 17
12 15 21
12 15 21
12 16 21
11 15 20
12 15 20
11 14 19
11 14 19
12 15 20
11 14 18
11 14 19
11 15 20
11 15 20
10 13 17
11 14 19
11 14 19
11 14 19
12 16 21
10 13 17
11 14 19
11 14 19
11 14 19
11 14 19
10 13 18
9 12 17
10 13 17
10 13 18
10 13 18
10 13 17
10 13 18
10 13 18
10 13 18
11 14 19
10 13 17
9 12 16
11 14 18
9 12 16
11 14 19
11 15 20
10 13 17
9 12 17
11 14 18
10 13 18
10 12 17
10 13 17
11 14 18
10 13 17
10 13 17
10 13 18
10 13 18
9 12 16
10 13 17
10 12 17
8 11 14
8 10 13
8 11 15
9 12 17
10 13 17
9 12 16
9 11 15
9 12 16
9 11 15
10 13 17
10 13 18
9 11 15
10 13 17
9 12 17
9 12 16
10 13 17
9 12 16
9 12 15
10 13 17
10 13 18
10 13 18
9 12 16
9 11 15
10 12 16
8 11 14
9 11 15
10 13 18
10 12 17
8 10 13
8 10 13
9 11 15
8 11 14
9 12 16
10 12 16
9 11 15
9 11 15
10 13 17
9 12 16
8 11 14
10 12 16
7 10 13
10 13 17
7 10 13
8 11 14
10 13 17
8 10 14
9 12 15
9 11 15
8 10 14
8 10 14
10 12 16
8 11 14
9 11 15
10 12 16
8 11 14
8 10 14
9 11 15
9 11 15
9 12 16
10 12 16
10 13 17
8 10 14
8 10 13
9 12 16
9 12 16
9 12 16
9 11 15
10 13 17
9 11 15
10 13 17
10 13 17
8 10 14
9 11 15
8 10 13
9 12 16
9 12 16
10 13 17
8 10 14
9 12 17
9 12 16
10 12 16
10 13 18
9 11 15
9 12 16
9 12 16
9 12 16
9 11 15
8 11 15
9 12 15
10 12 17
9 12 16
9 12 16
10 13 17
9 11 15
10 13 17
10 13 17
9 12 16
10 12 17
10 13 18
11 14 18
9 11 15
9 12 17
9 12 16
8 10 14
10 13 17
10 13 17
9 12 16
10 13 17
9 12 16
11 14 18
10 13 18
10 13 18
10 13 18
10 13 18
10 13 17
9 12 16
10 13 17
9 12 16
11 14 18
11 14 18
10 13 18
10 13 18
9 12 16
9 12 16
12 16 21
10 13 18
10 13 17
12 15 20
11 14 18
10 13 18
11 14 18
11 14 18
11 14 19
11 14 19
11 14 19
10 13 18
10 13 18
11 14 19
11 14 20
10 13 18
11 15 20
11 14 19
11 14 20
12 15 20
10 13 18
11 15 20
11 14 19
12 16 21
12 16 21
11 15 20
11 15 20
12 15 20
11 14 19
12 15 20
12 15 20
12 16 21
11 15 20
11 14 19
13 16 22
12 15 20
12 16 21
11 15 20
11 15 20
12 15 20
12 16 22
13 17 22
12 16 21
12 16 21
12 15 20
12 15 21
12 15 21
12 16 21
12 16 21
11 14 19
11 14 19
12 16 21
12 15 21
12 16 22
11 15 20
12 16 22
12 16 21
12 16 21
12 16 21
13 16 22
13 16 22
13 17 22
12 16 21
13 17 22
13 17 22
12 16 21
13 16 22
13 17 23
12 16 22
13 17 23
13 17 23
13 17 23
12 16 22
13 17 22
12 16 22
12 16 22
13 17 23
12 16 22
12 16 22
12 16 22
13 17 22
13 17 23
13 17 23
12 16 22
13 17 22
13 16 22
12 16 21
14 18 25
13 17 23
13 17 23
13 17 23
13 17 23
13 17 22
13 17 23
14 18 24
13 17 22
13 16 22
12 16 21
13 16 22
13 16 22
13 16 22
13 17 22
14 18 24
14 18 24
13 16 22
13 17 24
14 18 24
13 17 24
13 17 23
14 18 24
13 17 23
13 17 23
13 17 23
13 17 22
13 17 23
14 18 24
13 17 23
13 17 23
14 18 24
14 18 24
13 17 23
14 18 24
13 17 23
13 17 23
13 17 23
13 17 23
13 17 23
13 18 24
14 18 24
13 17 23
13 16 22
13 17 23
13 16 22
13 17 23
13 17 24
13 17 23
13 17 23
13 17 23
13 17 23
13 17 23
13 17 23
13 17 23
14 18 24
13 17 23
13 17 23
13 17 23
13 17 23
13 17 22
13 17 23
13 17 22
13 17 22
13 16 22
13 17 23
13 17 23
14 18 24
13 17 22
13 17 22
14 18 24
13 17 23
13 16 22
13 17 23
13 17 22
13 16 22
12 16 21
12 16 22
13 17 22
12 16 21
13 17 23
13 16 22
12 16 22
13 17 22
12 16 21
12 16 21
12 16 22
13 17 23
12 16 22
12 16 21
12 16 22
12 16 22
12 16 22
13 17 23
13 17 22
13 16 22
13 16 22
12 16 21
12 16 21
11 15 20
12 16 22
13 16 22
12 16 21
12 15 21
12 16 21
12 16 21
12 16 21
12 15 20
12 16 21
12 16 21
12 15 21
12 15 21
13 16 22
12 15 21
12 16 21
12 16 21
11 15 20
12 15 20
12 16 21
12 16 21
12 15 20
11 14 19
12 15 20
12 15 20
12 15 21
11 14 19
12 16 21
10 14 18
12 15 20
13 16 22
12 15 20
12 16 21
11 14 19
12 15 20
10 14 18
11 14 19
11 14 20
11 14 19
11 15 20
10 14 19
11 14 18
12 16 21
11 14 19
11 15 19
12 15 20
10 13 17
11 15 19
12 15 20
11 15 20
12 16 21
11 14 19
11 15 20
10 13 17
11 15 20
11 14 18
12 15 20
11 14 18
11 15 20
10 13 18
11 14 18
10 13 18
10 13 18
11 14 19
11 14 18
11 14 19
10 13 17
10 13 17
10 12 17
10 13 17
11 14 19
11 14 19
10 12 16
10 13 17
11 14 19
11 14 18
10 13 17
10 13 17
12 15 20
10 13 17
10 13 18
9 12 16
10 13 18
10 13 17
9 11 15
10 13 17
9 12 16
9 12 16
10 13 17
10 13 17
10 13 17
10 13 17
8 11 15
9 12 16
9 12 15
9 12 16
10 12 17
9 11 15
9 11 15
8 11 15
10 13 17
10 13 17
10 12 17
10 13 18
9 12 16
8 10 14
8 11 14
10 13 17
8 10 13
9 12 16
8 11 15
8 11 14
9 12 16
9 12 16
10 13 17
9 11 15
8 10 14
8 10 13
8 11 14
8 10 14
10 12 16
9 12 16
10 13 17
9 11 15
10 13 17
8 10 13
10 13 18
10 13 18
7 10 13
9 11 14
8 11 14
8 11 14
9 12 15
10 12 17
8 10 14
10 13 17
7 9 13
9 12 16
9 11 15
10 12 16
10 12 16
7 9 13
10 13 17
8 10 13
9 11 15
10 12 16
8 10 13
7 9 13
9 12 16
9 12 16
10 13 17
9 11 15
8 11 14
8 10 14
10 12 17
10 12 16
9 12 16
10 12 16
9 11 15
9 12 16
9 12 16
8 11 14
9 11 15
9 11 15
9 12 16
9 11 15
9 12 16
9 11 15
8 11 14
9 12 16
9 11 15
10 13 17
9 11 15
9 11 15
10 13 17
10 12 16
11 14 19
10 12 16
10 13 17
8 10 13
10 13 17
9 12 16
9 12 16
9 12 16
10 12 16
10 13 17
9 11 15
9 12 16
10 13 17
8 11 15
10 12 17
10 12 17
11 14 18
9 12 16
9 12 16
11 14 19
9 12 16
9 12 16
11 14 18
11 14 19
10 13 17
10 13 17
9 12 15
8 10 14
10 13 17
10 14 18
10 12 17
10 13 17
12 15 20
10 13 17
10 13 18
10 12 17
12 16 22
11 14 18
10 13 18
11 14 19
10 14 18
11 14 19
10 13 17
11 14 19
11 15 20
11 14 19
11 14 19
11 14 19
11 15 20
11 14 19
10 13 18
11 14 19
11 14 19
11 14 19
11 15 20
10 13 18
10 13 18
10 13 18
11 14 19
12 16 22
12 15 20
12 15 21
11 14 19
12 16 21
11 15 20
11 14 19
11 14 19
11 14 19
12 16 21
12 15 20
11 15 20
12 15 20
11 14 19
11 14 19
13 16 22
12 16 21
11 15 20
12 15 20
11 15 20
12 15 21
12 15 20
12 15 21
10 13 18
12 16 21
12 16 21
12 15 20
13 16 22
13 16 22
12 15 21
12 15 20
13 17 22
12 16 21
12 16 22
13 17 23
13 16 22
12 16 21
13 16 22
13 17 22
12 15 21
12 15 21
13 17 23
12 15 21
12 16 21
13 17 22
13 17 23
12 16 22
12 16 22
13 17 23
13 17 23
13 17 22
12 16 22
12 16 22
13 17 23
13 17 22
12 15 21
12 16 21
13 17 23
13 17 23
13 16 22
13 16 22
13 17 22
13 17 23
13 16 22
13 17 22
13 17 23
13 17 23
12 16 21
13 17 23
13 16 22
13 16 22
13 17 22
12 16 22
13 17 22
13 17 23
13 17 22
13 16 22
13 17 23
13 16 22
13 17 23
13 17 23
13 17 22
13 17 22
13 17 22
13 17 23
13 16 22
14 18 24
13 17 24
13 17 22
13 17 23
13 17 23
13 17 23
13 17 23
13 17 23
13 18 24
13 17 23
13 17 23
14 18 24
14 18 24
14 18 24
13 17 22
13 17 23
14 18 24
13 17 23
13 17 23
13 17 23
13 17 23
13 17 23
14 18 24
13 17 23
13 17 22
14 18 24
13 17 23
13 17 23
14 18 24
13 17 22
14 18 24
13 17 23
14 18 24
13 17 23
12 16 22
13 17 24
13 17 23
13 17 23
12 15 21
13 17 23
13 17 23
13 17 23
14 18 24
13 17 23
12 16 22
13 17 23
13 17 23
12 16 22
13 17 23
13 17 23
14 18 24
13 17 23
12 15 20
13 17 22
12 16 22
12 16 22
12 16 22
13 17 23
13 16 22
13 17 23
13 17 22
13 17 23
12 16 21
13 17 23
13 17 22
13 16 21
13 17 23
13 17 23
13 17 22
12 15 21
12 15 21
12 16 22
12 15 21
12 16 21
13 16 22
13 17 22
12 16 21
13 17 23
13 17 23
12 16 21
12 16 21
12 15 21
12 16 21
12 16 22
13 17 23
12 16 21
12 16 21
11 15 20
12 16 21
11 14 18
13 17 22
12 15 20
11 14 19
12 16 21
12 16 21
11 14 19
12 15 20
12 16 22
13 17 23
12 16 21
12 16 21
11 14 19
13 16 22
13 16 22
12 15 21
12 16 21
12 15 21
12 16 22
12 16 22
12 15 21
12 15 21
12 15 21
12 15 21
11 15 20
11 14 19
12 15 20
12 16 21
10 13 18
12 15 20
12 15 20
11 14 19
11 15 20
11 15 20
11 14 19
12 15 21
12 15 20
10 14 19
11 14 19
12 15 20
9 12 16
11 14 19
12 15 20
11 15 20
10 13 17
11 14 19
11 14 19
10 13 17
10 13 18
11 14 19
11 14 18
10 13 18
9 12 16
10 13 18
11 14 19
9 12 16
9 12 16
10 13 18
11 15 20
10 13 18
10 13 18
9 11 15
10 13 17
9 12 17
10 13 18
10 13 17
11 14 19
10 13 17
12 15 20
9 12 16
9 12 16
10 12 17
9 11 15
10 13 18
10 13 17
10 13 17
9 12 16
10 12 16
9 12 16
10 13 17
10 13 17
9 12 17
10 12 16
9 12 16
9 11 15
9 11 15
10 13 17
8 10 14
9 12 16
10 13 18
9 12 16
10 12 16
10 13 17
10 14 18
11 14 19
10 13 18
9 12 16
8 10 14
9 12 16
9 12 16
8 10 13
9 11 15
9 12 16
9 12 16
9 12 15
9 12 15
10 13 18
10 12 16
10 13 17
9 11 15
9 12 16
10 12 17
9 11 15
10 12 16
10 13 17
9 12 16
7 9 12
8 11 14
9 11 15
10 13 17
8 11 14
8 10 13
9 12 16
9 12 15
9 11 15
8 11 15
8 10 13
9 11 15
8 10 13
9 12 16
9 12 16
9 12 16
9 12 15
9 12 16
10 13 17
10 13 17
9 12 15
10 12 16
8 11 15
9 11 15
8 10 14
9 12 16
8 10 13
8 11 14
9 11 15
10 13 18
9 11 14
10 13 17
9 12 15
8 11 14
8 10 14
9 12 15
8 10 13
7 9 12
8 11 14
10 13 17
10 13 18
10 12 17
9 12 16
10 12 16
9 12 17
10 13 17
10 13 18
10 13 17
9 11 15
9 12 16
10 13 17
10 13 17
11 14 18
9 11 15
10 13 17
9 11 15
11 14 19
10 13 17
9 12 16
10 13 17
10 13 17
9 12 16
10 12 16
10 13 17
10 13 17
10 13 18
10 13 18
11 14 19
9 12 16
10 13 18
10 13 17
9 12 16
9 12 16
9 11 15
12 16 21
10 12 17
9 12 16
10 13 17
9 12 16
10 13 17
10 13 17
11 14 19
11 14 18
11 14 19
12 15 20
11 14 19
11 14 19
10 13 18
9 12 17
12 15 20
10 13 18
11 14 19
11 14 19
10 14 18
10 13 18
10 14 18
10 14 18
12 16 21
11 14 18
11 14 19
10 13 17
11 14 19
12 15 20
12 15 21
11 15 20
11 15 20
11 15 19
12 15 21
11 15 19
11 14 19
12 16 21
12 15 21
13 17 22
9 12 16
12 15 20
11 15 20
12 15 20
12 15 20
11 14 19
12 16 21
12 15 21
12 16 21
12 15 21
11 15 20
12 16 21
12 16 22
12 16 21
11 14 19
11 14 19
12 16 21
12 15 20
12 15 20
13 16 22
12 16 22
12 16 21
11 15 20
13 17 23
13 16 22
12 16 21
12 15 21
12 15 21
12 16 21
13 17 23
13 16 22
13 16 22
13 16 22
12 15 21
12 16 21
13 17 22
13 16 22
12 15 21
13 16 22
13 16 22
13 17 22
12 16 21
12 16 22
13 17 23
12 15 20
13 16 22
13 17 23
13 17 23
11 14 19
13 16 22
13 17 22
12 16 21
14 18 24
12 16 21
13 17 23
13 17 23
12 16 22
12 16 22
13 17 23
12 16 21
13 16 22
13 17 23
13 17 23
13 17 23
13 17 22
14 18 24
13 17 23
13 17 23
14 18 24
13 17 23
12 16 22
13 18 24
13 17 23
13 17 22
12 16 21
13 17 22
12 16 21
13 17 22
13 17 23
13 17 23
13 17 23
13 17 23
13 17 23
14 18 24
13 17 23
12 16 22
13 17 23
13 17 23
13 17 23
13 17 23
13 16 22
13 17 22
13 17 24
13 17 23
13 17 22
13 17 23
14 18 24
13 17 23
13 17 23
14 18 24
13 17 24
13 18 24
13 17 23
13 17 23
14 18 24
14 18 24
13 17 24
13 17 22
13 17 23
14 17 23
13 17 23
14 18 23
13 17 23
13 17 24
14 17 23
13 17 23
13 17 23
13 17 23
13 17 23
13 17 23
13 17 23
13 17 22
13 17 23
13 16 22
13 17 23
13 17 22
13 17 22
13 17 23
12 16 22
13 17 23
13 17 23
14 18 24
14 18 24
12 16 21
13 17 23
13 17 22
13 17 22
12 16 22
13 16 22
13 17 23
14 18 24
13 16 22
12 15 20
13 17 23
13 17 23
13 17 22
13 17 23
12 16 22
13 17 22
13 17 23
13 17 22
13 16 22
13 16 22
12 16 22
12 16 22
12 15 21
13 16 22
13 17 23
12 16 21
13 17 23
12 16 21
11 15 20
11 15 20
11 15 20
12 15 20
13 16 22
12 16 21
12 16 21
13 16 22
12 16 21
12 16 21
12 16 22
13 17 22
12 16 22
12 16 21
12 16 21
11 15 20
12 16 22
11 15 20
11 15 20
13 16 21
13 17 23
12 16 21
11 14 19
13 16 21
12 15 20
12 15 20
12 15 20
12 15 20
13 17 22
11 15 20
11 14 19
11 14 19
12 15 20
11 15 20
11 14 19
11 15 20
11 14 19
12 16 21
12 15 20
12 15 20
11 15 19
12 15 20
11 15 20
11 14 19
10 14 18
12 16 21
10 13 18
10 13 18
10 13 18
11 14 18
12 15 21
11 14 19
11 15 20
10 13 17
11 14 19
10 13 18
11 15 20
11 15 20
12 16 21
10 13 18
10 13 18
11 14 19
10 13 18
11 14 19
11 14 18
11 14 19
9 12 16
11 14 19
9 12 15
10 13 17
11 15 20
11 14 19
10 13 17
10 13 18
10 13 18
11 14 19
9 12 16
10 13 18
11 14 19
11 14 19
10 12 17
10 13 17
9 12 16
11 15 19
11 14 19
9 12 16
10 13 18
10 13 18
9 12 16
10 12 17
11 14 19
11 14 19
10 13 18
10 13 17
10 13 17
11 14 19
9 12 16
10 13 17
10 13 17
9 12 16
10 12 17
8 11 14
10 13 17
9 12 16
11 14 18
9 11 15
11 14 19
9 12 16
10 13 17
8 11 14
10 13 18
9 11 15
10 12 16
10 13 17
9 11 15
9 11 15
7 10 13
10 12 17
8 11 14
10 13 17
8 10 14
11 14 18
9 11 15
9 12 17
8 11 15
10 13 17
9 12 16
9 12 16
9 12 16
10 13 18
10 12 17
10 12 16
9 11 15
8 10 14
8 11 15
9 12 16
8 10 14
9 11 15
9 11 15
8 11 14
8 10 14
9 11 15
9 12 16
9 11 15
11 14 18
9 12 15
10 13 17
8 11 15
8 11 14
9 11 15
8 10 14
9 11 15
9 12 15
9 11 15
9 12 16
9 11 15
8 10 13
9 11 15
9 11 15
11 14 19
9 11 15
10 12 17
9 11 15
10 14 18
8 10 13
9 11 15
9 11 15
10 13 17
10 13 17
8 11 14
9 11 15
10 12 16
10 13 17
11 14 18
10 13 17
10 13 17
9 12 16
9 12 16
10 13 17
9 12 16
10 13 17
9 12 16
10 12 16
10 13 17
9 11 15
10 13 17
8 11 15
11 14 19
9 11 15
9 12 16
10 13 17
10 12 16
10 13 17
9 12 16
10 13 17
11 14 19
9 12 16
9 12 16
11 14 18
10 13 17
9 12 16
11 14 19
11 14 18
10 13 17
10 12 17
10 12 16
11 14 18
10 13 17
11 14 19
10 13 17
11 14 19
11 14 19
11 14 19
11 14 19
11 14 19
11 14 19
10 13 17
11 14 19
10 14 18
10 14 18
11 14 19
10 13 18
12 15 21
10 14 18
12 15 20
12 15 20
10 13 18
10 13 18
12 15 20
12 15 20
11 14 19
10 13 18
10 12 16
11 14 19
11 15 20
12 16 21
10 14 18
10 13 18
12 16 22
10 13 18
12 15 20
12 16 21
12 16 21
10 13 18
11 15 20
11 14 19
11 14 19
12 16 21
11 15 20
12 16 22
11 15 20
12 15 20
11 14 19
11 14 19
11 15 20
11 15 20
11 14 19
12 16 21
13 17 23
12 15 21
12 16 22
13 16 22
11 15 19
11 14 19
12 16 21
12 15 20
12 15 21
13 17 22
13 17 23
11 15 20
11 15 20
12 15 21
13 16 22
11 15 20
12 15 21
12 16 21
12 16 21
13 16 22
12 15 21
13 17 22
13 17 23
13 16 22
12 16 22
13 17 23
13 17 22
12 16 22
13 17 22
13 17 23
13 17 23
13 17 23
13 17 22
13 17 23
13 17 22
13 17 22
13 17 24
12 16 21
13 17 22
12 16 21
12 16 22
12 16 22
13 17 23
12 16 21
13 16 22
12 16 22
13 17 23
13 16 22
12 16 21
13 16 22
13 17 23
12 16 22
14 18 24
13 17 23
12 16 22
13 17 23
13 17 23
13 17 23
13 17 22
13 17 23
12 16 21
13 16 22
13 17 23
13 17 23
13 17 23
13 17 23
13 17 23
13 17 23
13 17 23
13 17 23
13 17 23
13 17 22
14 18 24
12 16 22
13 17 23
13 17 23
13 17 23
13 17 23
14 18 24
14 18 24
13 17 23
13 17 23
14 18 24
13 17 23
13 17 23
13 17 23
13 17 23
13 17 23
13 17 23
12 16 21
14 18 24
14 18 24
13 17 23
13 17 23
13 17 23
12 16 22
12 16 22
12 16 21
13 17 23
13 17 23
13 16 22
14 18 24
14 18 24
13 17 22
13 16 22
13 17 23
13 17 23
13 17 23
12 16 21
14 18 24
13 16 22
12 16 22
12 16 21
13 16 22
12 16 22
14 18 24
13 17 23
13 16 22
13 17 23
13 17 23
12 16 21
13 17 23
12 16 22
13 17 23
12 16 22
11 15 20
13 17 22
13 16 22
13 17 23
13 17 23
13 17 22
13 17 22
13 17 23
12 16 22
12 16 21
13 17 23
12 16 21
12 16 21
14 18 23
13 17 22
12 16 22
12 16 22
12 15 21
13 17 23
12 15 20
12 15 20
12 15 21
12 16 21
12 16 21
11 15 20
12 16 21
11 14 19
12 16 22
11 14 18
11 15 20
12 15 21
11 15 20
12 15 20
11 14 19
13 17 23
12 16 21
11 15 20
12 16 21
13 17 22
12 16 22
12 16 21
12 15 20
11 15 20
11 14 19
12 15 20
12 15 20
12 16 21
11 15 20
12 15 21
11 15 20
12 15 20
12 16 21
11 14 19
12 15 20
12 15 20
11 15 20
12 15 21
11 15 20
11 14 19
12 15 20
11 14 19
13 16 22
11 15 20
11 14 19
11 14 19
12 15 21
11 14 19
12 16 21
12 15 21
11 14 18
10 14 18
10 13 17
11 14 19
10 13 18
11 14 19
11 14 19
11 14 19
11 14 19
11 14 19
11 14 19
10 13 18
12 15 20
11 15 20
10 13 18
10 13 17
11 14 19
10 13 17
12 15 20
10 12 17
12 15 20
11 14 19
10 13 17
10 13 17
10 13 18
9 12 16
10 13 18
11 15 19
11 14 19
11 14 18
11 14 18
10 13 18
10 13 17
9 12 15
11 14 19
9 12 16
11 14 18
9 11 15
9 12 16
10 13 17
9 12 16
11 15 20
10 12 17
9 12 16
10 13 18
9 12 16
9 11 15
9 11 15
10 12 17
10 13 18
9 11 15
9 11 15
8 10 13
10 13 18
9 12 16
9 12 16
8 11 14
9 11 15
9 12 15
11 14 18
8 10 13
9 12 16
8 11 15
9 12 16
9 11 15
9 11 15
9 11 15
9 12 16
10 13 17
8 11 14
10 12 17
9 12 16
9 11 15
9 11 15
9 12 16
10 12 17
9 12 16
9 12 16
10 13 18
9 12 16
9 12 16
9 12 16
8 10 14
9 12 15
10 13 17
10 12 16
10 12 16
9 12 16
9 11 15
9 12 16
9 12 16
9 11 15
10 13 17
9 12 16
9 11 15
8 10 14
9 12 16
8 10 13
10 13 17
10 12 16
8 10 14
10 13 17
8 11 15
10 12 17
9 11 15
8 11 15
10 13 17
10 12 16
9 12 16
10 13 17
10 13 17
10 13 18
8 11 14
9 12 16
10 13 17
10 13 17
9 11 15
9 12 15
9 12 16
9 12 16
9 12 15
10 13 17
9 12 16
9 12 16
10 12 16
11 14 18
10 12 16
8 11 15
10 13 17
9 12 16
9 12 15
9 11 15
10 13 17
9 12 16
10 13 17
10 13 17
11 14 18
10 13 17
11 14 19
9 11 15
10 13 17
9 12 16
10 12 17
10 13 18
10 13 18
10 12 17
10 13 18
10 13 18
10 13 17
10 13 17
9 12 16
9 11 15
11 14 19
11 14 18
10 13 17
12 15 20
11 14 19
11 14 19
11 14 18
11 14 19
12 15 20
10 13 18
10 13 18
11 14 19
11 15 20
10 12 16
10 13 18
11 15 19
11 14 19
10 13 18
11 15 20
10 13 17
11 14 18
12 15 20
10 14 18
11 15 20
11 14 19
11 14 19
12 16 22
12 16 21
11 14 19
12 15 20
11 14 18
11 14 19
11 15 20
11 14 19
12 15 20
12 15 21
12 15 20
11 14 19
12 16 22
11 15 20
12 16 21
11 14 19
9 12 17
12 15 21
11 15 19
11 14 19
13 17 22
11 15 20
12 15 21
12 15 21
12 16 21
11 15 20
13 17 23
12 15 20
12 16 21
13 17 22
13 16 22
12 16 21
13 16 22
12 16 21
12 16 21
13 16 22
13 16 22
11 14 20
12 16 21
12 16 22
12 15 21
12 16 22
11 15 20
12 16 22
12 15 21
13 17 23
13 17 23
13 17 22
13 17 23
13 16 22
13 17 22
12 16 22
12 15 20
13 16 22
13 16 22
13 17 22
12 16 21
12 16 22
13 16 22
13 17 22
13 17 22
12 15 21
12 16 21
13 17 23
12 16 22
13 17 23
12 16 21
13 17 23
13 17 24
13 16 22
12 16 21
13 16 22
13 17 22
13 17 23
13 17 23
13 17 22
12 16 21
13 16 22
12 16 22
13 16 22
13 16 22
12 16 21
13 17 24
12 16 21
13 17 23
14 17 23
13 16 22
14 18 24
13 16 22
13 17 23
12 16 22
13 17 22
13 17 23
14 18 24
12 16 21
13 17 23
13 17 23
13 17 23
14 18 24
13 17 23
14 18 24
13 17 23
13 17 23
14 18 24
13 17 23
12 16 22
14 17 23
13 17 24
14 18 24
13 17 24
13 17 22
14 18 24
12 16 21
13 17 23
13 16 22
14 18 24
13 17 23
13 17 23
13 17 23
14 18 25
13 17 23
14 18 24
13 17 23
13 17 23
13 17 23
13 17 23
13 17 23
13 17 23
14 18 24
13 17 22
13 17 23
13 17 23
13 16 22
13 17 24
13 17 23
13 17 23
14 18 24
12 16 22
13 17 22
13 17 24
12 16 22
12 16 21
12 16 21
13 17 23
14 18 24
12 16 22
13 17 23
13 17 23
13 17 22
13 17 22
13 17 23
13 17 23
12 16 21
12 16 22
12 16 22
13 17 23
12 16 21
11 15 20
13 17 23
12 15 21
13 16 22
13 16 22
12 16 22
12 15 20
12 15 21
12 16 21
13 17 23
12 15 20
13 17 22
13 16 22
13 17 23
13 17 23
12 16 21
12 16 22
12 16 21
12 15 20
12 16 22
12 16 21
13 17 22
12 16 21
13 17 23
12 16 21
12 16 21
13 17 23
12 16 22
12 16 21
12 16 21
13 16 22
11 15 20
12 15 21
11 15 20
11 15 20
12 16 21
11 14 19
12 15 20
12 15 20
11 14 19
12 15 21
12 16 21
11 15 20
11 15 20
12 16 21
12 16 21
11 15 20
10 13 18
12 15 21
12 15 21
12 16 21
12 16 21
11 15 20
11 14 19
13 16 22
12 15 20
11 15 20
11 14 19
11 15 20
12 15 20
11 14 18
11 14 19
11 14 19
12 15 20
10 13 18
12 15 20
10 13 18
11 14 19
11 14 19
11 15 20
10 13 18
11 14 19
11 15 20
11 15 20
10 13 18
10 13 17
11 14 19
11 15 20
10 14 18
10 13 17
10 13 18
12 16 21
11 14 18
10 13 18
10 13 18
10 13 17
9 12 17
11 15 20
10 14 18
12 15 20
11 14 19
11 14 19
9 12 16
10 13 17
11 14 18
9 12 16
11 14 18
10 14 18
10 13 18
10 12 17
9 12 17
9 11 15
9 12 16
10 13 17
9 11 15
10 12 17
10 14 18
10 12 17
10 12 17
10 13 17
8 11 14
10 13 17
9 12 16
10 12 17
10 13 17
9 12 16
9 11 15
10 13 17
9 12 17
9 12 16
9 12 16
9 12 17
9 12 16
9 12 16
10 12 16
8 10 14
9 11 15
9 12 16
10 13 17
8 11 15
9 12 15
10 13 17
9 11 15
9 12 16
9 12 16
8 11 15
9 12 15
9 12 15
8 11 15
10 13 17
10 13 18
10 13 17
10 12 16
8 11 14
9 11 15
10 13 17
8 10 14
9 11 15
10 13 17
10 13 17
9 12 16
8 11 14
8 11 14
9 11 15
8 11 15
9 12 16
9 12 16
10 12 16
9 12 15
10 12 16
9 12 16
9 12 16
9 12 16
9 12 16
9 12 17
11 14 18
9 12 16
10 12 16
9 12 16
10 13 17
10 12 17
11 13 18
9 11 15
10 13 17
9 12 16
10 13 17
9 12 16
10 12 16
10 13 17
12 15 20
11 15 19
11 13 18
8 10 14
10 12 16
9 12 16
9 11 14
10 13 17
9 11 15
10 14 18
10 13 18
9 12 16
11 14 18
11 14 18
10 13 17
10 12 16
10 12 17
10 12 17
10 13 18
10 13 18
12 15 20
10 13 17
10 13 17
11 14 19
11 14 18
10 13 17
11 14 18
10 13 18
10 13 17
10 13 17
11 14 18
9 12 16
11 14 18
10 13 18
10 14 18
11 13 18
11 14 19
10 13 17
10 13 17
11 14 19
11 14 19
11 14 19
10 13 18
10 13 17
10 14 18
9 12 16
11 15 20
10 13 18
11 14 19
11 14 19
10 13 18
11 15 20
11 14 19
10 13 17
12 16 21
11 15 20
11 14 19
10 13 18
11 15 20
12 15 20
11 14 18
12 15 20
11 15 20
11 15 20
12 15 20
11 15 20
11 14 19
11 15 20
11 14 19
12 15 21
12 15 21
12 15 20
10 14 18
11 14 19
11 15 20
12 15 20
12 15 20
12 16 21
12 15 20
11 15 20
11 14 19
12 15 20
12 15 21
13 16 22
12 15 20
12 15 21
12 16 21
12 15 20
12 15 21
11 15 20
12 15 20
11 15 20
12 16 21
12 16 21
11 14 19
12 16 21
12 15 21
13 16 22
13 16 22
12 15 20
12 15 21
12 15 20
13 16 22
12 16 21
12 16 22
12 16 21
12 16 22
12 15 21
11 15 20
11 15 20
13 17 22
12 16 22
12 16 21
13 17 23
12 16 21
12 16 22
13 17 23
13 17 23
12 16 22
12 16 21
12 16 22
13 17 23
13 17 23
13 17 22
13 17 23
12 16 21
13 17 23
13 17 22
12 15 21
12 16 22
12 15 21
13 17 22
13 17 23
13 17 23
13 17 23
13 17 23
12 16 21
13 17 23
13 17 23
12 16 21
13 17 22
13 16 22
13 17 23
12 15 21
13 16 22
13 17 22
13 17 22
12 16 21
13 17 23
12 16 22
13 17 23
13 17 23
13 17 23
13 17 22
13 17 23
13 16 22
13 17 23
13 17 23
13 17 23
13 17 23
13 17 23
13 17 23
13 17 23
13 17 23
14 18 24
14 18 24
13 17 23
14 18 24
13 17 23
12 16 21
13 17 23
13 17 22
13 17 23
13 18 24
13 17 23
13 17 24
14 18 24
14 18 23
13 17 23
14 18 24
13 17 22
13 17 23
14 18 24
13 16 22
14 18 24
14 17 23
13 17 22
13 17 23
13 16 22
12 15 21
13 17 23
13 17 23
13 17 23
13 17 23
12 16 22
13 17 22
13 17 23
13 17 23
13 17 22
13 17 22
13 17 23
14 18 24
13 17 24
13 17 23
12 16 22
13 17 23
13 17 23
13 17 23
14 17 23
13 17 23
13 16 22
13 17 22
13 17 23
12 16 21
12 15 20
13 17 23
13 17 23
12 16 21
13 18 24
12 16 21
13 17 23
13 17 22
12 16 21
13 16 22
13 16 22
13 17 23
12 16 21
12 15 21
12 16 22
12 16 22
12 16 21
12 16 21
12 16 22
12 15 20
12 15 21
11 15 19
13 16 22
12 16 21
12 16 21
12 16 21
12 15 21
12 16 21
12 15 20
12 15 21
12 15 20
12 15 20
12 15 21
12 15 20
12 15 20
12 15 21
12 16 21
12 16 21
12 16 21
12 15 21
11 14 19
10 13 18
12 16 21
12 15 21
11 15 20
11 15 20
11 14 19
12 15 20
11 14 19
12 15 21
11 14 19
11 15 20
11 15 20
11 15 20
10 13 18
11 15 20
12 15 20
10 13 18
12 16 21
11 15 20
12 15 20
11 14 19
12 15 20
11 14 19
13 16 21
10 14 19
10 14 19
11 14 19
11 14 19
10 14 18
10 13 18
12 16 21
10 14 18
12 15 20
10 13 18
12 15 20
11 15 20
12 15 20
10 14 18
12 16 21
10 13 17
10 13 17
11 14 19
11 14 18
11 14 19
12 15 20
11 14 19
11 14 20
11 14 19
9 12 16
9 12 16
10 13 18
10 13 17
10 13 18
8 11 15
10 13 17
11 14 18
11 14 19
11 14 18
11 14 19
9 12 17
9 12 16
10 13 17
10 13 17
10 13 17
9 12 16
11 14 19
11 14 18
10 13 18
10 13 17
10 13 17
10 12 17
10 13 18
10 13 18
11 13 18
10 13 17
8 10 14
10 13 17
10 13 18
9 12 16
10 13 17
9 12 16
9 12 16
10 13 17
11 14 18
10 13 17
9 11 15
10 13 18
10 12 17
9 12 16
9 12 17
9 11 15
9 12 16
9 12 16
8 11 14
10 12 17
9 11 15
10 13 18
9 11 15
10 13 17
8 11 15
10 13 18
9 11 15
9 12 16
10 12 16
9 11 15
8 11 14
9 12 16
9 12 16
9 11 15
8 11 14
10 12 16
8 10 14
9 12 16
9 12 16
8 11 14
10 13 17
8 11 14
10 13 17
9 12 15
8 11 15
9 12 16
8 10 14
10 13 17
10 12 16
10 12 17
8 10 14
8 10 14
10 13 17
9 11 15
8 11 14
10 13 17
8 10 14
9 11 15
10 13 18
9 12 16
10 13 18
9 12 16
8 11 15
9 11 15
10 13 17
9 11 15
10 13 17
10 13 17
10 12 17
10 13 18
9 11 15
10 13 18
9 12 16
9 12 16
10 12 17
11 14 18
9 12 16
9 11 15
9 11 15
9 12 16
10 13 17
10 13 17
10 13 17
9 11 15
10 13 18
10 13 18
9 12 16
9 12 16
10 12 17
10 13 18
10 13 17
11 14 19
9 12 16
10 12 17
9 12 15
10 13 17
10 13 18
11 14 18
11 14 19
11 14 19
10 14 18
10 13 17
10 13 18
10 13 18
9 12 16
10 13 18
10 13 17
10 13 18
10 13 18
10 13 17
10 13 17
9 12 16
11 14 19
10 14 18
12 15 20
11 15 20
10 14 18
10 13 18
11 14 18
11 14 19
11 14 19
11 14 18
11 14 18
10 13 18
10 13 18
11 14 18
11 14 19
12 15 21
11 15 20
11 15 20
10 13 18
11 15 20
11 15 20
12 15 20
12 15 20
11 14 19
11 14 19
11 15 20
11 14 19
11 14 19
12 15 20
12 15 20
12 15 20
12 15 21
12 15 21
12 15 21
12 16 21
12 15 20
11 14 19
11 15 20
10 14 18
11 14 19
11 15 19
11 15 20
12 16 21
12 15 21
11 14 19
12 15 21
12 15 20
12 15 21
11 15 20
12 16 22
12 16 21
12 16 21
12 16 21
11 14 19
12 16 21
13 17 22
12 16 21
13 17 22
11 15 20
12 16 22
12 16 21
12 16 21
12 16 21
12 15 21
12 15 20
11 15 20
13 16 22
12 16 22
12 15 20
12 16 21
12 16 21
11 15 20
12 15 21
13 17 23
11 15 20
14 18 24
12 16 22
13 17 23
13 16 22
13 17 23
13 17 23
12 16 22
13 16 22
13 17 22
13 17 22
13 17 23
12 16 21
13 17 23
13 17 23
13 17 23
13 16 22
13 17 23
12 16 21
13 16 22
12 16 22
13 17 22
12 16 21
13 17 23
13 17 23
13 18 24
13 18 24
14 18 23
13 17 23
12 16 22
13 17 22
13 17 22
13 17 23
13 17 23
12 16 22
13 17 23
13 17 23
13 17 23
12 16 21
13 16 22
13 17 23
14 17 23
13 17 23
13 17 23
13 16 22
13 17 23
12 16 22
13 17 23
13 17 23
14 18 24
13 16 22
14 18 24
12 16 22
13 16 22
14 18 24
13 17 23
13 17 22
13 17 23
13 17 23
14 18 24
13 17 23
13 17 23
13 17 23
13 17 23
13 17 23
14 18 24
13 17 23
12 16 22
13 18 24
13 17 23
13 18 24
12 16 22
14 18 24
13 16 22
13 17 22
13 17 23
13 17 23
14 18 24
12 16 22
14 18 25
13 17 23
13 17 23
12 16 22
13 16 22
13 17 23
14 18 24
12 15 20
13 16 22
13 17 22
13 17 24
13 16 22
12 16 22
13 17 23
12 16 22
12 16 22
13 16 22
14 18 24
12 15 21
12 16 21
13 17 23
12 16 22
13 17 23
12 16 22
14 18 24
12 16 21
12 16 21
13 17 23
12 16 21
13 17 22
12 16 21
13 17 22
12 16 21
12 16 22
12 16 22
13 16 22
12 16 21
12 15 20
12 15 21
13 16 22
13 16 22
13 16 22
11 15 20
13 17 23
13 17 23
12 15 21
13 16 22
13 16 22
12 16 21
12 16 21
12 16 22
13 16 22
11 15 20
12 15 21
12 16 21
12 16 22
13 16 22
11 14 19
11 15 20
13 16 22
13 16 22
12 16 21
12 16 21
12 16 21
11 15 19
11 14 19
12 15 21
12 15 21
12 16 21
12 15 20
12 16 22
13 16 22
12 15 21
11 15 20
12 15 21
11 14 19
12 16 21
11 14 19
12 15 20
12 16 21
12 15 21
11 15 20
11 14 19
11 14 19
11 14 19
12 15 20
12 15 20
11 14 19
12 16 21
11 14 19
11 15 20
12 15 20
10 13 18
11 14 19
12 15 20
12 15 20
11 15 20
11 14 19
11 14 19
10 13 18
10 14 18
11 14 19
11 14 18
10 13 18
11 14 19
11 14 19
11 15 20
10 13 17
10 14 18
11 14 19
11 14 19
11 14 18
11 14 19
12 15 20
11 14 18
10 13 17
10 13 17
11 14 18
10 13 18
11 14 19
11 14 19
10 13 17
10 13 17
10 13 17
10 12 17
9 11 15
10 13 17
9 12 16
10 13 17
11 14 18
10 13 17
9 12 16
10 13 17
10 13 18
9 12 15
7 10 13
8 11 15
9 12 16
8 11 15
8 10 14
9 12 16
10 13 17
10 12 16
9 12 16
9 12 16
10 13 18
10 13 18
10 13 17
8 11 15
9 11 15
10 13 18
9 11 15
10 13 17
9 12 16
9 12 16
10 12 16
10 13 17
9 11 15
9 12 16
10 12 16
10 13 18
9 11 15
8 10 13
9 12 16
10 12 16
8 11 15
8 11 15
9 11 15
10 13 17
9 11 15
9 11 15
8 10 14
11 14 18
9 11 15
10 12 16
10 12 17
9 12 16
10 13 17
10 12 17
9 11 15
9 12 16
10 13 17
8 11 15
10 13 17
10 13 17
9 12 16
10 12 17
9 12 16
9 12 16
10 12 16
10 13 17
9 12 15
9 12 16
8 10 14
10 12 16
9 12 16
10 12 16
9 12 16
9 12 16
11 14 18
9 12 16
9 12 16
11 13 18
10 13 17
10 12 16
9 11 15
10 13 18
10 13 17
10 13 17
10 13 17
9 12 16
9 12 16
10 13 18
8 11 15
10 14 18
10 12 17
10 13 17
10 13 18
9 11 15
9 11 15
11 14 18
9 12 17
9 11 15
9 12 16
10 13 18
10 13 17
10 13 18
11 14 18
9 12 16
10 13 17
10 13 18
10 14 18
10 13 17
11 14 19
10 13 17
10 13 17
10 14 18
10 13 17
10 13 18
11 14 19
12 15 20
10 13 18
10 13 17
11 14 19
11 14 19
10 13 17
11 14 19
10 13 18
10 13 18
11 14 18
11 14 19
11 14 18
11 14 19
11 14 18
11 14 19
11 15 19
11 15 20
11 14 19
10 12 17
9 12 16
12 15 20
10 14 18
11 14 19
11 14 19
11 14 19
11 14 19
10 13 17
12 16 21
11 14 18
10 13 18
11 14 19
11 14 19
11 14 19
12 15 21
11 15 20
10 13 18
11 15 20
12 16 21
11 14 19
12 16 21
12 16 21
12 15 20
12 16 21
11 15 20
11 14 19
11 15 20
11 14 19
12 16 22
11 14 20
13 17 22
11 14 19
11 15 20
11 15 19
12 15 20
12 16 21
11 14 18
12 15 20
11 14 19
13 17 22
12 16 21
12 16 21
12 15 21
12 16 21
11 15 19
12 15 20
12 15 20
12 16 21
12 16 21
12 15 21
11 15 20
12 16 22
12 16 21
13 17 22
13 16 22
12 15 20
12 16 21
12 16 22
12 15 21
13 16 22
12 16 22
13 16 22
12 16 21
12 16 21
13 17 23
12 16 21
12 16 22
13 17 23
13 17 22
13 16 22
13 17 23
12 16 21
12 16 21
13 17 22
12 16 21
12 16 21
13 17 23
13 17 23
13 16 22
13 16 22
14 18 23
13 17 23
13 16 22
13 17 22
12 16 22
13 17 22
13 17 23
12 16 21
13 17 23
13 17 23
13 17 23
12 16 22
13 16 22
13 16 22
13 16 22
13 17 23
13 17 23
12 16 22
13 17 23
13 17 23
13 17 23
13 17 23
14 17 23
13 16 22
13 17 23
13 17 23
13 17 23
13 17 22
13 17 23
13 17 23
14 18 24
13 17 22
13 17 23
13 17 23
12 16 22
14 18 24
14 18 23
13 17 23
13 17 24
13 17 23
13 17 23
14 18 24
13 16 22
13 17 23
13 17 23
13 17 22
13 17 23
13 17 23
13 17 23
13 17 23
13 18 24
13 17 22
13 17 23
13 17 22
13 17 23
13 17 23
13 17 23
13 17 22
13 17 22
13 17 23
13 17 24
13 17 22
13 17 24
13 17 22
13 17 23
13 17 23
13 17 22
13 17 23
12 16 21
13 16 22
13 17 23
13 16 22
13 17 23
13 17 23
13 17 23
13 17 23
13 17 22
13 16 22
13 16 22
12 16 21
13 17 23
13 17 22
13 17 22
11 15 20
12 16 21
12 16 22
12 16 21
12 16 22
12 16 21
12 16 21
12 16 21
12 16 21
12 16 22
12 16 21
13 17 23
12 16 22
13 17 23
11 15 20
12 16 22
12 15 21
13 16 22
12 15 20
13 17 23
12 16 22
12 16 21
13 16 22
12 16 21
12 16 21
12 16 22
13 16 22
13 17 23
12 15 21
12 16 21
13 17 23
12 15 21
12 15 20
13 17 22
11 15 20
12 16 21
13 17 22
10 14 18
13 16 22
13 16 22
12 15 21
12 16 21
11 14 19
13 16 22
11 15 20
12 15 21
10 14 18
12 16 21
12 15 20
12 16 21
11 14 19
12 16 21
12 15 20
11 15 20
11 14 19
11 14 19
11 15 19
12 15 20
10 14 18
11 14 18
11 14 19
12 15 20
12 15 21
11 15 20
11 14 19
11 14 19
11 14 19
11 15 20
11 14 19
11 14 19
11 14 19
11 14 19
11 14 18
11 14 19
10 14 18
11 14 19
11 14 19
11 15 19
10 13 17
11 14 19
10 13 18
11 14 19
10 13 18
10 14 18
12 15 21
10 14 18
11 14 19
11 14 19
11 14 19
11 14 18
10 14 18
11 15 20
10 13 18
11 14 19
10 13 18
10 13 17
11 14 18
11 14 19
9 12 17
10 13 17
10 13 17
10 12 17
9 11 15
9 11 15
10 13 17
10 13 17
9 12 16
10 13 18
10 13 18
11 13 18
11 15 20
10 13 18
10 13 17
10 13 17
10 13 17
10 13 17
9 12 16
9 12 16
10 13 18
10 13 18
10 13 18
10 13 17
9 12 16
10 13 18
10 12 16
10 13 17
9 12 15
10 13 17
9 12 16
8 11 15
9 12 16
11 14 18
9 12 16
9 12 16
10 13 17
10 13 17
8 10 14
9 12 16
10 12 16
9 12 16
10 13 18
11 14 18
8 10 14
9 12 16
9 11 15
8 11 14
10 12 16
8 10 14
10 13 17
8 10 14
8 11 14
9 11 15
10 13 17
9 12 16
10 13 17
8 10 13
10 13 18
10 12 16
9 12 16
9 12 16
9 12 16
8 10 14
8 11 14
8 11 15
9 12 16
10 12 17
8 10 13
11 14 19
8 10 13
9 11 15
9 12 16
9 12 16
9 11 15
10 13 17
10 13 17
10 13 17
10 13 17
10 13 17
8 11 15
9 12 16
10 12 17
9 11 15
10 13 18
10 13 17
10 13 17
10 12 16
10 13 18
9 12 16
8 11 14
11 14 19
10 13 18
11 14 19
9 12 16
9 12 16
11 14 18
10 13 17
11 14 18
10 13 18
10 13 17
11 14 19
9 12 17
10 13 17
10 13 17
10 12 17
10 13 18
10 13 18
10 13 17
11 14 18
10 13 17
10 13 17
10 14 18
11 14 18
11 14 18
10 14 18
10 13 17
11 14 19
10 12 17
10 13 17
10 13 17
11 14 19
10 13 18
11 14 18
11 14 18
11 14 19
10 12 17
11 14 19
9 12 16
9 12 16
10 13 17
10 13 17
11 14 19
10 13 18
11 14 19
11 14 18
11 14 19
11 14 19
11 14 19
10 13 17
10 13 17
11 14 19
11 14 19
12 16 21
10 13 18
11 14 19
11 14 18
11 15 20
12 15 20
11 15 19
10 13 18
11 14 19
12 15 21
12 15 20
11 14 19
12 15 21
11 15 20
12 16 21
12 16 21
12 15 20
11 15 20
12 15 20
12 15 20
10 14 18
11 14 19
11 14 19
12 16 21
11 15 20
11 15 20
12 16 21
12 15 20
11 14 19
11 15 20
12 16 21
12 15 20
12 16 21
13 16 22
12 16 21
12 16 21
12 16 22
12 16 22
11 15 20
13 16 22
13 16 22
12 16 21
12 15 21
12 15 21
11 15 20
12 16 22
12 16 21
11 14 19
12 15 20
11 15 20
13 16 22
12 16 21
12 16 21
12 15 21
12 16 22
12 16 22
12 15 21
13 17 23
12 15 21
13 17 22
13 16 22
13 17 23
13 16 22
13 16 22
12 15 21
14 18 24
13 17 23
13 17 22
13 17 23
13 17 22
13 17 23
13 17 22
13 17 23
13 16 22
13 17 23
12 16 22
13 17 23
13 16 22
12 16 21
13 17 23
12 16 21
13 16 22
13 17 22
13 17 23
13 16 22
12 16 22
13 17 23
12 16 22
13 17 22
13 17 23
13 17 23
13 17 23
12 16 22
13 17 23
13 17 23
14 18 24
13 18 24
14 18 24
13 18 24
13 17 24
13 17 22
13 18 24
12 16 21
13 17 23
13 17 22
13 17 23
14 18 24
13 17 23
13 17 22
13 16 22
14 18 24
13 17 23
13 17 23
13 17 23
12 16 22
13 18 24
14 18 23
13 17 24
13 17 22
13 16 22
13 16 22
13 17 22
13 18 24
13 18 24
13 17 23
13 17 23
12 16 21
13 17 23
13 17 22
13 17 23
12 16 21
12 16 21
13 16 22
13 17 23
13 17 22
13 17 23
13 17 23
13 17 23
13 17 23
12 16 22
13 17 23
13 17 22
13 17 22
13 16 22
14 18 24
13 16 22
13 16 22
13 17 22
12 16 21
13 16 22
13 17 22
13 17 23
13 17 22
12 16 21
11 15 20
13 16 22
13 16 22
13 17 23
12 16 21
13 17 23
13 16 22
12 15 20
13 17 23
11 15 20
12 16 21
13 16 22
12 16 22
12 16 21
12 16 21
12 16 21
13 16 22
12 16 22
13 17 22
12 16 22
12 16 21
12 16 21
12 16 21
12 15 21
13 17 22
12 16 21
12 16 21
12 15 21
13 17 23
11 14 19
13 17 22
12 16 21
11 15 20
12 15 21
12 16 21
12 16 22
13 16 22
12 15 21
11 14 19
12 16 22
12 15 20
13 16 22
12 16 22
12 16 21
12 16 21
12 15 20
12 16 21
11 15 20
11 15 20
12 16 21
12 15 20
12 16 21
11 15 19
11 15 20
11 14 19
11 15 20
12 15 20
12 15 20
10 14 18
12 15 21
12 15 20
12 15 20
10 14 19
11 14 19
11 15 20
11 14 19
12 16 21
11 14 20
10 13 18
10 13 18
11 15 20
10 14 18
11 14 19
11 14 19
11 14 19
10 13 17
10 13 18
11 14 19
11 14 19
11 14 19
11 14 19
10 14 19
12 15 20
11 15 20
11 15 20
10 13 18
10 13 17
11 14 19
11 14 18
11 15 20
11 14 19
10 13 18
11 14 19
11 14 19
11 14 19
11 14 18
11 14 19
9 12 16
11 14 18
11 14 19
10 13 17
11 14 19
10 13 17
11 14 19
11 14 19
11 14 19
10 13 18
9 12 17
10 14 19
10 13 17
11 14 18
10 13 17
10 13 18
10 13 17
10 13 18
9 12 16
9 12 16
10 13 17
9 11 15
10 13 17
9 12 16
10 13 17
10 13 17
9 12 16
11 14 19
10 13 17
9 12 16
10 13 17
11 13 18
10 13 17
11 14 18
9 11 15
11 14 18
9 11 15
9 12 16
11 14 19
10 12 16
9 12 16
9 12 16
9 11 15
10 13 17
9 11 15
8 11 15
10 13 17
9 12 16
10 13 17
9 12 16
8 10 13
9 12 16
9 11 15
10 13 18
9 11 15
9 11 15
9 12 16
10 12 17
10 12 16
9 11 15
10 13 18
9 12 16
7 10 13
10 13 17
10 13 17
10 13 17
9 12 17
10 13 18
10 13 18
11 14 19
10 12 16
9 11 15
10 13 17
8 11 14
9 12 16
10 12 17
9 12 16
8 11 14
9 12 16
11 14 19
9 12 16
11 14 18
9 12 17
9 12 15
10 12 16
10 12 16
8 11 14
9 12 16
9 11 15
10 13 17
9 12 16
10 13 17
10 13 18
9 12 16
9 12 16
10 13 17
10 12 16
9 12 15
10 12 17
10 13 18
9 12 16
10 13 17
11 14 19
9 12 17
9 12 17
9 11 15
12 15 20
10 13 17
11 14 18
10 12 17
11 14 18
10 13 17
9 12 17
11 14 18
11 14 19
9 12 16
11 14 19
9 11 15
10 12 17
11 14 19
9 12 16
11 14 18
10 14 19
9 12 16
10 13 18
10 13 17
11 13 18
11 15 20
9 11 15
11 14 19
11 14 18
11 14 18
10 13 17
10 13 17
11 14 19
11 14 19
11 14 19
10 13 18
11 14 19
11 14 19
11 14 19
12 15 21
10 13 18
10 13 17
11 14 19
11 14 18
11 14 18
11 14 19
10 13 18
11 14 19
11 14 18
11 14 19
12 16 21
11 15 20
11 15 20
10 13 17
11 14 19
12 15 20
11 14 19
12 15 21
12 16 21
11 15 20
12 15 20
11 14 19
12 15 20
11 14 18
11 14 19
11 14 19
11 14 19
12 16 21
11 15 20
12 15 20
10 13 18
12 15 20
12 15 20
12 16 22
11 14 19
12 15 20
11 14 19
12 16 22
12 15 21
12 15 20
12 16 21
12 16 21
12 16 21
11 15 20
11 14 19
12 15 21
13 16 22
12 16 21
12 16 21
12 16 21
12 16 21
12 16 22
12 16 21
12 15 21
12 15 21
12 16 21
13 16 22
13 16 22
11 14 19
12 16 21
12 16 21
12 16 21
13 16 22
12 16 21
12 16 22
13 17 23
13 17 22
13 17 23
12 16 21
13 17 23
13 17 22
13 17 22
13 17 23
13 17 22
13 17 22
12 16 21
13 17 23
13 16 22
13 16 22
12 16 22
13 17 23
13 17 23
13 17 23
12 16 21
13 17 23
12 16 21
12 16 21
13 17 23
13 17 22
13 17 23
12 16 21
12 16 21
13 17 22
13 17 23
13 17 23
13 17 23
12 16 22
13 17 23
13 17 23
13 17 22
13 17 23
13 17 23
13 17 22
13 17 23
13 17 23
13 17 23
14 18 24
13 17 22
14 18 24
13 17 23
13 17 23
12 16 22
14 18 24
13 17 23
13 17 23
13 17 23
13 17 22
13 17 23
13 17 23
13 17 23
13 17 23
14 18 24
13 17 23
14 18 24
14 18 24
13 16 22
13 17 22
13 17 22
12 16 22
12 16 22
13 17 22
14 18 24
13 17 23
13 17 23
13 17 22
13 17 23
13 17 23
13 17 23
13 17 23
12 16 21
13 18 24
13 17 23
13 16 22
13 16 22
13 17 23
13 17 22
13 17 23
13 17 23
14 18 24
12 16 21
13 17 23
13 17 23
12 16 21
12 16 22
13 17 22
13 17 22
13 16 22
13 17 22
13 17 23
12 16 22
12 16 21
13 17 22
13 17 23
13 17 22
13 16 22
13 17 22
11 14 19
12 16 22
13 17 23
13 17 23
13 17 22
13 16 22
13 16 22
13 16 22
13 17 23
12 16 21
13 17 23
13 16 22
13 16 22
13 17 23
13 17 22
11 15 20
12 16 22
13 17 22
13 16 22
13 16 22
13 16 22
12 15 20
12 16 21
12 15 21
12 16 21
12 16 21
12 16 21
12 15 21
12 16 21
11 15 19
12 16 21
12 15 20
12 16 21
12 16 21
12 15 21
12 15 20
12 15 21
12 15 21
12 15 20
12 16 21
12 16 21
12 15 21
11 14 19
11 15 20
11 15 20
11 14 19
12 16 22
12 16 21
12 15 21
12 16 22
12 15 20
12 15 20
11 15 20
12 15 20
12 16 21
12 16 21
11 14 19
11 14 19
12 15 21
11 14 19
11 15 20
10 13 18
11 14 19
12 15 20
12 15 20
11 14 19
11 14 19
12 16 21
12 15 20
11 15 20
10 14 18
11 15 20
11 14 19
9 12 17
11 14 19
11 14 19
12 15 20
11 14 18
11 15 20
11 15 20
10 13 18
10 13 18
11 15 20
10 13 17
11 14 19
11 14 19
11 14 19
11 14 19
11 14 18
10 13 18
10 12 17
9 12 16
11 14 18
10 13 18
9 12 16
10 13 18
9 12 16
11 14 18
9 12 16
11 14 19
10 13 17
10 14 18
11 14 19
10 13 18
11 15 20
11 14 18
11 14 19
10 14 18
10 13 18
10 14 18
10 13 17
9 11 15
9 12 17
9 11 15
10 12 16
9 12 16
10 12 17
9 12 16
10 12 17
9 12 16
10 13 18
10 13 18
10 13 17
10 13 17
10 13 17
10 13 17
8 11 15
11 14 19
10 13 17
9 11 15
8 11 15
10 13 18
9 12 16
9 12 16
10 13 18
10 13 17
10 12 16
9 12 16
9 11 15
10 13 17
8 11 14
9 12 16
10 13 17
9 12 16
10 13 17
9 11 15
9 12 16
9 12 16
10 13 17
8 11 15
9 12 16
9 12 16
9 11 15
10 12 16
10 13 18
10 12 16
9 12 16
8 11 15
10 13 18
10 13 17
10 13 17
10 13 17
10 13 18
9 12 16
9 11 15
9 12 16
9 11 15
9 12 16
9 12 16
9 11 15
8 11 15
11 14 19
9 12 16
10 13 17
9 12 17
9 11 15
9 11 15
10 13 18
10 13 18
8 11 15
11 15 20
11 14 19
10 13 17
9 11 15
10 13 17
10 13 18
9 11 15
10 13 18
9 12 16
11 14 18
9 12 16
10 14 18
9 12 17
9 12 16
10 13 17
10 12 16
11 14 19
9 12 16
12 15 20
9 12 16
12 15 20
10 13 18
10 13 17
10 12 17
10 13 17
10 13 18
10 13 18
10 13 17
9 12 16
9 11 15
10 13 18
10 13 18
9 12 16
10 13 18
10 13 17
11 14 19
11 14 18
11 14 19
10 13 17
10 13 18
11 14 18
11 14 18
11 14 19
10 13 18
12 15 20
10 13 18
11 15 20
10 13 17
9 12 16
12 15 20
11 14 19
12 15 20
11 15 20
12 15 20
11 15 19
11 15 20
12 15 20
10 13 17
11 14 19
10 12 17
11 14 19
12 15 21
11 14 18
10 14 18
11 14 19
11 14 19
12 16 21
9 12 16
11 15 20
11 15 19
11 15 19
11 15 20
11 14 19
12 15 20
12 15 21
11 14 19
12 16 21
12 15 21
11 14 19
12 16 21
12 16 21
11 15 20
11 15 20
11 15 20
11 14 19
12 16 21
11 14 19
12 16 21
11 15 20
12 15 20
12 16 21
11 14 19
12 15 21
11 14 19
11 14 19
11 15 20
12 15 21
12 15 21
11 14 19
12 15 20
12 16 21
11 15 20
12 16 21
12 16 21
12 15 21
12 15 20
13 17 23
13 16 22
12 15 20
13 17 23
13 16 22
12 16 21
12 16 22
13 17 23
13 16 22
12 15 21
12 15 21
13 17 22
12 15 21
13 17 23
12 16 21
13 17 23
13 17 22
13 17 22
12 16 21
12 16 21
12 15 21
13 16 22
12 16 22
12 16 22
13 16 22
13 17 23
13 17 23
12 16 21
13 17 23
13 17 23
13 16 22
13 17 23
13 17 23
13 17 22
12 16 22
12 16 22
13 16 22
12 16 21
13 17 23
13 17 23
13 16 22
12 16 22
14 18 24
13 17 23
13 17 23
13 17 22
14 17 23
13 17 23
13 17 23
13 16 22
13 17 23
13 17 23
13 17 23
12 16 22
13 16 22
13 18 24
13 16 22
14 18 24
12 16 22
13 17 22
13 17 23
14 17 23
13 18 24
12 16 22
13 17 23
13 17 23
14 18 24
13 17 23
13 17 22
13 17 22
